<?xml version="1.0" encoding="UTF-8"?>
<map version="1.10" tiledversion="1.11.2" orientation="orthogonal" renderorder="right-down" width="50" height="43" tilewidth="32" tileheight="32" infinite="0" nextlayerid="8" nextobjectid="48">
 <tileset firstgid="1" name="victorian-accessories" tilewidth="32" tileheight="32" tilecount="2560" columns="32">
  <image source="../Tilesets/victorian-accessories.png" width="1024" height="2560"/>
 </tileset>
 <tileset firstgid="2561" name="victorian-garden" tilewidth="32" tileheight="32" tilecount="1024" columns="16">
  <image source="../Tilesets/victorian-garden.png" width="512" height="2048"/>
 </tileset>
 <tileset firstgid="3585" name="victorian-mansion" tilewidth="32" tileheight="32" tilecount="2048" columns="32">
  <image source="../Tilesets/victorian-mansion.png" width="1024" height="2048"/>
 </tileset>
 <tileset firstgid="5633" name="victorian-market" tilewidth="32" tileheight="32" tilecount="1280" columns="16">
  <image source="../Tilesets/victorian-market.png" width="512" height="2560"/>
 </tileset>
 <tileset firstgid="6913" name="victorian-streets" tilewidth="32" tileheight="32" tilecount="1536" columns="16">
  <image source="../Tilesets/victorian-streets.png" width="512" height="3072"/>
 </tileset>
 <tileset firstgid="8449" name="victorian-tenement" tilewidth="32" tileheight="32" tilecount="3072" columns="32">
  <image source="../Tilesets/victorian-tenement.png" width="1024" height="3072"/>
 </tileset>
 <tileset firstgid="11521" name="victorian-tenement" tilewidth="32" tileheight="32" tilecount="3072" columns="32">
  <image source="../Tilesets/victorian-tenement.png" width="1024" height="3072"/>
 </tileset>
 <tileset firstgid="14593" name="victorian-windows-doors" tilewidth="32" tileheight="32" tilecount="5120" columns="32">
  <image source="../Tilesets/victorian-windows-doors.png" width="1024" height="5120"/>
 </tileset>
 <tileset firstgid="19713" name="TX Tileset Stone Ground" tilewidth="32" tileheight="32" tilecount="64" columns="8">
  <image source="../Tilesets/TX Tileset Stone Ground.png" width="256" height="256"/>
 </tileset>
 <layer id="1" name="Map" width="50" height="43">
  <properties>
   <property name="Draw" type="bool" value="true"/>
  </properties>
  <data>
   <tile gid="172"/>
   <tile gid="172"/>
   <tile gid="172"/>
   <tile gid="172"/>
   <tile gid="172"/>
   <tile gid="172"/>
   <tile gid="172"/>
   <tile gid="172"/>
   <tile gid="172"/>
   <tile gid="172"/>
   <tile gid="172"/>
   <tile gid="172"/>
   <tile gid="172"/>
   <tile gid="172"/>
   <tile gid="172"/>
   <tile gid="172"/>
   <tile gid="172"/>
   <tile gid="172"/>
   <tile gid="172"/>
   <tile gid="172"/>
   <tile gid="172"/>
   <tile gid="172"/>
   <tile gid="172"/>
   <tile gid="172"/>
   <tile gid="172"/>
   <tile/>
   <tile/>
   <tile/>
   <tile/>
   <tile/>
   <tile/>
   <tile/>
   <tile/>
   <tile/>
   <tile/>
   <tile/>
   <tile/>
   <tile/>
   <tile/>
   <tile/>
   <tile/>
   <tile/>
   <tile/>
   <tile/>
   <tile/>
   <tile/>
   <tile/>
   <tile/>
   <tile/>
   <tile/>
   <tile gid="172"/>
   <tile gid="172"/>
   <tile gid="172"/>
   <tile gid="172"/>
   <tile gid="172"/>
   <tile gid="172"/>
   <tile gid="172"/>
   <tile gid="172"/>
   <tile gid="172"/>
   <tile gid="172"/>
   <tile gid="172"/>
   <tile gid="172"/>
   <tile gid="172"/>
   <tile gid="172"/>
   <tile gid="172"/>
   <tile gid="172"/>
   <tile gid="172"/>
   <tile gid="172"/>
   <tile gid="172"/>
   <tile gid="172"/>
   <tile gid="172"/>
   <tile gid="172"/>
   <tile gid="172"/>
   <tile gid="172"/>
   <tile gid="172"/>
   <tile/>
   <tile/>
   <tile/>
   <tile/>
   <tile/>
   <tile/>
   <tile/>
   <tile/>
   <tile/>
   <tile/>
   <tile/>
   <tile/>
   <tile/>
   <tile/>
   <tile/>
   <tile/>
   <tile/>
   <tile/>
   <tile/>
   <tile/>
   <tile/>
   <tile/>
   <tile/>
   <tile/>
   <tile/>
   <tile gid="172"/>
   <tile gid="172"/>
   <tile gid="172"/>
   <tile gid="172"/>
   <tile gid="172"/>
   <tile gid="172"/>
   <tile gid="172"/>
   <tile gid="172"/>
   <tile gid="172"/>
   <tile gid="172"/>
   <tile gid="172"/>
   <tile gid="172"/>
   <tile gid="172"/>
   <tile gid="172"/>
   <tile gid="172"/>
   <tile gid="172"/>
   <tile gid="172"/>
   <tile gid="172"/>
   <tile gid="172"/>
   <tile gid="172"/>
   <tile gid="172"/>
   <tile gid="172"/>
   <tile gid="172"/>
   <tile gid="172"/>
   <tile gid="172"/>
   <tile/>
   <tile/>
   <tile/>
   <tile/>
   <tile/>
   <tile/>
   <tile/>
   <tile/>
   <tile/>
   <tile/>
   <tile/>
   <tile/>
   <tile/>
   <tile/>
   <tile/>
   <tile/>
   <tile/>
   <tile/>
   <tile/>
   <tile/>
   <tile/>
   <tile/>
   <tile/>
   <tile/>
   <tile/>
   <tile gid="172"/>
   <tile gid="172"/>
   <tile gid="172"/>
   <tile gid="172"/>
   <tile gid="172"/>
   <tile gid="172"/>
   <tile gid="172"/>
   <tile gid="172"/>
   <tile gid="172"/>
   <tile gid="172"/>
   <tile gid="172"/>
   <tile gid="172"/>
   <tile gid="172"/>
   <tile gid="172"/>
   <tile gid="172"/>
   <tile gid="172"/>
   <tile gid="172"/>
   <tile gid="172"/>
   <tile gid="172"/>
   <tile gid="172"/>
   <tile gid="172"/>
   <tile gid="172"/>
   <tile gid="172"/>
   <tile gid="172"/>
   <tile gid="172"/>
   <tile/>
   <tile/>
   <tile/>
   <tile/>
   <tile/>
   <tile/>
   <tile/>
   <tile/>
   <tile/>
   <tile/>
   <tile/>
   <tile/>
   <tile/>
   <tile/>
   <tile/>
   <tile/>
   <tile/>
   <tile/>
   <tile/>
   <tile/>
   <tile/>
   <tile/>
   <tile/>
   <tile/>
   <tile/>
   <tile gid="172"/>
   <tile gid="172"/>
   <tile gid="172"/>
   <tile gid="172"/>
   <tile gid="172"/>
   <tile gid="172"/>
   <tile gid="172"/>
   <tile gid="172"/>
   <tile gid="172"/>
   <tile gid="172"/>
   <tile gid="172"/>
   <tile gid="172"/>
   <tile gid="172"/>
   <tile gid="172"/>
   <tile gid="172"/>
   <tile gid="172"/>
   <tile gid="172"/>
   <tile gid="172"/>
   <tile gid="172"/>
   <tile gid="172"/>
   <tile gid="172"/>
   <tile gid="172"/>
   <tile gid="172"/>
   <tile gid="172"/>
   <tile gid="172"/>
   <tile/>
   <tile/>
   <tile/>
   <tile/>
   <tile/>
   <tile/>
   <tile/>
   <tile/>
   <tile/>
   <tile/>
   <tile/>
   <tile/>
   <tile/>
   <tile/>
   <tile/>
   <tile/>
   <tile/>
   <tile/>
   <tile/>
   <tile/>
   <tile/>
   <tile/>
   <tile/>
   <tile/>
   <tile/>
   <tile gid="8305"/>
   <tile gid="8306"/>
   <tile gid="8306"/>
   <tile gid="8306"/>
   <tile gid="8306"/>
   <tile gid="8306"/>
   <tile gid="8306"/>
   <tile gid="8306"/>
   <tile gid="8306"/>
   <tile gid="8306"/>
   <tile gid="8306"/>
   <tile gid="8306"/>
   <tile gid="8306"/>
   <tile gid="8306"/>
   <tile gid="8306"/>
   <tile gid="8306"/>
   <tile gid="8306"/>
   <tile gid="8306"/>
   <tile gid="8306"/>
   <tile gid="8306"/>
   <tile gid="8306"/>
   <tile gid="8306"/>
   <tile gid="8306"/>
   <tile gid="8306"/>
   <tile gid="8307"/>
   <tile/>
   <tile/>
   <tile/>
   <tile/>
   <tile/>
   <tile/>
   <tile/>
   <tile/>
   <tile/>
   <tile/>
   <tile/>
   <tile/>
   <tile/>
   <tile/>
   <tile/>
   <tile/>
   <tile/>
   <tile/>
   <tile/>
   <tile/>
   <tile/>
   <tile/>
   <tile/>
   <tile/>
   <tile/>
   <tile gid="8305"/>
   <tile gid="8306"/>
   <tile gid="8306"/>
   <tile gid="8306"/>
   <tile gid="8306"/>
   <tile gid="8306"/>
   <tile gid="8306"/>
   <tile gid="8306"/>
   <tile gid="8306"/>
   <tile gid="8306"/>
   <tile gid="8306"/>
   <tile gid="8306"/>
   <tile gid="8306"/>
   <tile gid="8306"/>
   <tile gid="8306"/>
   <tile gid="8306"/>
   <tile gid="8306"/>
   <tile gid="8306"/>
   <tile gid="8306"/>
   <tile gid="8306"/>
   <tile gid="8306"/>
   <tile gid="8306"/>
   <tile gid="8306"/>
   <tile gid="8306"/>
   <tile gid="8307"/>
   <tile/>
   <tile/>
   <tile/>
   <tile/>
   <tile/>
   <tile/>
   <tile/>
   <tile/>
   <tile/>
   <tile/>
   <tile/>
   <tile/>
   <tile/>
   <tile/>
   <tile/>
   <tile/>
   <tile/>
   <tile/>
   <tile/>
   <tile/>
   <tile/>
   <tile/>
   <tile/>
   <tile/>
   <tile/>
   <tile gid="8305"/>
   <tile gid="8306"/>
   <tile gid="8306"/>
   <tile gid="8306"/>
   <tile gid="8306"/>
   <tile gid="8306"/>
   <tile gid="8306"/>
   <tile gid="8482"/>
   <tile gid="8482"/>
   <tile gid="8482"/>
   <tile gid="8306"/>
   <tile gid="8306"/>
   <tile gid="8306"/>
   <tile gid="8306"/>
   <tile gid="8306"/>
   <tile gid="8306"/>
   <tile gid="8306"/>
   <tile gid="8306"/>
   <tile gid="8306"/>
   <tile gid="8306"/>
   <tile gid="8306"/>
   <tile gid="8306"/>
   <tile gid="8306"/>
   <tile gid="8306"/>
   <tile gid="8307"/>
   <tile/>
   <tile/>
   <tile/>
   <tile/>
   <tile/>
   <tile/>
   <tile/>
   <tile/>
   <tile/>
   <tile/>
   <tile/>
   <tile/>
   <tile/>
   <tile/>
   <tile/>
   <tile/>
   <tile/>
   <tile/>
   <tile/>
   <tile/>
   <tile/>
   <tile/>
   <tile/>
   <tile/>
   <tile/>
   <tile gid="8305"/>
   <tile gid="8306"/>
   <tile gid="8306"/>
   <tile gid="8306"/>
   <tile gid="8306"/>
   <tile gid="8306"/>
   <tile gid="8306"/>
   <tile gid="8482"/>
   <tile gid="8482"/>
   <tile gid="8482"/>
   <tile gid="8306"/>
   <tile gid="8306"/>
   <tile gid="8306"/>
   <tile gid="8306"/>
   <tile gid="8306"/>
   <tile gid="8306"/>
   <tile gid="8306"/>
   <tile gid="8306"/>
   <tile gid="8306"/>
   <tile gid="8306"/>
   <tile gid="8306"/>
   <tile gid="8306"/>
   <tile gid="8306"/>
   <tile gid="8306"/>
   <tile gid="8307"/>
   <tile/>
   <tile/>
   <tile/>
   <tile/>
   <tile/>
   <tile/>
   <tile/>
   <tile/>
   <tile/>
   <tile/>
   <tile/>
   <tile/>
   <tile/>
   <tile/>
   <tile/>
   <tile/>
   <tile/>
   <tile/>
   <tile/>
   <tile/>
   <tile/>
   <tile/>
   <tile/>
   <tile/>
   <tile/>
   <tile gid="8321"/>
   <tile gid="8322"/>
   <tile gid="8322"/>
   <tile gid="8322"/>
   <tile gid="8322"/>
   <tile gid="8322"/>
   <tile gid="8322"/>
   <tile gid="8482"/>
   <tile gid="8482"/>
   <tile gid="8482"/>
   <tile gid="8322"/>
   <tile gid="8322"/>
   <tile gid="8322"/>
   <tile gid="8322"/>
   <tile gid="8322"/>
   <tile gid="8322"/>
   <tile gid="8322"/>
   <tile gid="8322"/>
   <tile gid="8322"/>
   <tile gid="8322"/>
   <tile gid="8322"/>
   <tile gid="8322"/>
   <tile gid="8322"/>
   <tile gid="8322"/>
   <tile gid="8323"/>
   <tile/>
   <tile/>
   <tile/>
   <tile/>
   <tile/>
   <tile/>
   <tile/>
   <tile/>
   <tile/>
   <tile/>
   <tile/>
   <tile/>
   <tile/>
   <tile/>
   <tile/>
   <tile/>
   <tile/>
   <tile/>
   <tile/>
   <tile/>
   <tile/>
   <tile/>
   <tile/>
   <tile/>
   <tile/>
   <tile gid="171"/>
   <tile gid="172"/>
   <tile gid="173"/>
   <tile gid="8243"/>
   <tile gid="8243"/>
   <tile gid="8243"/>
   <tile gid="8243"/>
   <tile gid="8243"/>
   <tile gid="8243"/>
   <tile gid="8243"/>
   <tile gid="8243"/>
   <tile gid="8243"/>
   <tile gid="8243"/>
   <tile gid="8243"/>
   <tile gid="8243"/>
   <tile gid="8243"/>
   <tile gid="8243"/>
   <tile gid="8243"/>
   <tile gid="8243"/>
   <tile gid="8243"/>
   <tile gid="8243"/>
   <tile gid="8243"/>
   <tile gid="171"/>
   <tile gid="172"/>
   <tile gid="173"/>
   <tile/>
   <tile/>
   <tile/>
   <tile/>
   <tile/>
   <tile/>
   <tile/>
   <tile/>
   <tile/>
   <tile/>
   <tile/>
   <tile/>
   <tile/>
   <tile/>
   <tile/>
   <tile/>
   <tile/>
   <tile/>
   <tile/>
   <tile/>
   <tile/>
   <tile/>
   <tile/>
   <tile/>
   <tile/>
   <tile gid="171"/>
   <tile gid="172"/>
   <tile gid="173"/>
   <tile gid="8243"/>
   <tile gid="8243"/>
   <tile gid="8243"/>
   <tile gid="8243"/>
   <tile gid="8243"/>
   <tile gid="8243"/>
   <tile gid="8243"/>
   <tile gid="8243"/>
   <tile gid="8243"/>
   <tile gid="8243"/>
   <tile gid="8243"/>
   <tile gid="8243"/>
   <tile gid="8243"/>
   <tile gid="8243"/>
   <tile gid="8243"/>
   <tile gid="8243"/>
   <tile gid="8243"/>
   <tile gid="8243"/>
   <tile gid="8243"/>
   <tile gid="171"/>
   <tile gid="172"/>
   <tile gid="173"/>
   <tile/>
   <tile/>
   <tile/>
   <tile/>
   <tile/>
   <tile/>
   <tile/>
   <tile/>
   <tile/>
   <tile/>
   <tile/>
   <tile/>
   <tile/>
   <tile/>
   <tile/>
   <tile/>
   <tile/>
   <tile/>
   <tile/>
   <tile/>
   <tile/>
   <tile/>
   <tile/>
   <tile/>
   <tile/>
   <tile gid="171"/>
   <tile gid="172"/>
   <tile gid="173"/>
   <tile gid="8243"/>
   <tile gid="8243"/>
   <tile gid="8243"/>
   <tile gid="8243"/>
   <tile gid="8243"/>
   <tile gid="8243"/>
   <tile gid="8243"/>
   <tile gid="8243"/>
   <tile gid="8243"/>
   <tile gid="8243"/>
   <tile gid="8243"/>
   <tile gid="8243"/>
   <tile gid="8243"/>
   <tile gid="8243"/>
   <tile gid="8243"/>
   <tile gid="8243"/>
   <tile gid="8243"/>
   <tile gid="8243"/>
   <tile gid="8243"/>
   <tile gid="171"/>
   <tile gid="172"/>
   <tile gid="173"/>
   <tile/>
   <tile/>
   <tile/>
   <tile/>
   <tile/>
   <tile/>
   <tile/>
   <tile/>
   <tile/>
   <tile/>
   <tile/>
   <tile/>
   <tile/>
   <tile/>
   <tile/>
   <tile/>
   <tile/>
   <tile/>
   <tile/>
   <tile/>
   <tile/>
   <tile/>
   <tile/>
   <tile/>
   <tile/>
   <tile gid="171"/>
   <tile gid="172"/>
   <tile gid="173"/>
   <tile gid="8243"/>
   <tile gid="8243"/>
   <tile gid="8243"/>
   <tile gid="8243"/>
   <tile gid="8243"/>
   <tile gid="8243"/>
   <tile gid="8243"/>
   <tile gid="8243"/>
   <tile gid="8243"/>
   <tile gid="8243"/>
   <tile gid="8243"/>
   <tile gid="8243"/>
   <tile gid="8243"/>
   <tile gid="8243"/>
   <tile gid="8243"/>
   <tile gid="8243"/>
   <tile gid="8243"/>
   <tile gid="8243"/>
   <tile gid="8243"/>
   <tile gid="171"/>
   <tile gid="172"/>
   <tile gid="173"/>
   <tile/>
   <tile/>
   <tile/>
   <tile/>
   <tile/>
   <tile/>
   <tile/>
   <tile/>
   <tile/>
   <tile/>
   <tile/>
   <tile/>
   <tile/>
   <tile/>
   <tile/>
   <tile/>
   <tile/>
   <tile/>
   <tile/>
   <tile/>
   <tile/>
   <tile/>
   <tile/>
   <tile/>
   <tile/>
   <tile gid="171"/>
   <tile gid="172"/>
   <tile gid="173"/>
   <tile gid="8243"/>
   <tile gid="8243"/>
   <tile gid="8243"/>
   <tile gid="8243"/>
   <tile gid="8243"/>
   <tile gid="8243"/>
   <tile gid="8243"/>
   <tile gid="8243"/>
   <tile gid="8243"/>
   <tile gid="8243"/>
   <tile gid="8243"/>
   <tile gid="8243"/>
   <tile gid="8243"/>
   <tile gid="8243"/>
   <tile gid="8243"/>
   <tile gid="8243"/>
   <tile gid="8243"/>
   <tile gid="8243"/>
   <tile gid="8243"/>
   <tile gid="171"/>
   <tile gid="172"/>
   <tile gid="173"/>
   <tile gid="172"/>
   <tile gid="172"/>
   <tile gid="172"/>
   <tile gid="172"/>
   <tile gid="172"/>
   <tile gid="172"/>
   <tile gid="172"/>
   <tile gid="172"/>
   <tile gid="172"/>
   <tile gid="172"/>
   <tile gid="172"/>
   <tile gid="172"/>
   <tile gid="172"/>
   <tile gid="172"/>
   <tile gid="172"/>
   <tile gid="172"/>
   <tile gid="172"/>
   <tile gid="172"/>
   <tile gid="172"/>
   <tile gid="172"/>
   <tile gid="172"/>
   <tile gid="172"/>
   <tile gid="172"/>
   <tile gid="172"/>
   <tile gid="173"/>
   <tile gid="171"/>
   <tile gid="172"/>
   <tile gid="172"/>
   <tile gid="172"/>
   <tile gid="172"/>
   <tile gid="172"/>
   <tile gid="172"/>
   <tile gid="172"/>
   <tile gid="172"/>
   <tile gid="172"/>
   <tile gid="172"/>
   <tile gid="172"/>
   <tile gid="173"/>
   <tile/>
   <tile/>
   <tile/>
   <tile/>
   <tile/>
   <tile gid="171"/>
   <tile gid="172"/>
   <tile gid="172"/>
   <tile gid="172"/>
   <tile gid="172"/>
   <tile gid="172"/>
   <tile gid="172"/>
   <tile gid="172"/>
   <tile gid="172"/>
   <tile gid="172"/>
   <tile gid="172"/>
   <tile gid="172"/>
   <tile gid="172"/>
   <tile gid="172"/>
   <tile gid="172"/>
   <tile gid="172"/>
   <tile gid="172"/>
   <tile gid="172"/>
   <tile gid="172"/>
   <tile gid="172"/>
   <tile gid="172"/>
   <tile gid="172"/>
   <tile gid="172"/>
   <tile gid="172"/>
   <tile gid="172"/>
   <tile gid="172"/>
   <tile gid="172"/>
   <tile gid="172"/>
   <tile gid="172"/>
   <tile gid="172"/>
   <tile gid="172"/>
   <tile gid="173"/>
   <tile gid="8305"/>
   <tile gid="1666"/>
   <tile gid="1666"/>
   <tile gid="1666"/>
   <tile gid="1666"/>
   <tile gid="1666"/>
   <tile gid="1666"/>
   <tile gid="1666"/>
   <tile gid="1666"/>
   <tile gid="1666"/>
   <tile gid="1666"/>
   <tile gid="1666"/>
   <tile gid="8307"/>
   <tile/>
   <tile/>
   <tile/>
   <tile/>
   <tile/>
   <tile gid="8305"/>
   <tile gid="1666"/>
   <tile gid="1666"/>
   <tile gid="1666"/>
   <tile gid="1666"/>
   <tile gid="1666"/>
   <tile gid="1666"/>
   <tile gid="1666"/>
   <tile gid="1666"/>
   <tile gid="1666"/>
   <tile gid="1666"/>
   <tile gid="1666"/>
   <tile gid="1666"/>
   <tile gid="1666"/>
   <tile gid="1666"/>
   <tile gid="1666"/>
   <tile gid="1666"/>
   <tile gid="1666"/>
   <tile gid="1666"/>
   <tile gid="1666"/>
   <tile gid="1666"/>
   <tile gid="1666"/>
   <tile gid="1666"/>
   <tile gid="1666"/>
   <tile gid="1666"/>
   <tile gid="1666"/>
   <tile gid="1666"/>
   <tile gid="1666"/>
   <tile gid="1666"/>
   <tile gid="1666"/>
   <tile gid="1666"/>
   <tile gid="8307"/>
   <tile gid="8305"/>
   <tile gid="1666"/>
   <tile gid="1666"/>
   <tile gid="1666"/>
   <tile gid="1666"/>
   <tile gid="1666"/>
   <tile gid="1666"/>
   <tile gid="1666"/>
   <tile gid="1666"/>
   <tile gid="1666"/>
   <tile gid="1666"/>
   <tile gid="1666"/>
   <tile gid="8307"/>
   <tile/>
   <tile/>
   <tile/>
   <tile/>
   <tile/>
   <tile gid="8305"/>
   <tile gid="1666"/>
   <tile gid="1666"/>
   <tile gid="1666"/>
   <tile gid="1666"/>
   <tile gid="1666"/>
   <tile gid="1666"/>
   <tile gid="1666"/>
   <tile gid="1666"/>
   <tile gid="1666"/>
   <tile gid="1666"/>
   <tile gid="1666"/>
   <tile gid="1666"/>
   <tile gid="1666"/>
   <tile gid="1666"/>
   <tile gid="1666"/>
   <tile gid="1666"/>
   <tile gid="1666"/>
   <tile gid="1666"/>
   <tile gid="1666"/>
   <tile gid="1666"/>
   <tile gid="1666"/>
   <tile gid="1666"/>
   <tile gid="1666"/>
   <tile gid="1666"/>
   <tile gid="1666"/>
   <tile gid="1666"/>
   <tile gid="1666"/>
   <tile gid="1666"/>
   <tile gid="1666"/>
   <tile gid="1666"/>
   <tile gid="8307"/>
   <tile gid="8305"/>
   <tile gid="1666"/>
   <tile gid="1666"/>
   <tile gid="1666"/>
   <tile gid="1666"/>
   <tile gid="1666"/>
   <tile gid="1666"/>
   <tile gid="1666"/>
   <tile gid="1666"/>
   <tile gid="1666"/>
   <tile gid="1666"/>
   <tile gid="1666"/>
   <tile gid="8307"/>
   <tile/>
   <tile/>
   <tile/>
   <tile/>
   <tile/>
   <tile gid="8305"/>
   <tile gid="1666"/>
   <tile gid="1666"/>
   <tile gid="1666"/>
   <tile gid="1666"/>
   <tile gid="1666"/>
   <tile gid="1666"/>
   <tile gid="1666"/>
   <tile gid="1666"/>
   <tile gid="8482"/>
   <tile gid="8482"/>
   <tile gid="8482"/>
   <tile gid="8482"/>
   <tile gid="1666"/>
   <tile gid="1666"/>
   <tile gid="1666"/>
   <tile gid="1666"/>
   <tile gid="1666"/>
   <tile gid="1666"/>
   <tile gid="1666"/>
   <tile gid="1666"/>
   <tile gid="1666"/>
   <tile gid="1666"/>
   <tile gid="1666"/>
   <tile gid="8482"/>
   <tile gid="8482"/>
   <tile gid="1666"/>
   <tile gid="1666"/>
   <tile gid="1666"/>
   <tile gid="1666"/>
   <tile gid="1666"/>
   <tile gid="8307"/>
   <tile gid="8305"/>
   <tile gid="1666"/>
   <tile gid="1666"/>
   <tile gid="1666"/>
   <tile gid="1666"/>
   <tile gid="1666"/>
   <tile gid="1666"/>
   <tile gid="1666"/>
   <tile gid="1666"/>
   <tile gid="1666"/>
   <tile gid="1666"/>
   <tile gid="1666"/>
   <tile gid="8307"/>
   <tile/>
   <tile/>
   <tile/>
   <tile/>
   <tile/>
   <tile gid="8305"/>
   <tile gid="1666"/>
   <tile gid="1666"/>
   <tile gid="1666"/>
   <tile gid="1666"/>
   <tile gid="1666"/>
   <tile gid="1666"/>
   <tile gid="1666"/>
   <tile gid="1666"/>
   <tile gid="8482"/>
   <tile gid="8482"/>
   <tile gid="8482"/>
   <tile gid="8482"/>
   <tile gid="1666"/>
   <tile gid="1666"/>
   <tile gid="1666"/>
   <tile gid="1666"/>
   <tile gid="1666"/>
   <tile gid="1666"/>
   <tile gid="1666"/>
   <tile gid="1666"/>
   <tile gid="1666"/>
   <tile gid="1666"/>
   <tile gid="1666"/>
   <tile gid="8482"/>
   <tile gid="8482"/>
   <tile gid="1666"/>
   <tile gid="1666"/>
   <tile gid="1666"/>
   <tile gid="1666"/>
   <tile gid="1666"/>
   <tile gid="8307"/>
   <tile gid="8321"/>
   <tile gid="8322"/>
   <tile gid="8322"/>
   <tile gid="8322"/>
   <tile gid="8322"/>
   <tile gid="8322"/>
   <tile gid="8322"/>
   <tile gid="8322"/>
   <tile gid="8322"/>
   <tile gid="8322"/>
   <tile gid="8322"/>
   <tile gid="8322"/>
   <tile gid="8323"/>
   <tile/>
   <tile/>
   <tile/>
   <tile/>
   <tile/>
   <tile gid="8321"/>
   <tile gid="8322"/>
   <tile gid="8322"/>
   <tile gid="8322"/>
   <tile gid="8322"/>
   <tile gid="8322"/>
   <tile gid="8322"/>
   <tile gid="8322"/>
   <tile gid="8322"/>
   <tile gid="8482"/>
   <tile gid="8482"/>
   <tile gid="8482"/>
   <tile gid="8482"/>
   <tile gid="8322"/>
   <tile gid="8322"/>
   <tile gid="8322"/>
   <tile gid="8322"/>
   <tile gid="8322"/>
   <tile gid="8322"/>
   <tile gid="8322"/>
   <tile gid="8322"/>
   <tile gid="8322"/>
   <tile gid="8322"/>
   <tile gid="8322"/>
   <tile gid="8482"/>
   <tile gid="8482"/>
   <tile gid="8322"/>
   <tile gid="8322"/>
   <tile gid="8322"/>
   <tile gid="8322"/>
   <tile gid="8322"/>
   <tile gid="8323"/>
   <tile/>
   <tile/>
   <tile/>
   <tile/>
   <tile/>
   <tile/>
   <tile/>
   <tile/>
   <tile/>
   <tile gid="172"/>
   <tile gid="172"/>
   <tile gid="173"/>
   <tile gid="8243"/>
   <tile gid="8243"/>
   <tile gid="8243"/>
   <tile gid="8243"/>
   <tile gid="8243"/>
   <tile gid="8243"/>
   <tile gid="8243"/>
   <tile gid="8243"/>
   <tile gid="8243"/>
   <tile gid="8243"/>
   <tile gid="8243"/>
   <tile gid="8243"/>
   <tile gid="8243"/>
   <tile gid="8243"/>
   <tile gid="8243"/>
   <tile gid="8243"/>
   <tile gid="8243"/>
   <tile gid="8243"/>
   <tile gid="8243"/>
   <tile gid="8243"/>
   <tile gid="8243"/>
   <tile gid="8243"/>
   <tile gid="8243"/>
   <tile gid="8243"/>
   <tile gid="8243"/>
   <tile gid="8243"/>
   <tile gid="8243"/>
   <tile gid="8243"/>
   <tile gid="8243"/>
   <tile gid="8243"/>
   <tile gid="8243"/>
   <tile gid="8243"/>
   <tile gid="8243"/>
   <tile gid="8243"/>
   <tile gid="8243"/>
   <tile gid="171"/>
   <tile gid="172"/>
   <tile gid="173"/>
   <tile/>
   <tile/>
   <tile/>
   <tile/>
   <tile/>
   <tile/>
   <tile/>
   <tile/>
   <tile/>
   <tile gid="172"/>
   <tile gid="172"/>
   <tile gid="173"/>
   <tile gid="8243"/>
   <tile gid="8243"/>
   <tile gid="8243"/>
   <tile gid="8243"/>
   <tile gid="8243"/>
   <tile gid="8243"/>
   <tile gid="8243"/>
   <tile gid="8243"/>
   <tile gid="8243"/>
   <tile gid="8243"/>
   <tile gid="8243"/>
   <tile gid="8243"/>
   <tile gid="8243"/>
   <tile gid="8243"/>
   <tile gid="8243"/>
   <tile gid="8243"/>
   <tile gid="8243"/>
   <tile gid="8243"/>
   <tile gid="8243"/>
   <tile gid="8243"/>
   <tile gid="8243"/>
   <tile gid="8243"/>
   <tile gid="8243"/>
   <tile gid="8243"/>
   <tile gid="8243"/>
   <tile gid="8243"/>
   <tile gid="8243"/>
   <tile gid="8243"/>
   <tile gid="8243"/>
   <tile gid="8243"/>
   <tile gid="8243"/>
   <tile gid="8243"/>
   <tile gid="8243"/>
   <tile gid="8243"/>
   <tile gid="8243"/>
   <tile gid="171"/>
   <tile gid="172"/>
   <tile gid="173"/>
   <tile/>
   <tile/>
   <tile/>
   <tile/>
   <tile/>
   <tile/>
   <tile/>
   <tile/>
   <tile/>
   <tile gid="172"/>
   <tile gid="172"/>
   <tile gid="173"/>
   <tile gid="8243"/>
   <tile gid="8243"/>
   <tile gid="8243"/>
   <tile gid="8243"/>
   <tile gid="8243"/>
   <tile gid="8243"/>
   <tile gid="8243"/>
   <tile gid="8243"/>
   <tile gid="8243"/>
   <tile gid="8243"/>
   <tile gid="8243"/>
   <tile gid="8243"/>
   <tile gid="8243"/>
   <tile gid="8243"/>
   <tile gid="8243"/>
   <tile gid="8243"/>
   <tile gid="8243"/>
   <tile gid="8243"/>
   <tile gid="8243"/>
   <tile gid="8243"/>
   <tile gid="8243"/>
   <tile gid="8243"/>
   <tile gid="8243"/>
   <tile gid="8243"/>
   <tile gid="8243"/>
   <tile gid="8243"/>
   <tile gid="8243"/>
   <tile gid="8243"/>
   <tile gid="8243"/>
   <tile gid="8243"/>
   <tile gid="8243"/>
   <tile gid="8243"/>
   <tile gid="8243"/>
   <tile gid="8243"/>
   <tile gid="8243"/>
   <tile gid="171"/>
   <tile gid="172"/>
   <tile gid="173"/>
   <tile/>
   <tile/>
   <tile/>
   <tile/>
   <tile/>
   <tile/>
   <tile/>
   <tile/>
   <tile/>
   <tile gid="172"/>
   <tile gid="172"/>
   <tile gid="173"/>
   <tile gid="8243"/>
   <tile gid="8243"/>
   <tile gid="8243"/>
   <tile gid="8243"/>
   <tile gid="8243"/>
   <tile gid="8243"/>
   <tile gid="8243"/>
   <tile gid="8243"/>
   <tile gid="8243"/>
   <tile gid="8243"/>
   <tile gid="8243"/>
   <tile gid="8243"/>
   <tile gid="8243"/>
   <tile gid="8243"/>
   <tile gid="8243"/>
   <tile gid="8243"/>
   <tile gid="8243"/>
   <tile gid="8243"/>
   <tile gid="8243"/>
   <tile gid="8243"/>
   <tile gid="8243"/>
   <tile gid="8243"/>
   <tile gid="8243"/>
   <tile gid="8243"/>
   <tile gid="8243"/>
   <tile gid="8243"/>
   <tile gid="8243"/>
   <tile gid="8243"/>
   <tile gid="8243"/>
   <tile gid="8243"/>
   <tile gid="8243"/>
   <tile gid="8243"/>
   <tile gid="8243"/>
   <tile gid="8243"/>
   <tile gid="8243"/>
   <tile gid="171"/>
   <tile gid="172"/>
   <tile gid="173"/>
   <tile/>
   <tile/>
   <tile/>
   <tile/>
   <tile/>
   <tile/>
   <tile/>
   <tile/>
   <tile/>
   <tile gid="172"/>
   <tile gid="172"/>
   <tile gid="173"/>
   <tile gid="8243"/>
   <tile gid="8243"/>
   <tile gid="8243"/>
   <tile gid="8243"/>
   <tile gid="8243"/>
   <tile gid="8243"/>
   <tile gid="8243"/>
   <tile gid="8243"/>
   <tile gid="8243"/>
   <tile gid="8243"/>
   <tile gid="8243"/>
   <tile gid="8243"/>
   <tile gid="8243"/>
   <tile gid="8243"/>
   <tile gid="8243"/>
   <tile gid="8243"/>
   <tile gid="8243"/>
   <tile gid="8243"/>
   <tile gid="8243"/>
   <tile gid="8243"/>
   <tile gid="8243"/>
   <tile gid="8243"/>
   <tile gid="8243"/>
   <tile gid="8243"/>
   <tile gid="8243"/>
   <tile gid="8243"/>
   <tile gid="8243"/>
   <tile gid="8243"/>
   <tile gid="8243"/>
   <tile gid="8243"/>
   <tile gid="8243"/>
   <tile gid="8243"/>
   <tile gid="8243"/>
   <tile gid="8243"/>
   <tile gid="8243"/>
   <tile gid="171"/>
   <tile gid="172"/>
   <tile gid="173"/>
   <tile/>
   <tile/>
   <tile/>
   <tile/>
   <tile/>
   <tile/>
   <tile/>
   <tile/>
   <tile/>
   <tile gid="172"/>
   <tile gid="172"/>
   <tile gid="172"/>
   <tile gid="172"/>
   <tile gid="172"/>
   <tile gid="172"/>
   <tile gid="172"/>
   <tile gid="172"/>
   <tile gid="172"/>
   <tile gid="172"/>
   <tile gid="172"/>
   <tile gid="172"/>
   <tile gid="172"/>
   <tile gid="172"/>
   <tile gid="172"/>
   <tile gid="172"/>
   <tile gid="172"/>
   <tile gid="172"/>
   <tile gid="172"/>
   <tile gid="172"/>
   <tile gid="172"/>
   <tile gid="172"/>
   <tile gid="172"/>
   <tile gid="172"/>
   <tile gid="172"/>
   <tile gid="172"/>
   <tile gid="172"/>
   <tile gid="172"/>
   <tile gid="172"/>
   <tile gid="173"/>
   <tile/>
   <tile/>
   <tile/>
   <tile/>
   <tile/>
   <tile gid="171"/>
   <tile gid="172"/>
   <tile gid="172"/>
   <tile gid="172"/>
   <tile gid="172"/>
   <tile gid="173"/>
   <tile/>
   <tile/>
   <tile/>
   <tile/>
   <tile/>
   <tile/>
   <tile/>
   <tile/>
   <tile/>
   <tile gid="8305"/>
   <tile gid="1675"/>
   <tile gid="1675"/>
   <tile gid="1675"/>
   <tile gid="1675"/>
   <tile gid="1675"/>
   <tile gid="1675"/>
   <tile gid="1675"/>
   <tile gid="1675"/>
   <tile gid="1675"/>
   <tile gid="1675"/>
   <tile gid="1675"/>
   <tile gid="1675"/>
   <tile gid="1675"/>
   <tile gid="1675"/>
   <tile gid="1675"/>
   <tile gid="1675"/>
   <tile gid="1675"/>
   <tile gid="1675"/>
   <tile gid="1675"/>
   <tile gid="1675"/>
   <tile gid="1675"/>
   <tile gid="1675"/>
   <tile gid="1675"/>
   <tile gid="1675"/>
   <tile gid="1675"/>
   <tile gid="1675"/>
   <tile gid="1675"/>
   <tile gid="1675"/>
   <tile gid="8307"/>
   <tile/>
   <tile/>
   <tile/>
   <tile/>
   <tile/>
   <tile gid="8305"/>
   <tile gid="1675"/>
   <tile gid="1675"/>
   <tile gid="1675"/>
   <tile gid="1675"/>
   <tile gid="8307"/>
   <tile/>
   <tile/>
   <tile/>
   <tile/>
   <tile/>
   <tile/>
   <tile/>
   <tile/>
   <tile/>
   <tile gid="8305"/>
   <tile gid="1675"/>
   <tile gid="1675"/>
   <tile gid="1675"/>
   <tile gid="1675"/>
   <tile gid="1675"/>
   <tile gid="1675"/>
   <tile gid="1675"/>
   <tile gid="1675"/>
   <tile gid="1675"/>
   <tile gid="1675"/>
   <tile gid="1675"/>
   <tile gid="1675"/>
   <tile gid="1675"/>
   <tile gid="1675"/>
   <tile gid="1675"/>
   <tile gid="1675"/>
   <tile gid="1675"/>
   <tile gid="1675"/>
   <tile gid="1675"/>
   <tile gid="1675"/>
   <tile gid="1675"/>
   <tile gid="1675"/>
   <tile gid="1675"/>
   <tile gid="1675"/>
   <tile gid="1675"/>
   <tile gid="1675"/>
   <tile gid="1675"/>
   <tile gid="1675"/>
   <tile gid="8307"/>
   <tile/>
   <tile/>
   <tile/>
   <tile/>
   <tile/>
   <tile gid="8305"/>
   <tile gid="1675"/>
   <tile gid="1675"/>
   <tile gid="1675"/>
   <tile gid="1675"/>
   <tile gid="8307"/>
   <tile/>
   <tile/>
   <tile/>
   <tile/>
   <tile/>
   <tile/>
   <tile/>
   <tile/>
   <tile/>
   <tile gid="8305"/>
   <tile gid="1675"/>
   <tile gid="1675"/>
   <tile gid="1675"/>
   <tile gid="1675"/>
   <tile gid="1675"/>
   <tile gid="1675"/>
   <tile gid="1675"/>
   <tile gid="1675"/>
   <tile gid="1675"/>
   <tile gid="1675"/>
   <tile gid="1675"/>
   <tile gid="1675"/>
   <tile gid="1675"/>
   <tile gid="8482"/>
   <tile gid="8482"/>
   <tile gid="8482"/>
   <tile gid="8482"/>
   <tile gid="1675"/>
   <tile gid="1675"/>
   <tile gid="1675"/>
   <tile gid="1675"/>
   <tile gid="1675"/>
   <tile gid="1675"/>
   <tile gid="1675"/>
   <tile gid="1675"/>
   <tile gid="1675"/>
   <tile gid="1675"/>
   <tile gid="1675"/>
   <tile gid="8307"/>
   <tile/>
   <tile/>
   <tile/>
   <tile/>
   <tile/>
   <tile gid="8305"/>
   <tile gid="1675"/>
   <tile gid="1675"/>
   <tile gid="1675"/>
   <tile gid="1675"/>
   <tile gid="8307"/>
   <tile/>
   <tile/>
   <tile/>
   <tile/>
   <tile/>
   <tile/>
   <tile/>
   <tile/>
   <tile/>
   <tile gid="8305"/>
   <tile gid="1675"/>
   <tile gid="1675"/>
   <tile gid="1675"/>
   <tile gid="1675"/>
   <tile gid="1675"/>
   <tile gid="1675"/>
   <tile gid="1675"/>
   <tile gid="1675"/>
   <tile gid="1675"/>
   <tile gid="1675"/>
   <tile gid="1675"/>
   <tile gid="1675"/>
   <tile gid="1675"/>
   <tile gid="8482"/>
   <tile gid="8482"/>
   <tile gid="8482"/>
   <tile gid="8482"/>
   <tile gid="1675"/>
   <tile gid="1675"/>
   <tile gid="1675"/>
   <tile gid="1675"/>
   <tile gid="1675"/>
   <tile gid="1675"/>
   <tile gid="1675"/>
   <tile gid="1675"/>
   <tile gid="1675"/>
   <tile gid="1675"/>
   <tile gid="1675"/>
   <tile gid="8307"/>
   <tile/>
   <tile/>
   <tile/>
   <tile/>
   <tile/>
   <tile gid="8305"/>
   <tile gid="1675"/>
   <tile gid="1675"/>
   <tile gid="1675"/>
   <tile gid="1675"/>
   <tile gid="8307"/>
   <tile/>
   <tile/>
   <tile/>
   <tile/>
   <tile/>
   <tile/>
   <tile/>
   <tile/>
   <tile/>
   <tile gid="8321"/>
   <tile gid="8322"/>
   <tile gid="8322"/>
   <tile gid="8322"/>
   <tile gid="8322"/>
   <tile gid="8322"/>
   <tile gid="8322"/>
   <tile gid="8322"/>
   <tile gid="8322"/>
   <tile gid="8322"/>
   <tile gid="8322"/>
   <tile gid="8322"/>
   <tile gid="8322"/>
   <tile gid="8322"/>
   <tile gid="8482"/>
   <tile gid="8482"/>
   <tile gid="8482"/>
   <tile gid="8482"/>
   <tile gid="8322"/>
   <tile gid="8322"/>
   <tile gid="8322"/>
   <tile gid="8322"/>
   <tile gid="8322"/>
   <tile gid="8322"/>
   <tile gid="8322"/>
   <tile gid="8322"/>
   <tile gid="8322"/>
   <tile gid="8322"/>
   <tile gid="8322"/>
   <tile gid="8323"/>
   <tile/>
   <tile/>
   <tile/>
   <tile/>
   <tile/>
   <tile gid="8321"/>
   <tile gid="8322"/>
   <tile gid="8322"/>
   <tile gid="8322"/>
   <tile gid="8322"/>
   <tile gid="8323"/>
   <tile/>
   <tile/>
   <tile/>
   <tile/>
   <tile/>
   <tile/>
   <tile/>
   <tile/>
   <tile/>
   <tile/>
   <tile/>
   <tile/>
   <tile/>
   <tile/>
   <tile/>
   <tile/>
   <tile/>
   <tile gid="171"/>
   <tile gid="172"/>
   <tile gid="173"/>
   <tile gid="8243"/>
   <tile gid="8243"/>
   <tile gid="8243"/>
   <tile gid="8243"/>
   <tile gid="8243"/>
   <tile gid="8243"/>
   <tile gid="8243"/>
   <tile gid="8243"/>
   <tile gid="8243"/>
   <tile gid="8243"/>
   <tile gid="8243"/>
   <tile gid="8243"/>
   <tile gid="8243"/>
   <tile gid="8243"/>
   <tile gid="8243"/>
   <tile gid="8243"/>
   <tile gid="8243"/>
   <tile gid="8243"/>
   <tile gid="8243"/>
   <tile gid="8243"/>
   <tile gid="8243"/>
   <tile gid="8243"/>
   <tile gid="8243"/>
   <tile gid="8243"/>
   <tile gid="8243"/>
   <tile gid="8243"/>
   <tile gid="8243"/>
   <tile gid="171"/>
   <tile gid="172"/>
   <tile gid="173"/>
   <tile/>
   <tile/>
   <tile/>
   <tile/>
   <tile/>
   <tile/>
   <tile/>
   <tile/>
   <tile/>
   <tile/>
   <tile/>
   <tile/>
   <tile/>
   <tile/>
   <tile/>
   <tile/>
   <tile/>
   <tile gid="171"/>
   <tile gid="172"/>
   <tile gid="173"/>
   <tile gid="8243"/>
   <tile gid="8243"/>
   <tile gid="8243"/>
   <tile gid="8243"/>
   <tile gid="8243"/>
   <tile gid="8243"/>
   <tile gid="8243"/>
   <tile gid="8243"/>
   <tile gid="8243"/>
   <tile gid="8243"/>
   <tile gid="8243"/>
   <tile gid="8243"/>
   <tile gid="8243"/>
   <tile gid="8243"/>
   <tile gid="8243"/>
   <tile gid="8243"/>
   <tile gid="8243"/>
   <tile gid="8243"/>
   <tile gid="8243"/>
   <tile gid="8243"/>
   <tile gid="8243"/>
   <tile gid="8243"/>
   <tile gid="8243"/>
   <tile gid="8243"/>
   <tile gid="8243"/>
   <tile gid="8243"/>
   <tile gid="8243"/>
   <tile gid="171"/>
   <tile gid="172"/>
   <tile gid="173"/>
   <tile/>
   <tile/>
   <tile/>
   <tile/>
   <tile/>
   <tile/>
   <tile/>
   <tile/>
   <tile/>
   <tile/>
   <tile/>
   <tile/>
   <tile/>
   <tile/>
   <tile/>
   <tile/>
   <tile/>
   <tile gid="171"/>
   <tile gid="172"/>
   <tile gid="173"/>
   <tile gid="8243"/>
   <tile gid="8243"/>
   <tile gid="8243"/>
   <tile gid="8243"/>
   <tile gid="8243"/>
   <tile gid="8243"/>
   <tile gid="8243"/>
   <tile gid="8243"/>
   <tile gid="8243"/>
   <tile gid="8243"/>
   <tile gid="8243"/>
   <tile gid="8243"/>
   <tile gid="8243"/>
   <tile gid="8243"/>
   <tile gid="8243"/>
   <tile gid="8243"/>
   <tile gid="8243"/>
   <tile gid="8243"/>
   <tile gid="8243"/>
   <tile gid="8243"/>
   <tile gid="8243"/>
   <tile gid="8243"/>
   <tile gid="8243"/>
   <tile gid="8243"/>
   <tile gid="8243"/>
   <tile gid="8243"/>
   <tile gid="8243"/>
   <tile gid="171"/>
   <tile gid="172"/>
   <tile gid="173"/>
   <tile/>
   <tile/>
   <tile/>
   <tile/>
   <tile/>
   <tile/>
   <tile/>
   <tile/>
   <tile/>
   <tile/>
   <tile/>
   <tile/>
   <tile/>
   <tile/>
   <tile/>
   <tile/>
   <tile/>
   <tile gid="171"/>
   <tile gid="172"/>
   <tile gid="173"/>
   <tile gid="8243"/>
   <tile gid="8243"/>
   <tile gid="8243"/>
   <tile gid="8243"/>
   <tile gid="8243"/>
   <tile gid="8243"/>
   <tile gid="8243"/>
   <tile gid="8243"/>
   <tile gid="8243"/>
   <tile gid="8243"/>
   <tile gid="8243"/>
   <tile gid="8243"/>
   <tile gid="8243"/>
   <tile gid="8243"/>
   <tile gid="8243"/>
   <tile gid="8243"/>
   <tile gid="8243"/>
   <tile gid="8243"/>
   <tile gid="8243"/>
   <tile gid="8243"/>
   <tile gid="8243"/>
   <tile gid="8243"/>
   <tile gid="8243"/>
   <tile gid="8243"/>
   <tile gid="8243"/>
   <tile gid="8243"/>
   <tile gid="8243"/>
   <tile gid="171"/>
   <tile gid="172"/>
   <tile gid="173"/>
   <tile/>
   <tile/>
   <tile/>
   <tile/>
   <tile/>
   <tile/>
   <tile/>
   <tile/>
   <tile/>
   <tile/>
   <tile/>
   <tile/>
   <tile/>
   <tile/>
   <tile/>
   <tile/>
   <tile/>
   <tile gid="171"/>
   <tile gid="172"/>
   <tile gid="173"/>
   <tile gid="8243"/>
   <tile gid="8243"/>
   <tile gid="8243"/>
   <tile gid="8243"/>
   <tile gid="8243"/>
   <tile gid="8243"/>
   <tile gid="8243"/>
   <tile gid="8243"/>
   <tile gid="8243"/>
   <tile gid="8243"/>
   <tile gid="8243"/>
   <tile gid="8243"/>
   <tile gid="8243"/>
   <tile gid="8243"/>
   <tile gid="8243"/>
   <tile gid="8243"/>
   <tile gid="8243"/>
   <tile gid="8243"/>
   <tile gid="8243"/>
   <tile gid="8243"/>
   <tile gid="8243"/>
   <tile gid="8243"/>
   <tile gid="8243"/>
   <tile gid="8243"/>
   <tile gid="8243"/>
   <tile gid="8243"/>
   <tile gid="8243"/>
   <tile gid="171"/>
   <tile gid="172"/>
   <tile gid="173"/>
   <tile/>
   <tile/>
   <tile/>
   <tile/>
   <tile/>
   <tile/>
   <tile/>
   <tile/>
   <tile/>
   <tile/>
   <tile/>
   <tile/>
   <tile/>
   <tile/>
   <tile/>
   <tile/>
   <tile/>
   <tile gid="171"/>
   <tile gid="172"/>
   <tile gid="172"/>
   <tile gid="172"/>
   <tile gid="172"/>
   <tile gid="172"/>
   <tile gid="172"/>
   <tile gid="172"/>
   <tile gid="172"/>
   <tile gid="172"/>
   <tile gid="172"/>
   <tile gid="172"/>
   <tile gid="172"/>
   <tile gid="172"/>
   <tile gid="172"/>
   <tile gid="172"/>
   <tile gid="172"/>
   <tile gid="172"/>
   <tile gid="172"/>
   <tile gid="172"/>
   <tile gid="172"/>
   <tile gid="172"/>
   <tile gid="172"/>
   <tile gid="172"/>
   <tile gid="172"/>
   <tile gid="172"/>
   <tile gid="172"/>
   <tile gid="172"/>
   <tile gid="172"/>
   <tile gid="172"/>
   <tile gid="172"/>
   <tile gid="172"/>
   <tile gid="173"/>
   <tile/>
   <tile/>
   <tile/>
   <tile/>
   <tile/>
   <tile/>
   <tile/>
   <tile/>
   <tile/>
   <tile/>
   <tile/>
   <tile/>
   <tile/>
   <tile/>
   <tile/>
   <tile/>
   <tile/>
   <tile gid="8305"/>
   <tile gid="1669"/>
   <tile gid="1669"/>
   <tile gid="1669"/>
   <tile gid="1669"/>
   <tile gid="1669"/>
   <tile gid="1669"/>
   <tile gid="1669"/>
   <tile gid="1669"/>
   <tile gid="1669"/>
   <tile gid="1669"/>
   <tile gid="1669"/>
   <tile gid="1669"/>
   <tile gid="1669"/>
   <tile gid="1669"/>
   <tile gid="1669"/>
   <tile gid="1669"/>
   <tile gid="1669"/>
   <tile gid="1669"/>
   <tile gid="1669"/>
   <tile gid="1669"/>
   <tile gid="1669"/>
   <tile gid="1669"/>
   <tile gid="1669"/>
   <tile gid="1669"/>
   <tile gid="1669"/>
   <tile gid="1669"/>
   <tile gid="1669"/>
   <tile gid="1669"/>
   <tile gid="1669"/>
   <tile gid="1669"/>
   <tile gid="1669"/>
   <tile gid="8307"/>
   <tile/>
   <tile/>
   <tile/>
   <tile/>
   <tile/>
   <tile/>
   <tile/>
   <tile/>
   <tile/>
   <tile/>
   <tile/>
   <tile/>
   <tile/>
   <tile/>
   <tile/>
   <tile/>
   <tile/>
   <tile gid="8305"/>
   <tile gid="1669"/>
   <tile gid="1669"/>
   <tile gid="1669"/>
   <tile gid="1669"/>
   <tile gid="1669"/>
   <tile gid="1669"/>
   <tile gid="1669"/>
   <tile gid="1669"/>
   <tile gid="1669"/>
   <tile gid="1669"/>
   <tile gid="1669"/>
   <tile gid="1669"/>
   <tile gid="1669"/>
   <tile gid="1669"/>
   <tile gid="1669"/>
   <tile gid="1669"/>
   <tile gid="1669"/>
   <tile gid="1669"/>
   <tile gid="1669"/>
   <tile gid="1669"/>
   <tile gid="1669"/>
   <tile gid="1669"/>
   <tile gid="1669"/>
   <tile gid="1669"/>
   <tile gid="1669"/>
   <tile gid="1669"/>
   <tile gid="1669"/>
   <tile gid="1669"/>
   <tile gid="1669"/>
   <tile gid="1669"/>
   <tile gid="1669"/>
   <tile gid="8307"/>
   <tile/>
   <tile/>
   <tile/>
   <tile/>
   <tile/>
   <tile/>
   <tile/>
   <tile/>
   <tile/>
   <tile/>
   <tile/>
   <tile/>
   <tile/>
   <tile/>
   <tile/>
   <tile/>
   <tile/>
   <tile gid="8305"/>
   <tile gid="1669"/>
   <tile gid="1669"/>
   <tile gid="1669"/>
   <tile gid="1669"/>
   <tile gid="1669"/>
   <tile gid="1669"/>
   <tile gid="1669"/>
   <tile gid="1669"/>
   <tile gid="1669"/>
   <tile gid="1669"/>
   <tile gid="1669"/>
   <tile gid="1669"/>
   <tile gid="1669"/>
   <tile gid="1669"/>
   <tile gid="1669"/>
   <tile gid="1669"/>
   <tile gid="1669"/>
   <tile gid="1669"/>
   <tile gid="1669"/>
   <tile gid="1669"/>
   <tile gid="1669"/>
   <tile gid="1669"/>
   <tile gid="1669"/>
   <tile gid="1669"/>
   <tile gid="1669"/>
   <tile gid="1669"/>
   <tile gid="1669"/>
   <tile gid="1669"/>
   <tile gid="1669"/>
   <tile gid="1669"/>
   <tile gid="1669"/>
   <tile gid="8307"/>
   <tile/>
   <tile/>
   <tile/>
   <tile/>
   <tile/>
   <tile/>
   <tile/>
   <tile/>
   <tile/>
   <tile/>
   <tile/>
   <tile/>
   <tile/>
   <tile/>
   <tile/>
   <tile/>
   <tile/>
   <tile gid="8305"/>
   <tile gid="1669"/>
   <tile gid="1669"/>
   <tile gid="1669"/>
   <tile gid="1669"/>
   <tile gid="1669"/>
   <tile gid="1669"/>
   <tile gid="1669"/>
   <tile gid="1669"/>
   <tile gid="1669"/>
   <tile gid="1669"/>
   <tile gid="1669"/>
   <tile gid="1669"/>
   <tile gid="1669"/>
   <tile gid="1669"/>
   <tile gid="1669"/>
   <tile gid="1669"/>
   <tile gid="1669"/>
   <tile gid="1669"/>
   <tile gid="1669"/>
   <tile gid="1669"/>
   <tile gid="1669"/>
   <tile gid="1669"/>
   <tile gid="1669"/>
   <tile gid="1669"/>
   <tile gid="1669"/>
   <tile gid="1669"/>
   <tile gid="1669"/>
   <tile gid="1669"/>
   <tile gid="1669"/>
   <tile gid="1669"/>
   <tile gid="1669"/>
   <tile gid="8307"/>
   <tile/>
   <tile/>
   <tile/>
   <tile/>
   <tile/>
   <tile/>
   <tile/>
   <tile/>
   <tile/>
   <tile/>
   <tile/>
   <tile/>
   <tile/>
   <tile/>
   <tile/>
   <tile/>
   <tile/>
   <tile gid="8321"/>
   <tile gid="8322"/>
   <tile gid="8322"/>
   <tile gid="8322"/>
   <tile gid="8322"/>
   <tile gid="8322"/>
   <tile gid="8322"/>
   <tile gid="8322"/>
   <tile gid="8322"/>
   <tile gid="8322"/>
   <tile gid="8322"/>
   <tile gid="8322"/>
   <tile gid="8322"/>
   <tile gid="8322"/>
   <tile gid="8322"/>
   <tile gid="8322"/>
   <tile gid="8322"/>
   <tile gid="8322"/>
   <tile gid="8322"/>
   <tile gid="8322"/>
   <tile gid="8322"/>
   <tile gid="8322"/>
   <tile gid="8322"/>
   <tile gid="8322"/>
   <tile gid="8322"/>
   <tile gid="8322"/>
   <tile gid="8322"/>
   <tile gid="8322"/>
   <tile gid="8322"/>
   <tile gid="8322"/>
   <tile gid="8322"/>
   <tile gid="8322"/>
   <tile gid="8323"/>
  </data>
 </layer>
 <layer id="2" name="Map2" width="50" height="43">
  <properties>
   <property name="Draw" type="bool" value="true"/>
  </properties>
  <data>
   <tile/>
   <tile/>
   <tile/>
   <tile/>
   <tile/>
   <tile/>
   <tile/>
   <tile/>
   <tile/>
   <tile/>
   <tile/>
   <tile/>
   <tile/>
   <tile/>
   <tile/>
   <tile/>
   <tile/>
   <tile/>
   <tile/>
   <tile/>
   <tile/>
   <tile/>
   <tile/>
   <tile/>
   <tile/>
   <tile/>
   <tile/>
   <tile/>
   <tile/>
   <tile/>
   <tile/>
   <tile/>
   <tile/>
   <tile/>
   <tile/>
   <tile/>
   <tile/>
   <tile/>
   <tile/>
   <tile/>
   <tile/>
   <tile/>
   <tile/>
   <tile/>
   <tile/>
   <tile/>
   <tile/>
   <tile/>
   <tile/>
   <tile/>
   <tile/>
   <tile/>
   <tile/>
   <tile/>
   <tile/>
   <tile/>
   <tile/>
   <tile/>
   <tile/>
   <tile/>
   <tile/>
   <tile/>
   <tile/>
   <tile/>
   <tile/>
   <tile/>
   <tile/>
   <tile/>
   <tile/>
   <tile/>
   <tile/>
   <tile/>
   <tile/>
   <tile/>
   <tile/>
   <tile/>
   <tile/>
   <tile/>
   <tile/>
   <tile/>
   <tile/>
   <tile/>
   <tile/>
   <tile/>
   <tile/>
   <tile/>
   <tile/>
   <tile/>
   <tile/>
   <tile/>
   <tile/>
   <tile/>
   <tile/>
   <tile/>
   <tile/>
   <tile/>
   <tile/>
   <tile/>
   <tile/>
   <tile/>
   <tile/>
   <tile/>
   <tile/>
   <tile/>
   <tile/>
   <tile/>
   <tile/>
   <tile/>
   <tile/>
   <tile/>
   <tile/>
   <tile/>
   <tile/>
   <tile/>
   <tile/>
   <tile/>
   <tile/>
   <tile/>
   <tile/>
   <tile/>
   <tile/>
   <tile/>
   <tile/>
   <tile/>
   <tile/>
   <tile/>
   <tile/>
   <tile/>
   <tile/>
   <tile/>
   <tile/>
   <tile/>
   <tile/>
   <tile/>
   <tile/>
   <tile/>
   <tile/>
   <tile/>
   <tile/>
   <tile/>
   <tile/>
   <tile/>
   <tile/>
   <tile/>
   <tile/>
   <tile/>
   <tile/>
   <tile/>
   <tile/>
   <tile/>
   <tile/>
   <tile/>
   <tile/>
   <tile/>
   <tile/>
   <tile/>
   <tile/>
   <tile/>
   <tile/>
   <tile/>
   <tile/>
   <tile/>
   <tile/>
   <tile/>
   <tile/>
   <tile/>
   <tile/>
   <tile/>
   <tile/>
   <tile/>
   <tile/>
   <tile/>
   <tile/>
   <tile/>
   <tile/>
   <tile/>
   <tile/>
   <tile/>
   <tile/>
   <tile/>
   <tile/>
   <tile/>
   <tile/>
   <tile/>
   <tile/>
   <tile/>
   <tile/>
   <tile/>
   <tile/>
   <tile/>
   <tile/>
   <tile/>
   <tile/>
   <tile/>
   <tile/>
   <tile/>
   <tile/>
   <tile/>
   <tile/>
   <tile/>
   <tile/>
   <tile/>
   <tile/>
   <tile/>
   <tile/>
   <tile/>
   <tile/>
   <tile/>
   <tile/>
   <tile/>
   <tile/>
   <tile/>
   <tile/>
   <tile/>
   <tile/>
   <tile/>
   <tile/>
   <tile/>
   <tile/>
   <tile/>
   <tile/>
   <tile/>
   <tile/>
   <tile/>
   <tile/>
   <tile/>
   <tile/>
   <tile/>
   <tile/>
   <tile/>
   <tile/>
   <tile/>
   <tile/>
   <tile/>
   <tile/>
   <tile/>
   <tile/>
   <tile/>
   <tile/>
   <tile/>
   <tile/>
   <tile/>
   <tile/>
   <tile/>
   <tile/>
   <tile/>
   <tile/>
   <tile/>
   <tile/>
   <tile/>
   <tile gid="203"/>
   <tile gid="204"/>
   <tile gid="204"/>
   <tile gid="204"/>
   <tile gid="204"/>
   <tile gid="204"/>
   <tile gid="204"/>
   <tile gid="204"/>
   <tile gid="204"/>
   <tile gid="204"/>
   <tile gid="204"/>
   <tile gid="204"/>
   <tile gid="204"/>
   <tile gid="204"/>
   <tile gid="204"/>
   <tile gid="204"/>
   <tile gid="204"/>
   <tile gid="204"/>
   <tile gid="204"/>
   <tile gid="204"/>
   <tile gid="204"/>
   <tile gid="204"/>
   <tile gid="204"/>
   <tile gid="204"/>
   <tile gid="205"/>
   <tile/>
   <tile/>
   <tile/>
   <tile/>
   <tile/>
   <tile/>
   <tile/>
   <tile/>
   <tile/>
   <tile/>
   <tile/>
   <tile/>
   <tile/>
   <tile/>
   <tile/>
   <tile/>
   <tile/>
   <tile/>
   <tile/>
   <tile/>
   <tile/>
   <tile/>
   <tile/>
   <tile/>
   <tile/>
   <tile/>
   <tile/>
   <tile/>
   <tile/>
   <tile/>
   <tile/>
   <tile/>
   <tile/>
   <tile/>
   <tile/>
   <tile/>
   <tile/>
   <tile/>
   <tile/>
   <tile/>
   <tile/>
   <tile/>
   <tile/>
   <tile/>
   <tile/>
   <tile/>
   <tile/>
   <tile/>
   <tile/>
   <tile/>
   <tile/>
   <tile/>
   <tile/>
   <tile/>
   <tile/>
   <tile/>
   <tile/>
   <tile/>
   <tile/>
   <tile/>
   <tile/>
   <tile/>
   <tile/>
   <tile/>
   <tile/>
   <tile/>
   <tile/>
   <tile/>
   <tile/>
   <tile/>
   <tile/>
   <tile/>
   <tile/>
   <tile/>
   <tile/>
   <tile/>
   <tile/>
   <tile/>
   <tile/>
   <tile/>
   <tile/>
   <tile/>
   <tile gid="106"/>
   <tile gid="107"/>
   <tile gid="108"/>
   <tile/>
   <tile/>
   <tile/>
   <tile/>
   <tile/>
   <tile/>
   <tile/>
   <tile/>
   <tile/>
   <tile/>
   <tile/>
   <tile/>
   <tile/>
   <tile/>
   <tile/>
   <tile/>
   <tile/>
   <tile/>
   <tile/>
   <tile/>
   <tile/>
   <tile/>
   <tile/>
   <tile/>
   <tile/>
   <tile/>
   <tile/>
   <tile/>
   <tile/>
   <tile/>
   <tile/>
   <tile/>
   <tile/>
   <tile/>
   <tile/>
   <tile/>
   <tile/>
   <tile/>
   <tile/>
   <tile/>
   <tile/>
   <tile/>
   <tile/>
   <tile/>
   <tile/>
   <tile/>
   <tile/>
   <tile gid="42"/>
   <tile gid="37"/>
   <tile gid="44"/>
   <tile/>
   <tile/>
   <tile/>
   <tile/>
   <tile/>
   <tile/>
   <tile/>
   <tile/>
   <tile/>
   <tile/>
   <tile/>
   <tile/>
   <tile/>
   <tile/>
   <tile/>
   <tile/>
   <tile/>
   <tile/>
   <tile/>
   <tile/>
   <tile/>
   <tile/>
   <tile/>
   <tile/>
   <tile/>
   <tile/>
   <tile/>
   <tile/>
   <tile/>
   <tile/>
   <tile/>
   <tile/>
   <tile/>
   <tile/>
   <tile/>
   <tile/>
   <tile/>
   <tile/>
   <tile/>
   <tile/>
   <tile/>
   <tile/>
   <tile/>
   <tile/>
   <tile/>
   <tile/>
   <tile/>
   <tile gid="74"/>
   <tile gid="69"/>
   <tile gid="76"/>
   <tile/>
   <tile/>
   <tile/>
   <tile/>
   <tile/>
   <tile/>
   <tile/>
   <tile/>
   <tile/>
   <tile/>
   <tile/>
   <tile/>
   <tile/>
   <tile/>
   <tile/>
   <tile/>
   <tile/>
   <tile/>
   <tile/>
   <tile/>
   <tile/>
   <tile/>
   <tile/>
   <tile/>
   <tile/>
   <tile/>
   <tile/>
   <tile/>
   <tile/>
   <tile/>
   <tile/>
   <tile/>
   <tile/>
   <tile/>
   <tile/>
   <tile/>
   <tile/>
   <tile/>
   <tile/>
   <tile/>
   <tile/>
   <tile/>
   <tile/>
   <tile/>
   <tile/>
   <tile/>
   <tile/>
   <tile/>
   <tile/>
   <tile/>
   <tile/>
   <tile/>
   <tile/>
   <tile/>
   <tile/>
   <tile/>
   <tile/>
   <tile/>
   <tile/>
   <tile/>
   <tile/>
   <tile/>
   <tile/>
   <tile/>
   <tile/>
   <tile/>
   <tile/>
   <tile/>
   <tile/>
   <tile/>
   <tile/>
   <tile/>
   <tile/>
   <tile/>
   <tile/>
   <tile/>
   <tile/>
   <tile/>
   <tile/>
   <tile/>
   <tile/>
   <tile/>
   <tile/>
   <tile/>
   <tile/>
   <tile/>
   <tile/>
   <tile/>
   <tile/>
   <tile/>
   <tile/>
   <tile/>
   <tile/>
   <tile/>
   <tile/>
   <tile/>
   <tile/>
   <tile/>
   <tile/>
   <tile/>
   <tile/>
   <tile/>
   <tile/>
   <tile/>
   <tile/>
   <tile/>
   <tile/>
   <tile/>
   <tile/>
   <tile/>
   <tile/>
   <tile/>
   <tile/>
   <tile/>
   <tile/>
   <tile/>
   <tile/>
   <tile/>
   <tile/>
   <tile/>
   <tile/>
   <tile/>
   <tile/>
   <tile/>
   <tile/>
   <tile/>
   <tile/>
   <tile/>
   <tile/>
   <tile/>
   <tile/>
   <tile/>
   <tile/>
   <tile/>
   <tile/>
   <tile/>
   <tile/>
   <tile/>
   <tile/>
   <tile/>
   <tile/>
   <tile/>
   <tile/>
   <tile/>
   <tile/>
   <tile/>
   <tile/>
   <tile/>
   <tile/>
   <tile/>
   <tile/>
   <tile/>
   <tile/>
   <tile/>
   <tile/>
   <tile/>
   <tile/>
   <tile/>
   <tile/>
   <tile/>
   <tile/>
   <tile/>
   <tile/>
   <tile/>
   <tile/>
   <tile/>
   <tile/>
   <tile/>
   <tile/>
   <tile/>
   <tile/>
   <tile/>
   <tile/>
   <tile/>
   <tile/>
   <tile/>
   <tile/>
   <tile/>
   <tile/>
   <tile/>
   <tile/>
   <tile/>
   <tile/>
   <tile/>
   <tile/>
   <tile/>
   <tile/>
   <tile/>
   <tile/>
   <tile/>
   <tile/>
   <tile/>
   <tile/>
   <tile/>
   <tile/>
   <tile/>
   <tile/>
   <tile/>
   <tile/>
   <tile/>
   <tile/>
   <tile/>
   <tile/>
   <tile/>
   <tile/>
   <tile/>
   <tile/>
   <tile/>
   <tile/>
   <tile/>
   <tile/>
   <tile/>
   <tile/>
   <tile/>
   <tile/>
   <tile/>
   <tile/>
   <tile/>
   <tile/>
   <tile/>
   <tile/>
   <tile/>
   <tile/>
   <tile/>
   <tile/>
   <tile/>
   <tile/>
   <tile/>
   <tile/>
   <tile/>
   <tile/>
   <tile/>
   <tile/>
   <tile/>
   <tile/>
   <tile/>
   <tile/>
   <tile/>
   <tile/>
   <tile/>
   <tile/>
   <tile/>
   <tile/>
   <tile/>
   <tile/>
   <tile/>
   <tile/>
   <tile/>
   <tile/>
   <tile/>
   <tile/>
   <tile/>
   <tile/>
   <tile/>
   <tile/>
   <tile/>
   <tile/>
   <tile/>
   <tile/>
   <tile/>
   <tile/>
   <tile/>
   <tile/>
   <tile/>
   <tile/>
   <tile/>
   <tile/>
   <tile/>
   <tile/>
   <tile/>
   <tile/>
   <tile/>
   <tile/>
   <tile/>
   <tile/>
   <tile/>
   <tile/>
   <tile/>
   <tile/>
   <tile/>
   <tile/>
   <tile/>
   <tile/>
   <tile/>
   <tile/>
   <tile/>
   <tile/>
   <tile/>
   <tile/>
   <tile/>
   <tile/>
   <tile/>
   <tile/>
   <tile/>
   <tile/>
   <tile/>
   <tile/>
   <tile/>
   <tile/>
   <tile/>
   <tile/>
   <tile/>
   <tile/>
   <tile gid="8259"/>
   <tile gid="8259"/>
   <tile gid="8259"/>
   <tile gid="8259"/>
   <tile gid="8259"/>
   <tile/>
   <tile/>
   <tile/>
   <tile/>
   <tile/>
   <tile/>
   <tile/>
   <tile/>
   <tile/>
   <tile/>
   <tile/>
   <tile/>
   <tile/>
   <tile/>
   <tile/>
   <tile/>
   <tile/>
   <tile/>
   <tile/>
   <tile/>
   <tile/>
   <tile/>
   <tile/>
   <tile/>
   <tile/>
   <tile/>
   <tile/>
   <tile/>
   <tile/>
   <tile/>
   <tile/>
   <tile/>
   <tile gid="203"/>
   <tile gid="204"/>
   <tile gid="204"/>
   <tile gid="204"/>
   <tile gid="204"/>
   <tile gid="204"/>
   <tile gid="204"/>
   <tile gid="204"/>
   <tile gid="204"/>
   <tile gid="204"/>
   <tile gid="204"/>
   <tile gid="204"/>
   <tile gid="205"/>
   <tile gid="8259"/>
   <tile gid="8259"/>
   <tile gid="8259"/>
   <tile gid="8259"/>
   <tile gid="8259"/>
   <tile gid="203"/>
   <tile gid="204"/>
   <tile gid="204"/>
   <tile gid="204"/>
   <tile gid="204"/>
   <tile gid="204"/>
   <tile gid="204"/>
   <tile gid="204"/>
   <tile gid="204"/>
   <tile gid="204"/>
   <tile gid="204"/>
   <tile gid="204"/>
   <tile gid="204"/>
   <tile gid="204"/>
   <tile gid="204"/>
   <tile gid="204"/>
   <tile gid="204"/>
   <tile gid="204"/>
   <tile gid="204"/>
   <tile gid="204"/>
   <tile gid="204"/>
   <tile gid="204"/>
   <tile gid="204"/>
   <tile gid="204"/>
   <tile gid="204"/>
   <tile gid="204"/>
   <tile gid="204"/>
   <tile gid="204"/>
   <tile gid="204"/>
   <tile gid="204"/>
   <tile gid="204"/>
   <tile gid="205"/>
   <tile/>
   <tile/>
   <tile/>
   <tile/>
   <tile/>
   <tile/>
   <tile/>
   <tile/>
   <tile/>
   <tile/>
   <tile/>
   <tile/>
   <tile/>
   <tile gid="8259"/>
   <tile gid="8259"/>
   <tile gid="8259"/>
   <tile gid="8259"/>
   <tile gid="8259"/>
   <tile/>
   <tile/>
   <tile/>
   <tile/>
   <tile/>
   <tile/>
   <tile/>
   <tile gid="7941"/>
   <tile/>
   <tile/>
   <tile/>
   <tile/>
   <tile/>
   <tile/>
   <tile gid="7941"/>
   <tile/>
   <tile/>
   <tile/>
   <tile/>
   <tile/>
   <tile/>
   <tile/>
   <tile/>
   <tile/>
   <tile gid="5718"/>
   <tile gid="5718"/>
   <tile/>
   <tile/>
   <tile/>
   <tile/>
   <tile/>
   <tile/>
   <tile/>
   <tile/>
   <tile/>
   <tile/>
   <tile/>
   <tile/>
   <tile/>
   <tile/>
   <tile/>
   <tile/>
   <tile/>
   <tile/>
   <tile/>
   <tile gid="8259"/>
   <tile gid="8259"/>
   <tile gid="8259"/>
   <tile gid="8259"/>
   <tile gid="8259"/>
   <tile/>
   <tile/>
   <tile/>
   <tile/>
   <tile/>
   <tile/>
   <tile/>
   <tile gid="8103"/>
   <tile/>
   <tile gid="4"/>
   <tile gid="5"/>
   <tile gid="5"/>
   <tile gid="6"/>
   <tile/>
   <tile gid="8103"/>
   <tile/>
   <tile/>
   <tile/>
   <tile/>
   <tile/>
   <tile/>
   <tile/>
   <tile/>
   <tile/>
   <tile gid="5717"/>
   <tile gid="5720"/>
   <tile/>
   <tile/>
   <tile/>
   <tile/>
   <tile/>
   <tile/>
   <tile/>
   <tile/>
   <tile/>
   <tile/>
   <tile/>
   <tile/>
   <tile/>
   <tile/>
   <tile/>
   <tile/>
   <tile/>
   <tile/>
   <tile/>
   <tile gid="8259"/>
   <tile gid="8259"/>
   <tile gid="8259"/>
   <tile gid="8259"/>
   <tile gid="8259"/>
   <tile/>
   <tile/>
   <tile/>
   <tile/>
   <tile/>
   <tile/>
   <tile/>
   <tile gid="8103"/>
   <tile/>
   <tile gid="36"/>
   <tile/>
   <tile gid="37"/>
   <tile gid="38"/>
   <tile/>
   <tile gid="8103"/>
   <tile/>
   <tile/>
   <tile/>
   <tile/>
   <tile/>
   <tile/>
   <tile/>
   <tile/>
   <tile/>
   <tile gid="5717"/>
   <tile gid="5720"/>
   <tile/>
   <tile/>
   <tile/>
   <tile/>
   <tile/>
   <tile/>
   <tile/>
   <tile/>
   <tile/>
   <tile/>
   <tile/>
   <tile/>
   <tile/>
   <tile/>
   <tile/>
   <tile/>
   <tile/>
   <tile/>
   <tile/>
   <tile gid="8259"/>
   <tile gid="8259"/>
   <tile gid="8259"/>
   <tile gid="8259"/>
   <tile gid="8259"/>
   <tile/>
   <tile/>
   <tile/>
   <tile/>
   <tile/>
   <tile/>
   <tile/>
   <tile gid="8103"/>
   <tile/>
   <tile gid="68"/>
   <tile/>
   <tile gid="69"/>
   <tile gid="70"/>
   <tile/>
   <tile gid="8103"/>
   <tile/>
   <tile/>
   <tile/>
   <tile/>
   <tile/>
   <tile/>
   <tile/>
   <tile/>
   <tile/>
   <tile gid="5717"/>
   <tile gid="5720"/>
   <tile/>
   <tile/>
   <tile/>
   <tile/>
   <tile/>
   <tile/>
   <tile/>
   <tile/>
   <tile/>
   <tile/>
   <tile/>
   <tile/>
   <tile/>
   <tile/>
   <tile/>
   <tile/>
   <tile/>
   <tile/>
   <tile/>
   <tile gid="8275"/>
   <tile gid="8275"/>
   <tile gid="8275"/>
   <tile gid="8275"/>
   <tile gid="8275"/>
   <tile/>
   <tile/>
   <tile/>
   <tile/>
   <tile/>
   <tile/>
   <tile/>
   <tile gid="8119"/>
   <tile/>
   <tile/>
   <tile/>
   <tile/>
   <tile/>
   <tile/>
   <tile gid="8119"/>
   <tile/>
   <tile/>
   <tile/>
   <tile/>
   <tile/>
   <tile/>
   <tile/>
   <tile/>
   <tile/>
   <tile/>
   <tile/>
   <tile/>
   <tile/>
   <tile/>
   <tile/>
   <tile/>
   <tile/>
   <tile/>
   <tile/>
   <tile/>
   <tile/>
   <tile/>
   <tile/>
   <tile/>
   <tile/>
   <tile/>
   <tile/>
   <tile/>
   <tile/>
   <tile/>
   <tile/>
   <tile/>
   <tile/>
   <tile/>
   <tile/>
   <tile/>
   <tile/>
   <tile/>
   <tile/>
   <tile/>
   <tile/>
   <tile/>
   <tile/>
   <tile/>
   <tile/>
   <tile/>
   <tile/>
   <tile/>
   <tile/>
   <tile/>
   <tile/>
   <tile/>
   <tile/>
   <tile/>
   <tile/>
   <tile/>
   <tile/>
   <tile/>
   <tile/>
   <tile/>
   <tile/>
   <tile/>
   <tile/>
   <tile/>
   <tile/>
   <tile/>
   <tile/>
   <tile/>
   <tile/>
   <tile/>
   <tile/>
   <tile/>
   <tile/>
   <tile/>
   <tile/>
   <tile/>
   <tile/>
   <tile/>
   <tile/>
   <tile/>
   <tile/>
   <tile/>
   <tile/>
   <tile/>
   <tile/>
   <tile/>
   <tile/>
   <tile/>
   <tile/>
   <tile/>
   <tile/>
   <tile/>
   <tile/>
   <tile/>
   <tile/>
   <tile/>
   <tile/>
   <tile/>
   <tile/>
   <tile/>
   <tile/>
   <tile/>
   <tile/>
   <tile/>
   <tile/>
   <tile/>
   <tile/>
   <tile/>
   <tile/>
   <tile/>
   <tile/>
   <tile/>
   <tile/>
   <tile/>
   <tile/>
   <tile/>
   <tile/>
   <tile/>
   <tile/>
   <tile/>
   <tile/>
   <tile/>
   <tile/>
   <tile/>
   <tile/>
   <tile/>
   <tile/>
   <tile/>
   <tile/>
   <tile/>
   <tile/>
   <tile/>
   <tile/>
   <tile/>
   <tile/>
   <tile/>
   <tile/>
   <tile/>
   <tile/>
   <tile/>
   <tile/>
   <tile/>
   <tile/>
   <tile/>
   <tile/>
   <tile/>
   <tile/>
   <tile/>
   <tile/>
   <tile/>
   <tile/>
   <tile/>
   <tile/>
   <tile/>
   <tile/>
   <tile/>
   <tile/>
   <tile/>
   <tile/>
   <tile/>
   <tile/>
   <tile/>
   <tile/>
   <tile/>
   <tile/>
   <tile/>
   <tile/>
   <tile/>
   <tile/>
   <tile/>
   <tile/>
   <tile/>
   <tile/>
   <tile/>
   <tile/>
   <tile/>
   <tile/>
   <tile/>
   <tile/>
   <tile/>
   <tile/>
   <tile/>
   <tile/>
   <tile/>
   <tile/>
   <tile/>
   <tile/>
   <tile/>
   <tile/>
   <tile/>
   <tile/>
   <tile/>
   <tile/>
   <tile/>
   <tile/>
   <tile/>
   <tile/>
   <tile/>
   <tile/>
   <tile/>
   <tile/>
   <tile/>
   <tile/>
   <tile/>
   <tile/>
   <tile/>
   <tile/>
   <tile/>
   <tile/>
   <tile/>
   <tile/>
   <tile/>
   <tile/>
   <tile/>
   <tile/>
   <tile/>
   <tile/>
   <tile/>
   <tile/>
   <tile/>
   <tile/>
   <tile/>
   <tile/>
   <tile/>
   <tile/>
   <tile/>
   <tile/>
   <tile/>
   <tile/>
   <tile/>
   <tile/>
   <tile/>
   <tile/>
   <tile/>
   <tile/>
   <tile/>
   <tile/>
   <tile/>
   <tile/>
   <tile/>
   <tile/>
   <tile/>
   <tile/>
   <tile/>
   <tile/>
   <tile/>
   <tile/>
   <tile/>
   <tile/>
   <tile/>
   <tile/>
   <tile/>
   <tile/>
   <tile/>
   <tile/>
   <tile/>
   <tile gid="8259"/>
   <tile gid="8259"/>
   <tile gid="8259"/>
   <tile gid="8259"/>
   <tile gid="8259"/>
   <tile/>
   <tile/>
   <tile/>
   <tile/>
   <tile/>
   <tile/>
   <tile/>
   <tile/>
   <tile/>
   <tile/>
   <tile/>
   <tile/>
   <tile/>
   <tile/>
   <tile/>
   <tile gid="203"/>
   <tile gid="204"/>
   <tile gid="204"/>
   <tile gid="204"/>
   <tile gid="204"/>
   <tile gid="204"/>
   <tile gid="204"/>
   <tile gid="204"/>
   <tile gid="204"/>
   <tile gid="204"/>
   <tile gid="204"/>
   <tile gid="204"/>
   <tile gid="204"/>
   <tile gid="204"/>
   <tile gid="204"/>
   <tile gid="204"/>
   <tile gid="204"/>
   <tile gid="204"/>
   <tile gid="204"/>
   <tile gid="204"/>
   <tile gid="204"/>
   <tile gid="204"/>
   <tile gid="204"/>
   <tile gid="204"/>
   <tile gid="204"/>
   <tile gid="204"/>
   <tile gid="204"/>
   <tile gid="204"/>
   <tile gid="204"/>
   <tile gid="205"/>
   <tile gid="8259"/>
   <tile gid="8259"/>
   <tile gid="8259"/>
   <tile gid="8259"/>
   <tile gid="8259"/>
   <tile gid="203"/>
   <tile gid="204"/>
   <tile gid="204"/>
   <tile gid="204"/>
   <tile gid="204"/>
   <tile gid="205"/>
   <tile/>
   <tile/>
   <tile/>
   <tile/>
   <tile/>
   <tile/>
   <tile/>
   <tile/>
   <tile/>
   <tile/>
   <tile/>
   <tile/>
   <tile/>
   <tile/>
   <tile/>
   <tile/>
   <tile/>
   <tile/>
   <tile/>
   <tile/>
   <tile/>
   <tile gid="7941"/>
   <tile/>
   <tile/>
   <tile/>
   <tile/>
   <tile/>
   <tile/>
   <tile gid="7941"/>
   <tile/>
   <tile/>
   <tile/>
   <tile/>
   <tile/>
   <tile/>
   <tile/>
   <tile/>
   <tile/>
   <tile/>
   <tile gid="8259"/>
   <tile gid="8259"/>
   <tile gid="8259"/>
   <tile gid="8259"/>
   <tile gid="8259"/>
   <tile/>
   <tile/>
   <tile/>
   <tile/>
   <tile/>
   <tile/>
   <tile/>
   <tile/>
   <tile/>
   <tile/>
   <tile/>
   <tile/>
   <tile/>
   <tile/>
   <tile/>
   <tile/>
   <tile/>
   <tile/>
   <tile/>
   <tile/>
   <tile/>
   <tile/>
   <tile/>
   <tile/>
   <tile/>
   <tile/>
   <tile/>
   <tile gid="8103"/>
   <tile/>
   <tile gid="7"/>
   <tile gid="8"/>
   <tile gid="8"/>
   <tile gid="9"/>
   <tile/>
   <tile gid="8103"/>
   <tile/>
   <tile/>
   <tile/>
   <tile/>
   <tile/>
   <tile/>
   <tile/>
   <tile/>
   <tile/>
   <tile/>
   <tile gid="8259"/>
   <tile gid="8259"/>
   <tile gid="8259"/>
   <tile gid="8259"/>
   <tile gid="8259"/>
   <tile/>
   <tile/>
   <tile/>
   <tile/>
   <tile/>
   <tile/>
   <tile/>
   <tile/>
   <tile/>
   <tile/>
   <tile/>
   <tile/>
   <tile/>
   <tile/>
   <tile/>
   <tile/>
   <tile/>
   <tile/>
   <tile/>
   <tile/>
   <tile/>
   <tile/>
   <tile/>
   <tile/>
   <tile/>
   <tile/>
   <tile/>
   <tile gid="8103"/>
   <tile/>
   <tile gid="39"/>
   <tile/>
   <tile/>
   <tile gid="41"/>
   <tile/>
   <tile gid="8103"/>
   <tile/>
   <tile/>
   <tile/>
   <tile/>
   <tile/>
   <tile/>
   <tile/>
   <tile/>
   <tile/>
   <tile/>
   <tile gid="8259"/>
   <tile gid="8259"/>
   <tile gid="8259"/>
   <tile gid="8259"/>
   <tile gid="8259"/>
   <tile/>
   <tile/>
   <tile/>
   <tile/>
   <tile/>
   <tile/>
   <tile/>
   <tile/>
   <tile/>
   <tile/>
   <tile/>
   <tile/>
   <tile/>
   <tile/>
   <tile/>
   <tile/>
   <tile/>
   <tile/>
   <tile/>
   <tile/>
   <tile/>
   <tile/>
   <tile/>
   <tile/>
   <tile/>
   <tile/>
   <tile/>
   <tile gid="8103"/>
   <tile/>
   <tile gid="71"/>
   <tile/>
   <tile/>
   <tile gid="73"/>
   <tile/>
   <tile gid="8103"/>
   <tile/>
   <tile/>
   <tile/>
   <tile/>
   <tile/>
   <tile/>
   <tile/>
   <tile/>
   <tile/>
   <tile/>
   <tile gid="8259"/>
   <tile gid="8259"/>
   <tile gid="8259"/>
   <tile gid="8259"/>
   <tile gid="8259"/>
   <tile/>
   <tile/>
   <tile/>
   <tile/>
   <tile/>
   <tile/>
   <tile/>
   <tile/>
   <tile/>
   <tile/>
   <tile/>
   <tile/>
   <tile/>
   <tile/>
   <tile/>
   <tile/>
   <tile/>
   <tile/>
   <tile/>
   <tile/>
   <tile/>
   <tile/>
   <tile/>
   <tile/>
   <tile/>
   <tile/>
   <tile/>
   <tile gid="8119"/>
   <tile/>
   <tile/>
   <tile/>
   <tile/>
   <tile/>
   <tile/>
   <tile gid="8119"/>
   <tile/>
   <tile/>
   <tile/>
   <tile/>
   <tile/>
   <tile/>
   <tile/>
   <tile/>
   <tile/>
   <tile/>
   <tile gid="8275"/>
   <tile gid="8275"/>
   <tile gid="8275"/>
   <tile gid="8275"/>
   <tile gid="8275"/>
   <tile/>
   <tile/>
   <tile/>
   <tile/>
   <tile/>
   <tile/>
   <tile/>
   <tile/>
   <tile/>
   <tile/>
   <tile/>
   <tile/>
   <tile/>
   <tile/>
   <tile/>
   <tile/>
   <tile/>
   <tile/>
   <tile/>
   <tile/>
   <tile/>
   <tile/>
   <tile/>
   <tile/>
   <tile/>
   <tile/>
   <tile/>
   <tile/>
   <tile/>
   <tile/>
   <tile/>
   <tile/>
   <tile/>
   <tile/>
   <tile/>
   <tile/>
   <tile/>
   <tile/>
   <tile/>
   <tile/>
   <tile/>
   <tile/>
   <tile/>
   <tile/>
   <tile/>
   <tile/>
   <tile/>
   <tile/>
   <tile/>
   <tile/>
   <tile/>
   <tile/>
   <tile/>
   <tile/>
   <tile/>
   <tile/>
   <tile/>
   <tile/>
   <tile/>
   <tile/>
   <tile/>
   <tile/>
   <tile/>
   <tile/>
   <tile/>
   <tile/>
   <tile/>
   <tile/>
   <tile/>
   <tile/>
   <tile/>
   <tile/>
   <tile/>
   <tile/>
   <tile/>
   <tile/>
   <tile/>
   <tile/>
   <tile/>
   <tile/>
   <tile/>
   <tile/>
   <tile/>
   <tile/>
   <tile/>
   <tile/>
   <tile/>
   <tile/>
   <tile/>
   <tile/>
   <tile/>
   <tile/>
   <tile/>
   <tile/>
   <tile/>
   <tile/>
   <tile/>
   <tile/>
   <tile/>
   <tile/>
   <tile/>
   <tile/>
   <tile/>
   <tile/>
   <tile/>
   <tile/>
   <tile/>
   <tile/>
   <tile/>
   <tile/>
   <tile/>
   <tile/>
   <tile/>
   <tile/>
   <tile/>
   <tile/>
   <tile/>
   <tile/>
   <tile/>
   <tile/>
   <tile/>
   <tile/>
   <tile/>
   <tile/>
   <tile/>
   <tile/>
   <tile/>
   <tile/>
   <tile/>
   <tile/>
   <tile/>
   <tile/>
   <tile/>
   <tile/>
   <tile/>
   <tile/>
   <tile/>
   <tile/>
   <tile/>
   <tile/>
   <tile/>
   <tile/>
   <tile/>
   <tile/>
   <tile/>
   <tile/>
   <tile/>
   <tile/>
   <tile/>
   <tile/>
   <tile/>
   <tile/>
   <tile/>
   <tile/>
   <tile/>
   <tile/>
   <tile/>
   <tile/>
   <tile/>
   <tile/>
   <tile/>
   <tile/>
   <tile/>
   <tile/>
   <tile/>
   <tile/>
   <tile/>
   <tile/>
   <tile/>
   <tile/>
   <tile/>
   <tile/>
   <tile/>
   <tile/>
   <tile/>
   <tile/>
   <tile/>
   <tile/>
   <tile/>
   <tile/>
   <tile/>
   <tile/>
   <tile/>
   <tile/>
   <tile/>
   <tile/>
   <tile/>
   <tile/>
   <tile/>
   <tile/>
   <tile/>
   <tile/>
   <tile/>
   <tile/>
   <tile/>
   <tile/>
   <tile/>
   <tile/>
   <tile/>
   <tile/>
   <tile/>
   <tile/>
   <tile/>
   <tile/>
   <tile/>
   <tile/>
   <tile/>
   <tile/>
   <tile/>
   <tile/>
   <tile/>
   <tile/>
   <tile/>
   <tile/>
   <tile/>
   <tile/>
   <tile/>
   <tile/>
   <tile/>
   <tile/>
   <tile/>
   <tile/>
   <tile/>
   <tile/>
   <tile/>
   <tile/>
   <tile/>
   <tile/>
   <tile/>
   <tile/>
   <tile/>
   <tile/>
   <tile/>
   <tile/>
   <tile/>
   <tile/>
   <tile/>
   <tile/>
   <tile/>
   <tile/>
   <tile/>
   <tile/>
   <tile/>
   <tile/>
   <tile/>
   <tile/>
   <tile/>
   <tile/>
   <tile/>
   <tile/>
   <tile/>
   <tile/>
   <tile/>
   <tile/>
   <tile/>
   <tile/>
   <tile/>
   <tile/>
   <tile/>
   <tile/>
   <tile/>
   <tile/>
   <tile/>
   <tile/>
   <tile/>
   <tile/>
   <tile/>
   <tile/>
   <tile/>
   <tile/>
   <tile/>
   <tile/>
   <tile/>
   <tile gid="203"/>
   <tile gid="204"/>
   <tile gid="204"/>
   <tile gid="204"/>
   <tile gid="204"/>
   <tile gid="204"/>
   <tile gid="204"/>
   <tile gid="204"/>
   <tile gid="204"/>
   <tile gid="204"/>
   <tile gid="204"/>
   <tile gid="204"/>
   <tile gid="204"/>
   <tile gid="204"/>
   <tile gid="204"/>
   <tile gid="204"/>
   <tile gid="204"/>
   <tile gid="204"/>
   <tile gid="204"/>
   <tile gid="204"/>
   <tile gid="204"/>
   <tile gid="204"/>
   <tile gid="204"/>
   <tile gid="204"/>
   <tile gid="204"/>
   <tile gid="204"/>
   <tile gid="204"/>
   <tile gid="204"/>
   <tile gid="204"/>
   <tile gid="204"/>
   <tile gid="204"/>
   <tile gid="204"/>
   <tile gid="205"/>
   <tile/>
   <tile/>
   <tile/>
   <tile/>
   <tile/>
   <tile/>
   <tile/>
   <tile/>
   <tile/>
   <tile/>
   <tile/>
   <tile/>
   <tile/>
   <tile/>
   <tile/>
   <tile/>
   <tile/>
   <tile/>
   <tile/>
   <tile/>
   <tile/>
   <tile/>
   <tile/>
   <tile/>
   <tile/>
   <tile/>
   <tile/>
   <tile/>
   <tile/>
   <tile/>
   <tile/>
   <tile/>
   <tile/>
   <tile/>
   <tile/>
   <tile/>
   <tile/>
   <tile/>
   <tile/>
   <tile/>
   <tile/>
   <tile/>
   <tile/>
   <tile/>
   <tile/>
   <tile/>
   <tile/>
   <tile/>
   <tile/>
   <tile/>
   <tile/>
   <tile/>
   <tile/>
   <tile/>
   <tile/>
   <tile/>
   <tile/>
   <tile/>
   <tile/>
   <tile/>
   <tile/>
   <tile/>
   <tile/>
   <tile/>
   <tile/>
   <tile/>
   <tile/>
   <tile/>
   <tile/>
   <tile/>
   <tile/>
   <tile/>
   <tile/>
   <tile/>
   <tile/>
   <tile/>
   <tile/>
   <tile/>
   <tile/>
   <tile/>
   <tile/>
   <tile/>
   <tile/>
   <tile/>
   <tile/>
   <tile/>
   <tile/>
   <tile/>
   <tile/>
   <tile/>
   <tile/>
   <tile/>
   <tile/>
   <tile/>
   <tile/>
   <tile/>
   <tile/>
   <tile/>
   <tile/>
   <tile/>
   <tile/>
   <tile/>
   <tile/>
   <tile/>
   <tile/>
   <tile/>
   <tile/>
   <tile/>
   <tile/>
   <tile/>
   <tile/>
   <tile/>
   <tile/>
   <tile/>
   <tile/>
   <tile/>
   <tile/>
   <tile/>
   <tile/>
   <tile/>
   <tile/>
   <tile/>
   <tile/>
   <tile/>
   <tile/>
   <tile/>
   <tile/>
   <tile/>
   <tile/>
   <tile/>
   <tile/>
   <tile/>
   <tile/>
   <tile/>
   <tile/>
   <tile/>
   <tile/>
   <tile/>
   <tile/>
   <tile/>
   <tile/>
   <tile/>
   <tile/>
   <tile/>
   <tile/>
   <tile/>
   <tile/>
   <tile/>
   <tile/>
   <tile/>
   <tile/>
   <tile/>
   <tile/>
   <tile/>
   <tile/>
   <tile/>
   <tile/>
   <tile/>
   <tile/>
   <tile/>
   <tile/>
   <tile/>
   <tile/>
   <tile/>
   <tile/>
   <tile/>
   <tile/>
   <tile/>
   <tile/>
   <tile/>
   <tile/>
   <tile/>
   <tile/>
   <tile/>
   <tile/>
   <tile/>
   <tile/>
   <tile/>
   <tile/>
   <tile/>
   <tile/>
   <tile/>
   <tile/>
   <tile/>
   <tile/>
   <tile/>
   <tile/>
   <tile/>
   <tile/>
   <tile/>
   <tile/>
   <tile/>
   <tile/>
   <tile/>
   <tile/>
   <tile/>
   <tile/>
   <tile/>
   <tile/>
   <tile/>
  </data>
 </layer>
 <objectgroup id="4" name="Collision">
  <properties>
   <property name="Collision" type="bool" value="true"/>
   <property name="Draw" type="bool" value="false"/>
  </properties>
  <object id="1" x="0" y="320" width="96" height="192"/>
  <object id="2" x="96" y="480" width="320" height="32"/>
  <object id="4" x="384" y="512" width="32" height="160"/>
  <object id="5" x="576" y="480" width="288" height="192"/>
  <object id="6" x="992" y="480" width="352" height="192"/>
  <object id="7" x="704" y="320" width="96" height="160"/>
  <object id="8" x="864" y="480" width="128" height="96"/>
  <object id="9" x="1408" y="480" width="192" height="192"/>
  <object id="10" x="1344" y="480" width="64" height="96"/>
  <object id="11" x="1504" y="672" width="96" height="192"/>
  <object id="12" x="1408" y="832" width="96" height="32"/>
  <object id="13" x="1408" y="864" width="192" height="160"/>
  <object id="14" x="864" y="864" width="384" height="160"/>
  <object id="15" x="384" y="832" width="864" height="32"/>
  <object id="16" x="288" y="672" width="96" height="192"/>
  <object id="18" x="288" y="864" width="448" height="160"/>
  <object id="19" x="736" y="864" width="128" height="64"/>
  <object id="20" x="0" y="512" width="384" height="160"/>
  <object id="21" x="0" y="160" width="224" height="160"/>
  <object id="22" x="320" y="160" width="480" height="160"/>
  <object id="23" x="224" y="160" width="96" height="64"/>
  <object id="24" x="544" y="1024" width="96" height="192"/>
  <object id="25" x="544" y="1216" width="1056" height="160"/>
  <object id="26" x="1504" y="1024" width="96" height="192"/>
  <object id="27" x="640" y="1184" width="864" height="32"/>
  <object id="28" x="1244.5" y="1024.5" width="3.5" height="24"/>
  <object id="29" x="1408" y="1024.5" width="4.5" height="23.5"/>
  <object id="30" x="900" y="1024.33" width="25.6667" height="26"/>
  <object id="31" x="675.667" y="1022" width="25.3333" height="29.6667"/>
  <object id="32" x="803.333" y="662.333" width="26.6667" height="37.6667"/>
  <object id="33" x="1028.33" y="659.667" width="25.6667" height="40"/>
  <object id="34" x="411.5" y="672" width="3.5" height="23"/>
  <object id="35" x="576" y="671" width="4.5" height="25"/>
 </objectgroup>
 <objectgroup id="5" name="Teleport">
  <object id="38" x="864" y="576" width="128" height="96">
   <properties>
    <property name="targetMap" value="RestaurantLobby.tmx"/>
   </properties>
  </object>
  <object id="39" x="736" y="928" width="128" height="96">
   <properties>
    <property name="targetMap" value="ClothesLobby.tmx"/>
   </properties>
  </object>
  <object id="40" x="1344" y="576" width="64" height="96">
   <properties>
    <property name="targetMap" value="RestaurantDungeon.tmx"/>
   </properties>
  </object>
  <object id="41" x="224" y="224" width="96" height="96">
   <properties>
    <property name="targetMap" value="Rooftop.tmx"/>
   </properties>
  </object>
 </objectgroup>
 <objectgroup id="6" name="Checkpoints">
  <object id="43" x="225" y="318" width="95" height="11"/>
  <object id="44" x="863" y="671" width="127" height="13"/>
  <object id="45" x="1345" y="673" width="61" height="9"/>
  <object id="46" x="735" y="1025" width="128" height="11"/>
 </objectgroup>
 <objectgroup id="7" name="Entities">
  <object id="47" name="Player" type="Player" x="272" y="355">
   <properties>
    <property name="CorneliusJoined" type="bool" value="false"/>
    <property name="WizardJoined" type="bool" value="false"/>
    <property name="magicPoints" type="int" value="50"/>
   </properties>
   <point/>
  </object>
 </objectgroup>
 <layer id="3" name="foreground" width="50" height="43">
  <properties>
   <property name="Draw" type="bool" value="true"/>
  </properties>
  <data>
   <tile/>
   <tile/>
   <tile/>
   <tile/>
   <tile/>
   <tile/>
   <tile/>
   <tile/>
   <tile/>
   <tile/>
   <tile/>
   <tile/>
   <tile/>
   <tile/>
   <tile/>
   <tile/>
   <tile/>
   <tile/>
   <tile/>
   <tile/>
   <tile/>
   <tile/>
   <tile/>
   <tile/>
   <tile/>
   <tile/>
   <tile/>
   <tile/>
   <tile/>
   <tile/>
   <tile/>
   <tile/>
   <tile/>
   <tile/>
   <tile/>
   <tile/>
   <tile/>
   <tile/>
   <tile/>
   <tile/>
   <tile/>
   <tile/>
   <tile/>
   <tile/>
   <tile/>
   <tile/>
   <tile/>
   <tile/>
   <tile/>
   <tile/>
   <tile/>
   <tile/>
   <tile/>
   <tile/>
   <tile/>
   <tile/>
   <tile/>
   <tile/>
   <tile/>
   <tile/>
   <tile/>
   <tile/>
   <tile/>
   <tile/>
   <tile/>
   <tile/>
   <tile/>
   <tile/>
   <tile/>
   <tile/>
   <tile/>
   <tile/>
   <tile/>
   <tile/>
   <tile/>
   <tile/>
   <tile/>
   <tile/>
   <tile/>
   <tile/>
   <tile/>
   <tile/>
   <tile/>
   <tile/>
   <tile/>
   <tile/>
   <tile/>
   <tile/>
   <tile/>
   <tile/>
   <tile/>
   <tile/>
   <tile/>
   <tile/>
   <tile/>
   <tile/>
   <tile/>
   <tile/>
   <tile/>
   <tile/>
   <tile/>
   <tile/>
   <tile/>
   <tile/>
   <tile/>
   <tile/>
   <tile/>
   <tile/>
   <tile/>
   <tile/>
   <tile/>
   <tile/>
   <tile/>
   <tile/>
   <tile/>
   <tile/>
   <tile/>
   <tile/>
   <tile/>
   <tile/>
   <tile/>
   <tile/>
   <tile/>
   <tile/>
   <tile/>
   <tile/>
   <tile/>
   <tile/>
   <tile/>
   <tile/>
   <tile/>
   <tile/>
   <tile/>
   <tile/>
   <tile/>
   <tile/>
   <tile/>
   <tile/>
   <tile/>
   <tile/>
   <tile/>
   <tile/>
   <tile/>
   <tile/>
   <tile/>
   <tile/>
   <tile/>
   <tile/>
   <tile/>
   <tile/>
   <tile/>
   <tile/>
   <tile/>
   <tile/>
   <tile/>
   <tile/>
   <tile/>
   <tile/>
   <tile/>
   <tile/>
   <tile/>
   <tile/>
   <tile/>
   <tile/>
   <tile/>
   <tile/>
   <tile/>
   <tile/>
   <tile/>
   <tile/>
   <tile/>
   <tile/>
   <tile/>
   <tile/>
   <tile/>
   <tile/>
   <tile/>
   <tile/>
   <tile/>
   <tile/>
   <tile/>
   <tile/>
   <tile/>
   <tile/>
   <tile/>
   <tile/>
   <tile/>
   <tile/>
   <tile/>
   <tile/>
   <tile/>
   <tile/>
   <tile/>
   <tile/>
   <tile/>
   <tile/>
   <tile/>
   <tile/>
   <tile/>
   <tile/>
   <tile/>
   <tile/>
   <tile/>
   <tile/>
   <tile/>
   <tile/>
   <tile/>
   <tile/>
   <tile/>
   <tile/>
   <tile/>
   <tile/>
   <tile/>
   <tile/>
   <tile/>
   <tile/>
   <tile/>
   <tile/>
   <tile/>
   <tile/>
   <tile/>
   <tile/>
   <tile/>
   <tile/>
   <tile/>
   <tile/>
   <tile/>
   <tile/>
   <tile/>
   <tile/>
   <tile/>
   <tile/>
   <tile/>
   <tile/>
   <tile/>
   <tile/>
   <tile/>
   <tile/>
   <tile/>
   <tile/>
   <tile/>
   <tile/>
   <tile/>
   <tile/>
   <tile/>
   <tile/>
   <tile/>
   <tile/>
   <tile/>
   <tile/>
   <tile/>
   <tile/>
   <tile/>
   <tile/>
   <tile/>
   <tile/>
   <tile/>
   <tile/>
   <tile/>
   <tile/>
   <tile/>
   <tile/>
   <tile/>
   <tile/>
   <tile/>
   <tile/>
   <tile/>
   <tile/>
   <tile/>
   <tile/>
   <tile/>
   <tile/>
   <tile/>
   <tile/>
   <tile/>
   <tile/>
   <tile/>
   <tile/>
   <tile/>
   <tile/>
   <tile/>
   <tile/>
   <tile/>
   <tile/>
   <tile/>
   <tile/>
   <tile/>
   <tile/>
   <tile/>
   <tile/>
   <tile/>
   <tile/>
   <tile/>
   <tile/>
   <tile/>
   <tile/>
   <tile/>
   <tile/>
   <tile/>
   <tile/>
   <tile/>
   <tile/>
   <tile/>
   <tile/>
   <tile/>
   <tile/>
   <tile/>
   <tile/>
   <tile/>
   <tile/>
   <tile/>
   <tile/>
   <tile/>
   <tile/>
   <tile/>
   <tile/>
   <tile/>
   <tile/>
   <tile/>
   <tile/>
   <tile/>
   <tile/>
   <tile/>
   <tile/>
   <tile/>
   <tile/>
   <tile/>
   <tile/>
   <tile/>
   <tile/>
   <tile/>
   <tile/>
   <tile/>
   <tile/>
   <tile/>
   <tile/>
   <tile/>
   <tile/>
   <tile/>
   <tile/>
   <tile/>
   <tile/>
   <tile/>
   <tile/>
   <tile/>
   <tile/>
   <tile/>
   <tile/>
   <tile/>
   <tile/>
   <tile/>
   <tile/>
   <tile/>
   <tile/>
   <tile/>
   <tile/>
   <tile/>
   <tile/>
   <tile/>
   <tile/>
   <tile/>
   <tile/>
   <tile/>
   <tile/>
   <tile/>
   <tile/>
   <tile/>
   <tile/>
   <tile/>
   <tile/>
   <tile/>
   <tile/>
   <tile/>
   <tile/>
   <tile/>
   <tile/>
   <tile/>
   <tile/>
   <tile/>
   <tile/>
   <tile/>
   <tile/>
   <tile/>
   <tile/>
   <tile/>
   <tile/>
   <tile/>
   <tile/>
   <tile/>
   <tile/>
   <tile/>
   <tile/>
   <tile/>
   <tile/>
   <tile/>
   <tile/>
   <tile/>
   <tile/>
   <tile/>
   <tile/>
   <tile/>
   <tile/>
   <tile/>
   <tile/>
   <tile/>
   <tile/>
   <tile/>
   <tile/>
   <tile/>
   <tile/>
   <tile/>
   <tile/>
   <tile/>
   <tile/>
   <tile/>
   <tile/>
   <tile/>
   <tile/>
   <tile/>
   <tile/>
   <tile/>
   <tile/>
   <tile/>
   <tile/>
   <tile/>
   <tile/>
   <tile/>
   <tile/>
   <tile/>
   <tile/>
   <tile/>
   <tile/>
   <tile/>
   <tile/>
   <tile/>
   <tile/>
   <tile/>
   <tile/>
   <tile/>
   <tile/>
   <tile/>
   <tile/>
   <tile/>
   <tile/>
   <tile/>
   <tile/>
   <tile/>
   <tile/>
   <tile/>
   <tile/>
   <tile/>
   <tile/>
   <tile/>
   <tile/>
   <tile/>
   <tile/>
   <tile/>
   <tile/>
   <tile/>
   <tile/>
   <tile/>
   <tile/>
   <tile/>
   <tile/>
   <tile/>
   <tile/>
   <tile/>
   <tile/>
   <tile/>
   <tile/>
   <tile/>
   <tile/>
   <tile/>
   <tile/>
   <tile/>
   <tile/>
   <tile/>
   <tile/>
   <tile/>
   <tile/>
   <tile/>
   <tile/>
   <tile/>
   <tile/>
   <tile/>
   <tile/>
   <tile/>
   <tile/>
   <tile/>
   <tile/>
   <tile/>
   <tile/>
   <tile/>
   <tile/>
   <tile/>
   <tile/>
   <tile/>
   <tile/>
   <tile/>
   <tile/>
   <tile/>
   <tile/>
   <tile/>
   <tile/>
   <tile/>
   <tile/>
   <tile/>
   <tile/>
   <tile/>
   <tile/>
   <tile/>
   <tile/>
   <tile/>
   <tile/>
   <tile/>
   <tile/>
   <tile/>
   <tile/>
   <tile/>
   <tile/>
   <tile/>
   <tile/>
   <tile/>
   <tile/>
   <tile/>
   <tile/>
   <tile/>
   <tile/>
   <tile/>
   <tile/>
   <tile/>
   <tile/>
   <tile/>
   <tile/>
   <tile/>
   <tile/>
   <tile/>
   <tile/>
   <tile/>
   <tile/>
   <tile/>
   <tile/>
   <tile/>
   <tile/>
   <tile/>
   <tile/>
   <tile/>
   <tile/>
   <tile/>
   <tile/>
   <tile/>
   <tile/>
   <tile/>
   <tile/>
   <tile/>
   <tile/>
   <tile/>
   <tile/>
   <tile/>
   <tile/>
   <tile/>
   <tile/>
   <tile/>
   <tile/>
   <tile/>
   <tile/>
   <tile/>
   <tile/>
   <tile/>
   <tile/>
   <tile/>
   <tile/>
   <tile/>
   <tile/>
   <tile/>
   <tile/>
   <tile/>
   <tile/>
   <tile/>
   <tile/>
   <tile/>
   <tile/>
   <tile/>
   <tile/>
   <tile/>
   <tile/>
   <tile/>
   <tile/>
   <tile/>
   <tile/>
   <tile/>
   <tile/>
   <tile/>
   <tile/>
   <tile/>
   <tile/>
   <tile/>
   <tile/>
   <tile/>
   <tile/>
   <tile/>
   <tile/>
   <tile/>
   <tile/>
   <tile/>
   <tile/>
   <tile/>
   <tile/>
   <tile/>
   <tile/>
   <tile/>
   <tile/>
   <tile/>
   <tile/>
   <tile/>
   <tile/>
   <tile/>
   <tile/>
   <tile/>
   <tile/>
   <tile/>
   <tile/>
   <tile/>
   <tile/>
   <tile/>
   <tile/>
   <tile/>
   <tile/>
   <tile/>
   <tile/>
   <tile/>
   <tile/>
   <tile/>
   <tile/>
   <tile/>
   <tile/>
   <tile/>
   <tile/>
   <tile/>
   <tile/>
   <tile/>
   <tile/>
   <tile/>
   <tile/>
   <tile/>
   <tile/>
   <tile/>
   <tile/>
   <tile/>
   <tile/>
   <tile/>
   <tile/>
   <tile/>
   <tile/>
   <tile/>
   <tile/>
   <tile/>
   <tile/>
   <tile/>
   <tile/>
   <tile/>
   <tile/>
   <tile/>
   <tile/>
   <tile/>
   <tile/>
   <tile/>
   <tile/>
   <tile/>
   <tile/>
   <tile/>
   <tile/>
   <tile/>
   <tile/>
   <tile/>
   <tile/>
   <tile/>
   <tile/>
   <tile/>
   <tile/>
   <tile/>
   <tile/>
   <tile/>
   <tile/>
   <tile/>
   <tile/>
   <tile/>
   <tile/>
   <tile/>
   <tile/>
   <tile/>
   <tile/>
   <tile/>
   <tile/>
   <tile/>
   <tile/>
   <tile/>
   <tile/>
   <tile/>
   <tile/>
   <tile/>
   <tile/>
   <tile/>
   <tile gid="140"/>
   <tile gid="140"/>
   <tile gid="140"/>
   <tile gid="140"/>
   <tile gid="140"/>
   <tile gid="140"/>
   <tile gid="140"/>
   <tile gid="140"/>
   <tile gid="140"/>
   <tile gid="140"/>
   <tile/>
   <tile/>
   <tile/>
   <tile/>
   <tile/>
   <tile gid="140"/>
   <tile gid="140"/>
   <tile gid="140"/>
   <tile gid="140"/>
   <tile/>
   <tile/>
   <tile/>
   <tile/>
   <tile/>
   <tile/>
   <tile/>
   <tile/>
   <tile/>
   <tile/>
   <tile/>
   <tile/>
   <tile/>
   <tile/>
   <tile/>
   <tile/>
   <tile/>
   <tile/>
   <tile/>
   <tile/>
   <tile/>
   <tile/>
   <tile/>
   <tile/>
   <tile/>
   <tile/>
   <tile/>
   <tile/>
   <tile/>
   <tile/>
   <tile/>
   <tile/>
   <tile/>
   <tile/>
   <tile/>
   <tile/>
   <tile/>
   <tile/>
   <tile/>
   <tile/>
   <tile/>
   <tile/>
   <tile/>
   <tile/>
   <tile/>
   <tile/>
   <tile/>
   <tile/>
   <tile/>
   <tile/>
   <tile/>
   <tile/>
   <tile/>
   <tile/>
   <tile/>
   <tile/>
   <tile/>
   <tile/>
   <tile/>
   <tile/>
   <tile/>
   <tile/>
   <tile/>
   <tile/>
   <tile/>
   <tile/>
   <tile/>
   <tile/>
   <tile/>
   <tile/>
   <tile/>
   <tile/>
   <tile/>
   <tile/>
   <tile/>
   <tile/>
   <tile/>
   <tile/>
   <tile/>
   <tile/>
   <tile/>
   <tile/>
   <tile/>
   <tile/>
   <tile/>
   <tile/>
   <tile/>
   <tile/>
   <tile/>
   <tile/>
   <tile/>
   <tile/>
   <tile/>
   <tile/>
   <tile/>
   <tile/>
   <tile/>
   <tile/>
   <tile/>
   <tile/>
   <tile/>
   <tile/>
   <tile/>
   <tile/>
   <tile/>
   <tile/>
   <tile/>
   <tile/>
   <tile/>
   <tile/>
   <tile/>
   <tile/>
   <tile/>
   <tile/>
   <tile/>
   <tile/>
   <tile/>
   <tile/>
   <tile/>
   <tile/>
   <tile/>
   <tile/>
   <tile/>
   <tile/>
   <tile/>
   <tile/>
   <tile/>
   <tile/>
   <tile/>
   <tile/>
   <tile/>
   <tile/>
   <tile/>
   <tile/>
   <tile/>
   <tile/>
   <tile/>
   <tile/>
   <tile/>
   <tile/>
   <tile/>
   <tile/>
   <tile/>
   <tile/>
   <tile/>
   <tile/>
   <tile/>
   <tile/>
   <tile/>
   <tile/>
   <tile/>
   <tile/>
   <tile/>
   <tile/>
   <tile/>
   <tile/>
   <tile/>
   <tile/>
   <tile/>
   <tile/>
   <tile/>
   <tile/>
   <tile/>
   <tile/>
   <tile/>
   <tile/>
   <tile/>
   <tile/>
   <tile/>
   <tile/>
   <tile/>
   <tile/>
   <tile/>
   <tile/>
   <tile/>
   <tile/>
   <tile/>
   <tile/>
   <tile/>
   <tile/>
   <tile/>
   <tile/>
   <tile/>
   <tile/>
   <tile/>
   <tile/>
   <tile/>
   <tile/>
   <tile/>
   <tile/>
   <tile/>
   <tile/>
   <tile/>
   <tile/>
   <tile/>
   <tile/>
   <tile/>
   <tile/>
   <tile/>
   <tile/>
   <tile/>
   <tile/>
   <tile/>
   <tile/>
   <tile/>
   <tile/>
   <tile/>
   <tile/>
   <tile/>
   <tile/>
   <tile/>
   <tile/>
   <tile/>
   <tile/>
   <tile/>
   <tile/>
   <tile/>
   <tile/>
   <tile/>
   <tile/>
   <tile/>
   <tile/>
   <tile/>
   <tile/>
   <tile/>
   <tile/>
   <tile/>
   <tile/>
   <tile/>
   <tile/>
   <tile/>
   <tile/>
   <tile/>
   <tile/>
   <tile/>
   <tile/>
   <tile/>
   <tile/>
   <tile/>
   <tile/>
   <tile/>
   <tile/>
   <tile/>
   <tile/>
   <tile/>
   <tile/>
   <tile/>
   <tile/>
   <tile/>
   <tile/>
   <tile/>
   <tile/>
   <tile/>
   <tile/>
   <tile/>
   <tile/>
   <tile/>
   <tile/>
   <tile/>
   <tile/>
   <tile/>
   <tile/>
   <tile/>
   <tile/>
   <tile/>
   <tile/>
   <tile/>
   <tile/>
   <tile/>
   <tile/>
   <tile/>
   <tile/>
   <tile/>
   <tile/>
   <tile/>
   <tile/>
   <tile/>
   <tile/>
   <tile/>
   <tile/>
   <tile/>
   <tile/>
   <tile/>
   <tile/>
   <tile/>
   <tile/>
   <tile/>
   <tile/>
   <tile/>
   <tile/>
   <tile/>
   <tile/>
   <tile/>
   <tile/>
   <tile/>
   <tile/>
   <tile/>
   <tile/>
   <tile/>
   <tile/>
   <tile/>
   <tile/>
   <tile/>
   <tile/>
   <tile/>
   <tile/>
   <tile/>
   <tile/>
   <tile/>
   <tile/>
   <tile/>
   <tile/>
   <tile/>
   <tile/>
   <tile/>
   <tile/>
   <tile/>
   <tile/>
   <tile/>
   <tile/>
   <tile/>
   <tile/>
   <tile/>
   <tile/>
   <tile/>
   <tile/>
   <tile/>
   <tile/>
   <tile/>
   <tile/>
   <tile/>
   <tile/>
   <tile/>
   <tile/>
   <tile/>
   <tile/>
   <tile/>
   <tile/>
   <tile/>
   <tile/>
   <tile/>
   <tile/>
   <tile/>
   <tile/>
   <tile/>
   <tile/>
   <tile/>
   <tile/>
   <tile/>
   <tile/>
   <tile/>
   <tile/>
   <tile/>
   <tile/>
   <tile/>
   <tile/>
   <tile/>
   <tile/>
   <tile/>
   <tile/>
   <tile/>
   <tile/>
   <tile/>
   <tile/>
   <tile/>
   <tile/>
   <tile/>
   <tile/>
   <tile/>
   <tile/>
   <tile/>
   <tile/>
   <tile/>
   <tile/>
   <tile/>
   <tile/>
   <tile/>
   <tile/>
   <tile/>
   <tile/>
   <tile/>
   <tile/>
   <tile/>
   <tile/>
   <tile/>
   <tile/>
   <tile/>
   <tile/>
   <tile/>
   <tile/>
   <tile/>
   <tile/>
   <tile/>
   <tile/>
   <tile/>
   <tile/>
   <tile/>
   <tile/>
   <tile/>
   <tile/>
   <tile/>
   <tile/>
   <tile/>
   <tile/>
   <tile/>
   <tile/>
   <tile/>
   <tile/>
   <tile/>
   <tile/>
   <tile/>
   <tile/>
   <tile/>
   <tile/>
   <tile/>
   <tile/>
   <tile/>
   <tile/>
   <tile/>
   <tile/>
   <tile/>
   <tile/>
   <tile/>
   <tile/>
   <tile/>
   <tile/>
   <tile/>
   <tile/>
   <tile/>
   <tile/>
   <tile/>
   <tile/>
   <tile/>
   <tile/>
   <tile/>
   <tile/>
   <tile/>
   <tile/>
   <tile/>
   <tile/>
   <tile/>
   <tile/>
   <tile/>
   <tile/>
   <tile/>
   <tile/>
   <tile/>
   <tile/>
   <tile/>
   <tile/>
   <tile/>
   <tile/>
   <tile/>
   <tile/>
   <tile/>
   <tile/>
   <tile/>
   <tile/>
   <tile/>
   <tile/>
   <tile/>
   <tile/>
   <tile/>
   <tile/>
   <tile/>
   <tile/>
   <tile/>
   <tile/>
   <tile/>
   <tile/>
   <tile/>
   <tile/>
   <tile/>
   <tile/>
   <tile/>
   <tile/>
   <tile/>
   <tile/>
   <tile/>
   <tile/>
   <tile/>
   <tile/>
   <tile/>
   <tile/>
   <tile/>
   <tile/>
   <tile/>
   <tile/>
   <tile/>
   <tile/>
   <tile/>
   <tile/>
   <tile/>
   <tile/>
   <tile/>
   <tile/>
   <tile/>
   <tile/>
   <tile/>
   <tile/>
   <tile/>
   <tile/>
   <tile/>
   <tile/>
   <tile/>
   <tile/>
   <tile/>
   <tile/>
   <tile/>
   <tile/>
   <tile/>
   <tile/>
   <tile/>
   <tile/>
   <tile/>
   <tile/>
   <tile/>
   <tile/>
   <tile/>
   <tile/>
   <tile/>
   <tile/>
   <tile/>
   <tile/>
   <tile/>
   <tile/>
   <tile/>
   <tile/>
   <tile/>
   <tile/>
   <tile/>
   <tile/>
   <tile/>
   <tile/>
   <tile/>
   <tile/>
   <tile/>
   <tile/>
   <tile/>
   <tile/>
   <tile gid="140"/>
   <tile gid="140"/>
   <tile gid="140"/>
   <tile gid="140"/>
   <tile gid="140"/>
   <tile gid="140"/>
   <tile gid="140"/>
   <tile gid="140"/>
   <tile gid="140"/>
   <tile gid="140"/>
   <tile gid="140"/>
   <tile gid="140"/>
   <tile gid="140"/>
   <tile gid="140"/>
   <tile gid="140"/>
   <tile gid="140"/>
   <tile gid="140"/>
   <tile gid="140"/>
   <tile gid="140"/>
   <tile gid="140"/>
   <tile gid="140"/>
   <tile gid="140"/>
   <tile gid="140"/>
   <tile gid="140"/>
   <tile gid="140"/>
   <tile gid="140"/>
   <tile gid="141"/>
   <tile/>
   <tile/>
   <tile/>
   <tile/>
   <tile/>
   <tile gid="139"/>
   <tile gid="140"/>
   <tile gid="141"/>
   <tile/>
   <tile/>
   <tile/>
   <tile/>
   <tile/>
   <tile/>
   <tile/>
   <tile/>
   <tile/>
   <tile/>
   <tile/>
   <tile/>
   <tile/>
   <tile/>
   <tile/>
   <tile/>
   <tile/>
   <tile/>
   <tile/>
   <tile/>
   <tile/>
   <tile/>
   <tile/>
   <tile/>
   <tile/>
   <tile/>
   <tile/>
   <tile/>
   <tile/>
   <tile/>
   <tile/>
   <tile/>
   <tile/>
   <tile/>
   <tile/>
   <tile/>
   <tile/>
   <tile/>
   <tile/>
   <tile/>
   <tile/>
   <tile/>
   <tile/>
   <tile/>
   <tile/>
   <tile/>
   <tile/>
   <tile/>
   <tile/>
   <tile/>
   <tile/>
   <tile/>
   <tile/>
   <tile/>
   <tile/>
   <tile/>
   <tile/>
   <tile/>
   <tile/>
   <tile/>
   <tile/>
   <tile/>
   <tile/>
   <tile/>
   <tile/>
   <tile/>
   <tile/>
   <tile/>
   <tile/>
   <tile/>
   <tile/>
   <tile/>
   <tile/>
   <tile/>
   <tile/>
   <tile/>
   <tile/>
   <tile/>
   <tile/>
   <tile/>
   <tile/>
   <tile/>
   <tile/>
   <tile/>
   <tile/>
   <tile/>
   <tile/>
   <tile/>
   <tile/>
   <tile/>
   <tile/>
   <tile/>
   <tile/>
   <tile/>
   <tile/>
   <tile/>
   <tile/>
   <tile/>
   <tile/>
   <tile/>
   <tile/>
   <tile/>
   <tile/>
   <tile/>
   <tile/>
   <tile/>
   <tile/>
   <tile/>
   <tile/>
   <tile/>
   <tile/>
   <tile/>
   <tile/>
   <tile/>
   <tile/>
   <tile/>
   <tile/>
   <tile/>
   <tile/>
   <tile/>
   <tile/>
   <tile/>
   <tile/>
   <tile/>
   <tile/>
   <tile/>
   <tile/>
   <tile/>
   <tile/>
   <tile/>
   <tile/>
   <tile/>
   <tile/>
   <tile/>
   <tile/>
   <tile/>
   <tile/>
   <tile/>
   <tile/>
   <tile/>
   <tile/>
   <tile/>
   <tile/>
   <tile/>
   <tile/>
   <tile/>
   <tile/>
   <tile/>
   <tile/>
   <tile/>
   <tile/>
   <tile/>
   <tile/>
   <tile/>
   <tile/>
   <tile/>
   <tile/>
   <tile/>
   <tile/>
   <tile/>
   <tile/>
   <tile/>
   <tile/>
   <tile/>
   <tile/>
   <tile/>
   <tile/>
   <tile/>
   <tile/>
   <tile/>
   <tile/>
   <tile/>
   <tile/>
   <tile/>
   <tile/>
   <tile/>
   <tile/>
   <tile/>
   <tile/>
   <tile/>
   <tile/>
   <tile/>
   <tile/>
   <tile/>
   <tile/>
   <tile/>
   <tile/>
   <tile/>
   <tile/>
   <tile/>
   <tile/>
   <tile/>
   <tile/>
   <tile/>
   <tile/>
   <tile/>
   <tile/>
   <tile/>
   <tile/>
   <tile/>
   <tile/>
   <tile/>
   <tile/>
   <tile/>
   <tile/>
   <tile/>
   <tile/>
   <tile/>
   <tile/>
   <tile/>
   <tile/>
   <tile/>
   <tile/>
   <tile/>
   <tile/>
   <tile/>
   <tile/>
   <tile/>
   <tile/>
   <tile/>
   <tile/>
   <tile/>
   <tile/>
   <tile/>
   <tile/>
   <tile/>
   <tile/>
   <tile/>
   <tile/>
   <tile/>
   <tile/>
   <tile/>
   <tile/>
   <tile/>
   <tile/>
   <tile/>
   <tile/>
   <tile/>
   <tile/>
   <tile/>
   <tile/>
   <tile/>
   <tile/>
   <tile/>
   <tile/>
   <tile/>
   <tile/>
   <tile/>
   <tile/>
   <tile/>
   <tile/>
   <tile/>
   <tile/>
   <tile/>
   <tile/>
   <tile/>
   <tile/>
   <tile/>
   <tile/>
   <tile/>
   <tile/>
   <tile/>
   <tile/>
   <tile/>
   <tile/>
   <tile/>
   <tile/>
   <tile/>
   <tile/>
   <tile/>
   <tile/>
   <tile/>
   <tile/>
   <tile/>
   <tile/>
   <tile/>
   <tile/>
   <tile/>
   <tile/>
   <tile/>
   <tile/>
   <tile/>
   <tile/>
   <tile/>
   <tile/>
   <tile/>
   <tile/>
   <tile/>
   <tile/>
   <tile/>
   <tile/>
   <tile/>
   <tile/>
   <tile/>
   <tile/>
   <tile/>
   <tile/>
   <tile/>
   <tile/>
   <tile/>
   <tile/>
   <tile/>
   <tile/>
   <tile/>
   <tile/>
   <tile/>
   <tile/>
   <tile/>
   <tile/>
   <tile/>
   <tile/>
   <tile/>
   <tile/>
   <tile/>
   <tile/>
   <tile/>
   <tile/>
   <tile/>
   <tile/>
   <tile/>
   <tile/>
   <tile/>
   <tile/>
   <tile/>
   <tile/>
   <tile/>
   <tile/>
   <tile/>
   <tile/>
   <tile/>
   <tile/>
   <tile/>
   <tile/>
   <tile/>
   <tile/>
   <tile/>
   <tile/>
   <tile/>
   <tile/>
   <tile/>
   <tile/>
   <tile/>
   <tile/>
   <tile/>
   <tile/>
   <tile/>
   <tile/>
   <tile/>
   <tile/>
   <tile/>
   <tile/>
   <tile/>
   <tile/>
   <tile/>
   <tile/>
   <tile/>
   <tile/>
   <tile/>
   <tile/>
   <tile/>
   <tile/>
   <tile/>
   <tile/>
   <tile/>
   <tile/>
   <tile/>
   <tile/>
   <tile/>
   <tile/>
   <tile/>
   <tile/>
   <tile/>
   <tile/>
   <tile/>
   <tile/>
   <tile/>
   <tile/>
   <tile/>
   <tile/>
   <tile/>
   <tile/>
   <tile/>
   <tile/>
   <tile/>
   <tile/>
   <tile/>
   <tile/>
   <tile/>
   <tile/>
   <tile/>
   <tile/>
   <tile/>
   <tile/>
   <tile/>
   <tile/>
   <tile/>
   <tile/>
   <tile/>
   <tile/>
   <tile/>
   <tile/>
   <tile/>
   <tile/>
   <tile/>
   <tile/>
   <tile/>
   <tile/>
   <tile/>
   <tile/>
   <tile/>
   <tile/>
   <tile/>
   <tile/>
   <tile/>
   <tile/>
   <tile/>
   <tile/>
   <tile/>
   <tile/>
   <tile/>
   <tile/>
   <tile/>
   <tile/>
   <tile/>
   <tile/>
   <tile/>
   <tile/>
   <tile/>
   <tile/>
   <tile/>
   <tile/>
   <tile/>
   <tile/>
   <tile/>
   <tile/>
   <tile/>
   <tile/>
   <tile/>
   <tile/>
   <tile/>
   <tile/>
   <tile/>
   <tile/>
   <tile/>
   <tile/>
   <tile/>
   <tile/>
   <tile/>
   <tile/>
   <tile/>
   <tile/>
   <tile/>
   <tile/>
   <tile/>
   <tile/>
   <tile/>
   <tile/>
   <tile/>
   <tile/>
   <tile/>
   <tile/>
   <tile/>
   <tile/>
   <tile/>
   <tile/>
   <tile/>
   <tile/>
   <tile/>
   <tile/>
   <tile/>
   <tile/>
   <tile/>
   <tile/>
   <tile/>
   <tile/>
   <tile/>
   <tile/>
   <tile/>
   <tile/>
   <tile/>
   <tile/>
   <tile/>
   <tile/>
   <tile/>
   <tile/>
   <tile/>
   <tile/>
   <tile/>
   <tile/>
   <tile/>
   <tile/>
   <tile/>
   <tile/>
   <tile/>
   <tile/>
   <tile/>
   <tile/>
   <tile/>
   <tile/>
   <tile/>
   <tile/>
   <tile/>
   <tile/>
   <tile/>
   <tile/>
   <tile/>
   <tile/>
   <tile/>
   <tile/>
   <tile/>
   <tile/>
   <tile/>
   <tile/>
   <tile/>
   <tile/>
   <tile/>
   <tile/>
   <tile/>
   <tile/>
   <tile/>
   <tile/>
   <tile/>
   <tile/>
   <tile gid="140"/>
   <tile gid="140"/>
   <tile gid="140"/>
   <tile gid="140"/>
   <tile gid="140"/>
   <tile gid="140"/>
   <tile gid="140"/>
   <tile gid="140"/>
   <tile gid="140"/>
   <tile gid="140"/>
   <tile gid="140"/>
   <tile gid="140"/>
   <tile gid="140"/>
   <tile gid="140"/>
   <tile gid="140"/>
   <tile gid="140"/>
   <tile gid="140"/>
   <tile gid="140"/>
   <tile gid="140"/>
   <tile gid="140"/>
   <tile gid="140"/>
   <tile gid="140"/>
   <tile gid="140"/>
   <tile gid="140"/>
   <tile gid="140"/>
   <tile gid="140"/>
   <tile gid="140"/>
   <tile/>
   <tile/>
   <tile/>
   <tile/>
   <tile/>
   <tile/>
   <tile/>
   <tile/>
   <tile/>
   <tile/>
   <tile/>
   <tile/>
   <tile/>
   <tile/>
   <tile/>
   <tile/>
   <tile/>
   <tile/>
   <tile/>
   <tile/>
   <tile/>
   <tile/>
   <tile/>
   <tile/>
   <tile/>
   <tile/>
   <tile/>
   <tile/>
   <tile/>
   <tile/>
   <tile/>
   <tile/>
   <tile/>
   <tile/>
   <tile/>
   <tile/>
   <tile/>
   <tile/>
   <tile/>
   <tile/>
   <tile/>
   <tile/>
   <tile/>
   <tile/>
   <tile/>
   <tile/>
   <tile/>
   <tile/>
   <tile/>
   <tile/>
   <tile/>
   <tile/>
   <tile/>
   <tile/>
   <tile/>
   <tile/>
   <tile/>
   <tile/>
   <tile/>
   <tile/>
   <tile/>
   <tile/>
   <tile/>
   <tile/>
   <tile/>
   <tile/>
   <tile/>
   <tile/>
   <tile/>
   <tile/>
   <tile/>
   <tile/>
   <tile/>
   <tile/>
   <tile/>
   <tile/>
   <tile/>
   <tile/>
   <tile/>
   <tile/>
   <tile/>
   <tile/>
   <tile/>
   <tile/>
   <tile/>
   <tile/>
   <tile/>
   <tile/>
   <tile/>
   <tile/>
   <tile/>
   <tile/>
   <tile/>
   <tile/>
   <tile/>
   <tile/>
   <tile/>
   <tile/>
   <tile/>
   <tile/>
   <tile/>
   <tile/>
   <tile/>
   <tile/>
   <tile/>
   <tile/>
   <tile/>
   <tile/>
   <tile/>
   <tile/>
   <tile/>
   <tile/>
   <tile/>
   <tile/>
   <tile/>
   <tile/>
   <tile/>
   <tile/>
   <tile/>
   <tile/>
   <tile/>
   <tile/>
   <tile/>
   <tile/>
   <tile/>
   <tile/>
   <tile/>
   <tile/>
   <tile/>
   <tile/>
   <tile/>
   <tile/>
   <tile/>
   <tile/>
   <tile/>
   <tile/>
   <tile/>
   <tile/>
   <tile/>
   <tile/>
   <tile/>
   <tile/>
   <tile/>
   <tile/>
   <tile/>
   <tile/>
   <tile/>
   <tile/>
   <tile/>
   <tile/>
   <tile/>
   <tile/>
   <tile/>
   <tile/>
   <tile/>
   <tile/>
   <tile/>
   <tile/>
   <tile/>
   <tile/>
   <tile/>
   <tile/>
   <tile/>
   <tile/>
   <tile/>
   <tile/>
   <tile/>
   <tile/>
   <tile/>
   <tile/>
   <tile/>
   <tile/>
   <tile/>
   <tile/>
   <tile/>
   <tile/>
   <tile/>
   <tile/>
   <tile/>
   <tile/>
   <tile/>
   <tile/>
   <tile/>
   <tile/>
   <tile/>
   <tile/>
   <tile/>
   <tile/>
   <tile/>
   <tile/>
   <tile/>
   <tile/>
   <tile/>
   <tile/>
   <tile/>
   <tile/>
   <tile/>
   <tile/>
   <tile/>
   <tile/>
   <tile/>
   <tile/>
   <tile/>
   <tile/>
   <tile/>
   <tile/>
   <tile/>
   <tile/>
   <tile/>
   <tile/>
   <tile/>
   <tile/>
   <tile/>
   <tile/>
   <tile/>
   <tile/>
   <tile/>
   <tile/>
   <tile/>
   <tile/>
   <tile/>
   <tile/>
   <tile/>
   <tile/>
   <tile/>
   <tile/>
   <tile/>
   <tile/>
   <tile/>
   <tile/>
   <tile/>
   <tile/>
   <tile/>
   <tile/>
   <tile/>
   <tile/>
   <tile/>
   <tile/>
   <tile/>
   <tile/>
   <tile/>
   <tile/>
   <tile/>
   <tile/>
   <tile/>
   <tile/>
   <tile/>
   <tile/>
   <tile/>
   <tile/>
   <tile/>
   <tile/>
   <tile/>
   <tile/>
   <tile/>
   <tile/>
   <tile/>
   <tile/>
   <tile/>
   <tile/>
   <tile/>
   <tile/>
   <tile/>
   <tile/>
   <tile/>
   <tile/>
   <tile/>
   <tile/>
   <tile/>
   <tile/>
   <tile/>
   <tile/>
   <tile/>
   <tile/>
   <tile/>
   <tile/>
   <tile/>
   <tile/>
   <tile/>
   <tile/>
   <tile/>
   <tile/>
   <tile/>
   <tile/>
   <tile/>
   <tile/>
   <tile/>
   <tile/>
   <tile/>
   <tile/>
   <tile/>
   <tile/>
   <tile/>
   <tile/>
   <tile/>
   <tile/>
   <tile/>
   <tile/>
   <tile/>
   <tile/>
   <tile/>
   <tile/>
   <tile/>
  </data>
 </layer>
</map>
