<?xml version="1.0" encoding="UTF-8"?>
<map version="1.10" tiledversion="1.11.2" orientation="orthogonal" renderorder="right-down" width="32" height="33" tilewidth="32" tileheight="32" infinite="0" nextlayerid="8" nextobjectid="33">
 <tileset firstgid="1" name="victorian-accessories" tilewidth="32" tileheight="32" tilecount="2560" columns="32">
  <image source="../Tilesets/victorian-accessories.png" width="1024" height="2560"/>
 </tileset>
 <tileset firstgid="2561" name="victorian-garden" tilewidth="32" tileheight="32" tilecount="1024" columns="16">
  <image source="../Tilesets/victorian-garden.png" width="512" height="2048"/>
 </tileset>
 <tileset firstgid="3585" name="victorian-windows-doors" tilewidth="32" tileheight="32" tilecount="5120" columns="32">
  <image source="../Tilesets/victorian-windows-doors.png" width="1024" height="5120"/>
 </tileset>
 <tileset firstgid="8705" name="MapMetadata" tilewidth="32" tileheight="32" spacing="1" margin="1" tilecount="2" columns="2">
  <image source="../Tilesets/MapMetadata.png" width="67" height="34"/>
 </tileset>
 <layer id="1" name="Map" width="32" height="33">
  <properties>
   <property name="Draw" type="bool" value="true"/>
  </properties>
  <data>
   <tile/>
   <tile/>
   <tile/>
   <tile/>
   <tile/>
   <tile/>
   <tile/>
   <tile/>
   <tile/>
   <tile/>
   <tile gid="162"/>
   <tile gid="162"/>
   <tile gid="162"/>
   <tile gid="167"/>
   <tile gid="167"/>
   <tile gid="167"/>
   <tile gid="167"/>
   <tile gid="167"/>
   <tile gid="167"/>
   <tile gid="162"/>
   <tile gid="162"/>
   <tile gid="162"/>
   <tile/>
   <tile/>
   <tile/>
   <tile/>
   <tile/>
   <tile/>
   <tile/>
   <tile/>
   <tile/>
   <tile/>
   <tile/>
   <tile/>
   <tile/>
   <tile/>
   <tile/>
   <tile/>
   <tile/>
   <tile/>
   <tile/>
   <tile/>
   <tile gid="162"/>
   <tile gid="162"/>
   <tile gid="162"/>
   <tile gid="167"/>
   <tile gid="167"/>
   <tile gid="167"/>
   <tile gid="167"/>
   <tile gid="167"/>
   <tile gid="167"/>
   <tile gid="162"/>
   <tile gid="162"/>
   <tile gid="162"/>
   <tile/>
   <tile/>
   <tile/>
   <tile/>
   <tile/>
   <tile/>
   <tile/>
   <tile/>
   <tile/>
   <tile/>
   <tile/>
   <tile/>
   <tile/>
   <tile/>
   <tile/>
   <tile/>
   <tile/>
   <tile/>
   <tile/>
   <tile/>
   <tile gid="162"/>
   <tile gid="162"/>
   <tile gid="162"/>
   <tile gid="167"/>
   <tile gid="167"/>
   <tile gid="167"/>
   <tile gid="167"/>
   <tile gid="167"/>
   <tile gid="167"/>
   <tile gid="162"/>
   <tile gid="162"/>
   <tile gid="162"/>
   <tile/>
   <tile/>
   <tile/>
   <tile/>
   <tile/>
   <tile/>
   <tile/>
   <tile/>
   <tile/>
   <tile/>
   <tile/>
   <tile/>
   <tile/>
   <tile/>
   <tile/>
   <tile/>
   <tile/>
   <tile/>
   <tile/>
   <tile/>
   <tile gid="162"/>
   <tile gid="162"/>
   <tile gid="162"/>
   <tile gid="167"/>
   <tile gid="167"/>
   <tile gid="167"/>
   <tile gid="167"/>
   <tile gid="167"/>
   <tile gid="167"/>
   <tile gid="162"/>
   <tile gid="162"/>
   <tile gid="162"/>
   <tile/>
   <tile/>
   <tile/>
   <tile/>
   <tile/>
   <tile/>
   <tile/>
   <tile/>
   <tile/>
   <tile/>
   <tile/>
   <tile/>
   <tile/>
   <tile/>
   <tile/>
   <tile/>
   <tile/>
   <tile/>
   <tile/>
   <tile/>
   <tile gid="162"/>
   <tile gid="162"/>
   <tile gid="162"/>
   <tile gid="167"/>
   <tile gid="167"/>
   <tile gid="167"/>
   <tile gid="167"/>
   <tile gid="167"/>
   <tile gid="167"/>
   <tile gid="162"/>
   <tile gid="162"/>
   <tile gid="162"/>
   <tile/>
   <tile/>
   <tile/>
   <tile/>
   <tile/>
   <tile/>
   <tile/>
   <tile/>
   <tile/>
   <tile/>
   <tile/>
   <tile/>
   <tile/>
   <tile/>
   <tile/>
   <tile/>
   <tile/>
   <tile/>
   <tile/>
   <tile/>
   <tile gid="162"/>
   <tile gid="162"/>
   <tile gid="162"/>
   <tile gid="167"/>
   <tile gid="167"/>
   <tile gid="167"/>
   <tile gid="167"/>
   <tile gid="167"/>
   <tile gid="167"/>
   <tile gid="162"/>
   <tile gid="162"/>
   <tile gid="162"/>
   <tile/>
   <tile/>
   <tile/>
   <tile/>
   <tile/>
   <tile/>
   <tile/>
   <tile/>
   <tile/>
   <tile/>
   <tile/>
   <tile/>
   <tile/>
   <tile/>
   <tile/>
   <tile/>
   <tile/>
   <tile/>
   <tile/>
   <tile/>
   <tile gid="162"/>
   <tile gid="162"/>
   <tile gid="162"/>
   <tile gid="167"/>
   <tile gid="167"/>
   <tile gid="167"/>
   <tile gid="167"/>
   <tile gid="167"/>
   <tile gid="167"/>
   <tile gid="162"/>
   <tile gid="162"/>
   <tile gid="162"/>
   <tile/>
   <tile/>
   <tile/>
   <tile/>
   <tile/>
   <tile/>
   <tile/>
   <tile/>
   <tile/>
   <tile/>
   <tile gid="1386"/>
   <tile gid="1387"/>
   <tile gid="1482"/>
   <tile gid="1483"/>
   <tile gid="1386"/>
   <tile gid="1387"/>
   <tile gid="1482"/>
   <tile gid="1483"/>
   <tile gid="1386"/>
   <tile gid="1387"/>
   <tile gid="162"/>
   <tile gid="162"/>
   <tile gid="162"/>
   <tile gid="167"/>
   <tile gid="167"/>
   <tile gid="167"/>
   <tile gid="167"/>
   <tile gid="167"/>
   <tile gid="167"/>
   <tile gid="162"/>
   <tile gid="162"/>
   <tile gid="162"/>
   <tile gid="1482"/>
   <tile gid="1483"/>
   <tile gid="1386"/>
   <tile gid="1387"/>
   <tile gid="1482"/>
   <tile gid="1483"/>
   <tile gid="1386"/>
   <tile gid="1387"/>
   <tile gid="1482"/>
   <tile gid="1483"/>
   <tile gid="1418"/>
   <tile gid="1419"/>
   <tile gid="1514"/>
   <tile gid="1515"/>
   <tile gid="1418"/>
   <tile gid="1419"/>
   <tile gid="1514"/>
   <tile gid="1515"/>
   <tile gid="1418"/>
   <tile gid="1419"/>
   <tile gid="162"/>
   <tile gid="162"/>
   <tile gid="162"/>
   <tile gid="167"/>
   <tile gid="167"/>
   <tile gid="167"/>
   <tile gid="167"/>
   <tile gid="167"/>
   <tile gid="167"/>
   <tile gid="162"/>
   <tile gid="162"/>
   <tile gid="162"/>
   <tile gid="1514"/>
   <tile gid="1515"/>
   <tile gid="1418"/>
   <tile gid="1419"/>
   <tile gid="1514"/>
   <tile gid="1515"/>
   <tile gid="1418"/>
   <tile gid="1419"/>
   <tile gid="1514"/>
   <tile gid="1515"/>
   <tile gid="1450"/>
   <tile gid="1451"/>
   <tile gid="1546"/>
   <tile gid="1547"/>
   <tile gid="1450"/>
   <tile gid="1451"/>
   <tile gid="1546"/>
   <tile gid="1547"/>
   <tile gid="1450"/>
   <tile gid="1451"/>
   <tile gid="162"/>
   <tile gid="162"/>
   <tile gid="162"/>
   <tile gid="167"/>
   <tile gid="167"/>
   <tile gid="167"/>
   <tile gid="167"/>
   <tile gid="167"/>
   <tile gid="167"/>
   <tile gid="162"/>
   <tile gid="162"/>
   <tile gid="162"/>
   <tile gid="1546"/>
   <tile gid="1547"/>
   <tile gid="1450"/>
   <tile gid="1451"/>
   <tile gid="1546"/>
   <tile gid="1547"/>
   <tile gid="1450"/>
   <tile gid="1451"/>
   <tile gid="1546"/>
   <tile gid="1547"/>
   <tile gid="162"/>
   <tile gid="162"/>
   <tile gid="162"/>
   <tile gid="1669"/>
   <tile gid="1669"/>
   <tile gid="1669"/>
   <tile gid="1669"/>
   <tile gid="1669"/>
   <tile gid="1669"/>
   <tile gid="1669"/>
   <tile gid="1669"/>
   <tile gid="1669"/>
   <tile gid="1669"/>
   <tile gid="167"/>
   <tile gid="167"/>
   <tile gid="167"/>
   <tile gid="167"/>
   <tile gid="167"/>
   <tile gid="167"/>
   <tile gid="1669"/>
   <tile gid="1669"/>
   <tile gid="1669"/>
   <tile gid="1669"/>
   <tile gid="1669"/>
   <tile gid="1669"/>
   <tile gid="1669"/>
   <tile gid="1669"/>
   <tile gid="1669"/>
   <tile gid="1669"/>
   <tile gid="162"/>
   <tile gid="162"/>
   <tile gid="162"/>
   <tile gid="162"/>
   <tile gid="162"/>
   <tile gid="162"/>
   <tile gid="1669"/>
   <tile gid="1669"/>
   <tile gid="1669"/>
   <tile gid="1669"/>
   <tile gid="1669"/>
   <tile gid="1669"/>
   <tile gid="1669"/>
   <tile gid="1669"/>
   <tile gid="1669"/>
   <tile gid="1669"/>
   <tile gid="167"/>
   <tile gid="167"/>
   <tile gid="167"/>
   <tile gid="167"/>
   <tile gid="167"/>
   <tile gid="167"/>
   <tile gid="1669"/>
   <tile gid="1669"/>
   <tile gid="1669"/>
   <tile gid="1669"/>
   <tile gid="1669"/>
   <tile gid="1669"/>
   <tile gid="1669"/>
   <tile gid="1669"/>
   <tile gid="1669"/>
   <tile gid="1669"/>
   <tile gid="162"/>
   <tile gid="162"/>
   <tile gid="162"/>
   <tile gid="162"/>
   <tile gid="162"/>
   <tile gid="162"/>
   <tile gid="1669"/>
   <tile gid="1669"/>
   <tile gid="1669"/>
   <tile gid="1669"/>
   <tile gid="1669"/>
   <tile gid="1669"/>
   <tile gid="1669"/>
   <tile gid="1669"/>
   <tile gid="1669"/>
   <tile gid="1669"/>
   <tile gid="167"/>
   <tile gid="167"/>
   <tile gid="167"/>
   <tile gid="167"/>
   <tile gid="167"/>
   <tile gid="167"/>
   <tile gid="1669"/>
   <tile gid="1669"/>
   <tile gid="1669"/>
   <tile gid="1669"/>
   <tile gid="1669"/>
   <tile gid="1669"/>
   <tile gid="8705"/>
   <tile gid="8705"/>
   <tile gid="1669"/>
   <tile gid="1669"/>
   <tile gid="162"/>
   <tile gid="162"/>
   <tile gid="162"/>
   <tile gid="162"/>
   <tile gid="162"/>
   <tile gid="162"/>
   <tile gid="1669"/>
   <tile gid="1669"/>
   <tile gid="1669"/>
   <tile gid="1669"/>
   <tile gid="1669"/>
   <tile gid="1669"/>
   <tile gid="1669"/>
   <tile gid="1669"/>
   <tile gid="1669"/>
   <tile gid="1669"/>
   <tile gid="167"/>
   <tile gid="167"/>
   <tile gid="167"/>
   <tile gid="167"/>
   <tile gid="167"/>
   <tile gid="167"/>
   <tile gid="1669"/>
   <tile gid="1669"/>
   <tile gid="1669"/>
   <tile gid="1669"/>
   <tile gid="1669"/>
   <tile gid="1669"/>
   <tile gid="8705"/>
   <tile gid="8705"/>
   <tile gid="1669"/>
   <tile gid="1669"/>
   <tile gid="162"/>
   <tile gid="162"/>
   <tile gid="162"/>
   <tile gid="162"/>
   <tile gid="162"/>
   <tile gid="162"/>
   <tile gid="167"/>
   <tile gid="167"/>
   <tile gid="167"/>
   <tile gid="167"/>
   <tile gid="167"/>
   <tile gid="167"/>
   <tile gid="167"/>
   <tile gid="167"/>
   <tile gid="167"/>
   <tile gid="167"/>
   <tile gid="167"/>
   <tile gid="167"/>
   <tile gid="167"/>
   <tile gid="167"/>
   <tile gid="167"/>
   <tile gid="167"/>
   <tile gid="167"/>
   <tile gid="167"/>
   <tile gid="167"/>
   <tile gid="167"/>
   <tile gid="167"/>
   <tile gid="167"/>
   <tile gid="167"/>
   <tile gid="167"/>
   <tile gid="167"/>
   <tile gid="167"/>
   <tile gid="162"/>
   <tile gid="162"/>
   <tile gid="162"/>
   <tile gid="162"/>
   <tile gid="162"/>
   <tile gid="162"/>
   <tile gid="167"/>
   <tile gid="167"/>
   <tile gid="167"/>
   <tile gid="167"/>
   <tile gid="167"/>
   <tile gid="167"/>
   <tile gid="167"/>
   <tile gid="167"/>
   <tile gid="167"/>
   <tile gid="167"/>
   <tile gid="167"/>
   <tile gid="167"/>
   <tile gid="167"/>
   <tile gid="167"/>
   <tile gid="167"/>
   <tile gid="167"/>
   <tile gid="167"/>
   <tile gid="167"/>
   <tile gid="167"/>
   <tile gid="167"/>
   <tile gid="167"/>
   <tile gid="167"/>
   <tile gid="167"/>
   <tile gid="167"/>
   <tile gid="167"/>
   <tile gid="167"/>
   <tile gid="162"/>
   <tile gid="162"/>
   <tile gid="162"/>
   <tile gid="162"/>
   <tile gid="162"/>
   <tile gid="162"/>
   <tile gid="167"/>
   <tile gid="167"/>
   <tile gid="167"/>
   <tile gid="167"/>
   <tile gid="167"/>
   <tile gid="167"/>
   <tile gid="167"/>
   <tile gid="167"/>
   <tile gid="167"/>
   <tile gid="167"/>
   <tile gid="167"/>
   <tile gid="167"/>
   <tile gid="167"/>
   <tile gid="167"/>
   <tile gid="167"/>
   <tile gid="167"/>
   <tile gid="167"/>
   <tile gid="167"/>
   <tile gid="167"/>
   <tile gid="167"/>
   <tile gid="167"/>
   <tile gid="167"/>
   <tile gid="167"/>
   <tile gid="167"/>
   <tile gid="167"/>
   <tile gid="167"/>
   <tile gid="162"/>
   <tile gid="162"/>
   <tile gid="162"/>
   <tile gid="162"/>
   <tile gid="162"/>
   <tile gid="162"/>
   <tile gid="167"/>
   <tile gid="167"/>
   <tile gid="167"/>
   <tile gid="167"/>
   <tile gid="167"/>
   <tile gid="167"/>
   <tile gid="167"/>
   <tile gid="167"/>
   <tile gid="167"/>
   <tile gid="167"/>
   <tile gid="167"/>
   <tile gid="167"/>
   <tile gid="167"/>
   <tile gid="167"/>
   <tile gid="167"/>
   <tile gid="167"/>
   <tile gid="167"/>
   <tile gid="167"/>
   <tile gid="167"/>
   <tile gid="167"/>
   <tile gid="167"/>
   <tile gid="167"/>
   <tile gid="167"/>
   <tile gid="167"/>
   <tile gid="167"/>
   <tile gid="167"/>
   <tile gid="162"/>
   <tile gid="162"/>
   <tile gid="162"/>
   <tile gid="162"/>
   <tile gid="162"/>
   <tile gid="162"/>
   <tile gid="167"/>
   <tile gid="167"/>
   <tile gid="167"/>
   <tile gid="167"/>
   <tile gid="167"/>
   <tile gid="167"/>
   <tile gid="167"/>
   <tile gid="167"/>
   <tile gid="167"/>
   <tile gid="167"/>
   <tile gid="167"/>
   <tile gid="167"/>
   <tile gid="167"/>
   <tile gid="167"/>
   <tile gid="167"/>
   <tile gid="167"/>
   <tile gid="167"/>
   <tile gid="167"/>
   <tile gid="167"/>
   <tile gid="167"/>
   <tile gid="167"/>
   <tile gid="167"/>
   <tile gid="167"/>
   <tile gid="167"/>
   <tile gid="167"/>
   <tile gid="167"/>
   <tile gid="162"/>
   <tile gid="162"/>
   <tile gid="162"/>
   <tile gid="162"/>
   <tile gid="162"/>
   <tile gid="162"/>
   <tile gid="167"/>
   <tile gid="167"/>
   <tile gid="167"/>
   <tile gid="167"/>
   <tile gid="167"/>
   <tile gid="167"/>
   <tile gid="167"/>
   <tile gid="167"/>
   <tile gid="167"/>
   <tile gid="167"/>
   <tile gid="167"/>
   <tile gid="167"/>
   <tile gid="167"/>
   <tile gid="167"/>
   <tile gid="167"/>
   <tile gid="167"/>
   <tile gid="167"/>
   <tile gid="167"/>
   <tile gid="167"/>
   <tile gid="167"/>
   <tile gid="167"/>
   <tile gid="167"/>
   <tile gid="167"/>
   <tile gid="167"/>
   <tile gid="162"/>
   <tile gid="162"/>
   <tile gid="162"/>
   <tile gid="162"/>
   <tile gid="162"/>
   <tile gid="162"/>
   <tile gid="162"/>
   <tile gid="162"/>
   <tile gid="167"/>
   <tile gid="167"/>
   <tile gid="167"/>
   <tile gid="167"/>
   <tile gid="167"/>
   <tile gid="167"/>
   <tile gid="167"/>
   <tile gid="167"/>
   <tile gid="167"/>
   <tile gid="167"/>
   <tile gid="167"/>
   <tile gid="167"/>
   <tile gid="167"/>
   <tile gid="167"/>
   <tile gid="167"/>
   <tile gid="167"/>
   <tile gid="167"/>
   <tile gid="167"/>
   <tile gid="167"/>
   <tile gid="167"/>
   <tile gid="167"/>
   <tile gid="167"/>
   <tile gid="167"/>
   <tile gid="167"/>
   <tile gid="162"/>
   <tile gid="162"/>
   <tile gid="162"/>
   <tile gid="162"/>
   <tile gid="162"/>
   <tile gid="162"/>
   <tile gid="162"/>
   <tile gid="162"/>
   <tile gid="167"/>
   <tile gid="167"/>
   <tile gid="167"/>
   <tile gid="167"/>
   <tile gid="167"/>
   <tile gid="167"/>
   <tile gid="167"/>
   <tile gid="167"/>
   <tile gid="167"/>
   <tile gid="167"/>
   <tile gid="167"/>
   <tile gid="167"/>
   <tile gid="167"/>
   <tile gid="167"/>
   <tile gid="167"/>
   <tile gid="167"/>
   <tile gid="167"/>
   <tile gid="167"/>
   <tile gid="167"/>
   <tile gid="167"/>
   <tile gid="167"/>
   <tile gid="167"/>
   <tile gid="167"/>
   <tile gid="167"/>
   <tile gid="162"/>
   <tile gid="162"/>
   <tile gid="162"/>
   <tile gid="162"/>
   <tile gid="162"/>
   <tile gid="162"/>
   <tile gid="162"/>
   <tile gid="162"/>
   <tile gid="167"/>
   <tile gid="167"/>
   <tile gid="167"/>
   <tile gid="167"/>
   <tile gid="167"/>
   <tile gid="167"/>
   <tile gid="167"/>
   <tile gid="167"/>
   <tile gid="167"/>
   <tile gid="167"/>
   <tile gid="167"/>
   <tile gid="167"/>
   <tile gid="167"/>
   <tile gid="167"/>
   <tile gid="167"/>
   <tile gid="167"/>
   <tile gid="167"/>
   <tile gid="167"/>
   <tile gid="167"/>
   <tile gid="167"/>
   <tile gid="167"/>
   <tile gid="167"/>
   <tile gid="167"/>
   <tile gid="167"/>
   <tile gid="1669"/>
   <tile gid="1669"/>
   <tile gid="1669"/>
   <tile gid="1669"/>
   <tile gid="162"/>
   <tile gid="162"/>
   <tile gid="162"/>
   <tile gid="162"/>
   <tile gid="167"/>
   <tile gid="167"/>
   <tile gid="167"/>
   <tile gid="167"/>
   <tile gid="167"/>
   <tile gid="167"/>
   <tile gid="167"/>
   <tile gid="167"/>
   <tile gid="167"/>
   <tile gid="167"/>
   <tile gid="167"/>
   <tile gid="167"/>
   <tile gid="167"/>
   <tile gid="167"/>
   <tile gid="167"/>
   <tile gid="167"/>
   <tile gid="167"/>
   <tile gid="167"/>
   <tile gid="167"/>
   <tile gid="167"/>
   <tile gid="167"/>
   <tile gid="167"/>
   <tile gid="167"/>
   <tile gid="167"/>
   <tile gid="1669"/>
   <tile gid="1669"/>
   <tile gid="1669"/>
   <tile gid="1669"/>
   <tile gid="162"/>
   <tile gid="162"/>
   <tile gid="162"/>
   <tile gid="162"/>
   <tile gid="167"/>
   <tile gid="167"/>
   <tile gid="167"/>
   <tile gid="167"/>
   <tile gid="167"/>
   <tile gid="167"/>
   <tile gid="167"/>
   <tile gid="167"/>
   <tile gid="167"/>
   <tile gid="167"/>
   <tile gid="167"/>
   <tile gid="167"/>
   <tile gid="167"/>
   <tile gid="167"/>
   <tile gid="167"/>
   <tile gid="167"/>
   <tile gid="167"/>
   <tile gid="167"/>
   <tile gid="167"/>
   <tile gid="167"/>
   <tile gid="167"/>
   <tile gid="167"/>
   <tile gid="167"/>
   <tile gid="167"/>
   <tile gid="1669"/>
   <tile gid="8705"/>
   <tile gid="1669"/>
   <tile gid="1669"/>
   <tile gid="162"/>
   <tile gid="162"/>
   <tile gid="162"/>
   <tile gid="162"/>
   <tile gid="167"/>
   <tile gid="167"/>
   <tile gid="167"/>
   <tile gid="167"/>
   <tile gid="167"/>
   <tile gid="167"/>
   <tile gid="167"/>
   <tile gid="167"/>
   <tile gid="167"/>
   <tile gid="167"/>
   <tile gid="167"/>
   <tile gid="167"/>
   <tile gid="167"/>
   <tile gid="167"/>
   <tile gid="167"/>
   <tile gid="167"/>
   <tile gid="167"/>
   <tile gid="167"/>
   <tile gid="167"/>
   <tile gid="167"/>
   <tile gid="167"/>
   <tile gid="167"/>
   <tile gid="167"/>
   <tile gid="167"/>
   <tile gid="1669"/>
   <tile gid="8705"/>
   <tile gid="1669"/>
   <tile gid="1669"/>
   <tile gid="162"/>
   <tile gid="162"/>
   <tile gid="162"/>
   <tile gid="162"/>
   <tile gid="167"/>
   <tile gid="167"/>
   <tile gid="167"/>
   <tile gid="167"/>
   <tile gid="167"/>
   <tile gid="167"/>
   <tile gid="167"/>
   <tile gid="167"/>
   <tile gid="167"/>
   <tile gid="167"/>
   <tile gid="167"/>
   <tile gid="167"/>
   <tile gid="167"/>
   <tile gid="167"/>
   <tile gid="167"/>
   <tile gid="167"/>
   <tile gid="167"/>
   <tile gid="167"/>
   <tile gid="167"/>
   <tile gid="167"/>
   <tile gid="167"/>
   <tile gid="167"/>
   <tile gid="167"/>
   <tile gid="167"/>
   <tile gid="167"/>
   <tile gid="167"/>
   <tile gid="167"/>
   <tile gid="167"/>
   <tile gid="162"/>
   <tile gid="162"/>
   <tile gid="162"/>
   <tile gid="162"/>
   <tile gid="167"/>
   <tile gid="167"/>
   <tile gid="167"/>
   <tile gid="167"/>
   <tile gid="167"/>
   <tile gid="167"/>
   <tile gid="167"/>
   <tile gid="167"/>
   <tile gid="167"/>
   <tile gid="167"/>
   <tile gid="167"/>
   <tile gid="167"/>
   <tile gid="167"/>
   <tile gid="167"/>
   <tile gid="167"/>
   <tile gid="167"/>
   <tile gid="167"/>
   <tile gid="167"/>
   <tile gid="167"/>
   <tile gid="167"/>
   <tile gid="167"/>
   <tile gid="167"/>
   <tile gid="167"/>
   <tile gid="167"/>
   <tile gid="167"/>
   <tile gid="167"/>
   <tile gid="167"/>
   <tile gid="167"/>
   <tile gid="162"/>
   <tile gid="162"/>
   <tile gid="162"/>
   <tile gid="162"/>
   <tile gid="167"/>
   <tile gid="167"/>
   <tile gid="167"/>
   <tile gid="167"/>
   <tile gid="167"/>
   <tile gid="167"/>
   <tile gid="167"/>
   <tile gid="167"/>
   <tile gid="167"/>
   <tile gid="167"/>
   <tile gid="167"/>
   <tile gid="167"/>
   <tile gid="167"/>
   <tile gid="167"/>
   <tile gid="167"/>
   <tile gid="167"/>
   <tile gid="167"/>
   <tile gid="167"/>
   <tile gid="167"/>
   <tile gid="167"/>
   <tile gid="167"/>
   <tile gid="167"/>
   <tile gid="167"/>
   <tile gid="167"/>
   <tile gid="167"/>
   <tile gid="167"/>
   <tile gid="167"/>
   <tile gid="167"/>
   <tile gid="162"/>
   <tile gid="162"/>
   <tile gid="162"/>
   <tile gid="162"/>
   <tile gid="167"/>
   <tile gid="167"/>
   <tile gid="167"/>
   <tile gid="167"/>
   <tile gid="167"/>
   <tile gid="167"/>
   <tile gid="167"/>
   <tile gid="167"/>
   <tile gid="167"/>
   <tile gid="167"/>
   <tile gid="167"/>
   <tile gid="167"/>
   <tile gid="167"/>
   <tile gid="167"/>
   <tile gid="167"/>
   <tile gid="167"/>
   <tile gid="167"/>
   <tile gid="167"/>
   <tile gid="167"/>
   <tile gid="167"/>
   <tile gid="167"/>
   <tile gid="167"/>
   <tile gid="167"/>
   <tile gid="167"/>
   <tile gid="167"/>
   <tile gid="167"/>
   <tile gid="167"/>
   <tile gid="167"/>
   <tile gid="162"/>
   <tile gid="162"/>
   <tile gid="162"/>
   <tile gid="162"/>
   <tile gid="162"/>
   <tile gid="162"/>
   <tile gid="162"/>
   <tile gid="162"/>
   <tile gid="162"/>
   <tile gid="162"/>
   <tile gid="162"/>
   <tile gid="162"/>
   <tile gid="162"/>
   <tile gid="162"/>
   <tile gid="162"/>
   <tile gid="162"/>
   <tile gid="162"/>
   <tile gid="162"/>
   <tile gid="162"/>
   <tile gid="162"/>
   <tile gid="162"/>
   <tile gid="162"/>
   <tile gid="162"/>
   <tile gid="162"/>
   <tile gid="162"/>
   <tile gid="162"/>
   <tile gid="162"/>
   <tile gid="162"/>
   <tile gid="162"/>
   <tile gid="162"/>
   <tile gid="162"/>
   <tile gid="162"/>
   <tile gid="162"/>
   <tile gid="162"/>
   <tile gid="162"/>
   <tile gid="162"/>
   <tile gid="162"/>
   <tile gid="162"/>
   <tile gid="162"/>
   <tile gid="162"/>
   <tile gid="162"/>
   <tile gid="162"/>
   <tile gid="162"/>
   <tile gid="162"/>
   <tile gid="162"/>
   <tile gid="162"/>
   <tile gid="162"/>
   <tile gid="162"/>
   <tile gid="162"/>
   <tile gid="162"/>
   <tile gid="162"/>
   <tile gid="162"/>
   <tile gid="162"/>
   <tile gid="162"/>
   <tile gid="162"/>
   <tile gid="162"/>
   <tile gid="162"/>
   <tile gid="162"/>
   <tile gid="162"/>
   <tile gid="162"/>
   <tile gid="162"/>
   <tile gid="162"/>
   <tile gid="162"/>
   <tile gid="162"/>
   <tile gid="162"/>
   <tile gid="162"/>
   <tile gid="162"/>
   <tile gid="162"/>
   <tile gid="162"/>
   <tile gid="162"/>
   <tile gid="162"/>
   <tile gid="162"/>
   <tile gid="162"/>
   <tile gid="162"/>
   <tile gid="162"/>
   <tile gid="162"/>
   <tile gid="162"/>
   <tile gid="162"/>
   <tile gid="162"/>
   <tile gid="162"/>
   <tile gid="162"/>
   <tile gid="162"/>
   <tile gid="162"/>
   <tile gid="162"/>
   <tile gid="162"/>
   <tile gid="162"/>
   <tile gid="162"/>
   <tile gid="162"/>
   <tile gid="162"/>
   <tile gid="162"/>
   <tile gid="162"/>
   <tile gid="162"/>
   <tile gid="162"/>
   <tile gid="162"/>
   <tile gid="162"/>
   <tile gid="162"/>
   <tile gid="162"/>
  </data>
 </layer>
 <layer id="2" name="MoreMap" width="32" height="33">
  <properties>
   <property name="Draw" type="bool" value="true"/>
  </properties>
  <data>
   <tile/>
   <tile/>
   <tile/>
   <tile/>
   <tile/>
   <tile/>
   <tile/>
   <tile/>
   <tile/>
   <tile/>
   <tile/>
   <tile/>
   <tile/>
   <tile/>
   <tile/>
   <tile/>
   <tile/>
   <tile/>
   <tile/>
   <tile/>
   <tile/>
   <tile/>
   <tile/>
   <tile/>
   <tile/>
   <tile/>
   <tile/>
   <tile/>
   <tile/>
   <tile/>
   <tile/>
   <tile/>
   <tile/>
   <tile/>
   <tile/>
   <tile/>
   <tile/>
   <tile/>
   <tile/>
   <tile/>
   <tile/>
   <tile/>
   <tile/>
   <tile/>
   <tile/>
   <tile/>
   <tile/>
   <tile/>
   <tile/>
   <tile/>
   <tile/>
   <tile/>
   <tile/>
   <tile/>
   <tile/>
   <tile/>
   <tile/>
   <tile/>
   <tile/>
   <tile/>
   <tile/>
   <tile/>
   <tile/>
   <tile/>
   <tile/>
   <tile/>
   <tile/>
   <tile/>
   <tile/>
   <tile/>
   <tile/>
   <tile/>
   <tile/>
   <tile/>
   <tile/>
   <tile/>
   <tile/>
   <tile/>
   <tile/>
   <tile/>
   <tile/>
   <tile/>
   <tile/>
   <tile/>
   <tile/>
   <tile/>
   <tile/>
   <tile/>
   <tile/>
   <tile/>
   <tile/>
   <tile/>
   <tile/>
   <tile/>
   <tile/>
   <tile/>
   <tile/>
   <tile/>
   <tile/>
   <tile/>
   <tile/>
   <tile/>
   <tile/>
   <tile/>
   <tile/>
   <tile/>
   <tile/>
   <tile/>
   <tile/>
   <tile/>
   <tile/>
   <tile/>
   <tile/>
   <tile/>
   <tile/>
   <tile/>
   <tile/>
   <tile/>
   <tile/>
   <tile/>
   <tile/>
   <tile/>
   <tile/>
   <tile/>
   <tile/>
   <tile/>
   <tile/>
   <tile/>
   <tile/>
   <tile/>
   <tile/>
   <tile/>
   <tile/>
   <tile/>
   <tile/>
   <tile/>
   <tile/>
   <tile/>
   <tile/>
   <tile/>
   <tile/>
   <tile/>
   <tile/>
   <tile/>
   <tile/>
   <tile/>
   <tile/>
   <tile/>
   <tile/>
   <tile/>
   <tile/>
   <tile/>
   <tile/>
   <tile/>
   <tile/>
   <tile/>
   <tile/>
   <tile/>
   <tile/>
   <tile/>
   <tile/>
   <tile/>
   <tile/>
   <tile/>
   <tile/>
   <tile/>
   <tile/>
   <tile/>
   <tile/>
   <tile/>
   <tile/>
   <tile/>
   <tile/>
   <tile/>
   <tile/>
   <tile/>
   <tile/>
   <tile/>
   <tile/>
   <tile/>
   <tile/>
   <tile/>
   <tile/>
   <tile/>
   <tile/>
   <tile/>
   <tile/>
   <tile/>
   <tile/>
   <tile/>
   <tile/>
   <tile/>
   <tile/>
   <tile/>
   <tile/>
   <tile/>
   <tile/>
   <tile/>
   <tile/>
   <tile/>
   <tile/>
   <tile/>
   <tile/>
   <tile/>
   <tile/>
   <tile/>
   <tile/>
   <tile/>
   <tile/>
   <tile/>
   <tile/>
   <tile/>
   <tile/>
   <tile/>
   <tile/>
   <tile/>
   <tile/>
   <tile/>
   <tile/>
   <tile/>
   <tile/>
   <tile/>
   <tile/>
   <tile/>
   <tile/>
   <tile/>
   <tile/>
   <tile/>
   <tile/>
   <tile/>
   <tile/>
   <tile/>
   <tile/>
   <tile/>
   <tile/>
   <tile/>
   <tile/>
   <tile/>
   <tile/>
   <tile/>
   <tile/>
   <tile/>
   <tile/>
   <tile/>
   <tile/>
   <tile/>
   <tile/>
   <tile/>
   <tile/>
   <tile/>
   <tile/>
   <tile/>
   <tile/>
   <tile/>
   <tile/>
   <tile/>
   <tile/>
   <tile/>
   <tile/>
   <tile/>
   <tile/>
   <tile/>
   <tile/>
   <tile/>
   <tile/>
   <tile/>
   <tile/>
   <tile/>
   <tile/>
   <tile/>
   <tile/>
   <tile/>
   <tile/>
   <tile/>
   <tile/>
   <tile/>
   <tile/>
   <tile/>
   <tile/>
   <tile/>
   <tile/>
   <tile/>
   <tile/>
   <tile/>
   <tile/>
   <tile/>
   <tile/>
   <tile/>
   <tile/>
   <tile/>
   <tile/>
   <tile/>
   <tile/>
   <tile/>
   <tile/>
   <tile/>
   <tile/>
   <tile/>
   <tile/>
   <tile/>
   <tile/>
   <tile/>
   <tile/>
   <tile/>
   <tile/>
   <tile/>
   <tile/>
   <tile/>
   <tile/>
   <tile/>
   <tile/>
   <tile/>
   <tile/>
   <tile/>
   <tile/>
   <tile/>
   <tile/>
   <tile/>
   <tile/>
   <tile/>
   <tile/>
   <tile/>
   <tile/>
   <tile/>
   <tile/>
   <tile/>
   <tile/>
   <tile/>
   <tile/>
   <tile/>
   <tile/>
   <tile/>
   <tile/>
   <tile/>
   <tile/>
   <tile/>
   <tile/>
   <tile/>
   <tile/>
   <tile/>
   <tile/>
   <tile/>
   <tile/>
   <tile/>
   <tile/>
   <tile/>
   <tile/>
   <tile/>
   <tile/>
   <tile/>
   <tile/>
   <tile/>
   <tile/>
   <tile/>
   <tile/>
   <tile/>
   <tile/>
   <tile/>
   <tile/>
   <tile/>
   <tile/>
   <tile/>
   <tile/>
   <tile/>
   <tile/>
   <tile/>
   <tile/>
   <tile/>
   <tile/>
   <tile/>
   <tile/>
   <tile/>
   <tile/>
   <tile/>
   <tile/>
   <tile/>
   <tile/>
   <tile/>
   <tile/>
   <tile/>
   <tile/>
   <tile/>
   <tile/>
   <tile/>
   <tile/>
   <tile/>
   <tile/>
   <tile/>
   <tile/>
   <tile/>
   <tile/>
   <tile/>
   <tile/>
   <tile gid="2693"/>
   <tile gid="2691"/>
   <tile/>
   <tile/>
   <tile/>
   <tile/>
   <tile/>
   <tile/>
   <tile/>
   <tile/>
   <tile/>
   <tile/>
   <tile gid="2691"/>
   <tile gid="2693"/>
   <tile/>
   <tile/>
   <tile gid="743"/>
   <tile gid="744"/>
   <tile/>
   <tile/>
   <tile/>
   <tile/>
   <tile/>
   <tile/>
   <tile/>
   <tile/>
   <tile/>
   <tile/>
   <tile/>
   <tile/>
   <tile/>
   <tile/>
   <tile gid="2709"/>
   <tile gid="2707"/>
   <tile/>
   <tile/>
   <tile gid="291"/>
   <tile gid="291"/>
   <tile gid="291"/>
   <tile gid="291"/>
   <tile gid="291"/>
   <tile gid="291"/>
   <tile/>
   <tile/>
   <tile gid="2707"/>
   <tile gid="2709"/>
   <tile/>
   <tile/>
   <tile gid="775"/>
   <tile gid="776"/>
   <tile/>
   <tile/>
   <tile/>
   <tile/>
   <tile/>
   <tile/>
   <tile/>
   <tile/>
   <tile gid="2769"/>
   <tile gid="2770"/>
   <tile/>
   <tile/>
   <tile gid="2769"/>
   <tile gid="2770"/>
   <tile/>
   <tile/>
   <tile gid="2769"/>
   <tile gid="2770"/>
   <tile/>
   <tile/>
   <tile/>
   <tile/>
   <tile/>
   <tile/>
   <tile gid="2769"/>
   <tile gid="2770"/>
   <tile/>
   <tile/>
   <tile gid="2769"/>
   <tile gid="2770"/>
   <tile/>
   <tile/>
   <tile gid="2769"/>
   <tile gid="2770"/>
   <tile/>
   <tile/>
   <tile/>
   <tile/>
   <tile/>
   <tile/>
   <tile/>
   <tile/>
   <tile/>
   <tile/>
   <tile/>
   <tile/>
   <tile/>
   <tile/>
   <tile/>
   <tile/>
   <tile/>
   <tile/>
   <tile/>
   <tile/>
   <tile/>
   <tile/>
   <tile/>
   <tile/>
   <tile/>
   <tile/>
   <tile/>
   <tile/>
   <tile/>
   <tile/>
   <tile/>
   <tile/>
   <tile/>
   <tile/>
   <tile/>
   <tile/>
   <tile/>
   <tile/>
   <tile/>
   <tile/>
   <tile/>
   <tile/>
   <tile/>
   <tile/>
   <tile/>
   <tile/>
   <tile/>
   <tile/>
   <tile/>
   <tile/>
   <tile/>
   <tile/>
   <tile/>
   <tile/>
   <tile/>
   <tile/>
   <tile/>
   <tile/>
   <tile/>
   <tile/>
   <tile/>
   <tile/>
   <tile/>
   <tile/>
   <tile/>
   <tile/>
   <tile/>
   <tile/>
   <tile/>
   <tile/>
   <tile/>
   <tile/>
   <tile/>
   <tile/>
   <tile/>
   <tile/>
   <tile/>
   <tile/>
   <tile/>
   <tile/>
   <tile/>
   <tile/>
   <tile/>
   <tile/>
   <tile/>
   <tile/>
   <tile/>
   <tile/>
   <tile/>
   <tile/>
   <tile/>
   <tile/>
   <tile/>
   <tile/>
   <tile/>
   <tile/>
   <tile/>
   <tile/>
   <tile/>
   <tile/>
   <tile/>
   <tile/>
   <tile/>
   <tile/>
   <tile/>
   <tile/>
   <tile/>
   <tile/>
   <tile/>
   <tile/>
   <tile/>
   <tile/>
   <tile/>
   <tile/>
   <tile/>
   <tile/>
   <tile/>
   <tile/>
   <tile/>
   <tile/>
   <tile/>
   <tile/>
   <tile/>
   <tile/>
   <tile/>
   <tile/>
   <tile/>
   <tile/>
   <tile/>
   <tile/>
   <tile/>
   <tile/>
   <tile/>
   <tile/>
   <tile/>
   <tile/>
   <tile/>
   <tile/>
   <tile/>
   <tile/>
   <tile/>
   <tile/>
   <tile gid="3361"/>
   <tile gid="3362"/>
   <tile gid="3362"/>
   <tile gid="3362"/>
   <tile gid="3362"/>
   <tile gid="3362"/>
   <tile gid="3362"/>
   <tile gid="3362"/>
   <tile gid="3362"/>
   <tile gid="3366"/>
   <tile/>
   <tile/>
   <tile/>
   <tile/>
   <tile/>
   <tile/>
   <tile/>
   <tile/>
   <tile/>
   <tile/>
   <tile/>
   <tile/>
   <tile/>
   <tile/>
   <tile/>
   <tile/>
   <tile/>
   <tile/>
   <tile/>
   <tile/>
   <tile/>
   <tile/>
   <tile gid="3377"/>
   <tile gid="3378"/>
   <tile gid="3378"/>
   <tile gid="3378"/>
   <tile gid="3378"/>
   <tile gid="3378"/>
   <tile gid="3378"/>
   <tile gid="3378"/>
   <tile gid="3378"/>
   <tile gid="3379"/>
   <tile/>
   <tile/>
   <tile/>
   <tile/>
   <tile/>
   <tile/>
   <tile/>
   <tile/>
   <tile/>
   <tile/>
   <tile/>
   <tile/>
   <tile/>
   <tile/>
   <tile/>
   <tile/>
   <tile/>
   <tile/>
   <tile/>
   <tile/>
   <tile/>
   <tile/>
   <tile gid="3377"/>
   <tile gid="3378"/>
   <tile gid="3378"/>
   <tile gid="3378"/>
   <tile gid="3378"/>
   <tile gid="3378"/>
   <tile gid="3378"/>
   <tile gid="3378"/>
   <tile gid="3378"/>
   <tile gid="3379"/>
   <tile/>
   <tile/>
   <tile/>
   <tile/>
   <tile/>
   <tile/>
   <tile/>
   <tile/>
   <tile/>
   <tile/>
   <tile/>
   <tile/>
   <tile/>
   <tile/>
   <tile/>
   <tile/>
   <tile/>
   <tile/>
   <tile/>
   <tile/>
   <tile/>
   <tile/>
   <tile gid="3377"/>
   <tile gid="3378"/>
   <tile gid="3378"/>
   <tile gid="3378"/>
   <tile gid="3378"/>
   <tile gid="3378"/>
   <tile gid="3378"/>
   <tile gid="3378"/>
   <tile gid="3378"/>
   <tile gid="3379"/>
   <tile/>
   <tile/>
   <tile/>
   <tile/>
   <tile/>
   <tile/>
   <tile/>
   <tile/>
   <tile/>
   <tile/>
   <tile/>
   <tile/>
   <tile/>
   <tile/>
   <tile/>
   <tile/>
   <tile/>
   <tile/>
   <tile/>
   <tile/>
   <tile/>
   <tile/>
   <tile gid="3377"/>
   <tile gid="3378"/>
   <tile gid="3378"/>
   <tile gid="3378"/>
   <tile gid="3378"/>
   <tile gid="3378"/>
   <tile gid="3378"/>
   <tile gid="3378"/>
   <tile gid="3378"/>
   <tile gid="3379"/>
   <tile/>
   <tile/>
   <tile/>
   <tile/>
   <tile/>
   <tile/>
   <tile/>
   <tile/>
   <tile/>
   <tile/>
   <tile/>
   <tile/>
   <tile/>
   <tile/>
   <tile/>
   <tile/>
   <tile/>
   <tile/>
   <tile/>
   <tile/>
   <tile/>
   <tile/>
   <tile gid="3377"/>
   <tile gid="3378"/>
   <tile gid="3378"/>
   <tile gid="3378"/>
   <tile gid="3378"/>
   <tile gid="3378"/>
   <tile gid="3378"/>
   <tile gid="3378"/>
   <tile gid="3378"/>
   <tile gid="3379"/>
   <tile/>
   <tile/>
   <tile/>
   <tile/>
   <tile/>
   <tile/>
   <tile gid="3859"/>
   <tile gid="3860"/>
   <tile gid="3861"/>
   <tile/>
   <tile/>
   <tile/>
   <tile/>
   <tile/>
   <tile/>
   <tile/>
   <tile/>
   <tile/>
   <tile/>
   <tile/>
   <tile/>
   <tile/>
   <tile gid="3393"/>
   <tile gid="3394"/>
   <tile gid="3394"/>
   <tile gid="3394"/>
   <tile gid="3394"/>
   <tile gid="3394"/>
   <tile gid="3394"/>
   <tile gid="3394"/>
   <tile gid="3394"/>
   <tile gid="3395"/>
   <tile/>
   <tile/>
   <tile/>
   <tile/>
   <tile/>
   <tile/>
   <tile gid="3891"/>
   <tile gid="3892"/>
   <tile gid="3893"/>
   <tile/>
   <tile/>
   <tile/>
   <tile/>
   <tile/>
   <tile/>
   <tile/>
   <tile/>
   <tile/>
   <tile/>
   <tile/>
   <tile/>
   <tile/>
   <tile/>
   <tile/>
   <tile/>
   <tile/>
   <tile/>
   <tile/>
   <tile/>
   <tile/>
   <tile/>
   <tile/>
   <tile/>
   <tile/>
   <tile/>
   <tile/>
   <tile/>
   <tile/>
   <tile/>
   <tile/>
   <tile/>
   <tile/>
   <tile/>
   <tile/>
   <tile/>
   <tile/>
   <tile/>
   <tile/>
   <tile/>
   <tile/>
   <tile/>
   <tile/>
   <tile/>
   <tile/>
   <tile/>
   <tile/>
   <tile/>
   <tile/>
   <tile/>
   <tile/>
   <tile/>
   <tile/>
   <tile/>
   <tile/>
   <tile/>
   <tile/>
   <tile/>
   <tile/>
   <tile/>
   <tile/>
   <tile/>
   <tile/>
   <tile/>
   <tile/>
   <tile/>
   <tile/>
   <tile/>
   <tile/>
   <tile/>
   <tile/>
   <tile/>
   <tile/>
   <tile/>
   <tile/>
   <tile/>
   <tile/>
   <tile/>
   <tile/>
   <tile/>
   <tile/>
   <tile/>
   <tile/>
   <tile/>
   <tile/>
   <tile/>
   <tile/>
   <tile/>
   <tile/>
   <tile/>
   <tile/>
   <tile/>
   <tile/>
   <tile/>
   <tile/>
   <tile/>
   <tile/>
   <tile/>
   <tile/>
   <tile/>
   <tile/>
   <tile/>
   <tile/>
   <tile/>
   <tile/>
   <tile/>
   <tile/>
   <tile/>
   <tile/>
   <tile/>
   <tile/>
   <tile/>
   <tile/>
   <tile/>
   <tile/>
   <tile/>
   <tile/>
   <tile/>
   <tile/>
   <tile/>
   <tile/>
   <tile/>
   <tile/>
   <tile/>
   <tile/>
   <tile/>
   <tile/>
   <tile/>
   <tile/>
   <tile/>
   <tile/>
   <tile/>
   <tile/>
   <tile/>
   <tile/>
   <tile/>
   <tile/>
   <tile/>
   <tile/>
   <tile/>
   <tile/>
   <tile/>
   <tile/>
   <tile/>
   <tile/>
   <tile/>
   <tile/>
   <tile/>
   <tile/>
   <tile/>
   <tile/>
   <tile/>
   <tile/>
   <tile/>
   <tile/>
   <tile/>
   <tile/>
   <tile/>
   <tile/>
   <tile/>
   <tile/>
   <tile/>
   <tile/>
   <tile/>
   <tile/>
   <tile/>
   <tile/>
   <tile/>
   <tile/>
   <tile/>
   <tile/>
   <tile/>
   <tile/>
   <tile/>
   <tile/>
   <tile/>
   <tile/>
   <tile/>
   <tile/>
   <tile/>
   <tile/>
   <tile/>
   <tile/>
   <tile/>
   <tile/>
   <tile/>
   <tile/>
   <tile/>
   <tile/>
   <tile/>
   <tile/>
   <tile/>
   <tile/>
   <tile/>
   <tile/>
   <tile/>
   <tile/>
   <tile/>
   <tile/>
   <tile/>
   <tile/>
   <tile/>
   <tile/>
   <tile/>
   <tile/>
   <tile/>
   <tile/>
   <tile/>
   <tile/>
   <tile/>
   <tile/>
   <tile/>
   <tile/>
   <tile/>
   <tile/>
   <tile/>
   <tile/>
   <tile/>
   <tile/>
   <tile/>
   <tile/>
   <tile/>
   <tile/>
   <tile/>
   <tile/>
   <tile/>
  </data>
 </layer>
 <objectgroup id="3" name="Collision">
  <object id="1" x="320" y="0" width="96" height="448"/>
  <object id="2" x="0" y="320" width="96" height="736"/>
  <object id="3" x="96" y="960" width="928" height="96"/>
  <object id="4" x="992" y="704" width="32" height="256"/>
  <object id="5" x="864" y="608" width="160" height="96"/>
  <object id="6" x="928" y="320" width="96" height="288"/>
  <object id="7" x="608" y="320" width="192" height="128"/>
  <object id="8" x="608" y="0" width="96" height="320"/>
  <object id="9" x="864" y="384" width="64" height="64"/>
  <object id="10" x="800" y="352" width="128" height="32"/>
  <object id="11" x="96" y="384" width="224" height="64"/>
  <object id="12" x="96" y="448" width="64" height="32"/>
  <object id="13" x="224" y="448" width="64" height="32"/>
  <object id="14" x="352" y="448" width="64" height="32"/>
  <object id="15" x="608" y="448" width="64" height="32"/>
  <object id="16" x="736" y="448" width="64" height="32"/>
  <object id="17" x="864" y="448" width="64" height="32"/>
  <object id="18" x="352" y="608" width="320" height="32"/>
  <object id="19" x="640" y="640" width="32" height="192"/>
  <object id="20" x="352" y="800" width="288" height="32"/>
  <object id="21" x="352" y="640" width="32" height="160"/>
  <object id="22" x="960" y="704" width="32" height="128"/>
  <object id="23" x="864.5" y="704" width="31.5" height="126.5"/>
  <object id="24" x="928" y="704" width="32" height="128"/>
  <object id="25" x="896" y="704" width="32" height="64">
   <properties>
    <property name="Collision" type="bool" value="true"/>
    <property name="Draw" type="bool" value="false"/>
   </properties>
  </object>
  <object id="32" x="416" y="0" width="192" height="32"/>
 </objectgroup>
 <objectgroup id="4" name="Teleport">
  <object id="26" x="416" y="0" width="192" height="32">
   <properties>
    <property name="targetMap" value="Backroom.tmx"/>
   </properties>
  </object>
  <object id="28" x="896" y="768" width="32" height="95.75">
   <properties>
    <property name="targetMap" value="ClotheDungeon.tmx"/>
   </properties>
  </object>
 </objectgroup>
 <objectgroup id="5" name="Checkpoints">
  <object id="29" x="896" y="832" width="32" height="32"/>
  <object id="30" x="416" y="32" width="192" height="32"/>
 </objectgroup>
 <objectgroup id="6" name="Entities">
  <object id="31" name="Player" type="Player" x="512" y="128">
   <properties>
    <property name="CorneliusJoined" type="bool" value="false"/>
    <property name="WizardJoined" type="bool" value="false"/>
    <property name="magicPoints" type="int" value="50"/>
   </properties>
   <point/>
  </object>
 </objectgroup>
 <objectgroup id="7" name="Events"/>
</map>
