<?xml version="1.0" encoding="UTF-8"?>
<map version="1.10" tiledversion="1.11.2" orientation="orthogonal" renderorder="right-down" width="150" height="82" tilewidth="32" tileheight="32" infinite="0" nextlayerid="10" nextobjectid="102">
 <tileset firstgid="1" name="tmw_desert_spacing" tilewidth="32" tileheight="32" spacing="1" margin="1" tilecount="48" columns="8">
  <image source="../Tilesets/tmw_desert_spacing.png" width="265" height="199"/>
 </tileset>
 <tileset firstgid="49" name="MapMetadata" tilewidth="32" tileheight="32" spacing="1" margin="1" tilecount="2" columns="2">
  <image source="../Tilesets/MapMetadata.png" width="67" height="34"/>
 </tileset>
 <tileset firstgid="51" name="victorian-accessories" tilewidth="32" tileheight="32" tilecount="2560" columns="32">
  <image source="../Tilesets/victorian-accessories.png" width="1024" height="2560"/>
 </tileset>
 <tileset firstgid="2611" name="victorian-garden" tilewidth="32" tileheight="32" tilecount="1024" columns="16">
  <image source="../Tilesets/victorian-garden.png" width="512" height="2048"/>
 </tileset>
 <tileset firstgid="3635" name="victorian-mansion" tilewidth="32" tileheight="32" tilecount="2048" columns="32">
  <image source="../Tilesets/victorian-mansion.png" width="1024" height="2048"/>
 </tileset>
 <tileset firstgid="5683" name="victorian-market" tilewidth="32" tileheight="32" tilecount="1280" columns="16">
  <image source="../Tilesets/victorian-market.png" width="512" height="2560"/>
 </tileset>
 <tileset firstgid="6963" name="victorian-streets" tilewidth="32" tileheight="32" tilecount="1536" columns="16">
  <image source="../Tilesets/victorian-streets.png" width="512" height="3072"/>
 </tileset>
 <tileset firstgid="8499" name="victorian-tenement" tilewidth="32" tileheight="32" tilecount="3072" columns="32">
  <image source="../Tilesets/victorian-tenement.png" width="1024" height="3072"/>
 </tileset>
 <tileset firstgid="11571" name="victorian-windows-doors" tilewidth="32" tileheight="32" tilecount="5120" columns="32">
  <image source="../Tilesets/victorian-windows-doors.png" width="1024" height="5120"/>
 </tileset>
 <tileset firstgid="16691" name="TX Plant" tilewidth="32" tileheight="32" tilecount="256" columns="16">
  <image source="../Tilesets/TX Plant.png" width="512" height="512"/>
 </tileset>
 <layer id="1" name="Map" width="150" height="82">
  <properties>
   <property name="Draw" type="bool" value="true"/>
  </properties>
  <data>
   <tile gid="34"/>
   <tile gid="34"/>
   <tile gid="34"/>
   <tile gid="34"/>
   <tile gid="34"/>
   <tile gid="34"/>
   <tile gid="34"/>
   <tile gid="34"/>
   <tile gid="34"/>
   <tile gid="34"/>
   <tile gid="34"/>
   <tile gid="34"/>
   <tile gid="34"/>
   <tile gid="34"/>
   <tile gid="34"/>
   <tile gid="34"/>
   <tile gid="34"/>
   <tile gid="34"/>
   <tile gid="34"/>
   <tile gid="34"/>
   <tile gid="34"/>
   <tile gid="34"/>
   <tile gid="34"/>
   <tile gid="34"/>
   <tile gid="34"/>
   <tile gid="34"/>
   <tile gid="34"/>
   <tile gid="34"/>
   <tile gid="34"/>
   <tile gid="34"/>
   <tile gid="34"/>
   <tile gid="34"/>
   <tile gid="34"/>
   <tile gid="34"/>
   <tile gid="34"/>
   <tile gid="34"/>
   <tile gid="34"/>
   <tile gid="34"/>
   <tile gid="34"/>
   <tile gid="34"/>
   <tile gid="34"/>
   <tile gid="34"/>
   <tile gid="34"/>
   <tile gid="34"/>
   <tile gid="34"/>
   <tile gid="34"/>
   <tile gid="34"/>
   <tile gid="34"/>
   <tile gid="34"/>
   <tile gid="34"/>
   <tile gid="34"/>
   <tile gid="34"/>
   <tile gid="34"/>
   <tile gid="34"/>
   <tile gid="34"/>
   <tile gid="34"/>
   <tile gid="34"/>
   <tile gid="34"/>
   <tile gid="34"/>
   <tile gid="34"/>
   <tile gid="34"/>
   <tile gid="34"/>
   <tile gid="34"/>
   <tile gid="34"/>
   <tile gid="34"/>
   <tile gid="34"/>
   <tile gid="34"/>
   <tile gid="34"/>
   <tile gid="34"/>
   <tile gid="34"/>
   <tile gid="5026"/>
   <tile gid="5026"/>
   <tile gid="5026"/>
   <tile gid="5026"/>
   <tile gid="5026"/>
   <tile gid="5026"/>
   <tile gid="5026"/>
   <tile gid="5026"/>
   <tile gid="5026"/>
   <tile gid="5026"/>
   <tile gid="5026"/>
   <tile gid="5026"/>
   <tile gid="5026"/>
   <tile gid="5026"/>
   <tile gid="5026"/>
   <tile gid="5026"/>
   <tile gid="5026"/>
   <tile gid="5026"/>
   <tile gid="5026"/>
   <tile gid="5026"/>
   <tile gid="5026"/>
   <tile gid="5026"/>
   <tile gid="5026"/>
   <tile gid="5026"/>
   <tile gid="5026"/>
   <tile gid="5026"/>
   <tile gid="5026"/>
   <tile gid="5026"/>
   <tile gid="5026"/>
   <tile gid="5026"/>
   <tile gid="5026"/>
   <tile gid="5026"/>
   <tile gid="5026"/>
   <tile gid="5026"/>
   <tile gid="5026"/>
   <tile gid="5026"/>
   <tile gid="5026"/>
   <tile gid="5026"/>
   <tile gid="5026"/>
   <tile gid="5026"/>
   <tile gid="5026"/>
   <tile gid="5026"/>
   <tile gid="5026"/>
   <tile gid="5026"/>
   <tile gid="5026"/>
   <tile gid="5026"/>
   <tile gid="5026"/>
   <tile gid="5026"/>
   <tile gid="5026"/>
   <tile gid="5026"/>
   <tile gid="5026"/>
   <tile gid="5026"/>
   <tile gid="5026"/>
   <tile gid="5026"/>
   <tile gid="5026"/>
   <tile gid="5026"/>
   <tile gid="5026"/>
   <tile gid="5026"/>
   <tile gid="5026"/>
   <tile gid="5026"/>
   <tile gid="5026"/>
   <tile gid="5026"/>
   <tile gid="5026"/>
   <tile gid="5026"/>
   <tile gid="5026"/>
   <tile gid="5026"/>
   <tile gid="5026"/>
   <tile gid="5026"/>
   <tile gid="5026"/>
   <tile gid="5026"/>
   <tile gid="5026"/>
   <tile gid="5026"/>
   <tile gid="5026"/>
   <tile gid="5026"/>
   <tile gid="5026"/>
   <tile gid="5026"/>
   <tile gid="5026"/>
   <tile gid="34"/>
   <tile gid="34"/>
   <tile gid="34"/>
   <tile gid="34"/>
   <tile gid="34"/>
   <tile gid="34"/>
   <tile gid="34"/>
   <tile gid="34"/>
   <tile gid="34"/>
   <tile gid="34"/>
   <tile gid="34"/>
   <tile gid="34"/>
   <tile gid="34"/>
   <tile gid="34"/>
   <tile gid="34"/>
   <tile gid="34"/>
   <tile gid="34"/>
   <tile gid="34"/>
   <tile gid="34"/>
   <tile gid="34"/>
   <tile gid="34"/>
   <tile gid="34"/>
   <tile gid="34"/>
   <tile gid="34"/>
   <tile gid="34"/>
   <tile gid="34"/>
   <tile gid="34"/>
   <tile gid="34"/>
   <tile gid="34"/>
   <tile gid="34"/>
   <tile gid="34"/>
   <tile gid="34"/>
   <tile gid="34"/>
   <tile gid="34"/>
   <tile gid="34"/>
   <tile gid="34"/>
   <tile gid="34"/>
   <tile gid="34"/>
   <tile gid="34"/>
   <tile gid="34"/>
   <tile gid="34"/>
   <tile gid="34"/>
   <tile gid="34"/>
   <tile gid="34"/>
   <tile gid="34"/>
   <tile gid="34"/>
   <tile gid="34"/>
   <tile gid="34"/>
   <tile gid="34"/>
   <tile gid="34"/>
   <tile gid="34"/>
   <tile gid="34"/>
   <tile gid="34"/>
   <tile gid="34"/>
   <tile gid="34"/>
   <tile gid="34"/>
   <tile gid="34"/>
   <tile gid="34"/>
   <tile gid="34"/>
   <tile gid="34"/>
   <tile gid="34"/>
   <tile gid="34"/>
   <tile gid="34"/>
   <tile gid="34"/>
   <tile gid="34"/>
   <tile gid="34"/>
   <tile gid="34"/>
   <tile gid="34"/>
   <tile gid="34"/>
   <tile gid="34"/>
   <tile gid="34"/>
   <tile gid="34"/>
   <tile gid="34"/>
   <tile gid="5058"/>
   <tile gid="5058"/>
   <tile gid="5058"/>
   <tile gid="5058"/>
   <tile gid="5058"/>
   <tile gid="5058"/>
   <tile gid="5058"/>
   <tile gid="5058"/>
   <tile gid="5058"/>
   <tile gid="5058"/>
   <tile gid="5058"/>
   <tile gid="5058"/>
   <tile gid="5058"/>
   <tile gid="5058"/>
   <tile gid="5058"/>
   <tile gid="5058"/>
   <tile gid="5058"/>
   <tile gid="5058"/>
   <tile gid="5058"/>
   <tile gid="5058"/>
   <tile gid="5058"/>
   <tile gid="5058"/>
   <tile gid="5058"/>
   <tile gid="5058"/>
   <tile gid="5058"/>
   <tile gid="5058"/>
   <tile gid="5058"/>
   <tile gid="5058"/>
   <tile gid="5058"/>
   <tile gid="5058"/>
   <tile gid="5058"/>
   <tile gid="5058"/>
   <tile gid="5058"/>
   <tile gid="5058"/>
   <tile gid="5058"/>
   <tile gid="5058"/>
   <tile gid="5058"/>
   <tile gid="5058"/>
   <tile gid="5058"/>
   <tile gid="5058"/>
   <tile gid="5058"/>
   <tile gid="5058"/>
   <tile gid="5058"/>
   <tile gid="5058"/>
   <tile gid="5058"/>
   <tile gid="5058"/>
   <tile gid="5058"/>
   <tile gid="5058"/>
   <tile gid="5058"/>
   <tile gid="5058"/>
   <tile gid="5058"/>
   <tile gid="5058"/>
   <tile gid="5058"/>
   <tile gid="5058"/>
   <tile gid="5058"/>
   <tile gid="5058"/>
   <tile gid="5058"/>
   <tile gid="5058"/>
   <tile gid="5058"/>
   <tile gid="5058"/>
   <tile gid="5058"/>
   <tile gid="5058"/>
   <tile gid="5058"/>
   <tile gid="5058"/>
   <tile gid="5058"/>
   <tile gid="5058"/>
   <tile gid="5058"/>
   <tile gid="5058"/>
   <tile gid="5058"/>
   <tile gid="5058"/>
   <tile gid="5058"/>
   <tile gid="5058"/>
   <tile gid="5058"/>
   <tile gid="5058"/>
   <tile gid="5058"/>
   <tile gid="5058"/>
   <tile gid="5058"/>
   <tile gid="34"/>
   <tile gid="34"/>
   <tile gid="34"/>
   <tile gid="34"/>
   <tile gid="34"/>
   <tile gid="34"/>
   <tile gid="34"/>
   <tile gid="34"/>
   <tile gid="34"/>
   <tile gid="34"/>
   <tile gid="34"/>
   <tile gid="34"/>
   <tile gid="34"/>
   <tile gid="34"/>
   <tile gid="34"/>
   <tile gid="34"/>
   <tile gid="34"/>
   <tile gid="34"/>
   <tile gid="34"/>
   <tile gid="34"/>
   <tile gid="34"/>
   <tile gid="34"/>
   <tile gid="34"/>
   <tile gid="34"/>
   <tile gid="34"/>
   <tile gid="34"/>
   <tile gid="34"/>
   <tile gid="34"/>
   <tile gid="34"/>
   <tile gid="34"/>
   <tile gid="34"/>
   <tile gid="34"/>
   <tile gid="34"/>
   <tile gid="34"/>
   <tile gid="34"/>
   <tile gid="34"/>
   <tile gid="34"/>
   <tile gid="34"/>
   <tile gid="34"/>
   <tile gid="34"/>
   <tile gid="34"/>
   <tile gid="34"/>
   <tile gid="34"/>
   <tile gid="34"/>
   <tile gid="34"/>
   <tile gid="34"/>
   <tile gid="34"/>
   <tile gid="34"/>
   <tile gid="34"/>
   <tile gid="34"/>
   <tile gid="34"/>
   <tile gid="34"/>
   <tile gid="34"/>
   <tile gid="34"/>
   <tile gid="34"/>
   <tile gid="34"/>
   <tile gid="34"/>
   <tile gid="34"/>
   <tile gid="34"/>
   <tile gid="34"/>
   <tile gid="34"/>
   <tile gid="34"/>
   <tile gid="34"/>
   <tile gid="34"/>
   <tile gid="34"/>
   <tile gid="34"/>
   <tile gid="34"/>
   <tile gid="34"/>
   <tile gid="34"/>
   <tile gid="34"/>
   <tile gid="34"/>
   <tile gid="34"/>
   <tile gid="34"/>
   <tile gid="5090"/>
   <tile gid="5090"/>
   <tile gid="5090"/>
   <tile gid="5090"/>
   <tile gid="5090"/>
   <tile gid="5090"/>
   <tile gid="5090"/>
   <tile gid="5090"/>
   <tile gid="5090"/>
   <tile gid="5090"/>
   <tile gid="5090"/>
   <tile gid="5090"/>
   <tile gid="5090"/>
   <tile gid="5090"/>
   <tile gid="5090"/>
   <tile gid="5090"/>
   <tile gid="5090"/>
   <tile gid="5090"/>
   <tile gid="5090"/>
   <tile gid="5090"/>
   <tile gid="5090"/>
   <tile gid="5090"/>
   <tile gid="5090"/>
   <tile gid="5090"/>
   <tile gid="5090"/>
   <tile gid="5090"/>
   <tile gid="5090"/>
   <tile gid="5090"/>
   <tile gid="5090"/>
   <tile gid="5090"/>
   <tile gid="5090"/>
   <tile gid="5090"/>
   <tile gid="5090"/>
   <tile gid="5090"/>
   <tile gid="5090"/>
   <tile gid="5090"/>
   <tile gid="5090"/>
   <tile gid="5090"/>
   <tile gid="5090"/>
   <tile gid="5090"/>
   <tile gid="5090"/>
   <tile gid="5090"/>
   <tile gid="5090"/>
   <tile gid="5090"/>
   <tile gid="5090"/>
   <tile gid="5090"/>
   <tile gid="5090"/>
   <tile gid="5090"/>
   <tile gid="5090"/>
   <tile gid="5090"/>
   <tile gid="5090"/>
   <tile gid="5090"/>
   <tile gid="5090"/>
   <tile gid="5090"/>
   <tile gid="5090"/>
   <tile gid="5090"/>
   <tile gid="5090"/>
   <tile gid="5090"/>
   <tile gid="5090"/>
   <tile gid="5090"/>
   <tile gid="5090"/>
   <tile gid="5090"/>
   <tile gid="5090"/>
   <tile gid="5090"/>
   <tile gid="5090"/>
   <tile gid="5090"/>
   <tile gid="5090"/>
   <tile gid="5090"/>
   <tile gid="5090"/>
   <tile gid="5090"/>
   <tile gid="5090"/>
   <tile gid="5090"/>
   <tile gid="5090"/>
   <tile gid="5090"/>
   <tile gid="5090"/>
   <tile gid="5090"/>
   <tile gid="5090"/>
   <tile gid="34"/>
   <tile gid="34"/>
   <tile gid="34"/>
   <tile gid="34"/>
   <tile gid="34"/>
   <tile gid="34"/>
   <tile gid="212"/>
   <tile gid="212"/>
   <tile gid="212"/>
   <tile gid="212"/>
   <tile gid="212"/>
   <tile gid="212"/>
   <tile gid="212"/>
   <tile gid="212"/>
   <tile gid="212"/>
   <tile gid="212"/>
   <tile gid="212"/>
   <tile gid="212"/>
   <tile gid="212"/>
   <tile gid="212"/>
   <tile gid="212"/>
   <tile gid="212"/>
   <tile gid="212"/>
   <tile gid="212"/>
   <tile gid="212"/>
   <tile gid="212"/>
   <tile gid="212"/>
   <tile gid="212"/>
   <tile gid="212"/>
   <tile gid="212"/>
   <tile gid="212"/>
   <tile gid="212"/>
   <tile gid="212"/>
   <tile gid="212"/>
   <tile gid="212"/>
   <tile gid="212"/>
   <tile gid="34"/>
   <tile gid="34"/>
   <tile gid="34"/>
   <tile gid="212"/>
   <tile gid="212"/>
   <tile gid="212"/>
   <tile gid="212"/>
   <tile gid="212"/>
   <tile gid="212"/>
   <tile gid="212"/>
   <tile gid="212"/>
   <tile gid="212"/>
   <tile gid="212"/>
   <tile gid="212"/>
   <tile gid="212"/>
   <tile gid="212"/>
   <tile gid="212"/>
   <tile gid="34"/>
   <tile gid="34"/>
   <tile gid="34"/>
   <tile gid="34"/>
   <tile gid="34"/>
   <tile gid="34"/>
   <tile gid="34"/>
   <tile gid="34"/>
   <tile gid="34"/>
   <tile gid="34"/>
   <tile gid="34"/>
   <tile gid="34"/>
   <tile gid="34"/>
   <tile gid="34"/>
   <tile gid="34"/>
   <tile gid="34"/>
   <tile gid="34"/>
   <tile gid="34"/>
   <tile gid="34"/>
   <tile gid="34"/>
   <tile gid="212"/>
   <tile gid="212"/>
   <tile gid="212"/>
   <tile gid="212"/>
   <tile gid="212"/>
   <tile gid="212"/>
   <tile gid="212"/>
   <tile gid="212"/>
   <tile gid="212"/>
   <tile gid="212"/>
   <tile gid="212"/>
   <tile gid="212"/>
   <tile gid="212"/>
   <tile gid="212"/>
   <tile gid="212"/>
   <tile gid="212"/>
   <tile gid="212"/>
   <tile gid="212"/>
   <tile gid="212"/>
   <tile gid="212"/>
   <tile gid="212"/>
   <tile gid="212"/>
   <tile gid="212"/>
   <tile gid="212"/>
   <tile gid="34"/>
   <tile gid="34"/>
   <tile gid="34"/>
   <tile gid="212"/>
   <tile gid="212"/>
   <tile gid="212"/>
   <tile gid="212"/>
   <tile gid="212"/>
   <tile gid="212"/>
   <tile gid="212"/>
   <tile gid="212"/>
   <tile gid="212"/>
   <tile gid="212"/>
   <tile gid="212"/>
   <tile gid="212"/>
   <tile gid="212"/>
   <tile gid="212"/>
   <tile gid="212"/>
   <tile gid="212"/>
   <tile gid="212"/>
   <tile gid="212"/>
   <tile gid="212"/>
   <tile gid="212"/>
   <tile gid="212"/>
   <tile gid="212"/>
   <tile gid="212"/>
   <tile gid="212"/>
   <tile gid="212"/>
   <tile gid="212"/>
   <tile gid="212"/>
   <tile gid="212"/>
   <tile gid="212"/>
   <tile gid="212"/>
   <tile gid="212"/>
   <tile gid="212"/>
   <tile gid="212"/>
   <tile gid="212"/>
   <tile gid="212"/>
   <tile gid="212"/>
   <tile gid="212"/>
   <tile gid="212"/>
   <tile gid="212"/>
   <tile gid="212"/>
   <tile gid="212"/>
   <tile gid="212"/>
   <tile gid="212"/>
   <tile gid="212"/>
   <tile gid="212"/>
   <tile gid="212"/>
   <tile gid="212"/>
   <tile gid="212"/>
   <tile gid="212"/>
   <tile gid="212"/>
   <tile gid="34"/>
   <tile gid="34"/>
   <tile gid="34"/>
   <tile gid="34"/>
   <tile gid="34"/>
   <tile gid="34"/>
   <tile gid="212"/>
   <tile gid="212"/>
   <tile gid="212"/>
   <tile gid="212"/>
   <tile gid="212"/>
   <tile gid="212"/>
   <tile gid="212"/>
   <tile gid="212"/>
   <tile gid="212"/>
   <tile gid="212"/>
   <tile gid="212"/>
   <tile gid="212"/>
   <tile gid="212"/>
   <tile gid="212"/>
   <tile gid="212"/>
   <tile gid="212"/>
   <tile gid="212"/>
   <tile gid="212"/>
   <tile gid="212"/>
   <tile gid="212"/>
   <tile gid="212"/>
   <tile gid="212"/>
   <tile gid="212"/>
   <tile gid="212"/>
   <tile gid="212"/>
   <tile gid="212"/>
   <tile gid="212"/>
   <tile gid="212"/>
   <tile gid="212"/>
   <tile gid="212"/>
   <tile gid="34"/>
   <tile gid="34"/>
   <tile gid="34"/>
   <tile gid="212"/>
   <tile gid="212"/>
   <tile gid="212"/>
   <tile gid="212"/>
   <tile gid="212"/>
   <tile gid="212"/>
   <tile gid="212"/>
   <tile gid="212"/>
   <tile gid="212"/>
   <tile gid="212"/>
   <tile gid="212"/>
   <tile gid="212"/>
   <tile gid="212"/>
   <tile gid="212"/>
   <tile gid="34"/>
   <tile gid="34"/>
   <tile gid="34"/>
   <tile gid="34"/>
   <tile gid="34"/>
   <tile gid="34"/>
   <tile gid="34"/>
   <tile gid="34"/>
   <tile gid="34"/>
   <tile gid="34"/>
   <tile gid="34"/>
   <tile gid="34"/>
   <tile gid="34"/>
   <tile gid="34"/>
   <tile gid="34"/>
   <tile gid="34"/>
   <tile gid="34"/>
   <tile gid="34"/>
   <tile gid="34"/>
   <tile gid="34"/>
   <tile gid="212"/>
   <tile gid="212"/>
   <tile gid="212"/>
   <tile gid="212"/>
   <tile gid="212"/>
   <tile gid="212"/>
   <tile gid="212"/>
   <tile gid="212"/>
   <tile gid="212"/>
   <tile gid="212"/>
   <tile gid="212"/>
   <tile gid="212"/>
   <tile gid="212"/>
   <tile gid="212"/>
   <tile gid="212"/>
   <tile gid="212"/>
   <tile gid="212"/>
   <tile gid="212"/>
   <tile gid="212"/>
   <tile gid="212"/>
   <tile gid="212"/>
   <tile gid="212"/>
   <tile gid="212"/>
   <tile gid="212"/>
   <tile gid="34"/>
   <tile gid="34"/>
   <tile gid="34"/>
   <tile gid="212"/>
   <tile gid="212"/>
   <tile gid="212"/>
   <tile gid="212"/>
   <tile gid="212"/>
   <tile gid="212"/>
   <tile gid="212"/>
   <tile gid="212"/>
   <tile gid="212"/>
   <tile gid="212"/>
   <tile gid="212"/>
   <tile gid="212"/>
   <tile gid="212"/>
   <tile gid="212"/>
   <tile gid="212"/>
   <tile gid="212"/>
   <tile gid="212"/>
   <tile gid="212"/>
   <tile gid="212"/>
   <tile gid="212"/>
   <tile gid="212"/>
   <tile gid="212"/>
   <tile gid="212"/>
   <tile gid="212"/>
   <tile gid="212"/>
   <tile gid="212"/>
   <tile gid="212"/>
   <tile gid="212"/>
   <tile gid="212"/>
   <tile gid="212"/>
   <tile gid="212"/>
   <tile gid="212"/>
   <tile gid="212"/>
   <tile gid="212"/>
   <tile gid="212"/>
   <tile gid="212"/>
   <tile gid="212"/>
   <tile gid="212"/>
   <tile gid="212"/>
   <tile gid="212"/>
   <tile gid="212"/>
   <tile gid="212"/>
   <tile gid="212"/>
   <tile gid="212"/>
   <tile gid="212"/>
   <tile gid="212"/>
   <tile gid="212"/>
   <tile gid="212"/>
   <tile gid="212"/>
   <tile gid="212"/>
   <tile gid="34"/>
   <tile gid="34"/>
   <tile gid="34"/>
   <tile gid="34"/>
   <tile gid="34"/>
   <tile gid="34"/>
   <tile gid="212"/>
   <tile gid="212"/>
   <tile gid="212"/>
   <tile gid="212"/>
   <tile gid="212"/>
   <tile gid="212"/>
   <tile gid="212"/>
   <tile gid="212"/>
   <tile gid="212"/>
   <tile gid="212"/>
   <tile gid="212"/>
   <tile gid="212"/>
   <tile gid="212"/>
   <tile gid="212"/>
   <tile gid="212"/>
   <tile gid="212"/>
   <tile gid="212"/>
   <tile gid="212"/>
   <tile gid="212"/>
   <tile gid="212"/>
   <tile gid="212"/>
   <tile gid="212"/>
   <tile gid="212"/>
   <tile gid="212"/>
   <tile gid="212"/>
   <tile gid="212"/>
   <tile gid="212"/>
   <tile gid="212"/>
   <tile gid="212"/>
   <tile gid="212"/>
   <tile gid="34"/>
   <tile gid="34"/>
   <tile gid="34"/>
   <tile gid="212"/>
   <tile gid="212"/>
   <tile gid="212"/>
   <tile gid="212"/>
   <tile gid="212"/>
   <tile gid="212"/>
   <tile gid="212"/>
   <tile gid="212"/>
   <tile gid="212"/>
   <tile gid="212"/>
   <tile gid="212"/>
   <tile gid="212"/>
   <tile gid="212"/>
   <tile gid="212"/>
   <tile gid="34"/>
   <tile gid="34"/>
   <tile gid="34"/>
   <tile gid="34"/>
   <tile gid="34"/>
   <tile gid="34"/>
   <tile gid="34"/>
   <tile gid="34"/>
   <tile gid="34"/>
   <tile gid="34"/>
   <tile gid="34"/>
   <tile gid="34"/>
   <tile gid="34"/>
   <tile gid="34"/>
   <tile gid="34"/>
   <tile gid="34"/>
   <tile gid="34"/>
   <tile gid="34"/>
   <tile gid="34"/>
   <tile gid="34"/>
   <tile gid="212"/>
   <tile gid="212"/>
   <tile gid="212"/>
   <tile gid="212"/>
   <tile gid="212"/>
   <tile gid="212"/>
   <tile gid="212"/>
   <tile gid="212"/>
   <tile gid="212"/>
   <tile gid="212"/>
   <tile gid="212"/>
   <tile gid="212"/>
   <tile gid="212"/>
   <tile gid="212"/>
   <tile gid="212"/>
   <tile gid="212"/>
   <tile gid="212"/>
   <tile gid="212"/>
   <tile gid="212"/>
   <tile gid="212"/>
   <tile gid="212"/>
   <tile gid="212"/>
   <tile gid="212"/>
   <tile gid="212"/>
   <tile gid="34"/>
   <tile gid="34"/>
   <tile gid="34"/>
   <tile gid="212"/>
   <tile gid="212"/>
   <tile gid="212"/>
   <tile gid="212"/>
   <tile gid="212"/>
   <tile gid="212"/>
   <tile gid="212"/>
   <tile gid="212"/>
   <tile gid="212"/>
   <tile gid="212"/>
   <tile gid="212"/>
   <tile gid="212"/>
   <tile gid="212"/>
   <tile gid="212"/>
   <tile gid="212"/>
   <tile gid="212"/>
   <tile gid="212"/>
   <tile gid="212"/>
   <tile gid="212"/>
   <tile gid="212"/>
   <tile gid="212"/>
   <tile gid="212"/>
   <tile gid="212"/>
   <tile gid="212"/>
   <tile gid="212"/>
   <tile gid="212"/>
   <tile gid="212"/>
   <tile gid="212"/>
   <tile gid="212"/>
   <tile gid="212"/>
   <tile gid="212"/>
   <tile gid="212"/>
   <tile gid="212"/>
   <tile gid="212"/>
   <tile gid="212"/>
   <tile gid="212"/>
   <tile gid="212"/>
   <tile gid="212"/>
   <tile gid="212"/>
   <tile gid="212"/>
   <tile gid="212"/>
   <tile gid="212"/>
   <tile gid="212"/>
   <tile gid="212"/>
   <tile gid="212"/>
   <tile gid="212"/>
   <tile gid="212"/>
   <tile gid="212"/>
   <tile gid="212"/>
   <tile gid="212"/>
   <tile gid="34"/>
   <tile gid="34"/>
   <tile gid="34"/>
   <tile gid="34"/>
   <tile gid="34"/>
   <tile gid="34"/>
   <tile gid="212"/>
   <tile gid="212"/>
   <tile gid="212"/>
   <tile gid="212"/>
   <tile gid="212"/>
   <tile gid="212"/>
   <tile gid="212"/>
   <tile gid="212"/>
   <tile gid="212"/>
   <tile gid="212"/>
   <tile gid="212"/>
   <tile gid="212"/>
   <tile gid="212"/>
   <tile gid="212"/>
   <tile gid="212"/>
   <tile gid="212"/>
   <tile gid="212"/>
   <tile gid="212"/>
   <tile gid="212"/>
   <tile gid="212"/>
   <tile gid="212"/>
   <tile gid="212"/>
   <tile gid="212"/>
   <tile gid="212"/>
   <tile gid="212"/>
   <tile gid="212"/>
   <tile gid="212"/>
   <tile gid="212"/>
   <tile gid="212"/>
   <tile gid="212"/>
   <tile gid="34"/>
   <tile gid="34"/>
   <tile gid="34"/>
   <tile gid="212"/>
   <tile gid="212"/>
   <tile gid="212"/>
   <tile gid="212"/>
   <tile gid="212"/>
   <tile gid="212"/>
   <tile gid="212"/>
   <tile gid="212"/>
   <tile gid="212"/>
   <tile gid="212"/>
   <tile gid="212"/>
   <tile gid="212"/>
   <tile gid="212"/>
   <tile gid="212"/>
   <tile gid="34"/>
   <tile gid="34"/>
   <tile gid="34"/>
   <tile gid="34"/>
   <tile gid="34"/>
   <tile gid="34"/>
   <tile gid="34"/>
   <tile gid="34"/>
   <tile gid="34"/>
   <tile gid="34"/>
   <tile gid="34"/>
   <tile gid="34"/>
   <tile gid="34"/>
   <tile gid="34"/>
   <tile gid="34"/>
   <tile gid="34"/>
   <tile gid="34"/>
   <tile gid="34"/>
   <tile gid="34"/>
   <tile gid="34"/>
   <tile gid="212"/>
   <tile gid="212"/>
   <tile gid="212"/>
   <tile gid="212"/>
   <tile gid="212"/>
   <tile gid="212"/>
   <tile gid="212"/>
   <tile gid="212"/>
   <tile gid="212"/>
   <tile gid="212"/>
   <tile gid="212"/>
   <tile gid="212"/>
   <tile gid="212"/>
   <tile gid="212"/>
   <tile gid="212"/>
   <tile gid="212"/>
   <tile gid="212"/>
   <tile gid="212"/>
   <tile gid="212"/>
   <tile gid="212"/>
   <tile gid="212"/>
   <tile gid="212"/>
   <tile gid="212"/>
   <tile gid="212"/>
   <tile gid="34"/>
   <tile gid="34"/>
   <tile gid="34"/>
   <tile gid="212"/>
   <tile gid="212"/>
   <tile gid="212"/>
   <tile gid="212"/>
   <tile gid="212"/>
   <tile gid="212"/>
   <tile gid="212"/>
   <tile gid="212"/>
   <tile gid="212"/>
   <tile gid="212"/>
   <tile gid="212"/>
   <tile gid="212"/>
   <tile gid="212"/>
   <tile gid="212"/>
   <tile gid="212"/>
   <tile gid="212"/>
   <tile gid="212"/>
   <tile gid="212"/>
   <tile gid="212"/>
   <tile gid="212"/>
   <tile gid="212"/>
   <tile gid="212"/>
   <tile gid="212"/>
   <tile gid="212"/>
   <tile gid="212"/>
   <tile gid="212"/>
   <tile gid="212"/>
   <tile gid="212"/>
   <tile gid="212"/>
   <tile gid="212"/>
   <tile gid="212"/>
   <tile gid="212"/>
   <tile gid="212"/>
   <tile gid="212"/>
   <tile gid="212"/>
   <tile gid="212"/>
   <tile gid="212"/>
   <tile gid="212"/>
   <tile gid="212"/>
   <tile gid="212"/>
   <tile gid="212"/>
   <tile gid="212"/>
   <tile gid="212"/>
   <tile gid="212"/>
   <tile gid="212"/>
   <tile gid="212"/>
   <tile gid="212"/>
   <tile gid="212"/>
   <tile gid="212"/>
   <tile gid="212"/>
   <tile gid="34"/>
   <tile gid="34"/>
   <tile gid="34"/>
   <tile gid="34"/>
   <tile gid="34"/>
   <tile gid="34"/>
   <tile gid="212"/>
   <tile gid="212"/>
   <tile gid="212"/>
   <tile gid="212"/>
   <tile gid="212"/>
   <tile gid="212"/>
   <tile gid="212"/>
   <tile gid="212"/>
   <tile gid="212"/>
   <tile gid="212"/>
   <tile gid="212"/>
   <tile gid="212"/>
   <tile gid="212"/>
   <tile gid="212"/>
   <tile gid="212"/>
   <tile gid="212"/>
   <tile gid="212"/>
   <tile gid="212"/>
   <tile gid="212"/>
   <tile gid="212"/>
   <tile gid="212"/>
   <tile gid="212"/>
   <tile gid="212"/>
   <tile gid="212"/>
   <tile gid="212"/>
   <tile gid="212"/>
   <tile gid="212"/>
   <tile gid="212"/>
   <tile gid="212"/>
   <tile gid="212"/>
   <tile gid="212"/>
   <tile gid="212"/>
   <tile gid="212"/>
   <tile gid="212"/>
   <tile gid="212"/>
   <tile gid="212"/>
   <tile gid="212"/>
   <tile gid="212"/>
   <tile gid="212"/>
   <tile gid="212"/>
   <tile gid="212"/>
   <tile gid="212"/>
   <tile gid="212"/>
   <tile gid="212"/>
   <tile gid="212"/>
   <tile gid="212"/>
   <tile gid="212"/>
   <tile gid="34"/>
   <tile gid="34"/>
   <tile gid="34"/>
   <tile gid="34"/>
   <tile gid="34"/>
   <tile gid="34"/>
   <tile gid="34"/>
   <tile gid="34"/>
   <tile gid="34"/>
   <tile gid="34"/>
   <tile gid="34"/>
   <tile gid="34"/>
   <tile gid="34"/>
   <tile gid="34"/>
   <tile gid="34"/>
   <tile gid="34"/>
   <tile gid="34"/>
   <tile gid="34"/>
   <tile gid="34"/>
   <tile gid="34"/>
   <tile gid="212"/>
   <tile gid="212"/>
   <tile gid="212"/>
   <tile gid="212"/>
   <tile gid="212"/>
   <tile gid="212"/>
   <tile gid="212"/>
   <tile gid="212"/>
   <tile gid="212"/>
   <tile gid="212"/>
   <tile gid="212"/>
   <tile gid="212"/>
   <tile gid="212"/>
   <tile gid="212"/>
   <tile gid="212"/>
   <tile gid="212"/>
   <tile gid="212"/>
   <tile gid="212"/>
   <tile gid="212"/>
   <tile gid="212"/>
   <tile gid="212"/>
   <tile gid="212"/>
   <tile gid="212"/>
   <tile gid="212"/>
   <tile gid="34"/>
   <tile gid="34"/>
   <tile gid="34"/>
   <tile gid="212"/>
   <tile gid="212"/>
   <tile gid="212"/>
   <tile gid="212"/>
   <tile gid="212"/>
   <tile gid="212"/>
   <tile gid="212"/>
   <tile gid="212"/>
   <tile gid="212"/>
   <tile gid="212"/>
   <tile gid="212"/>
   <tile gid="212"/>
   <tile gid="212"/>
   <tile gid="212"/>
   <tile gid="212"/>
   <tile gid="212"/>
   <tile gid="212"/>
   <tile gid="212"/>
   <tile gid="212"/>
   <tile gid="212"/>
   <tile gid="212"/>
   <tile gid="212"/>
   <tile gid="212"/>
   <tile gid="212"/>
   <tile gid="212"/>
   <tile gid="212"/>
   <tile gid="212"/>
   <tile gid="212"/>
   <tile gid="212"/>
   <tile gid="212"/>
   <tile gid="212"/>
   <tile gid="212"/>
   <tile gid="212"/>
   <tile gid="212"/>
   <tile gid="212"/>
   <tile gid="212"/>
   <tile gid="212"/>
   <tile gid="212"/>
   <tile gid="212"/>
   <tile gid="212"/>
   <tile gid="212"/>
   <tile gid="212"/>
   <tile gid="212"/>
   <tile gid="212"/>
   <tile gid="212"/>
   <tile gid="212"/>
   <tile gid="212"/>
   <tile gid="212"/>
   <tile gid="212"/>
   <tile gid="212"/>
   <tile gid="34"/>
   <tile gid="34"/>
   <tile gid="34"/>
   <tile gid="34"/>
   <tile gid="34"/>
   <tile gid="34"/>
   <tile gid="212"/>
   <tile gid="212"/>
   <tile gid="212"/>
   <tile gid="212"/>
   <tile gid="212"/>
   <tile gid="212"/>
   <tile gid="212"/>
   <tile gid="212"/>
   <tile gid="212"/>
   <tile gid="212"/>
   <tile gid="212"/>
   <tile gid="212"/>
   <tile gid="212"/>
   <tile gid="212"/>
   <tile gid="212"/>
   <tile gid="212"/>
   <tile gid="212"/>
   <tile gid="212"/>
   <tile gid="212"/>
   <tile gid="212"/>
   <tile gid="212"/>
   <tile gid="212"/>
   <tile gid="212"/>
   <tile gid="212"/>
   <tile gid="212"/>
   <tile gid="212"/>
   <tile gid="212"/>
   <tile gid="212"/>
   <tile gid="212"/>
   <tile gid="212"/>
   <tile gid="212"/>
   <tile gid="212"/>
   <tile gid="212"/>
   <tile gid="212"/>
   <tile gid="212"/>
   <tile gid="212"/>
   <tile gid="212"/>
   <tile gid="212"/>
   <tile gid="212"/>
   <tile gid="212"/>
   <tile gid="212"/>
   <tile gid="212"/>
   <tile gid="212"/>
   <tile gid="212"/>
   <tile gid="212"/>
   <tile gid="212"/>
   <tile gid="212"/>
   <tile gid="34"/>
   <tile gid="34"/>
   <tile gid="34"/>
   <tile gid="34"/>
   <tile gid="34"/>
   <tile gid="34"/>
   <tile gid="34"/>
   <tile gid="34"/>
   <tile gid="34"/>
   <tile gid="34"/>
   <tile gid="34"/>
   <tile gid="34"/>
   <tile gid="34"/>
   <tile gid="34"/>
   <tile gid="34"/>
   <tile gid="34"/>
   <tile gid="34"/>
   <tile gid="34"/>
   <tile gid="34"/>
   <tile gid="34"/>
   <tile gid="212"/>
   <tile gid="212"/>
   <tile gid="212"/>
   <tile gid="212"/>
   <tile gid="212"/>
   <tile gid="212"/>
   <tile gid="212"/>
   <tile gid="212"/>
   <tile gid="212"/>
   <tile gid="212"/>
   <tile gid="212"/>
   <tile gid="212"/>
   <tile gid="212"/>
   <tile gid="212"/>
   <tile gid="212"/>
   <tile gid="212"/>
   <tile gid="212"/>
   <tile gid="212"/>
   <tile gid="212"/>
   <tile gid="212"/>
   <tile gid="212"/>
   <tile gid="212"/>
   <tile gid="212"/>
   <tile gid="212"/>
   <tile gid="212"/>
   <tile gid="212"/>
   <tile gid="212"/>
   <tile gid="212"/>
   <tile gid="212"/>
   <tile gid="212"/>
   <tile gid="212"/>
   <tile gid="212"/>
   <tile gid="212"/>
   <tile gid="212"/>
   <tile gid="212"/>
   <tile gid="212"/>
   <tile gid="212"/>
   <tile gid="212"/>
   <tile gid="212"/>
   <tile gid="212"/>
   <tile gid="212"/>
   <tile gid="212"/>
   <tile gid="212"/>
   <tile gid="212"/>
   <tile gid="212"/>
   <tile gid="212"/>
   <tile gid="212"/>
   <tile gid="212"/>
   <tile gid="212"/>
   <tile gid="212"/>
   <tile gid="212"/>
   <tile gid="212"/>
   <tile gid="212"/>
   <tile gid="212"/>
   <tile gid="212"/>
   <tile gid="212"/>
   <tile gid="212"/>
   <tile gid="212"/>
   <tile gid="212"/>
   <tile gid="212"/>
   <tile gid="212"/>
   <tile gid="212"/>
   <tile gid="212"/>
   <tile gid="212"/>
   <tile gid="212"/>
   <tile gid="212"/>
   <tile gid="212"/>
   <tile gid="212"/>
   <tile gid="212"/>
   <tile gid="212"/>
   <tile gid="212"/>
   <tile gid="212"/>
   <tile gid="212"/>
   <tile gid="212"/>
   <tile gid="212"/>
   <tile gid="212"/>
   <tile gid="212"/>
   <tile gid="34"/>
   <tile gid="34"/>
   <tile gid="34"/>
   <tile gid="34"/>
   <tile gid="34"/>
   <tile gid="34"/>
   <tile gid="212"/>
   <tile gid="212"/>
   <tile gid="212"/>
   <tile gid="212"/>
   <tile gid="212"/>
   <tile gid="212"/>
   <tile gid="212"/>
   <tile gid="212"/>
   <tile gid="212"/>
   <tile gid="212"/>
   <tile gid="212"/>
   <tile gid="212"/>
   <tile gid="212"/>
   <tile gid="212"/>
   <tile gid="212"/>
   <tile gid="212"/>
   <tile gid="212"/>
   <tile gid="212"/>
   <tile gid="212"/>
   <tile gid="212"/>
   <tile gid="212"/>
   <tile gid="212"/>
   <tile gid="212"/>
   <tile gid="212"/>
   <tile gid="212"/>
   <tile gid="212"/>
   <tile gid="212"/>
   <tile gid="212"/>
   <tile gid="212"/>
   <tile gid="212"/>
   <tile gid="212"/>
   <tile gid="212"/>
   <tile gid="212"/>
   <tile gid="212"/>
   <tile gid="212"/>
   <tile gid="212"/>
   <tile gid="212"/>
   <tile gid="212"/>
   <tile gid="212"/>
   <tile gid="212"/>
   <tile gid="212"/>
   <tile gid="212"/>
   <tile gid="212"/>
   <tile gid="212"/>
   <tile gid="212"/>
   <tile gid="212"/>
   <tile gid="212"/>
   <tile gid="34"/>
   <tile gid="34"/>
   <tile gid="34"/>
   <tile gid="34"/>
   <tile gid="34"/>
   <tile gid="34"/>
   <tile gid="34"/>
   <tile gid="34"/>
   <tile gid="34"/>
   <tile gid="34"/>
   <tile gid="34"/>
   <tile gid="34"/>
   <tile gid="34"/>
   <tile gid="34"/>
   <tile gid="34"/>
   <tile gid="34"/>
   <tile gid="34"/>
   <tile gid="34"/>
   <tile gid="34"/>
   <tile gid="34"/>
   <tile gid="212"/>
   <tile gid="212"/>
   <tile gid="212"/>
   <tile gid="212"/>
   <tile gid="212"/>
   <tile gid="212"/>
   <tile gid="212"/>
   <tile gid="212"/>
   <tile gid="212"/>
   <tile gid="212"/>
   <tile gid="212"/>
   <tile gid="212"/>
   <tile gid="212"/>
   <tile gid="212"/>
   <tile gid="212"/>
   <tile gid="212"/>
   <tile gid="212"/>
   <tile gid="212"/>
   <tile gid="212"/>
   <tile gid="212"/>
   <tile gid="212"/>
   <tile gid="212"/>
   <tile gid="212"/>
   <tile gid="212"/>
   <tile gid="212"/>
   <tile gid="212"/>
   <tile gid="212"/>
   <tile gid="212"/>
   <tile gid="212"/>
   <tile gid="212"/>
   <tile gid="212"/>
   <tile gid="212"/>
   <tile gid="212"/>
   <tile gid="212"/>
   <tile gid="212"/>
   <tile gid="212"/>
   <tile gid="212"/>
   <tile gid="212"/>
   <tile gid="212"/>
   <tile gid="212"/>
   <tile gid="212"/>
   <tile gid="212"/>
   <tile gid="212"/>
   <tile gid="212"/>
   <tile gid="212"/>
   <tile gid="212"/>
   <tile gid="212"/>
   <tile gid="212"/>
   <tile gid="212"/>
   <tile gid="212"/>
   <tile gid="212"/>
   <tile gid="212"/>
   <tile gid="212"/>
   <tile gid="212"/>
   <tile gid="212"/>
   <tile gid="212"/>
   <tile gid="212"/>
   <tile gid="212"/>
   <tile gid="212"/>
   <tile gid="212"/>
   <tile gid="212"/>
   <tile gid="212"/>
   <tile gid="212"/>
   <tile gid="212"/>
   <tile gid="212"/>
   <tile gid="212"/>
   <tile gid="212"/>
   <tile gid="212"/>
   <tile gid="212"/>
   <tile gid="212"/>
   <tile gid="212"/>
   <tile gid="212"/>
   <tile gid="212"/>
   <tile gid="212"/>
   <tile gid="212"/>
   <tile gid="212"/>
   <tile gid="212"/>
   <tile gid="34"/>
   <tile gid="34"/>
   <tile gid="34"/>
   <tile gid="34"/>
   <tile gid="34"/>
   <tile gid="34"/>
   <tile gid="212"/>
   <tile gid="212"/>
   <tile gid="212"/>
   <tile gid="212"/>
   <tile gid="212"/>
   <tile gid="212"/>
   <tile gid="212"/>
   <tile gid="212"/>
   <tile gid="212"/>
   <tile gid="212"/>
   <tile gid="212"/>
   <tile gid="212"/>
   <tile gid="212"/>
   <tile gid="212"/>
   <tile gid="212"/>
   <tile gid="212"/>
   <tile gid="212"/>
   <tile gid="212"/>
   <tile gid="212"/>
   <tile gid="212"/>
   <tile gid="212"/>
   <tile gid="212"/>
   <tile gid="212"/>
   <tile gid="212"/>
   <tile gid="212"/>
   <tile gid="212"/>
   <tile gid="212"/>
   <tile gid="212"/>
   <tile gid="212"/>
   <tile gid="212"/>
   <tile gid="212"/>
   <tile gid="212"/>
   <tile gid="212"/>
   <tile gid="212"/>
   <tile gid="212"/>
   <tile gid="212"/>
   <tile gid="212"/>
   <tile gid="212"/>
   <tile gid="212"/>
   <tile gid="212"/>
   <tile gid="212"/>
   <tile gid="212"/>
   <tile gid="212"/>
   <tile gid="212"/>
   <tile gid="212"/>
   <tile gid="212"/>
   <tile gid="212"/>
   <tile gid="34"/>
   <tile gid="34"/>
   <tile gid="34"/>
   <tile gid="34"/>
   <tile gid="34"/>
   <tile gid="34"/>
   <tile gid="34"/>
   <tile gid="34"/>
   <tile gid="34"/>
   <tile gid="34"/>
   <tile gid="34"/>
   <tile gid="34"/>
   <tile gid="34"/>
   <tile gid="34"/>
   <tile gid="34"/>
   <tile gid="34"/>
   <tile gid="34"/>
   <tile gid="34"/>
   <tile gid="34"/>
   <tile gid="34"/>
   <tile gid="212"/>
   <tile gid="212"/>
   <tile gid="212"/>
   <tile gid="212"/>
   <tile gid="212"/>
   <tile gid="212"/>
   <tile gid="212"/>
   <tile gid="212"/>
   <tile gid="212"/>
   <tile gid="212"/>
   <tile gid="212"/>
   <tile gid="212"/>
   <tile gid="212"/>
   <tile gid="212"/>
   <tile gid="212"/>
   <tile gid="212"/>
   <tile gid="212"/>
   <tile gid="212"/>
   <tile gid="212"/>
   <tile gid="212"/>
   <tile gid="212"/>
   <tile gid="212"/>
   <tile gid="212"/>
   <tile gid="212"/>
   <tile gid="212"/>
   <tile gid="212"/>
   <tile gid="212"/>
   <tile gid="212"/>
   <tile gid="212"/>
   <tile gid="212"/>
   <tile gid="212"/>
   <tile gid="212"/>
   <tile gid="212"/>
   <tile gid="212"/>
   <tile gid="212"/>
   <tile gid="212"/>
   <tile gid="212"/>
   <tile gid="212"/>
   <tile gid="212"/>
   <tile gid="212"/>
   <tile gid="212"/>
   <tile gid="212"/>
   <tile gid="212"/>
   <tile gid="212"/>
   <tile gid="212"/>
   <tile gid="212"/>
   <tile gid="212"/>
   <tile gid="212"/>
   <tile gid="212"/>
   <tile gid="212"/>
   <tile gid="212"/>
   <tile gid="212"/>
   <tile gid="212"/>
   <tile gid="212"/>
   <tile gid="212"/>
   <tile gid="212"/>
   <tile gid="212"/>
   <tile gid="212"/>
   <tile gid="212"/>
   <tile gid="212"/>
   <tile gid="212"/>
   <tile gid="212"/>
   <tile gid="212"/>
   <tile gid="212"/>
   <tile gid="212"/>
   <tile gid="212"/>
   <tile gid="212"/>
   <tile gid="212"/>
   <tile gid="212"/>
   <tile gid="212"/>
   <tile gid="212"/>
   <tile gid="212"/>
   <tile gid="212"/>
   <tile gid="212"/>
   <tile gid="212"/>
   <tile gid="212"/>
   <tile gid="212"/>
   <tile gid="34"/>
   <tile gid="34"/>
   <tile gid="34"/>
   <tile gid="34"/>
   <tile gid="34"/>
   <tile gid="34"/>
   <tile gid="212"/>
   <tile gid="212"/>
   <tile gid="212"/>
   <tile gid="212"/>
   <tile gid="212"/>
   <tile gid="212"/>
   <tile gid="212"/>
   <tile gid="212"/>
   <tile gid="212"/>
   <tile gid="212"/>
   <tile gid="212"/>
   <tile gid="212"/>
   <tile gid="212"/>
   <tile gid="212"/>
   <tile gid="212"/>
   <tile gid="212"/>
   <tile gid="212"/>
   <tile gid="212"/>
   <tile gid="212"/>
   <tile gid="212"/>
   <tile gid="212"/>
   <tile gid="212"/>
   <tile gid="212"/>
   <tile gid="212"/>
   <tile gid="212"/>
   <tile gid="212"/>
   <tile gid="212"/>
   <tile gid="212"/>
   <tile gid="212"/>
   <tile gid="212"/>
   <tile gid="34"/>
   <tile gid="34"/>
   <tile gid="34"/>
   <tile gid="212"/>
   <tile gid="212"/>
   <tile gid="212"/>
   <tile gid="212"/>
   <tile gid="212"/>
   <tile gid="212"/>
   <tile gid="212"/>
   <tile gid="212"/>
   <tile gid="212"/>
   <tile gid="212"/>
   <tile gid="212"/>
   <tile gid="212"/>
   <tile gid="212"/>
   <tile gid="212"/>
   <tile gid="34"/>
   <tile gid="34"/>
   <tile gid="34"/>
   <tile gid="34"/>
   <tile gid="34"/>
   <tile gid="34"/>
   <tile gid="34"/>
   <tile gid="34"/>
   <tile gid="34"/>
   <tile gid="34"/>
   <tile gid="34"/>
   <tile gid="34"/>
   <tile gid="34"/>
   <tile gid="34"/>
   <tile gid="34"/>
   <tile gid="34"/>
   <tile gid="34"/>
   <tile gid="34"/>
   <tile gid="34"/>
   <tile gid="34"/>
   <tile gid="212"/>
   <tile gid="212"/>
   <tile gid="212"/>
   <tile gid="212"/>
   <tile gid="212"/>
   <tile gid="212"/>
   <tile gid="212"/>
   <tile gid="212"/>
   <tile gid="212"/>
   <tile gid="212"/>
   <tile gid="212"/>
   <tile gid="212"/>
   <tile gid="212"/>
   <tile gid="212"/>
   <tile gid="212"/>
   <tile gid="212"/>
   <tile gid="212"/>
   <tile gid="212"/>
   <tile gid="212"/>
   <tile gid="212"/>
   <tile gid="212"/>
   <tile gid="212"/>
   <tile gid="212"/>
   <tile gid="212"/>
   <tile gid="212"/>
   <tile gid="212"/>
   <tile gid="212"/>
   <tile gid="212"/>
   <tile gid="212"/>
   <tile gid="212"/>
   <tile gid="212"/>
   <tile gid="212"/>
   <tile gid="212"/>
   <tile gid="212"/>
   <tile gid="212"/>
   <tile gid="212"/>
   <tile gid="212"/>
   <tile gid="212"/>
   <tile gid="212"/>
   <tile gid="212"/>
   <tile gid="212"/>
   <tile gid="212"/>
   <tile gid="212"/>
   <tile gid="212"/>
   <tile gid="212"/>
   <tile gid="212"/>
   <tile gid="212"/>
   <tile gid="212"/>
   <tile gid="212"/>
   <tile gid="212"/>
   <tile gid="212"/>
   <tile gid="212"/>
   <tile gid="212"/>
   <tile gid="212"/>
   <tile gid="212"/>
   <tile gid="212"/>
   <tile gid="212"/>
   <tile gid="212"/>
   <tile gid="212"/>
   <tile gid="212"/>
   <tile gid="212"/>
   <tile gid="212"/>
   <tile gid="212"/>
   <tile gid="212"/>
   <tile gid="212"/>
   <tile gid="212"/>
   <tile gid="212"/>
   <tile gid="212"/>
   <tile gid="212"/>
   <tile gid="212"/>
   <tile gid="212"/>
   <tile gid="212"/>
   <tile gid="212"/>
   <tile gid="212"/>
   <tile gid="212"/>
   <tile gid="212"/>
   <tile gid="212"/>
   <tile gid="34"/>
   <tile gid="34"/>
   <tile gid="34"/>
   <tile gid="34"/>
   <tile gid="34"/>
   <tile gid="34"/>
   <tile gid="212"/>
   <tile gid="212"/>
   <tile gid="212"/>
   <tile gid="212"/>
   <tile gid="212"/>
   <tile gid="212"/>
   <tile gid="212"/>
   <tile gid="212"/>
   <tile gid="212"/>
   <tile gid="212"/>
   <tile gid="212"/>
   <tile gid="212"/>
   <tile gid="212"/>
   <tile gid="212"/>
   <tile gid="212"/>
   <tile gid="212"/>
   <tile gid="212"/>
   <tile gid="212"/>
   <tile gid="212"/>
   <tile gid="212"/>
   <tile gid="212"/>
   <tile gid="212"/>
   <tile gid="212"/>
   <tile gid="212"/>
   <tile gid="212"/>
   <tile gid="212"/>
   <tile gid="212"/>
   <tile gid="212"/>
   <tile gid="212"/>
   <tile gid="212"/>
   <tile gid="34"/>
   <tile gid="34"/>
   <tile gid="34"/>
   <tile gid="212"/>
   <tile gid="212"/>
   <tile gid="212"/>
   <tile gid="212"/>
   <tile gid="212"/>
   <tile gid="212"/>
   <tile gid="212"/>
   <tile gid="212"/>
   <tile gid="212"/>
   <tile gid="212"/>
   <tile gid="212"/>
   <tile gid="212"/>
   <tile gid="212"/>
   <tile gid="212"/>
   <tile gid="34"/>
   <tile gid="34"/>
   <tile gid="34"/>
   <tile gid="34"/>
   <tile gid="34"/>
   <tile gid="34"/>
   <tile gid="34"/>
   <tile gid="34"/>
   <tile gid="34"/>
   <tile gid="34"/>
   <tile gid="34"/>
   <tile gid="34"/>
   <tile gid="34"/>
   <tile gid="34"/>
   <tile gid="34"/>
   <tile gid="34"/>
   <tile gid="34"/>
   <tile gid="34"/>
   <tile gid="34"/>
   <tile gid="34"/>
   <tile gid="212"/>
   <tile gid="212"/>
   <tile gid="212"/>
   <tile gid="212"/>
   <tile gid="212"/>
   <tile gid="212"/>
   <tile gid="212"/>
   <tile gid="212"/>
   <tile gid="212"/>
   <tile gid="212"/>
   <tile gid="212"/>
   <tile gid="212"/>
   <tile gid="212"/>
   <tile gid="212"/>
   <tile gid="212"/>
   <tile gid="212"/>
   <tile gid="212"/>
   <tile gid="212"/>
   <tile gid="212"/>
   <tile gid="212"/>
   <tile gid="212"/>
   <tile gid="212"/>
   <tile gid="212"/>
   <tile gid="212"/>
   <tile gid="34"/>
   <tile gid="34"/>
   <tile gid="34"/>
   <tile gid="212"/>
   <tile gid="212"/>
   <tile gid="212"/>
   <tile gid="212"/>
   <tile gid="212"/>
   <tile gid="212"/>
   <tile gid="212"/>
   <tile gid="212"/>
   <tile gid="212"/>
   <tile gid="212"/>
   <tile gid="212"/>
   <tile gid="212"/>
   <tile gid="212"/>
   <tile gid="212"/>
   <tile gid="212"/>
   <tile gid="212"/>
   <tile gid="212"/>
   <tile gid="212"/>
   <tile gid="212"/>
   <tile gid="212"/>
   <tile gid="212"/>
   <tile gid="212"/>
   <tile gid="212"/>
   <tile gid="212"/>
   <tile gid="212"/>
   <tile gid="212"/>
   <tile gid="212"/>
   <tile gid="212"/>
   <tile gid="212"/>
   <tile gid="212"/>
   <tile gid="212"/>
   <tile gid="212"/>
   <tile gid="212"/>
   <tile gid="212"/>
   <tile gid="212"/>
   <tile gid="212"/>
   <tile gid="212"/>
   <tile gid="212"/>
   <tile gid="212"/>
   <tile gid="212"/>
   <tile gid="212"/>
   <tile gid="212"/>
   <tile gid="212"/>
   <tile gid="212"/>
   <tile gid="212"/>
   <tile gid="212"/>
   <tile gid="212"/>
   <tile gid="212"/>
   <tile gid="212"/>
   <tile gid="212"/>
   <tile gid="34"/>
   <tile gid="34"/>
   <tile gid="34"/>
   <tile gid="34"/>
   <tile gid="34"/>
   <tile gid="34"/>
   <tile gid="212"/>
   <tile gid="212"/>
   <tile gid="212"/>
   <tile gid="212"/>
   <tile gid="212"/>
   <tile gid="212"/>
   <tile gid="212"/>
   <tile gid="212"/>
   <tile gid="212"/>
   <tile gid="212"/>
   <tile gid="212"/>
   <tile gid="212"/>
   <tile gid="212"/>
   <tile gid="212"/>
   <tile gid="212"/>
   <tile gid="212"/>
   <tile gid="212"/>
   <tile gid="212"/>
   <tile gid="212"/>
   <tile gid="212"/>
   <tile gid="212"/>
   <tile gid="212"/>
   <tile gid="212"/>
   <tile gid="212"/>
   <tile gid="212"/>
   <tile gid="212"/>
   <tile gid="212"/>
   <tile gid="212"/>
   <tile gid="212"/>
   <tile gid="212"/>
   <tile gid="34"/>
   <tile gid="34"/>
   <tile gid="34"/>
   <tile gid="212"/>
   <tile gid="212"/>
   <tile gid="212"/>
   <tile gid="212"/>
   <tile gid="212"/>
   <tile gid="212"/>
   <tile gid="212"/>
   <tile gid="212"/>
   <tile gid="212"/>
   <tile gid="212"/>
   <tile gid="212"/>
   <tile gid="212"/>
   <tile gid="212"/>
   <tile gid="212"/>
   <tile gid="34"/>
   <tile gid="34"/>
   <tile gid="34"/>
   <tile gid="34"/>
   <tile gid="34"/>
   <tile gid="34"/>
   <tile gid="34"/>
   <tile gid="34"/>
   <tile gid="34"/>
   <tile gid="34"/>
   <tile gid="34"/>
   <tile gid="34"/>
   <tile gid="34"/>
   <tile gid="34"/>
   <tile gid="34"/>
   <tile gid="34"/>
   <tile gid="34"/>
   <tile gid="34"/>
   <tile gid="34"/>
   <tile gid="34"/>
   <tile gid="212"/>
   <tile gid="212"/>
   <tile gid="212"/>
   <tile gid="212"/>
   <tile gid="212"/>
   <tile gid="212"/>
   <tile gid="212"/>
   <tile gid="212"/>
   <tile gid="212"/>
   <tile gid="212"/>
   <tile gid="212"/>
   <tile gid="212"/>
   <tile gid="212"/>
   <tile gid="212"/>
   <tile gid="212"/>
   <tile gid="212"/>
   <tile gid="212"/>
   <tile gid="212"/>
   <tile gid="212"/>
   <tile gid="212"/>
   <tile gid="212"/>
   <tile gid="212"/>
   <tile gid="212"/>
   <tile gid="212"/>
   <tile gid="34"/>
   <tile gid="34"/>
   <tile gid="34"/>
   <tile gid="212"/>
   <tile gid="212"/>
   <tile gid="212"/>
   <tile gid="212"/>
   <tile gid="212"/>
   <tile gid="212"/>
   <tile gid="212"/>
   <tile gid="212"/>
   <tile gid="212"/>
   <tile gid="212"/>
   <tile gid="212"/>
   <tile gid="212"/>
   <tile gid="212"/>
   <tile gid="212"/>
   <tile gid="212"/>
   <tile gid="212"/>
   <tile gid="212"/>
   <tile gid="212"/>
   <tile gid="212"/>
   <tile gid="212"/>
   <tile gid="212"/>
   <tile gid="212"/>
   <tile gid="212"/>
   <tile gid="212"/>
   <tile gid="212"/>
   <tile gid="212"/>
   <tile gid="212"/>
   <tile gid="212"/>
   <tile gid="212"/>
   <tile gid="212"/>
   <tile gid="212"/>
   <tile gid="212"/>
   <tile gid="212"/>
   <tile gid="212"/>
   <tile gid="212"/>
   <tile gid="212"/>
   <tile gid="212"/>
   <tile gid="212"/>
   <tile gid="212"/>
   <tile gid="212"/>
   <tile gid="212"/>
   <tile gid="212"/>
   <tile gid="212"/>
   <tile gid="212"/>
   <tile gid="212"/>
   <tile gid="212"/>
   <tile gid="212"/>
   <tile gid="212"/>
   <tile gid="212"/>
   <tile gid="212"/>
   <tile gid="34"/>
   <tile gid="34"/>
   <tile gid="34"/>
   <tile gid="34"/>
   <tile gid="34"/>
   <tile gid="34"/>
   <tile gid="212"/>
   <tile gid="212"/>
   <tile gid="212"/>
   <tile gid="212"/>
   <tile gid="212"/>
   <tile gid="212"/>
   <tile gid="212"/>
   <tile gid="212"/>
   <tile gid="212"/>
   <tile gid="212"/>
   <tile gid="212"/>
   <tile gid="212"/>
   <tile gid="212"/>
   <tile gid="212"/>
   <tile gid="212"/>
   <tile gid="212"/>
   <tile gid="212"/>
   <tile gid="212"/>
   <tile gid="212"/>
   <tile gid="212"/>
   <tile gid="212"/>
   <tile gid="212"/>
   <tile gid="212"/>
   <tile gid="212"/>
   <tile gid="212"/>
   <tile gid="212"/>
   <tile gid="212"/>
   <tile gid="212"/>
   <tile gid="212"/>
   <tile gid="212"/>
   <tile gid="34"/>
   <tile gid="34"/>
   <tile gid="34"/>
   <tile gid="212"/>
   <tile gid="212"/>
   <tile gid="212"/>
   <tile gid="212"/>
   <tile gid="212"/>
   <tile gid="212"/>
   <tile gid="212"/>
   <tile gid="212"/>
   <tile gid="212"/>
   <tile gid="212"/>
   <tile gid="212"/>
   <tile gid="212"/>
   <tile gid="212"/>
   <tile gid="212"/>
   <tile gid="34"/>
   <tile gid="34"/>
   <tile gid="34"/>
   <tile gid="34"/>
   <tile gid="34"/>
   <tile gid="34"/>
   <tile gid="34"/>
   <tile gid="34"/>
   <tile gid="34"/>
   <tile gid="34"/>
   <tile gid="34"/>
   <tile gid="34"/>
   <tile gid="34"/>
   <tile gid="34"/>
   <tile gid="34"/>
   <tile gid="34"/>
   <tile gid="34"/>
   <tile gid="34"/>
   <tile gid="34"/>
   <tile gid="34"/>
   <tile gid="212"/>
   <tile gid="212"/>
   <tile gid="212"/>
   <tile gid="212"/>
   <tile gid="212"/>
   <tile gid="212"/>
   <tile gid="212"/>
   <tile gid="212"/>
   <tile gid="212"/>
   <tile gid="212"/>
   <tile gid="212"/>
   <tile gid="212"/>
   <tile gid="212"/>
   <tile gid="212"/>
   <tile gid="212"/>
   <tile gid="212"/>
   <tile gid="212"/>
   <tile gid="212"/>
   <tile gid="212"/>
   <tile gid="212"/>
   <tile gid="212"/>
   <tile gid="212"/>
   <tile gid="212"/>
   <tile gid="212"/>
   <tile gid="34"/>
   <tile gid="34"/>
   <tile gid="34"/>
   <tile gid="212"/>
   <tile gid="212"/>
   <tile gid="212"/>
   <tile gid="212"/>
   <tile gid="212"/>
   <tile gid="212"/>
   <tile gid="212"/>
   <tile gid="212"/>
   <tile gid="212"/>
   <tile gid="212"/>
   <tile gid="212"/>
   <tile gid="212"/>
   <tile gid="212"/>
   <tile gid="212"/>
   <tile gid="212"/>
   <tile gid="212"/>
   <tile gid="212"/>
   <tile gid="212"/>
   <tile gid="212"/>
   <tile gid="212"/>
   <tile gid="212"/>
   <tile gid="212"/>
   <tile gid="212"/>
   <tile gid="212"/>
   <tile gid="212"/>
   <tile gid="212"/>
   <tile gid="212"/>
   <tile gid="212"/>
   <tile gid="212"/>
   <tile gid="212"/>
   <tile gid="212"/>
   <tile gid="212"/>
   <tile gid="212"/>
   <tile gid="212"/>
   <tile gid="212"/>
   <tile gid="212"/>
   <tile gid="212"/>
   <tile gid="212"/>
   <tile gid="212"/>
   <tile gid="212"/>
   <tile gid="212"/>
   <tile gid="212"/>
   <tile gid="212"/>
   <tile gid="212"/>
   <tile gid="212"/>
   <tile gid="212"/>
   <tile gid="212"/>
   <tile gid="212"/>
   <tile gid="212"/>
   <tile gid="212"/>
   <tile gid="34"/>
   <tile gid="34"/>
   <tile gid="34"/>
   <tile gid="34"/>
   <tile gid="34"/>
   <tile gid="34"/>
   <tile gid="212"/>
   <tile gid="212"/>
   <tile gid="212"/>
   <tile gid="212"/>
   <tile gid="212"/>
   <tile gid="212"/>
   <tile gid="212"/>
   <tile gid="212"/>
   <tile gid="212"/>
   <tile gid="212"/>
   <tile gid="212"/>
   <tile gid="212"/>
   <tile gid="212"/>
   <tile gid="212"/>
   <tile gid="212"/>
   <tile gid="212"/>
   <tile gid="212"/>
   <tile gid="212"/>
   <tile gid="212"/>
   <tile gid="212"/>
   <tile gid="212"/>
   <tile gid="212"/>
   <tile gid="212"/>
   <tile gid="212"/>
   <tile gid="212"/>
   <tile gid="212"/>
   <tile gid="212"/>
   <tile gid="212"/>
   <tile gid="212"/>
   <tile gid="212"/>
   <tile gid="34"/>
   <tile gid="34"/>
   <tile gid="34"/>
   <tile gid="212"/>
   <tile gid="212"/>
   <tile gid="212"/>
   <tile gid="212"/>
   <tile gid="212"/>
   <tile gid="212"/>
   <tile gid="212"/>
   <tile gid="212"/>
   <tile gid="212"/>
   <tile gid="212"/>
   <tile gid="212"/>
   <tile gid="212"/>
   <tile gid="212"/>
   <tile gid="212"/>
   <tile gid="34"/>
   <tile gid="34"/>
   <tile gid="34"/>
   <tile gid="34"/>
   <tile gid="34"/>
   <tile gid="34"/>
   <tile gid="34"/>
   <tile gid="34"/>
   <tile gid="34"/>
   <tile gid="34"/>
   <tile gid="34"/>
   <tile gid="34"/>
   <tile gid="34"/>
   <tile gid="34"/>
   <tile gid="34"/>
   <tile gid="34"/>
   <tile gid="34"/>
   <tile gid="34"/>
   <tile gid="34"/>
   <tile gid="34"/>
   <tile gid="212"/>
   <tile gid="212"/>
   <tile gid="212"/>
   <tile gid="212"/>
   <tile gid="212"/>
   <tile gid="212"/>
   <tile gid="212"/>
   <tile gid="212"/>
   <tile gid="212"/>
   <tile gid="212"/>
   <tile gid="212"/>
   <tile gid="212"/>
   <tile gid="212"/>
   <tile gid="212"/>
   <tile gid="212"/>
   <tile gid="212"/>
   <tile gid="212"/>
   <tile gid="212"/>
   <tile gid="212"/>
   <tile gid="212"/>
   <tile gid="212"/>
   <tile gid="212"/>
   <tile gid="212"/>
   <tile gid="212"/>
   <tile gid="34"/>
   <tile gid="34"/>
   <tile gid="34"/>
   <tile gid="212"/>
   <tile gid="212"/>
   <tile gid="212"/>
   <tile gid="212"/>
   <tile gid="212"/>
   <tile gid="212"/>
   <tile gid="212"/>
   <tile gid="212"/>
   <tile gid="212"/>
   <tile gid="212"/>
   <tile gid="212"/>
   <tile gid="212"/>
   <tile gid="212"/>
   <tile gid="212"/>
   <tile gid="212"/>
   <tile gid="212"/>
   <tile gid="212"/>
   <tile gid="212"/>
   <tile gid="212"/>
   <tile gid="212"/>
   <tile gid="212"/>
   <tile gid="212"/>
   <tile gid="212"/>
   <tile gid="212"/>
   <tile gid="212"/>
   <tile gid="212"/>
   <tile gid="212"/>
   <tile gid="212"/>
   <tile gid="212"/>
   <tile gid="212"/>
   <tile gid="212"/>
   <tile gid="212"/>
   <tile gid="212"/>
   <tile gid="212"/>
   <tile gid="212"/>
   <tile gid="212"/>
   <tile gid="212"/>
   <tile gid="212"/>
   <tile gid="212"/>
   <tile gid="212"/>
   <tile gid="212"/>
   <tile gid="212"/>
   <tile gid="212"/>
   <tile gid="212"/>
   <tile gid="212"/>
   <tile gid="212"/>
   <tile gid="212"/>
   <tile gid="212"/>
   <tile gid="212"/>
   <tile gid="212"/>
   <tile gid="34"/>
   <tile gid="34"/>
   <tile gid="34"/>
   <tile gid="34"/>
   <tile gid="34"/>
   <tile gid="34"/>
   <tile gid="212"/>
   <tile gid="212"/>
   <tile gid="212"/>
   <tile gid="212"/>
   <tile gid="212"/>
   <tile gid="212"/>
   <tile gid="212"/>
   <tile gid="212"/>
   <tile gid="212"/>
   <tile gid="212"/>
   <tile gid="212"/>
   <tile gid="212"/>
   <tile gid="212"/>
   <tile gid="212"/>
   <tile gid="212"/>
   <tile gid="212"/>
   <tile gid="212"/>
   <tile gid="212"/>
   <tile gid="212"/>
   <tile gid="212"/>
   <tile gid="212"/>
   <tile gid="212"/>
   <tile gid="212"/>
   <tile gid="212"/>
   <tile gid="212"/>
   <tile gid="212"/>
   <tile gid="212"/>
   <tile gid="212"/>
   <tile gid="212"/>
   <tile gid="212"/>
   <tile gid="34"/>
   <tile gid="34"/>
   <tile gid="34"/>
   <tile gid="212"/>
   <tile gid="212"/>
   <tile gid="212"/>
   <tile gid="212"/>
   <tile gid="212"/>
   <tile gid="212"/>
   <tile gid="212"/>
   <tile gid="212"/>
   <tile gid="212"/>
   <tile gid="212"/>
   <tile gid="212"/>
   <tile gid="212"/>
   <tile gid="212"/>
   <tile gid="212"/>
   <tile gid="34"/>
   <tile gid="34"/>
   <tile gid="34"/>
   <tile gid="34"/>
   <tile gid="34"/>
   <tile gid="34"/>
   <tile gid="34"/>
   <tile gid="34"/>
   <tile gid="34"/>
   <tile gid="34"/>
   <tile gid="34"/>
   <tile gid="34"/>
   <tile gid="34"/>
   <tile gid="34"/>
   <tile gid="34"/>
   <tile gid="34"/>
   <tile gid="34"/>
   <tile gid="34"/>
   <tile gid="34"/>
   <tile gid="34"/>
   <tile gid="212"/>
   <tile gid="212"/>
   <tile gid="212"/>
   <tile gid="212"/>
   <tile gid="212"/>
   <tile gid="212"/>
   <tile gid="212"/>
   <tile gid="212"/>
   <tile gid="212"/>
   <tile gid="212"/>
   <tile gid="212"/>
   <tile gid="212"/>
   <tile gid="212"/>
   <tile gid="212"/>
   <tile gid="212"/>
   <tile gid="212"/>
   <tile gid="212"/>
   <tile gid="212"/>
   <tile gid="212"/>
   <tile gid="212"/>
   <tile gid="212"/>
   <tile gid="212"/>
   <tile gid="212"/>
   <tile gid="212"/>
   <tile gid="34"/>
   <tile gid="34"/>
   <tile gid="34"/>
   <tile gid="212"/>
   <tile gid="212"/>
   <tile gid="212"/>
   <tile gid="212"/>
   <tile gid="212"/>
   <tile gid="212"/>
   <tile gid="212"/>
   <tile gid="212"/>
   <tile gid="212"/>
   <tile gid="212"/>
   <tile gid="212"/>
   <tile gid="212"/>
   <tile gid="212"/>
   <tile gid="212"/>
   <tile gid="212"/>
   <tile gid="212"/>
   <tile gid="212"/>
   <tile gid="212"/>
   <tile gid="212"/>
   <tile gid="212"/>
   <tile gid="212"/>
   <tile gid="212"/>
   <tile gid="212"/>
   <tile gid="212"/>
   <tile gid="212"/>
   <tile gid="212"/>
   <tile gid="212"/>
   <tile gid="212"/>
   <tile gid="212"/>
   <tile gid="212"/>
   <tile gid="212"/>
   <tile gid="212"/>
   <tile gid="212"/>
   <tile gid="212"/>
   <tile gid="212"/>
   <tile gid="212"/>
   <tile gid="212"/>
   <tile gid="212"/>
   <tile gid="212"/>
   <tile gid="212"/>
   <tile gid="212"/>
   <tile gid="212"/>
   <tile gid="212"/>
   <tile gid="212"/>
   <tile gid="212"/>
   <tile gid="212"/>
   <tile gid="212"/>
   <tile gid="212"/>
   <tile gid="212"/>
   <tile gid="212"/>
   <tile gid="34"/>
   <tile gid="34"/>
   <tile gid="34"/>
   <tile gid="34"/>
   <tile gid="34"/>
   <tile gid="34"/>
   <tile gid="34"/>
   <tile gid="34"/>
   <tile gid="34"/>
   <tile gid="34"/>
   <tile gid="212"/>
   <tile gid="212"/>
   <tile gid="212"/>
   <tile gid="212"/>
   <tile gid="34"/>
   <tile gid="34"/>
   <tile gid="34"/>
   <tile gid="34"/>
   <tile gid="34"/>
   <tile gid="34"/>
   <tile gid="34"/>
   <tile gid="34"/>
   <tile gid="34"/>
   <tile gid="34"/>
   <tile gid="34"/>
   <tile gid="34"/>
   <tile gid="34"/>
   <tile gid="34"/>
   <tile gid="34"/>
   <tile gid="34"/>
   <tile gid="34"/>
   <tile gid="34"/>
   <tile gid="34"/>
   <tile gid="34"/>
   <tile gid="34"/>
   <tile gid="34"/>
   <tile gid="34"/>
   <tile gid="34"/>
   <tile gid="34"/>
   <tile gid="34"/>
   <tile gid="34"/>
   <tile gid="34"/>
   <tile gid="34"/>
   <tile gid="34"/>
   <tile gid="34"/>
   <tile gid="34"/>
   <tile gid="34"/>
   <tile gid="34"/>
   <tile gid="34"/>
   <tile gid="34"/>
   <tile gid="34"/>
   <tile gid="34"/>
   <tile gid="34"/>
   <tile gid="34"/>
   <tile gid="34"/>
   <tile gid="34"/>
   <tile gid="34"/>
   <tile gid="34"/>
   <tile gid="34"/>
   <tile gid="34"/>
   <tile gid="34"/>
   <tile gid="34"/>
   <tile gid="34"/>
   <tile gid="34"/>
   <tile gid="34"/>
   <tile gid="34"/>
   <tile gid="34"/>
   <tile gid="34"/>
   <tile gid="34"/>
   <tile gid="34"/>
   <tile gid="34"/>
   <tile gid="34"/>
   <tile gid="34"/>
   <tile gid="34"/>
   <tile gid="34"/>
   <tile gid="34"/>
   <tile gid="49"/>
   <tile gid="49"/>
   <tile gid="49"/>
   <tile gid="34"/>
   <tile gid="34"/>
   <tile gid="34"/>
   <tile gid="34"/>
   <tile gid="34"/>
   <tile gid="34"/>
   <tile gid="34"/>
   <tile gid="34"/>
   <tile gid="34"/>
   <tile gid="34"/>
   <tile gid="34"/>
   <tile gid="212"/>
   <tile gid="212"/>
   <tile gid="212"/>
   <tile gid="34"/>
   <tile gid="34"/>
   <tile gid="34"/>
   <tile gid="34"/>
   <tile gid="34"/>
   <tile gid="34"/>
   <tile gid="34"/>
   <tile gid="34"/>
   <tile gid="34"/>
   <tile gid="34"/>
   <tile gid="34"/>
   <tile gid="34"/>
   <tile gid="34"/>
   <tile gid="34"/>
   <tile gid="34"/>
   <tile gid="34"/>
   <tile gid="34"/>
   <tile gid="34"/>
   <tile gid="34"/>
   <tile gid="34"/>
   <tile gid="34"/>
   <tile gid="34"/>
   <tile gid="34"/>
   <tile gid="34"/>
   <tile gid="34"/>
   <tile gid="34"/>
   <tile gid="34"/>
   <tile gid="34"/>
   <tile gid="34"/>
   <tile gid="34"/>
   <tile gid="34"/>
   <tile gid="34"/>
   <tile gid="34"/>
   <tile gid="34"/>
   <tile gid="34"/>
   <tile gid="34"/>
   <tile gid="34"/>
   <tile gid="34"/>
   <tile gid="34"/>
   <tile gid="34"/>
   <tile gid="34"/>
   <tile gid="34"/>
   <tile gid="34"/>
   <tile gid="34"/>
   <tile gid="212"/>
   <tile gid="212"/>
   <tile gid="212"/>
   <tile gid="34"/>
   <tile gid="34"/>
   <tile gid="34"/>
   <tile gid="34"/>
   <tile gid="34"/>
   <tile gid="34"/>
   <tile gid="34"/>
   <tile gid="34"/>
   <tile gid="34"/>
   <tile gid="34"/>
   <tile gid="34"/>
   <tile gid="34"/>
   <tile gid="34"/>
   <tile gid="34"/>
   <tile gid="34"/>
   <tile gid="34"/>
   <tile gid="34"/>
   <tile gid="34"/>
   <tile gid="34"/>
   <tile gid="34"/>
   <tile gid="212"/>
   <tile gid="212"/>
   <tile gid="212"/>
   <tile gid="212"/>
   <tile gid="34"/>
   <tile gid="34"/>
   <tile gid="34"/>
   <tile gid="34"/>
   <tile gid="34"/>
   <tile gid="34"/>
   <tile gid="34"/>
   <tile gid="34"/>
   <tile gid="34"/>
   <tile gid="34"/>
   <tile gid="34"/>
   <tile gid="34"/>
   <tile gid="34"/>
   <tile gid="34"/>
   <tile gid="34"/>
   <tile gid="34"/>
   <tile gid="34"/>
   <tile gid="34"/>
   <tile gid="34"/>
   <tile gid="34"/>
   <tile gid="34"/>
   <tile gid="34"/>
   <tile gid="34"/>
   <tile gid="34"/>
   <tile gid="34"/>
   <tile gid="34"/>
   <tile gid="34"/>
   <tile gid="34"/>
   <tile gid="34"/>
   <tile gid="34"/>
   <tile gid="34"/>
   <tile gid="34"/>
   <tile gid="34"/>
   <tile gid="34"/>
   <tile gid="34"/>
   <tile gid="34"/>
   <tile gid="34"/>
   <tile gid="34"/>
   <tile gid="34"/>
   <tile gid="34"/>
   <tile gid="34"/>
   <tile gid="34"/>
   <tile gid="34"/>
   <tile gid="34"/>
   <tile gid="34"/>
   <tile gid="34"/>
   <tile gid="34"/>
   <tile gid="34"/>
   <tile gid="34"/>
   <tile gid="34"/>
   <tile gid="34"/>
   <tile gid="34"/>
   <tile gid="34"/>
   <tile gid="34"/>
   <tile gid="34"/>
   <tile gid="34"/>
   <tile gid="34"/>
   <tile gid="34"/>
   <tile gid="34"/>
   <tile gid="34"/>
   <tile gid="34"/>
   <tile gid="34"/>
   <tile gid="49"/>
   <tile gid="49"/>
   <tile gid="49"/>
   <tile gid="34"/>
   <tile gid="34"/>
   <tile gid="34"/>
   <tile gid="34"/>
   <tile gid="34"/>
   <tile gid="34"/>
   <tile gid="34"/>
   <tile gid="34"/>
   <tile gid="34"/>
   <tile gid="34"/>
   <tile gid="34"/>
   <tile gid="212"/>
   <tile gid="212"/>
   <tile gid="212"/>
   <tile gid="34"/>
   <tile gid="34"/>
   <tile gid="34"/>
   <tile gid="34"/>
   <tile gid="34"/>
   <tile gid="34"/>
   <tile gid="34"/>
   <tile gid="34"/>
   <tile gid="34"/>
   <tile gid="34"/>
   <tile gid="34"/>
   <tile gid="34"/>
   <tile gid="34"/>
   <tile gid="34"/>
   <tile gid="34"/>
   <tile gid="34"/>
   <tile gid="34"/>
   <tile gid="34"/>
   <tile gid="34"/>
   <tile gid="34"/>
   <tile gid="34"/>
   <tile gid="34"/>
   <tile gid="34"/>
   <tile gid="34"/>
   <tile gid="34"/>
   <tile gid="34"/>
   <tile gid="34"/>
   <tile gid="34"/>
   <tile gid="34"/>
   <tile gid="34"/>
   <tile gid="34"/>
   <tile gid="34"/>
   <tile gid="34"/>
   <tile gid="34"/>
   <tile gid="34"/>
   <tile gid="34"/>
   <tile gid="34"/>
   <tile gid="34"/>
   <tile gid="34"/>
   <tile gid="34"/>
   <tile gid="34"/>
   <tile gid="34"/>
   <tile gid="34"/>
   <tile gid="34"/>
   <tile gid="212"/>
   <tile gid="212"/>
   <tile gid="212"/>
   <tile gid="34"/>
   <tile gid="34"/>
   <tile gid="34"/>
   <tile gid="34"/>
   <tile gid="34"/>
   <tile gid="34"/>
   <tile gid="34"/>
   <tile gid="34"/>
   <tile gid="34"/>
   <tile gid="34"/>
   <tile gid="34"/>
   <tile gid="34"/>
   <tile gid="34"/>
   <tile gid="34"/>
   <tile gid="34"/>
   <tile gid="34"/>
   <tile gid="34"/>
   <tile gid="34"/>
   <tile gid="34"/>
   <tile gid="34"/>
   <tile gid="212"/>
   <tile gid="212"/>
   <tile gid="212"/>
   <tile gid="212"/>
   <tile gid="34"/>
   <tile gid="34"/>
   <tile gid="34"/>
   <tile gid="34"/>
   <tile gid="34"/>
   <tile gid="34"/>
   <tile gid="34"/>
   <tile gid="34"/>
   <tile gid="34"/>
   <tile gid="34"/>
   <tile gid="34"/>
   <tile gid="34"/>
   <tile gid="34"/>
   <tile gid="34"/>
   <tile gid="34"/>
   <tile gid="34"/>
   <tile gid="34"/>
   <tile gid="34"/>
   <tile gid="34"/>
   <tile gid="34"/>
   <tile gid="34"/>
   <tile gid="34"/>
   <tile gid="34"/>
   <tile gid="34"/>
   <tile gid="34"/>
   <tile gid="34"/>
   <tile gid="34"/>
   <tile gid="34"/>
   <tile gid="34"/>
   <tile gid="34"/>
   <tile gid="34"/>
   <tile gid="34"/>
   <tile gid="34"/>
   <tile gid="34"/>
   <tile gid="34"/>
   <tile gid="34"/>
   <tile gid="34"/>
   <tile gid="34"/>
   <tile gid="34"/>
   <tile gid="34"/>
   <tile gid="34"/>
   <tile gid="34"/>
   <tile gid="34"/>
   <tile gid="34"/>
   <tile gid="34"/>
   <tile gid="34"/>
   <tile gid="34"/>
   <tile gid="34"/>
   <tile gid="34"/>
   <tile gid="34"/>
   <tile gid="34"/>
   <tile gid="34"/>
   <tile gid="34"/>
   <tile gid="34"/>
   <tile gid="34"/>
   <tile gid="34"/>
   <tile gid="34"/>
   <tile gid="34"/>
   <tile gid="34"/>
   <tile gid="34"/>
   <tile gid="34"/>
   <tile gid="34"/>
   <tile gid="49"/>
   <tile gid="49"/>
   <tile gid="49"/>
   <tile gid="34"/>
   <tile gid="34"/>
   <tile gid="34"/>
   <tile gid="34"/>
   <tile gid="34"/>
   <tile gid="34"/>
   <tile gid="34"/>
   <tile gid="34"/>
   <tile gid="34"/>
   <tile gid="34"/>
   <tile gid="34"/>
   <tile gid="212"/>
   <tile gid="212"/>
   <tile gid="212"/>
   <tile gid="34"/>
   <tile gid="34"/>
   <tile gid="34"/>
   <tile gid="34"/>
   <tile gid="34"/>
   <tile gid="34"/>
   <tile gid="34"/>
   <tile gid="34"/>
   <tile gid="34"/>
   <tile gid="34"/>
   <tile gid="34"/>
   <tile gid="34"/>
   <tile gid="34"/>
   <tile gid="34"/>
   <tile gid="34"/>
   <tile gid="34"/>
   <tile gid="34"/>
   <tile gid="34"/>
   <tile gid="34"/>
   <tile gid="34"/>
   <tile gid="34"/>
   <tile gid="34"/>
   <tile gid="34"/>
   <tile gid="34"/>
   <tile gid="34"/>
   <tile gid="34"/>
   <tile gid="34"/>
   <tile gid="34"/>
   <tile gid="34"/>
   <tile gid="34"/>
   <tile gid="34"/>
   <tile gid="34"/>
   <tile gid="34"/>
   <tile gid="34"/>
   <tile gid="34"/>
   <tile gid="34"/>
   <tile gid="34"/>
   <tile gid="34"/>
   <tile gid="34"/>
   <tile gid="34"/>
   <tile gid="34"/>
   <tile gid="34"/>
   <tile gid="34"/>
   <tile gid="34"/>
   <tile gid="212"/>
   <tile gid="212"/>
   <tile gid="212"/>
   <tile gid="34"/>
   <tile gid="34"/>
   <tile gid="34"/>
   <tile gid="34"/>
   <tile gid="34"/>
   <tile gid="34"/>
   <tile gid="34"/>
   <tile gid="34"/>
   <tile gid="34"/>
   <tile gid="34"/>
   <tile gid="34"/>
   <tile gid="34"/>
   <tile gid="34"/>
   <tile gid="34"/>
   <tile gid="34"/>
   <tile gid="34"/>
   <tile gid="212"/>
   <tile gid="212"/>
   <tile gid="212"/>
   <tile gid="212"/>
   <tile gid="212"/>
   <tile gid="212"/>
   <tile gid="212"/>
   <tile gid="212"/>
   <tile gid="212"/>
   <tile gid="212"/>
   <tile gid="212"/>
   <tile gid="212"/>
   <tile gid="212"/>
   <tile gid="212"/>
   <tile gid="212"/>
   <tile gid="212"/>
   <tile gid="212"/>
   <tile gid="212"/>
   <tile gid="212"/>
   <tile gid="212"/>
   <tile gid="212"/>
   <tile gid="212"/>
   <tile gid="212"/>
   <tile gid="212"/>
   <tile gid="212"/>
   <tile gid="212"/>
   <tile gid="212"/>
   <tile gid="212"/>
   <tile gid="212"/>
   <tile gid="212"/>
   <tile gid="212"/>
   <tile gid="212"/>
   <tile gid="212"/>
   <tile gid="212"/>
   <tile gid="34"/>
   <tile gid="34"/>
   <tile gid="34"/>
   <tile gid="34"/>
   <tile gid="34"/>
   <tile gid="34"/>
   <tile gid="34"/>
   <tile gid="34"/>
   <tile gid="34"/>
   <tile gid="34"/>
   <tile gid="34"/>
   <tile gid="34"/>
   <tile gid="34"/>
   <tile gid="34"/>
   <tile gid="34"/>
   <tile gid="34"/>
   <tile gid="34"/>
   <tile gid="34"/>
   <tile gid="34"/>
   <tile gid="34"/>
   <tile gid="34"/>
   <tile gid="34"/>
   <tile gid="34"/>
   <tile gid="34"/>
   <tile gid="34"/>
   <tile gid="34"/>
   <tile gid="34"/>
   <tile gid="34"/>
   <tile gid="34"/>
   <tile gid="34"/>
   <tile gid="34"/>
   <tile gid="34"/>
   <tile gid="34"/>
   <tile gid="34"/>
   <tile gid="34"/>
   <tile gid="34"/>
   <tile gid="34"/>
   <tile gid="34"/>
   <tile gid="34"/>
   <tile gid="34"/>
   <tile gid="34"/>
   <tile gid="34"/>
   <tile gid="34"/>
   <tile gid="34"/>
   <tile gid="34"/>
   <tile gid="34"/>
   <tile gid="212"/>
   <tile gid="212"/>
   <tile gid="212"/>
   <tile gid="212"/>
   <tile gid="212"/>
   <tile gid="212"/>
   <tile gid="212"/>
   <tile gid="212"/>
   <tile gid="212"/>
   <tile gid="212"/>
   <tile gid="212"/>
   <tile gid="34"/>
   <tile gid="34"/>
   <tile gid="34"/>
   <tile gid="212"/>
   <tile gid="212"/>
   <tile gid="212"/>
   <tile gid="212"/>
   <tile gid="212"/>
   <tile gid="212"/>
   <tile gid="212"/>
   <tile gid="212"/>
   <tile gid="212"/>
   <tile gid="212"/>
   <tile gid="212"/>
   <tile gid="212"/>
   <tile gid="212"/>
   <tile gid="212"/>
   <tile gid="212"/>
   <tile gid="212"/>
   <tile gid="212"/>
   <tile gid="212"/>
   <tile gid="212"/>
   <tile gid="212"/>
   <tile gid="212"/>
   <tile gid="212"/>
   <tile gid="212"/>
   <tile gid="212"/>
   <tile gid="212"/>
   <tile gid="212"/>
   <tile gid="212"/>
   <tile gid="212"/>
   <tile gid="212"/>
   <tile gid="212"/>
   <tile gid="212"/>
   <tile gid="212"/>
   <tile gid="212"/>
   <tile gid="212"/>
   <tile gid="212"/>
   <tile gid="212"/>
   <tile gid="212"/>
   <tile gid="212"/>
   <tile gid="212"/>
   <tile gid="212"/>
   <tile gid="212"/>
   <tile gid="212"/>
   <tile gid="212"/>
   <tile gid="212"/>
   <tile gid="212"/>
   <tile gid="212"/>
   <tile gid="212"/>
   <tile gid="212"/>
   <tile gid="212"/>
   <tile gid="212"/>
   <tile gid="34"/>
   <tile gid="34"/>
   <tile gid="34"/>
   <tile gid="34"/>
   <tile gid="34"/>
   <tile gid="34"/>
   <tile gid="212"/>
   <tile gid="212"/>
   <tile gid="212"/>
   <tile gid="212"/>
   <tile gid="212"/>
   <tile gid="212"/>
   <tile gid="212"/>
   <tile gid="212"/>
   <tile gid="212"/>
   <tile gid="212"/>
   <tile gid="212"/>
   <tile gid="212"/>
   <tile gid="212"/>
   <tile gid="212"/>
   <tile gid="212"/>
   <tile gid="212"/>
   <tile gid="212"/>
   <tile gid="212"/>
   <tile gid="212"/>
   <tile gid="212"/>
   <tile gid="212"/>
   <tile gid="212"/>
   <tile gid="212"/>
   <tile gid="212"/>
   <tile gid="212"/>
   <tile gid="212"/>
   <tile gid="212"/>
   <tile gid="212"/>
   <tile gid="212"/>
   <tile gid="212"/>
   <tile gid="212"/>
   <tile gid="212"/>
   <tile gid="212"/>
   <tile gid="212"/>
   <tile gid="34"/>
   <tile gid="34"/>
   <tile gid="34"/>
   <tile gid="34"/>
   <tile gid="34"/>
   <tile gid="34"/>
   <tile gid="34"/>
   <tile gid="34"/>
   <tile gid="34"/>
   <tile gid="34"/>
   <tile gid="34"/>
   <tile gid="34"/>
   <tile gid="34"/>
   <tile gid="34"/>
   <tile gid="34"/>
   <tile gid="34"/>
   <tile gid="34"/>
   <tile gid="34"/>
   <tile gid="34"/>
   <tile gid="34"/>
   <tile gid="34"/>
   <tile gid="34"/>
   <tile gid="34"/>
   <tile gid="34"/>
   <tile gid="34"/>
   <tile gid="34"/>
   <tile gid="34"/>
   <tile gid="34"/>
   <tile gid="34"/>
   <tile gid="34"/>
   <tile gid="34"/>
   <tile gid="34"/>
   <tile gid="34"/>
   <tile gid="34"/>
   <tile gid="34"/>
   <tile gid="34"/>
   <tile gid="34"/>
   <tile gid="34"/>
   <tile gid="34"/>
   <tile gid="34"/>
   <tile gid="34"/>
   <tile gid="34"/>
   <tile gid="34"/>
   <tile gid="34"/>
   <tile gid="34"/>
   <tile gid="34"/>
   <tile gid="212"/>
   <tile gid="212"/>
   <tile gid="212"/>
   <tile gid="212"/>
   <tile gid="212"/>
   <tile gid="212"/>
   <tile gid="212"/>
   <tile gid="212"/>
   <tile gid="212"/>
   <tile gid="212"/>
   <tile gid="212"/>
   <tile gid="34"/>
   <tile gid="34"/>
   <tile gid="34"/>
   <tile gid="212"/>
   <tile gid="212"/>
   <tile gid="212"/>
   <tile gid="212"/>
   <tile gid="212"/>
   <tile gid="212"/>
   <tile gid="212"/>
   <tile gid="212"/>
   <tile gid="212"/>
   <tile gid="212"/>
   <tile gid="212"/>
   <tile gid="212"/>
   <tile gid="212"/>
   <tile gid="212"/>
   <tile gid="212"/>
   <tile gid="212"/>
   <tile gid="212"/>
   <tile gid="212"/>
   <tile gid="212"/>
   <tile gid="212"/>
   <tile gid="212"/>
   <tile gid="212"/>
   <tile gid="212"/>
   <tile gid="212"/>
   <tile gid="212"/>
   <tile gid="212"/>
   <tile gid="212"/>
   <tile gid="212"/>
   <tile gid="212"/>
   <tile gid="212"/>
   <tile gid="212"/>
   <tile gid="212"/>
   <tile gid="212"/>
   <tile gid="212"/>
   <tile gid="212"/>
   <tile gid="212"/>
   <tile gid="212"/>
   <tile gid="212"/>
   <tile gid="212"/>
   <tile gid="212"/>
   <tile gid="212"/>
   <tile gid="212"/>
   <tile gid="212"/>
   <tile gid="212"/>
   <tile gid="212"/>
   <tile gid="212"/>
   <tile gid="212"/>
   <tile gid="212"/>
   <tile gid="212"/>
   <tile gid="212"/>
   <tile gid="34"/>
   <tile gid="34"/>
   <tile gid="34"/>
   <tile gid="34"/>
   <tile gid="34"/>
   <tile gid="34"/>
   <tile gid="212"/>
   <tile gid="212"/>
   <tile gid="212"/>
   <tile gid="212"/>
   <tile gid="212"/>
   <tile gid="212"/>
   <tile gid="212"/>
   <tile gid="212"/>
   <tile gid="212"/>
   <tile gid="212"/>
   <tile gid="212"/>
   <tile gid="212"/>
   <tile gid="212"/>
   <tile gid="212"/>
   <tile gid="212"/>
   <tile gid="212"/>
   <tile gid="212"/>
   <tile gid="212"/>
   <tile gid="212"/>
   <tile gid="212"/>
   <tile gid="212"/>
   <tile gid="212"/>
   <tile gid="212"/>
   <tile gid="212"/>
   <tile gid="212"/>
   <tile gid="212"/>
   <tile gid="212"/>
   <tile gid="212"/>
   <tile gid="212"/>
   <tile gid="212"/>
   <tile gid="212"/>
   <tile gid="212"/>
   <tile gid="212"/>
   <tile gid="212"/>
   <tile gid="34"/>
   <tile gid="34"/>
   <tile gid="34"/>
   <tile gid="34"/>
   <tile gid="34"/>
   <tile gid="34"/>
   <tile gid="34"/>
   <tile gid="34"/>
   <tile gid="34"/>
   <tile gid="34"/>
   <tile gid="34"/>
   <tile gid="34"/>
   <tile gid="34"/>
   <tile gid="34"/>
   <tile gid="34"/>
   <tile gid="34"/>
   <tile gid="34"/>
   <tile gid="34"/>
   <tile gid="34"/>
   <tile gid="34"/>
   <tile gid="34"/>
   <tile gid="34"/>
   <tile gid="34"/>
   <tile gid="34"/>
   <tile gid="34"/>
   <tile gid="34"/>
   <tile gid="34"/>
   <tile gid="34"/>
   <tile gid="34"/>
   <tile gid="34"/>
   <tile gid="34"/>
   <tile gid="34"/>
   <tile gid="34"/>
   <tile gid="34"/>
   <tile gid="34"/>
   <tile gid="34"/>
   <tile gid="34"/>
   <tile gid="34"/>
   <tile gid="34"/>
   <tile gid="34"/>
   <tile gid="34"/>
   <tile gid="34"/>
   <tile gid="34"/>
   <tile gid="34"/>
   <tile gid="34"/>
   <tile gid="34"/>
   <tile gid="212"/>
   <tile gid="212"/>
   <tile gid="212"/>
   <tile gid="212"/>
   <tile gid="212"/>
   <tile gid="212"/>
   <tile gid="212"/>
   <tile gid="212"/>
   <tile gid="212"/>
   <tile gid="212"/>
   <tile gid="212"/>
   <tile gid="34"/>
   <tile gid="34"/>
   <tile gid="34"/>
   <tile gid="212"/>
   <tile gid="212"/>
   <tile gid="212"/>
   <tile gid="212"/>
   <tile gid="212"/>
   <tile gid="212"/>
   <tile gid="212"/>
   <tile gid="212"/>
   <tile gid="212"/>
   <tile gid="212"/>
   <tile gid="212"/>
   <tile gid="212"/>
   <tile gid="212"/>
   <tile gid="212"/>
   <tile gid="212"/>
   <tile gid="212"/>
   <tile gid="212"/>
   <tile gid="212"/>
   <tile gid="212"/>
   <tile gid="212"/>
   <tile gid="212"/>
   <tile gid="212"/>
   <tile gid="212"/>
   <tile gid="212"/>
   <tile gid="212"/>
   <tile gid="212"/>
   <tile gid="212"/>
   <tile gid="212"/>
   <tile gid="212"/>
   <tile gid="212"/>
   <tile gid="212"/>
   <tile gid="212"/>
   <tile gid="212"/>
   <tile gid="212"/>
   <tile gid="212"/>
   <tile gid="212"/>
   <tile gid="212"/>
   <tile gid="212"/>
   <tile gid="212"/>
   <tile gid="212"/>
   <tile gid="212"/>
   <tile gid="212"/>
   <tile gid="212"/>
   <tile gid="212"/>
   <tile gid="212"/>
   <tile gid="212"/>
   <tile gid="212"/>
   <tile gid="212"/>
   <tile gid="212"/>
   <tile gid="212"/>
   <tile gid="34"/>
   <tile gid="34"/>
   <tile gid="34"/>
   <tile gid="34"/>
   <tile gid="34"/>
   <tile gid="34"/>
   <tile gid="212"/>
   <tile gid="212"/>
   <tile gid="212"/>
   <tile gid="212"/>
   <tile gid="212"/>
   <tile gid="212"/>
   <tile gid="212"/>
   <tile gid="212"/>
   <tile gid="212"/>
   <tile gid="212"/>
   <tile gid="212"/>
   <tile gid="212"/>
   <tile gid="212"/>
   <tile gid="212"/>
   <tile gid="212"/>
   <tile gid="212"/>
   <tile gid="212"/>
   <tile gid="212"/>
   <tile gid="212"/>
   <tile gid="212"/>
   <tile gid="212"/>
   <tile gid="212"/>
   <tile gid="212"/>
   <tile gid="212"/>
   <tile gid="212"/>
   <tile gid="212"/>
   <tile gid="212"/>
   <tile gid="212"/>
   <tile gid="212"/>
   <tile gid="212"/>
   <tile gid="212"/>
   <tile gid="212"/>
   <tile gid="212"/>
   <tile gid="212"/>
   <tile gid="34"/>
   <tile gid="34"/>
   <tile gid="34"/>
   <tile gid="34"/>
   <tile gid="34"/>
   <tile gid="34"/>
   <tile gid="34"/>
   <tile gid="34"/>
   <tile gid="34"/>
   <tile gid="34"/>
   <tile gid="34"/>
   <tile gid="34"/>
   <tile gid="34"/>
   <tile gid="34"/>
   <tile gid="34"/>
   <tile gid="34"/>
   <tile gid="34"/>
   <tile gid="34"/>
   <tile gid="34"/>
   <tile gid="34"/>
   <tile gid="34"/>
   <tile gid="34"/>
   <tile gid="34"/>
   <tile gid="34"/>
   <tile gid="34"/>
   <tile gid="34"/>
   <tile gid="34"/>
   <tile gid="34"/>
   <tile gid="34"/>
   <tile gid="34"/>
   <tile gid="34"/>
   <tile gid="34"/>
   <tile gid="34"/>
   <tile gid="34"/>
   <tile gid="34"/>
   <tile gid="34"/>
   <tile gid="34"/>
   <tile gid="34"/>
   <tile gid="34"/>
   <tile gid="34"/>
   <tile gid="34"/>
   <tile gid="34"/>
   <tile gid="34"/>
   <tile gid="34"/>
   <tile gid="34"/>
   <tile gid="34"/>
   <tile gid="212"/>
   <tile gid="212"/>
   <tile gid="212"/>
   <tile gid="212"/>
   <tile gid="212"/>
   <tile gid="212"/>
   <tile gid="212"/>
   <tile gid="212"/>
   <tile gid="212"/>
   <tile gid="212"/>
   <tile gid="212"/>
   <tile gid="34"/>
   <tile gid="34"/>
   <tile gid="34"/>
   <tile gid="212"/>
   <tile gid="212"/>
   <tile gid="212"/>
   <tile gid="212"/>
   <tile gid="212"/>
   <tile gid="212"/>
   <tile gid="212"/>
   <tile gid="212"/>
   <tile gid="212"/>
   <tile gid="212"/>
   <tile gid="212"/>
   <tile gid="212"/>
   <tile gid="212"/>
   <tile gid="212"/>
   <tile gid="212"/>
   <tile gid="212"/>
   <tile gid="212"/>
   <tile gid="212"/>
   <tile gid="212"/>
   <tile gid="212"/>
   <tile gid="212"/>
   <tile gid="212"/>
   <tile gid="212"/>
   <tile gid="212"/>
   <tile gid="212"/>
   <tile gid="212"/>
   <tile gid="212"/>
   <tile gid="212"/>
   <tile gid="212"/>
   <tile gid="212"/>
   <tile gid="212"/>
   <tile gid="212"/>
   <tile gid="212"/>
   <tile gid="212"/>
   <tile gid="212"/>
   <tile gid="212"/>
   <tile gid="212"/>
   <tile gid="212"/>
   <tile gid="212"/>
   <tile gid="212"/>
   <tile gid="212"/>
   <tile gid="212"/>
   <tile gid="212"/>
   <tile gid="212"/>
   <tile gid="212"/>
   <tile gid="212"/>
   <tile gid="212"/>
   <tile gid="212"/>
   <tile gid="212"/>
   <tile gid="212"/>
   <tile gid="34"/>
   <tile gid="34"/>
   <tile gid="34"/>
   <tile gid="34"/>
   <tile gid="34"/>
   <tile gid="34"/>
   <tile gid="212"/>
   <tile gid="212"/>
   <tile gid="212"/>
   <tile gid="212"/>
   <tile gid="212"/>
   <tile gid="212"/>
   <tile gid="212"/>
   <tile gid="212"/>
   <tile gid="212"/>
   <tile gid="212"/>
   <tile gid="212"/>
   <tile gid="212"/>
   <tile gid="212"/>
   <tile gid="212"/>
   <tile gid="212"/>
   <tile gid="212"/>
   <tile gid="212"/>
   <tile gid="212"/>
   <tile gid="212"/>
   <tile gid="212"/>
   <tile gid="212"/>
   <tile gid="212"/>
   <tile gid="212"/>
   <tile gid="212"/>
   <tile gid="212"/>
   <tile gid="212"/>
   <tile gid="212"/>
   <tile gid="212"/>
   <tile gid="212"/>
   <tile gid="212"/>
   <tile gid="212"/>
   <tile gid="212"/>
   <tile gid="212"/>
   <tile gid="212"/>
   <tile gid="34"/>
   <tile gid="34"/>
   <tile gid="34"/>
   <tile gid="34"/>
   <tile gid="34"/>
   <tile gid="34"/>
   <tile gid="34"/>
   <tile gid="34"/>
   <tile gid="34"/>
   <tile gid="34"/>
   <tile gid="34"/>
   <tile gid="34"/>
   <tile gid="34"/>
   <tile gid="34"/>
   <tile gid="34"/>
   <tile gid="34"/>
   <tile gid="34"/>
   <tile gid="34"/>
   <tile gid="34"/>
   <tile gid="34"/>
   <tile gid="34"/>
   <tile gid="34"/>
   <tile gid="34"/>
   <tile gid="34"/>
   <tile gid="34"/>
   <tile gid="34"/>
   <tile gid="34"/>
   <tile gid="34"/>
   <tile gid="34"/>
   <tile gid="34"/>
   <tile gid="34"/>
   <tile gid="34"/>
   <tile gid="34"/>
   <tile gid="34"/>
   <tile gid="34"/>
   <tile gid="34"/>
   <tile gid="34"/>
   <tile gid="34"/>
   <tile gid="34"/>
   <tile gid="34"/>
   <tile gid="34"/>
   <tile gid="34"/>
   <tile gid="34"/>
   <tile gid="34"/>
   <tile gid="34"/>
   <tile gid="34"/>
   <tile gid="212"/>
   <tile gid="212"/>
   <tile gid="212"/>
   <tile gid="212"/>
   <tile gid="212"/>
   <tile gid="212"/>
   <tile gid="212"/>
   <tile gid="212"/>
   <tile gid="212"/>
   <tile gid="212"/>
   <tile gid="212"/>
   <tile gid="34"/>
   <tile gid="34"/>
   <tile gid="34"/>
   <tile gid="212"/>
   <tile gid="212"/>
   <tile gid="212"/>
   <tile gid="212"/>
   <tile gid="212"/>
   <tile gid="212"/>
   <tile gid="212"/>
   <tile gid="212"/>
   <tile gid="212"/>
   <tile gid="212"/>
   <tile gid="212"/>
   <tile gid="212"/>
   <tile gid="212"/>
   <tile gid="212"/>
   <tile gid="212"/>
   <tile gid="212"/>
   <tile gid="212"/>
   <tile gid="212"/>
   <tile gid="212"/>
   <tile gid="212"/>
   <tile gid="212"/>
   <tile gid="212"/>
   <tile gid="212"/>
   <tile gid="212"/>
   <tile gid="212"/>
   <tile gid="212"/>
   <tile gid="212"/>
   <tile gid="212"/>
   <tile gid="212"/>
   <tile gid="212"/>
   <tile gid="212"/>
   <tile gid="212"/>
   <tile gid="212"/>
   <tile gid="212"/>
   <tile gid="212"/>
   <tile gid="212"/>
   <tile gid="212"/>
   <tile gid="212"/>
   <tile gid="212"/>
   <tile gid="212"/>
   <tile gid="212"/>
   <tile gid="212"/>
   <tile gid="212"/>
   <tile gid="212"/>
   <tile gid="212"/>
   <tile gid="212"/>
   <tile gid="212"/>
   <tile gid="212"/>
   <tile gid="212"/>
   <tile gid="212"/>
   <tile gid="34"/>
   <tile gid="34"/>
   <tile gid="34"/>
   <tile gid="34"/>
   <tile gid="34"/>
   <tile gid="34"/>
   <tile gid="212"/>
   <tile gid="212"/>
   <tile gid="212"/>
   <tile gid="212"/>
   <tile gid="212"/>
   <tile gid="212"/>
   <tile gid="212"/>
   <tile gid="212"/>
   <tile gid="212"/>
   <tile gid="212"/>
   <tile gid="212"/>
   <tile gid="212"/>
   <tile gid="212"/>
   <tile gid="212"/>
   <tile gid="212"/>
   <tile gid="212"/>
   <tile gid="212"/>
   <tile gid="212"/>
   <tile gid="212"/>
   <tile gid="212"/>
   <tile gid="212"/>
   <tile gid="212"/>
   <tile gid="212"/>
   <tile gid="212"/>
   <tile gid="212"/>
   <tile gid="212"/>
   <tile gid="212"/>
   <tile gid="212"/>
   <tile gid="212"/>
   <tile gid="212"/>
   <tile gid="212"/>
   <tile gid="212"/>
   <tile gid="212"/>
   <tile gid="212"/>
   <tile gid="34"/>
   <tile gid="34"/>
   <tile gid="34"/>
   <tile gid="34"/>
   <tile gid="34"/>
   <tile gid="34"/>
   <tile gid="34"/>
   <tile gid="34"/>
   <tile gid="34"/>
   <tile gid="34"/>
   <tile gid="34"/>
   <tile gid="34"/>
   <tile gid="34"/>
   <tile gid="34"/>
   <tile gid="34"/>
   <tile gid="34"/>
   <tile gid="34"/>
   <tile gid="34"/>
   <tile gid="34"/>
   <tile gid="34"/>
   <tile gid="34"/>
   <tile gid="34"/>
   <tile gid="34"/>
   <tile gid="34"/>
   <tile gid="34"/>
   <tile gid="34"/>
   <tile gid="34"/>
   <tile gid="34"/>
   <tile gid="34"/>
   <tile gid="34"/>
   <tile gid="34"/>
   <tile gid="34"/>
   <tile gid="34"/>
   <tile gid="34"/>
   <tile gid="34"/>
   <tile gid="34"/>
   <tile gid="34"/>
   <tile gid="34"/>
   <tile gid="34"/>
   <tile gid="34"/>
   <tile gid="34"/>
   <tile gid="34"/>
   <tile gid="34"/>
   <tile gid="34"/>
   <tile gid="34"/>
   <tile gid="34"/>
   <tile gid="212"/>
   <tile gid="212"/>
   <tile gid="212"/>
   <tile gid="212"/>
   <tile gid="212"/>
   <tile gid="212"/>
   <tile gid="212"/>
   <tile gid="212"/>
   <tile gid="212"/>
   <tile gid="212"/>
   <tile gid="212"/>
   <tile gid="34"/>
   <tile gid="34"/>
   <tile gid="34"/>
   <tile gid="212"/>
   <tile gid="212"/>
   <tile gid="212"/>
   <tile gid="212"/>
   <tile gid="212"/>
   <tile gid="212"/>
   <tile gid="212"/>
   <tile gid="212"/>
   <tile gid="212"/>
   <tile gid="212"/>
   <tile gid="212"/>
   <tile gid="212"/>
   <tile gid="212"/>
   <tile gid="212"/>
   <tile gid="212"/>
   <tile gid="212"/>
   <tile gid="212"/>
   <tile gid="212"/>
   <tile gid="212"/>
   <tile gid="212"/>
   <tile gid="212"/>
   <tile gid="212"/>
   <tile gid="212"/>
   <tile gid="212"/>
   <tile gid="212"/>
   <tile gid="212"/>
   <tile gid="212"/>
   <tile gid="212"/>
   <tile gid="212"/>
   <tile gid="212"/>
   <tile gid="212"/>
   <tile gid="212"/>
   <tile gid="212"/>
   <tile gid="212"/>
   <tile gid="212"/>
   <tile gid="212"/>
   <tile gid="212"/>
   <tile gid="212"/>
   <tile gid="212"/>
   <tile gid="212"/>
   <tile gid="212"/>
   <tile gid="212"/>
   <tile gid="212"/>
   <tile gid="212"/>
   <tile gid="212"/>
   <tile gid="212"/>
   <tile gid="212"/>
   <tile gid="212"/>
   <tile gid="212"/>
   <tile gid="212"/>
   <tile gid="34"/>
   <tile gid="34"/>
   <tile gid="34"/>
   <tile gid="34"/>
   <tile gid="34"/>
   <tile gid="34"/>
   <tile gid="212"/>
   <tile gid="212"/>
   <tile gid="212"/>
   <tile gid="212"/>
   <tile gid="212"/>
   <tile gid="212"/>
   <tile gid="212"/>
   <tile gid="212"/>
   <tile gid="212"/>
   <tile gid="212"/>
   <tile gid="212"/>
   <tile gid="212"/>
   <tile gid="212"/>
   <tile gid="212"/>
   <tile gid="212"/>
   <tile gid="212"/>
   <tile gid="212"/>
   <tile gid="212"/>
   <tile gid="212"/>
   <tile gid="212"/>
   <tile gid="212"/>
   <tile gid="212"/>
   <tile gid="212"/>
   <tile gid="212"/>
   <tile gid="212"/>
   <tile gid="212"/>
   <tile gid="212"/>
   <tile gid="212"/>
   <tile gid="212"/>
   <tile gid="212"/>
   <tile gid="212"/>
   <tile gid="212"/>
   <tile gid="212"/>
   <tile gid="212"/>
   <tile gid="212"/>
   <tile gid="212"/>
   <tile gid="212"/>
   <tile gid="34"/>
   <tile gid="34"/>
   <tile gid="34"/>
   <tile gid="34"/>
   <tile gid="34"/>
   <tile gid="34"/>
   <tile gid="34"/>
   <tile gid="34"/>
   <tile gid="34"/>
   <tile gid="34"/>
   <tile gid="34"/>
   <tile gid="34"/>
   <tile gid="34"/>
   <tile gid="34"/>
   <tile gid="34"/>
   <tile gid="34"/>
   <tile gid="34"/>
   <tile gid="34"/>
   <tile gid="34"/>
   <tile gid="34"/>
   <tile gid="34"/>
   <tile gid="34"/>
   <tile gid="34"/>
   <tile gid="34"/>
   <tile gid="34"/>
   <tile gid="34"/>
   <tile gid="34"/>
   <tile gid="34"/>
   <tile gid="34"/>
   <tile gid="34"/>
   <tile gid="34"/>
   <tile gid="34"/>
   <tile gid="34"/>
   <tile gid="34"/>
   <tile gid="34"/>
   <tile gid="34"/>
   <tile gid="34"/>
   <tile gid="34"/>
   <tile gid="34"/>
   <tile gid="34"/>
   <tile gid="34"/>
   <tile gid="34"/>
   <tile gid="34"/>
   <tile gid="212"/>
   <tile gid="212"/>
   <tile gid="212"/>
   <tile gid="212"/>
   <tile gid="212"/>
   <tile gid="212"/>
   <tile gid="212"/>
   <tile gid="212"/>
   <tile gid="212"/>
   <tile gid="212"/>
   <tile gid="212"/>
   <tile gid="34"/>
   <tile gid="34"/>
   <tile gid="34"/>
   <tile gid="212"/>
   <tile gid="212"/>
   <tile gid="212"/>
   <tile gid="212"/>
   <tile gid="212"/>
   <tile gid="212"/>
   <tile gid="212"/>
   <tile gid="212"/>
   <tile gid="212"/>
   <tile gid="212"/>
   <tile gid="212"/>
   <tile gid="212"/>
   <tile gid="212"/>
   <tile gid="212"/>
   <tile gid="212"/>
   <tile gid="212"/>
   <tile gid="212"/>
   <tile gid="212"/>
   <tile gid="212"/>
   <tile gid="212"/>
   <tile gid="212"/>
   <tile gid="212"/>
   <tile gid="212"/>
   <tile gid="212"/>
   <tile gid="212"/>
   <tile gid="212"/>
   <tile gid="212"/>
   <tile gid="212"/>
   <tile gid="212"/>
   <tile gid="212"/>
   <tile gid="212"/>
   <tile gid="212"/>
   <tile gid="212"/>
   <tile gid="212"/>
   <tile gid="212"/>
   <tile gid="212"/>
   <tile gid="212"/>
   <tile gid="212"/>
   <tile gid="212"/>
   <tile gid="212"/>
   <tile gid="212"/>
   <tile gid="212"/>
   <tile gid="212"/>
   <tile gid="212"/>
   <tile gid="212"/>
   <tile gid="212"/>
   <tile gid="212"/>
   <tile gid="212"/>
   <tile gid="212"/>
   <tile gid="212"/>
   <tile gid="34"/>
   <tile gid="34"/>
   <tile gid="34"/>
   <tile gid="34"/>
   <tile gid="34"/>
   <tile gid="34"/>
   <tile gid="212"/>
   <tile gid="212"/>
   <tile gid="212"/>
   <tile gid="212"/>
   <tile gid="212"/>
   <tile gid="212"/>
   <tile gid="212"/>
   <tile gid="212"/>
   <tile gid="212"/>
   <tile gid="212"/>
   <tile gid="212"/>
   <tile gid="212"/>
   <tile gid="212"/>
   <tile gid="212"/>
   <tile gid="212"/>
   <tile gid="212"/>
   <tile gid="212"/>
   <tile gid="212"/>
   <tile gid="212"/>
   <tile gid="212"/>
   <tile gid="212"/>
   <tile gid="212"/>
   <tile gid="212"/>
   <tile gid="212"/>
   <tile gid="212"/>
   <tile gid="212"/>
   <tile gid="212"/>
   <tile gid="212"/>
   <tile gid="212"/>
   <tile gid="212"/>
   <tile gid="212"/>
   <tile gid="212"/>
   <tile gid="212"/>
   <tile gid="212"/>
   <tile gid="212"/>
   <tile gid="212"/>
   <tile gid="212"/>
   <tile gid="34"/>
   <tile gid="34"/>
   <tile gid="34"/>
   <tile gid="34"/>
   <tile gid="34"/>
   <tile gid="34"/>
   <tile gid="34"/>
   <tile gid="34"/>
   <tile gid="34"/>
   <tile gid="34"/>
   <tile gid="34"/>
   <tile gid="34"/>
   <tile gid="34"/>
   <tile gid="34"/>
   <tile gid="34"/>
   <tile gid="34"/>
   <tile gid="34"/>
   <tile gid="34"/>
   <tile gid="34"/>
   <tile gid="34"/>
   <tile gid="34"/>
   <tile gid="34"/>
   <tile gid="34"/>
   <tile gid="34"/>
   <tile gid="34"/>
   <tile gid="34"/>
   <tile gid="34"/>
   <tile gid="34"/>
   <tile gid="34"/>
   <tile gid="34"/>
   <tile gid="34"/>
   <tile gid="34"/>
   <tile gid="34"/>
   <tile gid="34"/>
   <tile gid="34"/>
   <tile gid="34"/>
   <tile gid="34"/>
   <tile gid="34"/>
   <tile gid="34"/>
   <tile gid="34"/>
   <tile gid="34"/>
   <tile gid="34"/>
   <tile gid="34"/>
   <tile gid="212"/>
   <tile gid="212"/>
   <tile gid="212"/>
   <tile gid="212"/>
   <tile gid="212"/>
   <tile gid="212"/>
   <tile gid="212"/>
   <tile gid="212"/>
   <tile gid="212"/>
   <tile gid="212"/>
   <tile gid="212"/>
   <tile gid="34"/>
   <tile gid="34"/>
   <tile gid="34"/>
   <tile gid="212"/>
   <tile gid="212"/>
   <tile gid="212"/>
   <tile gid="212"/>
   <tile gid="212"/>
   <tile gid="212"/>
   <tile gid="212"/>
   <tile gid="212"/>
   <tile gid="212"/>
   <tile gid="212"/>
   <tile gid="212"/>
   <tile gid="212"/>
   <tile gid="212"/>
   <tile gid="212"/>
   <tile gid="212"/>
   <tile gid="212"/>
   <tile gid="212"/>
   <tile gid="212"/>
   <tile gid="212"/>
   <tile gid="212"/>
   <tile gid="212"/>
   <tile gid="212"/>
   <tile gid="212"/>
   <tile gid="212"/>
   <tile gid="212"/>
   <tile gid="212"/>
   <tile gid="212"/>
   <tile gid="212"/>
   <tile gid="212"/>
   <tile gid="212"/>
   <tile gid="212"/>
   <tile gid="212"/>
   <tile gid="212"/>
   <tile gid="212"/>
   <tile gid="212"/>
   <tile gid="212"/>
   <tile gid="212"/>
   <tile gid="212"/>
   <tile gid="212"/>
   <tile gid="212"/>
   <tile gid="212"/>
   <tile gid="212"/>
   <tile gid="212"/>
   <tile gid="212"/>
   <tile gid="212"/>
   <tile gid="212"/>
   <tile gid="212"/>
   <tile gid="212"/>
   <tile gid="212"/>
   <tile gid="212"/>
   <tile gid="34"/>
   <tile gid="34"/>
   <tile gid="34"/>
   <tile gid="34"/>
   <tile gid="34"/>
   <tile gid="34"/>
   <tile gid="212"/>
   <tile gid="212"/>
   <tile gid="212"/>
   <tile gid="212"/>
   <tile gid="212"/>
   <tile gid="212"/>
   <tile gid="212"/>
   <tile gid="212"/>
   <tile gid="212"/>
   <tile gid="212"/>
   <tile gid="212"/>
   <tile gid="212"/>
   <tile gid="212"/>
   <tile gid="212"/>
   <tile gid="212"/>
   <tile gid="212"/>
   <tile gid="212"/>
   <tile gid="212"/>
   <tile gid="212"/>
   <tile gid="212"/>
   <tile gid="212"/>
   <tile gid="212"/>
   <tile gid="212"/>
   <tile gid="212"/>
   <tile gid="212"/>
   <tile gid="212"/>
   <tile gid="212"/>
   <tile gid="212"/>
   <tile gid="212"/>
   <tile gid="212"/>
   <tile gid="212"/>
   <tile gid="212"/>
   <tile gid="212"/>
   <tile gid="212"/>
   <tile gid="212"/>
   <tile gid="212"/>
   <tile gid="212"/>
   <tile gid="34"/>
   <tile gid="34"/>
   <tile gid="34"/>
   <tile gid="34"/>
   <tile gid="34"/>
   <tile gid="34"/>
   <tile gid="34"/>
   <tile gid="34"/>
   <tile gid="34"/>
   <tile gid="34"/>
   <tile gid="34"/>
   <tile gid="34"/>
   <tile gid="34"/>
   <tile gid="34"/>
   <tile gid="34"/>
   <tile gid="34"/>
   <tile gid="34"/>
   <tile gid="34"/>
   <tile gid="34"/>
   <tile gid="34"/>
   <tile gid="34"/>
   <tile gid="34"/>
   <tile gid="34"/>
   <tile gid="34"/>
   <tile gid="34"/>
   <tile gid="34"/>
   <tile gid="34"/>
   <tile gid="34"/>
   <tile gid="34"/>
   <tile gid="34"/>
   <tile gid="34"/>
   <tile gid="34"/>
   <tile gid="34"/>
   <tile gid="34"/>
   <tile gid="34"/>
   <tile gid="34"/>
   <tile gid="34"/>
   <tile gid="34"/>
   <tile gid="34"/>
   <tile gid="34"/>
   <tile gid="34"/>
   <tile gid="34"/>
   <tile gid="34"/>
   <tile gid="212"/>
   <tile gid="212"/>
   <tile gid="212"/>
   <tile gid="212"/>
   <tile gid="212"/>
   <tile gid="212"/>
   <tile gid="212"/>
   <tile gid="212"/>
   <tile gid="212"/>
   <tile gid="212"/>
   <tile gid="212"/>
   <tile gid="34"/>
   <tile gid="34"/>
   <tile gid="34"/>
   <tile gid="212"/>
   <tile gid="212"/>
   <tile gid="212"/>
   <tile gid="212"/>
   <tile gid="212"/>
   <tile gid="212"/>
   <tile gid="212"/>
   <tile gid="212"/>
   <tile gid="212"/>
   <tile gid="212"/>
   <tile gid="212"/>
   <tile gid="212"/>
   <tile gid="212"/>
   <tile gid="212"/>
   <tile gid="212"/>
   <tile gid="212"/>
   <tile gid="212"/>
   <tile gid="212"/>
   <tile gid="212"/>
   <tile gid="212"/>
   <tile gid="212"/>
   <tile gid="212"/>
   <tile gid="212"/>
   <tile gid="212"/>
   <tile gid="212"/>
   <tile gid="212"/>
   <tile gid="212"/>
   <tile gid="212"/>
   <tile gid="212"/>
   <tile gid="212"/>
   <tile gid="212"/>
   <tile gid="212"/>
   <tile gid="212"/>
   <tile gid="212"/>
   <tile gid="212"/>
   <tile gid="212"/>
   <tile gid="212"/>
   <tile gid="212"/>
   <tile gid="212"/>
   <tile gid="212"/>
   <tile gid="212"/>
   <tile gid="212"/>
   <tile gid="212"/>
   <tile gid="212"/>
   <tile gid="212"/>
   <tile gid="212"/>
   <tile gid="212"/>
   <tile gid="212"/>
   <tile gid="212"/>
   <tile gid="212"/>
   <tile gid="34"/>
   <tile gid="34"/>
   <tile gid="34"/>
   <tile gid="34"/>
   <tile gid="34"/>
   <tile gid="34"/>
   <tile gid="212"/>
   <tile gid="212"/>
   <tile gid="212"/>
   <tile gid="212"/>
   <tile gid="212"/>
   <tile gid="212"/>
   <tile gid="212"/>
   <tile gid="212"/>
   <tile gid="212"/>
   <tile gid="212"/>
   <tile gid="212"/>
   <tile gid="212"/>
   <tile gid="212"/>
   <tile gid="212"/>
   <tile gid="212"/>
   <tile gid="212"/>
   <tile gid="212"/>
   <tile gid="212"/>
   <tile gid="212"/>
   <tile gid="212"/>
   <tile gid="212"/>
   <tile gid="212"/>
   <tile gid="212"/>
   <tile gid="212"/>
   <tile gid="212"/>
   <tile gid="212"/>
   <tile gid="212"/>
   <tile gid="212"/>
   <tile gid="212"/>
   <tile gid="212"/>
   <tile gid="212"/>
   <tile gid="212"/>
   <tile gid="212"/>
   <tile gid="212"/>
   <tile gid="212"/>
   <tile gid="212"/>
   <tile gid="212"/>
   <tile gid="34"/>
   <tile gid="34"/>
   <tile gid="34"/>
   <tile gid="34"/>
   <tile gid="34"/>
   <tile gid="34"/>
   <tile gid="34"/>
   <tile gid="34"/>
   <tile gid="34"/>
   <tile gid="34"/>
   <tile gid="34"/>
   <tile gid="34"/>
   <tile gid="34"/>
   <tile gid="34"/>
   <tile gid="34"/>
   <tile gid="34"/>
   <tile gid="34"/>
   <tile gid="34"/>
   <tile gid="34"/>
   <tile gid="34"/>
   <tile gid="34"/>
   <tile gid="34"/>
   <tile gid="34"/>
   <tile gid="34"/>
   <tile gid="34"/>
   <tile gid="34"/>
   <tile gid="34"/>
   <tile gid="34"/>
   <tile gid="34"/>
   <tile gid="34"/>
   <tile gid="34"/>
   <tile gid="34"/>
   <tile gid="34"/>
   <tile gid="34"/>
   <tile gid="34"/>
   <tile gid="34"/>
   <tile gid="34"/>
   <tile gid="34"/>
   <tile gid="34"/>
   <tile gid="34"/>
   <tile gid="34"/>
   <tile gid="34"/>
   <tile gid="34"/>
   <tile gid="212"/>
   <tile gid="212"/>
   <tile gid="212"/>
   <tile gid="212"/>
   <tile gid="212"/>
   <tile gid="212"/>
   <tile gid="212"/>
   <tile gid="212"/>
   <tile gid="212"/>
   <tile gid="212"/>
   <tile gid="212"/>
   <tile gid="34"/>
   <tile gid="34"/>
   <tile gid="34"/>
   <tile gid="212"/>
   <tile gid="212"/>
   <tile gid="212"/>
   <tile gid="212"/>
   <tile gid="212"/>
   <tile gid="212"/>
   <tile gid="212"/>
   <tile gid="212"/>
   <tile gid="212"/>
   <tile gid="212"/>
   <tile gid="212"/>
   <tile gid="212"/>
   <tile gid="212"/>
   <tile gid="212"/>
   <tile gid="212"/>
   <tile gid="212"/>
   <tile gid="212"/>
   <tile gid="212"/>
   <tile gid="212"/>
   <tile gid="212"/>
   <tile gid="212"/>
   <tile gid="212"/>
   <tile gid="212"/>
   <tile gid="212"/>
   <tile gid="212"/>
   <tile gid="212"/>
   <tile gid="212"/>
   <tile gid="212"/>
   <tile gid="212"/>
   <tile gid="212"/>
   <tile gid="212"/>
   <tile gid="212"/>
   <tile gid="212"/>
   <tile gid="212"/>
   <tile gid="212"/>
   <tile gid="212"/>
   <tile gid="212"/>
   <tile gid="212"/>
   <tile gid="212"/>
   <tile gid="212"/>
   <tile gid="212"/>
   <tile gid="212"/>
   <tile gid="212"/>
   <tile gid="212"/>
   <tile gid="212"/>
   <tile gid="212"/>
   <tile gid="212"/>
   <tile gid="212"/>
   <tile gid="212"/>
   <tile gid="212"/>
   <tile gid="34"/>
   <tile gid="34"/>
   <tile gid="34"/>
   <tile gid="34"/>
   <tile gid="34"/>
   <tile gid="34"/>
   <tile gid="212"/>
   <tile gid="212"/>
   <tile gid="212"/>
   <tile gid="212"/>
   <tile gid="212"/>
   <tile gid="212"/>
   <tile gid="212"/>
   <tile gid="212"/>
   <tile gid="212"/>
   <tile gid="212"/>
   <tile gid="212"/>
   <tile gid="212"/>
   <tile gid="212"/>
   <tile gid="212"/>
   <tile gid="212"/>
   <tile gid="212"/>
   <tile gid="212"/>
   <tile gid="212"/>
   <tile gid="212"/>
   <tile gid="212"/>
   <tile gid="212"/>
   <tile gid="212"/>
   <tile gid="212"/>
   <tile gid="212"/>
   <tile gid="212"/>
   <tile gid="212"/>
   <tile gid="212"/>
   <tile gid="212"/>
   <tile gid="212"/>
   <tile gid="212"/>
   <tile gid="212"/>
   <tile gid="212"/>
   <tile gid="212"/>
   <tile gid="212"/>
   <tile gid="34"/>
   <tile gid="34"/>
   <tile gid="34"/>
   <tile gid="34"/>
   <tile gid="34"/>
   <tile gid="34"/>
   <tile gid="34"/>
   <tile gid="34"/>
   <tile gid="34"/>
   <tile gid="34"/>
   <tile gid="34"/>
   <tile gid="34"/>
   <tile gid="34"/>
   <tile gid="34"/>
   <tile gid="34"/>
   <tile gid="34"/>
   <tile gid="34"/>
   <tile gid="34"/>
   <tile gid="34"/>
   <tile gid="34"/>
   <tile gid="34"/>
   <tile gid="34"/>
   <tile gid="34"/>
   <tile gid="34"/>
   <tile gid="34"/>
   <tile gid="34"/>
   <tile gid="34"/>
   <tile gid="34"/>
   <tile gid="34"/>
   <tile gid="34"/>
   <tile gid="34"/>
   <tile gid="34"/>
   <tile gid="34"/>
   <tile gid="34"/>
   <tile gid="34"/>
   <tile gid="34"/>
   <tile gid="34"/>
   <tile gid="34"/>
   <tile gid="34"/>
   <tile gid="34"/>
   <tile gid="34"/>
   <tile gid="34"/>
   <tile gid="34"/>
   <tile gid="34"/>
   <tile gid="34"/>
   <tile gid="34"/>
   <tile gid="212"/>
   <tile gid="212"/>
   <tile gid="212"/>
   <tile gid="212"/>
   <tile gid="212"/>
   <tile gid="212"/>
   <tile gid="212"/>
   <tile gid="212"/>
   <tile gid="212"/>
   <tile gid="212"/>
   <tile gid="212"/>
   <tile gid="34"/>
   <tile gid="34"/>
   <tile gid="34"/>
   <tile gid="212"/>
   <tile gid="212"/>
   <tile gid="212"/>
   <tile gid="212"/>
   <tile gid="212"/>
   <tile gid="212"/>
   <tile gid="212"/>
   <tile gid="212"/>
   <tile gid="212"/>
   <tile gid="212"/>
   <tile gid="212"/>
   <tile gid="212"/>
   <tile gid="212"/>
   <tile gid="212"/>
   <tile gid="212"/>
   <tile gid="212"/>
   <tile gid="212"/>
   <tile gid="212"/>
   <tile gid="212"/>
   <tile gid="212"/>
   <tile gid="212"/>
   <tile gid="212"/>
   <tile gid="212"/>
   <tile gid="212"/>
   <tile gid="212"/>
   <tile gid="34"/>
   <tile gid="34"/>
   <tile gid="34"/>
   <tile gid="34"/>
   <tile gid="34"/>
   <tile gid="34"/>
   <tile gid="34"/>
   <tile gid="34"/>
   <tile gid="34"/>
   <tile gid="34"/>
   <tile gid="34"/>
   <tile gid="34"/>
   <tile gid="34"/>
   <tile gid="34"/>
   <tile gid="212"/>
   <tile gid="212"/>
   <tile gid="212"/>
   <tile gid="34"/>
   <tile gid="34"/>
   <tile gid="34"/>
   <tile gid="34"/>
   <tile gid="34"/>
   <tile gid="34"/>
   <tile gid="34"/>
   <tile gid="34"/>
   <tile gid="34"/>
   <tile gid="34"/>
   <tile gid="34"/>
   <tile gid="34"/>
   <tile gid="34"/>
   <tile gid="34"/>
   <tile gid="212"/>
   <tile gid="212"/>
   <tile gid="212"/>
   <tile gid="212"/>
   <tile gid="212"/>
   <tile gid="212"/>
   <tile gid="212"/>
   <tile gid="212"/>
   <tile gid="212"/>
   <tile gid="212"/>
   <tile gid="212"/>
   <tile gid="212"/>
   <tile gid="212"/>
   <tile gid="212"/>
   <tile gid="212"/>
   <tile gid="212"/>
   <tile gid="212"/>
   <tile gid="212"/>
   <tile gid="212"/>
   <tile gid="212"/>
   <tile gid="212"/>
   <tile gid="212"/>
   <tile gid="212"/>
   <tile gid="212"/>
   <tile gid="212"/>
   <tile gid="212"/>
   <tile gid="212"/>
   <tile gid="212"/>
   <tile gid="212"/>
   <tile gid="212"/>
   <tile gid="212"/>
   <tile gid="212"/>
   <tile gid="212"/>
   <tile gid="212"/>
   <tile gid="34"/>
   <tile gid="34"/>
   <tile gid="34"/>
   <tile gid="34"/>
   <tile gid="34"/>
   <tile gid="34"/>
   <tile gid="34"/>
   <tile gid="34"/>
   <tile gid="34"/>
   <tile gid="34"/>
   <tile gid="34"/>
   <tile gid="34"/>
   <tile gid="34"/>
   <tile gid="34"/>
   <tile gid="34"/>
   <tile gid="34"/>
   <tile gid="34"/>
   <tile gid="34"/>
   <tile gid="34"/>
   <tile gid="34"/>
   <tile gid="34"/>
   <tile gid="34"/>
   <tile gid="34"/>
   <tile gid="34"/>
   <tile gid="34"/>
   <tile gid="34"/>
   <tile gid="34"/>
   <tile gid="34"/>
   <tile gid="34"/>
   <tile gid="34"/>
   <tile gid="34"/>
   <tile gid="34"/>
   <tile gid="34"/>
   <tile gid="34"/>
   <tile gid="34"/>
   <tile gid="34"/>
   <tile gid="34"/>
   <tile gid="34"/>
   <tile gid="34"/>
   <tile gid="34"/>
   <tile gid="34"/>
   <tile gid="34"/>
   <tile gid="34"/>
   <tile gid="49"/>
   <tile gid="49"/>
   <tile gid="49"/>
   <tile gid="212"/>
   <tile gid="212"/>
   <tile gid="212"/>
   <tile gid="212"/>
   <tile gid="212"/>
   <tile gid="212"/>
   <tile gid="212"/>
   <tile gid="212"/>
   <tile gid="212"/>
   <tile gid="212"/>
   <tile gid="212"/>
   <tile gid="34"/>
   <tile gid="34"/>
   <tile gid="34"/>
   <tile gid="212"/>
   <tile gid="212"/>
   <tile gid="212"/>
   <tile gid="212"/>
   <tile gid="212"/>
   <tile gid="212"/>
   <tile gid="212"/>
   <tile gid="212"/>
   <tile gid="212"/>
   <tile gid="212"/>
   <tile gid="212"/>
   <tile gid="212"/>
   <tile gid="212"/>
   <tile gid="212"/>
   <tile gid="212"/>
   <tile gid="212"/>
   <tile gid="212"/>
   <tile gid="212"/>
   <tile gid="212"/>
   <tile gid="212"/>
   <tile gid="212"/>
   <tile gid="212"/>
   <tile gid="212"/>
   <tile gid="212"/>
   <tile gid="212"/>
   <tile gid="34"/>
   <tile gid="34"/>
   <tile gid="34"/>
   <tile gid="34"/>
   <tile gid="34"/>
   <tile gid="34"/>
   <tile gid="34"/>
   <tile gid="34"/>
   <tile gid="34"/>
   <tile gid="34"/>
   <tile gid="34"/>
   <tile gid="34"/>
   <tile gid="34"/>
   <tile gid="34"/>
   <tile gid="212"/>
   <tile gid="212"/>
   <tile gid="212"/>
   <tile gid="34"/>
   <tile gid="34"/>
   <tile gid="34"/>
   <tile gid="34"/>
   <tile gid="34"/>
   <tile gid="34"/>
   <tile gid="34"/>
   <tile gid="34"/>
   <tile gid="34"/>
   <tile gid="34"/>
   <tile gid="34"/>
   <tile gid="34"/>
   <tile gid="34"/>
   <tile gid="34"/>
   <tile gid="212"/>
   <tile gid="212"/>
   <tile gid="212"/>
   <tile gid="212"/>
   <tile gid="212"/>
   <tile gid="212"/>
   <tile gid="212"/>
   <tile gid="212"/>
   <tile gid="212"/>
   <tile gid="212"/>
   <tile gid="212"/>
   <tile gid="212"/>
   <tile gid="212"/>
   <tile gid="212"/>
   <tile gid="212"/>
   <tile gid="212"/>
   <tile gid="212"/>
   <tile gid="212"/>
   <tile gid="212"/>
   <tile gid="212"/>
   <tile gid="212"/>
   <tile gid="212"/>
   <tile gid="212"/>
   <tile gid="212"/>
   <tile gid="212"/>
   <tile gid="212"/>
   <tile gid="212"/>
   <tile gid="212"/>
   <tile gid="212"/>
   <tile gid="212"/>
   <tile gid="212"/>
   <tile gid="212"/>
   <tile gid="212"/>
   <tile gid="212"/>
   <tile gid="34"/>
   <tile gid="34"/>
   <tile gid="34"/>
   <tile gid="34"/>
   <tile gid="34"/>
   <tile gid="34"/>
   <tile gid="34"/>
   <tile gid="34"/>
   <tile gid="34"/>
   <tile gid="34"/>
   <tile gid="34"/>
   <tile gid="34"/>
   <tile gid="34"/>
   <tile gid="34"/>
   <tile gid="34"/>
   <tile gid="34"/>
   <tile gid="34"/>
   <tile gid="34"/>
   <tile gid="34"/>
   <tile gid="34"/>
   <tile gid="34"/>
   <tile gid="34"/>
   <tile gid="34"/>
   <tile gid="34"/>
   <tile gid="34"/>
   <tile gid="34"/>
   <tile gid="34"/>
   <tile gid="34"/>
   <tile gid="34"/>
   <tile gid="34"/>
   <tile gid="34"/>
   <tile gid="34"/>
   <tile gid="34"/>
   <tile gid="34"/>
   <tile gid="34"/>
   <tile gid="34"/>
   <tile gid="34"/>
   <tile gid="34"/>
   <tile gid="34"/>
   <tile gid="34"/>
   <tile gid="34"/>
   <tile gid="34"/>
   <tile gid="34"/>
   <tile gid="49"/>
   <tile gid="49"/>
   <tile gid="49"/>
   <tile gid="212"/>
   <tile gid="212"/>
   <tile gid="212"/>
   <tile gid="212"/>
   <tile gid="212"/>
   <tile gid="212"/>
   <tile gid="212"/>
   <tile gid="212"/>
   <tile gid="212"/>
   <tile gid="212"/>
   <tile gid="212"/>
   <tile gid="34"/>
   <tile gid="34"/>
   <tile gid="34"/>
   <tile gid="212"/>
   <tile gid="212"/>
   <tile gid="212"/>
   <tile gid="212"/>
   <tile gid="212"/>
   <tile gid="212"/>
   <tile gid="212"/>
   <tile gid="212"/>
   <tile gid="212"/>
   <tile gid="212"/>
   <tile gid="212"/>
   <tile gid="212"/>
   <tile gid="212"/>
   <tile gid="212"/>
   <tile gid="212"/>
   <tile gid="212"/>
   <tile gid="212"/>
   <tile gid="212"/>
   <tile gid="212"/>
   <tile gid="212"/>
   <tile gid="212"/>
   <tile gid="212"/>
   <tile gid="212"/>
   <tile gid="212"/>
   <tile gid="212"/>
   <tile gid="34"/>
   <tile gid="34"/>
   <tile gid="34"/>
   <tile gid="34"/>
   <tile gid="34"/>
   <tile gid="34"/>
   <tile gid="34"/>
   <tile gid="34"/>
   <tile gid="34"/>
   <tile gid="34"/>
   <tile gid="34"/>
   <tile gid="34"/>
   <tile gid="34"/>
   <tile gid="34"/>
   <tile gid="212"/>
   <tile gid="212"/>
   <tile gid="212"/>
   <tile gid="34"/>
   <tile gid="34"/>
   <tile gid="34"/>
   <tile gid="34"/>
   <tile gid="34"/>
   <tile gid="34"/>
   <tile gid="34"/>
   <tile gid="34"/>
   <tile gid="34"/>
   <tile gid="34"/>
   <tile gid="34"/>
   <tile gid="34"/>
   <tile gid="34"/>
   <tile gid="34"/>
   <tile gid="212"/>
   <tile gid="212"/>
   <tile gid="212"/>
   <tile gid="212"/>
   <tile gid="212"/>
   <tile gid="212"/>
   <tile gid="212"/>
   <tile gid="212"/>
   <tile gid="212"/>
   <tile gid="212"/>
   <tile gid="212"/>
   <tile gid="212"/>
   <tile gid="212"/>
   <tile gid="212"/>
   <tile gid="212"/>
   <tile gid="212"/>
   <tile gid="212"/>
   <tile gid="212"/>
   <tile gid="212"/>
   <tile gid="212"/>
   <tile gid="212"/>
   <tile gid="212"/>
   <tile gid="212"/>
   <tile gid="212"/>
   <tile gid="212"/>
   <tile gid="212"/>
   <tile gid="212"/>
   <tile gid="212"/>
   <tile gid="212"/>
   <tile gid="212"/>
   <tile gid="212"/>
   <tile gid="212"/>
   <tile gid="212"/>
   <tile gid="212"/>
   <tile gid="34"/>
   <tile gid="34"/>
   <tile gid="34"/>
   <tile gid="34"/>
   <tile gid="34"/>
   <tile gid="34"/>
   <tile gid="34"/>
   <tile gid="34"/>
   <tile gid="34"/>
   <tile gid="34"/>
   <tile gid="34"/>
   <tile gid="34"/>
   <tile gid="34"/>
   <tile gid="34"/>
   <tile gid="34"/>
   <tile gid="34"/>
   <tile gid="34"/>
   <tile gid="34"/>
   <tile gid="34"/>
   <tile gid="34"/>
   <tile gid="34"/>
   <tile gid="34"/>
   <tile gid="34"/>
   <tile gid="34"/>
   <tile gid="34"/>
   <tile gid="34"/>
   <tile gid="34"/>
   <tile gid="34"/>
   <tile gid="34"/>
   <tile gid="34"/>
   <tile gid="34"/>
   <tile gid="34"/>
   <tile gid="34"/>
   <tile gid="34"/>
   <tile gid="34"/>
   <tile gid="34"/>
   <tile gid="34"/>
   <tile gid="34"/>
   <tile gid="34"/>
   <tile gid="34"/>
   <tile gid="34"/>
   <tile gid="34"/>
   <tile gid="34"/>
   <tile gid="49"/>
   <tile gid="49"/>
   <tile gid="49"/>
   <tile gid="212"/>
   <tile gid="212"/>
   <tile gid="212"/>
   <tile gid="212"/>
   <tile gid="212"/>
   <tile gid="212"/>
   <tile gid="212"/>
   <tile gid="212"/>
   <tile gid="212"/>
   <tile gid="212"/>
   <tile gid="212"/>
   <tile gid="34"/>
   <tile gid="34"/>
   <tile gid="34"/>
   <tile gid="212"/>
   <tile gid="212"/>
   <tile gid="212"/>
   <tile gid="212"/>
   <tile gid="212"/>
   <tile gid="212"/>
   <tile gid="212"/>
   <tile gid="212"/>
   <tile gid="212"/>
   <tile gid="212"/>
   <tile gid="212"/>
   <tile gid="212"/>
   <tile gid="212"/>
   <tile gid="212"/>
   <tile gid="212"/>
   <tile gid="212"/>
   <tile gid="212"/>
   <tile gid="212"/>
   <tile gid="212"/>
   <tile gid="212"/>
   <tile gid="212"/>
   <tile gid="212"/>
   <tile gid="212"/>
   <tile gid="212"/>
   <tile gid="212"/>
   <tile gid="34"/>
   <tile gid="34"/>
   <tile gid="34"/>
   <tile gid="212"/>
   <tile gid="212"/>
   <tile gid="212"/>
   <tile gid="212"/>
   <tile gid="212"/>
   <tile gid="212"/>
   <tile gid="212"/>
   <tile gid="212"/>
   <tile gid="212"/>
   <tile gid="212"/>
   <tile gid="212"/>
   <tile gid="212"/>
   <tile gid="212"/>
   <tile gid="212"/>
   <tile gid="212"/>
   <tile gid="212"/>
   <tile gid="212"/>
   <tile gid="212"/>
   <tile gid="212"/>
   <tile gid="212"/>
   <tile gid="212"/>
   <tile gid="212"/>
   <tile gid="34"/>
   <tile gid="34"/>
   <tile gid="34"/>
   <tile gid="34"/>
   <tile gid="34"/>
   <tile gid="34"/>
   <tile gid="212"/>
   <tile gid="212"/>
   <tile gid="212"/>
   <tile gid="212"/>
   <tile gid="212"/>
   <tile gid="212"/>
   <tile gid="212"/>
   <tile gid="212"/>
   <tile gid="212"/>
   <tile gid="212"/>
   <tile gid="212"/>
   <tile gid="212"/>
   <tile gid="212"/>
   <tile gid="212"/>
   <tile gid="212"/>
   <tile gid="212"/>
   <tile gid="212"/>
   <tile gid="212"/>
   <tile gid="212"/>
   <tile gid="212"/>
   <tile gid="212"/>
   <tile gid="212"/>
   <tile gid="212"/>
   <tile gid="212"/>
   <tile gid="212"/>
   <tile gid="212"/>
   <tile gid="212"/>
   <tile gid="212"/>
   <tile gid="212"/>
   <tile gid="212"/>
   <tile gid="212"/>
   <tile gid="212"/>
   <tile gid="212"/>
   <tile gid="212"/>
   <tile gid="34"/>
   <tile gid="34"/>
   <tile gid="34"/>
   <tile gid="34"/>
   <tile gid="34"/>
   <tile gid="34"/>
   <tile gid="34"/>
   <tile gid="34"/>
   <tile gid="34"/>
   <tile gid="34"/>
   <tile gid="34"/>
   <tile gid="34"/>
   <tile gid="34"/>
   <tile gid="34"/>
   <tile gid="34"/>
   <tile gid="34"/>
   <tile gid="34"/>
   <tile gid="34"/>
   <tile gid="34"/>
   <tile gid="34"/>
   <tile gid="34"/>
   <tile gid="34"/>
   <tile gid="34"/>
   <tile gid="34"/>
   <tile gid="34"/>
   <tile gid="34"/>
   <tile gid="34"/>
   <tile gid="34"/>
   <tile gid="34"/>
   <tile gid="34"/>
   <tile gid="34"/>
   <tile gid="34"/>
   <tile gid="34"/>
   <tile gid="34"/>
   <tile gid="34"/>
   <tile gid="34"/>
   <tile gid="34"/>
   <tile gid="34"/>
   <tile gid="34"/>
   <tile gid="34"/>
   <tile gid="34"/>
   <tile gid="34"/>
   <tile gid="34"/>
   <tile gid="34"/>
   <tile gid="34"/>
   <tile gid="34"/>
   <tile gid="212"/>
   <tile gid="212"/>
   <tile gid="212"/>
   <tile gid="212"/>
   <tile gid="212"/>
   <tile gid="212"/>
   <tile gid="212"/>
   <tile gid="212"/>
   <tile gid="212"/>
   <tile gid="212"/>
   <tile gid="212"/>
   <tile gid="34"/>
   <tile gid="34"/>
   <tile gid="34"/>
   <tile gid="212"/>
   <tile gid="212"/>
   <tile gid="212"/>
   <tile gid="212"/>
   <tile gid="212"/>
   <tile gid="212"/>
   <tile gid="212"/>
   <tile gid="212"/>
   <tile gid="212"/>
   <tile gid="212"/>
   <tile gid="212"/>
   <tile gid="212"/>
   <tile gid="212"/>
   <tile gid="212"/>
   <tile gid="212"/>
   <tile gid="212"/>
   <tile gid="212"/>
   <tile gid="212"/>
   <tile gid="212"/>
   <tile gid="212"/>
   <tile gid="212"/>
   <tile gid="212"/>
   <tile gid="212"/>
   <tile gid="212"/>
   <tile gid="212"/>
   <tile gid="34"/>
   <tile gid="34"/>
   <tile gid="34"/>
   <tile gid="212"/>
   <tile gid="212"/>
   <tile gid="212"/>
   <tile gid="212"/>
   <tile gid="212"/>
   <tile gid="212"/>
   <tile gid="212"/>
   <tile gid="212"/>
   <tile gid="212"/>
   <tile gid="212"/>
   <tile gid="212"/>
   <tile gid="212"/>
   <tile gid="212"/>
   <tile gid="212"/>
   <tile gid="212"/>
   <tile gid="212"/>
   <tile gid="212"/>
   <tile gid="212"/>
   <tile gid="212"/>
   <tile gid="212"/>
   <tile gid="212"/>
   <tile gid="212"/>
   <tile gid="34"/>
   <tile gid="34"/>
   <tile gid="34"/>
   <tile gid="34"/>
   <tile gid="34"/>
   <tile gid="34"/>
   <tile gid="212"/>
   <tile gid="212"/>
   <tile gid="212"/>
   <tile gid="212"/>
   <tile gid="212"/>
   <tile gid="212"/>
   <tile gid="212"/>
   <tile gid="212"/>
   <tile gid="212"/>
   <tile gid="212"/>
   <tile gid="212"/>
   <tile gid="212"/>
   <tile gid="212"/>
   <tile gid="212"/>
   <tile gid="212"/>
   <tile gid="212"/>
   <tile gid="212"/>
   <tile gid="212"/>
   <tile gid="212"/>
   <tile gid="212"/>
   <tile gid="212"/>
   <tile gid="212"/>
   <tile gid="212"/>
   <tile gid="212"/>
   <tile gid="212"/>
   <tile gid="212"/>
   <tile gid="212"/>
   <tile gid="212"/>
   <tile gid="212"/>
   <tile gid="212"/>
   <tile gid="212"/>
   <tile gid="212"/>
   <tile gid="212"/>
   <tile gid="212"/>
   <tile gid="34"/>
   <tile gid="34"/>
   <tile gid="34"/>
   <tile gid="34"/>
   <tile gid="34"/>
   <tile gid="34"/>
   <tile gid="34"/>
   <tile gid="34"/>
   <tile gid="34"/>
   <tile gid="34"/>
   <tile gid="34"/>
   <tile gid="34"/>
   <tile gid="34"/>
   <tile gid="34"/>
   <tile gid="34"/>
   <tile gid="34"/>
   <tile gid="34"/>
   <tile gid="34"/>
   <tile gid="34"/>
   <tile gid="34"/>
   <tile gid="34"/>
   <tile gid="34"/>
   <tile gid="34"/>
   <tile gid="34"/>
   <tile gid="34"/>
   <tile gid="34"/>
   <tile gid="34"/>
   <tile gid="34"/>
   <tile gid="34"/>
   <tile gid="34"/>
   <tile gid="34"/>
   <tile gid="34"/>
   <tile gid="34"/>
   <tile gid="34"/>
   <tile gid="34"/>
   <tile gid="34"/>
   <tile gid="34"/>
   <tile gid="34"/>
   <tile gid="34"/>
   <tile gid="34"/>
   <tile gid="34"/>
   <tile gid="34"/>
   <tile gid="34"/>
   <tile gid="34"/>
   <tile gid="34"/>
   <tile gid="34"/>
   <tile gid="212"/>
   <tile gid="212"/>
   <tile gid="212"/>
   <tile gid="212"/>
   <tile gid="212"/>
   <tile gid="212"/>
   <tile gid="212"/>
   <tile gid="212"/>
   <tile gid="212"/>
   <tile gid="212"/>
   <tile gid="212"/>
   <tile gid="34"/>
   <tile gid="34"/>
   <tile gid="34"/>
   <tile gid="212"/>
   <tile gid="212"/>
   <tile gid="212"/>
   <tile gid="212"/>
   <tile gid="212"/>
   <tile gid="212"/>
   <tile gid="212"/>
   <tile gid="212"/>
   <tile gid="212"/>
   <tile gid="212"/>
   <tile gid="212"/>
   <tile gid="212"/>
   <tile gid="212"/>
   <tile gid="212"/>
   <tile gid="212"/>
   <tile gid="212"/>
   <tile gid="212"/>
   <tile gid="212"/>
   <tile gid="212"/>
   <tile gid="212"/>
   <tile gid="212"/>
   <tile gid="212"/>
   <tile gid="212"/>
   <tile gid="212"/>
   <tile gid="212"/>
   <tile gid="34"/>
   <tile gid="34"/>
   <tile gid="34"/>
   <tile gid="212"/>
   <tile gid="212"/>
   <tile gid="212"/>
   <tile gid="212"/>
   <tile gid="212"/>
   <tile gid="212"/>
   <tile gid="212"/>
   <tile gid="212"/>
   <tile gid="212"/>
   <tile gid="212"/>
   <tile gid="212"/>
   <tile gid="212"/>
   <tile gid="212"/>
   <tile gid="212"/>
   <tile gid="212"/>
   <tile gid="212"/>
   <tile gid="212"/>
   <tile gid="212"/>
   <tile gid="212"/>
   <tile gid="212"/>
   <tile gid="212"/>
   <tile gid="212"/>
   <tile gid="34"/>
   <tile gid="34"/>
   <tile gid="34"/>
   <tile gid="34"/>
   <tile gid="34"/>
   <tile gid="34"/>
   <tile gid="212"/>
   <tile gid="212"/>
   <tile gid="212"/>
   <tile gid="212"/>
   <tile gid="212"/>
   <tile gid="212"/>
   <tile gid="212"/>
   <tile gid="212"/>
   <tile gid="212"/>
   <tile gid="212"/>
   <tile gid="212"/>
   <tile gid="212"/>
   <tile gid="212"/>
   <tile gid="212"/>
   <tile gid="212"/>
   <tile gid="212"/>
   <tile gid="212"/>
   <tile gid="212"/>
   <tile gid="212"/>
   <tile gid="212"/>
   <tile gid="212"/>
   <tile gid="212"/>
   <tile gid="212"/>
   <tile gid="212"/>
   <tile gid="212"/>
   <tile gid="212"/>
   <tile gid="212"/>
   <tile gid="212"/>
   <tile gid="212"/>
   <tile gid="212"/>
   <tile gid="212"/>
   <tile gid="212"/>
   <tile gid="212"/>
   <tile gid="212"/>
   <tile gid="34"/>
   <tile gid="34"/>
   <tile gid="34"/>
   <tile gid="34"/>
   <tile gid="34"/>
   <tile gid="34"/>
   <tile gid="34"/>
   <tile gid="34"/>
   <tile gid="34"/>
   <tile gid="34"/>
   <tile gid="34"/>
   <tile gid="34"/>
   <tile gid="34"/>
   <tile gid="34"/>
   <tile gid="34"/>
   <tile gid="34"/>
   <tile gid="34"/>
   <tile gid="34"/>
   <tile gid="34"/>
   <tile gid="34"/>
   <tile gid="34"/>
   <tile gid="34"/>
   <tile gid="34"/>
   <tile gid="34"/>
   <tile gid="34"/>
   <tile gid="34"/>
   <tile gid="34"/>
   <tile gid="34"/>
   <tile gid="34"/>
   <tile gid="34"/>
   <tile gid="34"/>
   <tile gid="34"/>
   <tile gid="34"/>
   <tile gid="34"/>
   <tile gid="34"/>
   <tile gid="34"/>
   <tile gid="34"/>
   <tile gid="34"/>
   <tile gid="34"/>
   <tile gid="34"/>
   <tile gid="34"/>
   <tile gid="34"/>
   <tile gid="34"/>
   <tile gid="34"/>
   <tile gid="34"/>
   <tile gid="34"/>
   <tile gid="212"/>
   <tile gid="212"/>
   <tile gid="212"/>
   <tile gid="212"/>
   <tile gid="212"/>
   <tile gid="212"/>
   <tile gid="212"/>
   <tile gid="212"/>
   <tile gid="212"/>
   <tile gid="212"/>
   <tile gid="212"/>
   <tile gid="34"/>
   <tile gid="34"/>
   <tile gid="34"/>
   <tile gid="212"/>
   <tile gid="212"/>
   <tile gid="212"/>
   <tile gid="212"/>
   <tile gid="212"/>
   <tile gid="212"/>
   <tile gid="212"/>
   <tile gid="212"/>
   <tile gid="212"/>
   <tile gid="212"/>
   <tile gid="212"/>
   <tile gid="212"/>
   <tile gid="212"/>
   <tile gid="212"/>
   <tile gid="212"/>
   <tile gid="212"/>
   <tile gid="212"/>
   <tile gid="212"/>
   <tile gid="212"/>
   <tile gid="212"/>
   <tile gid="212"/>
   <tile gid="212"/>
   <tile gid="212"/>
   <tile gid="212"/>
   <tile gid="212"/>
   <tile gid="34"/>
   <tile gid="34"/>
   <tile gid="34"/>
   <tile gid="212"/>
   <tile gid="212"/>
   <tile gid="212"/>
   <tile gid="212"/>
   <tile gid="212"/>
   <tile gid="212"/>
   <tile gid="212"/>
   <tile gid="212"/>
   <tile gid="212"/>
   <tile gid="212"/>
   <tile gid="212"/>
   <tile gid="212"/>
   <tile gid="212"/>
   <tile gid="212"/>
   <tile gid="212"/>
   <tile gid="212"/>
   <tile gid="212"/>
   <tile gid="212"/>
   <tile gid="212"/>
   <tile gid="212"/>
   <tile gid="212"/>
   <tile gid="212"/>
   <tile gid="34"/>
   <tile gid="34"/>
   <tile gid="34"/>
   <tile gid="34"/>
   <tile gid="34"/>
   <tile gid="34"/>
   <tile gid="212"/>
   <tile gid="212"/>
   <tile gid="212"/>
   <tile gid="212"/>
   <tile gid="212"/>
   <tile gid="212"/>
   <tile gid="212"/>
   <tile gid="212"/>
   <tile gid="212"/>
   <tile gid="212"/>
   <tile gid="212"/>
   <tile gid="212"/>
   <tile gid="212"/>
   <tile gid="212"/>
   <tile gid="212"/>
   <tile gid="212"/>
   <tile gid="212"/>
   <tile gid="212"/>
   <tile gid="212"/>
   <tile gid="212"/>
   <tile gid="212"/>
   <tile gid="212"/>
   <tile gid="212"/>
   <tile gid="212"/>
   <tile gid="212"/>
   <tile gid="212"/>
   <tile gid="212"/>
   <tile gid="212"/>
   <tile gid="212"/>
   <tile gid="212"/>
   <tile gid="212"/>
   <tile gid="212"/>
   <tile gid="212"/>
   <tile gid="212"/>
   <tile gid="34"/>
   <tile gid="34"/>
   <tile gid="34"/>
   <tile gid="34"/>
   <tile gid="34"/>
   <tile gid="34"/>
   <tile gid="34"/>
   <tile gid="34"/>
   <tile gid="34"/>
   <tile gid="34"/>
   <tile gid="34"/>
   <tile gid="34"/>
   <tile gid="34"/>
   <tile gid="34"/>
   <tile gid="34"/>
   <tile gid="34"/>
   <tile gid="34"/>
   <tile gid="34"/>
   <tile gid="34"/>
   <tile gid="34"/>
   <tile gid="34"/>
   <tile gid="34"/>
   <tile gid="34"/>
   <tile gid="34"/>
   <tile gid="34"/>
   <tile gid="34"/>
   <tile gid="34"/>
   <tile gid="34"/>
   <tile gid="34"/>
   <tile gid="34"/>
   <tile gid="34"/>
   <tile gid="34"/>
   <tile gid="34"/>
   <tile gid="34"/>
   <tile gid="34"/>
   <tile gid="34"/>
   <tile gid="34"/>
   <tile gid="34"/>
   <tile gid="34"/>
   <tile gid="34"/>
   <tile gid="34"/>
   <tile gid="34"/>
   <tile gid="34"/>
   <tile gid="34"/>
   <tile gid="34"/>
   <tile gid="34"/>
   <tile gid="212"/>
   <tile gid="212"/>
   <tile gid="212"/>
   <tile gid="212"/>
   <tile gid="212"/>
   <tile gid="212"/>
   <tile gid="212"/>
   <tile gid="212"/>
   <tile gid="212"/>
   <tile gid="212"/>
   <tile gid="212"/>
   <tile gid="34"/>
   <tile gid="34"/>
   <tile gid="34"/>
   <tile gid="212"/>
   <tile gid="212"/>
   <tile gid="212"/>
   <tile gid="212"/>
   <tile gid="212"/>
   <tile gid="212"/>
   <tile gid="212"/>
   <tile gid="212"/>
   <tile gid="212"/>
   <tile gid="212"/>
   <tile gid="212"/>
   <tile gid="212"/>
   <tile gid="212"/>
   <tile gid="212"/>
   <tile gid="212"/>
   <tile gid="212"/>
   <tile gid="212"/>
   <tile gid="212"/>
   <tile gid="212"/>
   <tile gid="212"/>
   <tile gid="212"/>
   <tile gid="212"/>
   <tile gid="212"/>
   <tile gid="212"/>
   <tile gid="212"/>
   <tile gid="34"/>
   <tile gid="34"/>
   <tile gid="34"/>
   <tile gid="212"/>
   <tile gid="212"/>
   <tile gid="212"/>
   <tile gid="212"/>
   <tile gid="212"/>
   <tile gid="212"/>
   <tile gid="212"/>
   <tile gid="212"/>
   <tile gid="212"/>
   <tile gid="212"/>
   <tile gid="212"/>
   <tile gid="212"/>
   <tile gid="212"/>
   <tile gid="212"/>
   <tile gid="212"/>
   <tile gid="212"/>
   <tile gid="212"/>
   <tile gid="212"/>
   <tile gid="212"/>
   <tile gid="212"/>
   <tile gid="212"/>
   <tile gid="212"/>
   <tile gid="34"/>
   <tile gid="34"/>
   <tile gid="34"/>
   <tile gid="34"/>
   <tile gid="34"/>
   <tile gid="34"/>
   <tile gid="212"/>
   <tile gid="212"/>
   <tile gid="212"/>
   <tile gid="212"/>
   <tile gid="212"/>
   <tile gid="212"/>
   <tile gid="212"/>
   <tile gid="212"/>
   <tile gid="212"/>
   <tile gid="212"/>
   <tile gid="212"/>
   <tile gid="212"/>
   <tile gid="212"/>
   <tile gid="212"/>
   <tile gid="212"/>
   <tile gid="212"/>
   <tile gid="212"/>
   <tile gid="212"/>
   <tile gid="212"/>
   <tile gid="212"/>
   <tile gid="212"/>
   <tile gid="212"/>
   <tile gid="212"/>
   <tile gid="212"/>
   <tile gid="212"/>
   <tile gid="212"/>
   <tile gid="212"/>
   <tile gid="212"/>
   <tile gid="212"/>
   <tile gid="212"/>
   <tile gid="212"/>
   <tile gid="212"/>
   <tile gid="212"/>
   <tile gid="212"/>
   <tile gid="34"/>
   <tile gid="34"/>
   <tile gid="34"/>
   <tile gid="34"/>
   <tile gid="34"/>
   <tile gid="34"/>
   <tile gid="34"/>
   <tile gid="34"/>
   <tile gid="34"/>
   <tile gid="34"/>
   <tile gid="34"/>
   <tile gid="34"/>
   <tile gid="34"/>
   <tile gid="34"/>
   <tile gid="34"/>
   <tile gid="34"/>
   <tile gid="34"/>
   <tile gid="34"/>
   <tile gid="34"/>
   <tile gid="34"/>
   <tile gid="34"/>
   <tile gid="34"/>
   <tile gid="34"/>
   <tile gid="34"/>
   <tile gid="34"/>
   <tile gid="34"/>
   <tile gid="34"/>
   <tile gid="34"/>
   <tile gid="34"/>
   <tile gid="34"/>
   <tile gid="34"/>
   <tile gid="34"/>
   <tile gid="34"/>
   <tile gid="34"/>
   <tile gid="34"/>
   <tile gid="34"/>
   <tile gid="34"/>
   <tile gid="34"/>
   <tile gid="34"/>
   <tile gid="34"/>
   <tile gid="34"/>
   <tile gid="34"/>
   <tile gid="34"/>
   <tile gid="34"/>
   <tile gid="34"/>
   <tile gid="34"/>
   <tile gid="212"/>
   <tile gid="212"/>
   <tile gid="212"/>
   <tile gid="212"/>
   <tile gid="212"/>
   <tile gid="212"/>
   <tile gid="212"/>
   <tile gid="212"/>
   <tile gid="212"/>
   <tile gid="212"/>
   <tile gid="212"/>
   <tile gid="34"/>
   <tile gid="34"/>
   <tile gid="34"/>
   <tile gid="212"/>
   <tile gid="212"/>
   <tile gid="212"/>
   <tile gid="212"/>
   <tile gid="212"/>
   <tile gid="212"/>
   <tile gid="212"/>
   <tile gid="212"/>
   <tile gid="212"/>
   <tile gid="212"/>
   <tile gid="212"/>
   <tile gid="212"/>
   <tile gid="212"/>
   <tile gid="212"/>
   <tile gid="212"/>
   <tile gid="212"/>
   <tile gid="212"/>
   <tile gid="212"/>
   <tile gid="212"/>
   <tile gid="212"/>
   <tile gid="212"/>
   <tile gid="212"/>
   <tile gid="212"/>
   <tile gid="212"/>
   <tile gid="212"/>
   <tile gid="34"/>
   <tile gid="34"/>
   <tile gid="34"/>
   <tile gid="212"/>
   <tile gid="212"/>
   <tile gid="212"/>
   <tile gid="212"/>
   <tile gid="212"/>
   <tile gid="212"/>
   <tile gid="212"/>
   <tile gid="212"/>
   <tile gid="212"/>
   <tile gid="212"/>
   <tile gid="212"/>
   <tile gid="212"/>
   <tile gid="212"/>
   <tile gid="212"/>
   <tile gid="212"/>
   <tile gid="212"/>
   <tile gid="212"/>
   <tile gid="212"/>
   <tile gid="212"/>
   <tile gid="212"/>
   <tile gid="212"/>
   <tile gid="212"/>
   <tile gid="34"/>
   <tile gid="34"/>
   <tile gid="34"/>
   <tile gid="34"/>
   <tile gid="34"/>
   <tile gid="34"/>
   <tile gid="212"/>
   <tile gid="212"/>
   <tile gid="212"/>
   <tile gid="212"/>
   <tile gid="212"/>
   <tile gid="212"/>
   <tile gid="212"/>
   <tile gid="212"/>
   <tile gid="212"/>
   <tile gid="212"/>
   <tile gid="212"/>
   <tile gid="212"/>
   <tile gid="212"/>
   <tile gid="212"/>
   <tile gid="212"/>
   <tile gid="212"/>
   <tile gid="212"/>
   <tile gid="212"/>
   <tile gid="212"/>
   <tile gid="212"/>
   <tile gid="212"/>
   <tile gid="212"/>
   <tile gid="212"/>
   <tile gid="212"/>
   <tile gid="212"/>
   <tile gid="212"/>
   <tile gid="212"/>
   <tile gid="212"/>
   <tile gid="212"/>
   <tile gid="212"/>
   <tile gid="212"/>
   <tile gid="212"/>
   <tile gid="212"/>
   <tile gid="212"/>
   <tile gid="34"/>
   <tile gid="34"/>
   <tile gid="34"/>
   <tile gid="34"/>
   <tile gid="34"/>
   <tile gid="34"/>
   <tile gid="34"/>
   <tile gid="34"/>
   <tile gid="34"/>
   <tile gid="34"/>
   <tile gid="34"/>
   <tile gid="34"/>
   <tile gid="34"/>
   <tile gid="34"/>
   <tile gid="34"/>
   <tile gid="34"/>
   <tile gid="34"/>
   <tile gid="34"/>
   <tile gid="34"/>
   <tile gid="34"/>
   <tile gid="34"/>
   <tile gid="34"/>
   <tile gid="34"/>
   <tile gid="34"/>
   <tile gid="34"/>
   <tile gid="34"/>
   <tile gid="34"/>
   <tile gid="34"/>
   <tile gid="34"/>
   <tile gid="34"/>
   <tile gid="34"/>
   <tile gid="34"/>
   <tile gid="34"/>
   <tile gid="34"/>
   <tile gid="34"/>
   <tile gid="34"/>
   <tile gid="34"/>
   <tile gid="34"/>
   <tile gid="34"/>
   <tile gid="34"/>
   <tile gid="34"/>
   <tile gid="34"/>
   <tile gid="34"/>
   <tile gid="34"/>
   <tile gid="34"/>
   <tile gid="34"/>
   <tile gid="212"/>
   <tile gid="212"/>
   <tile gid="212"/>
   <tile gid="212"/>
   <tile gid="212"/>
   <tile gid="212"/>
   <tile gid="212"/>
   <tile gid="212"/>
   <tile gid="212"/>
   <tile gid="212"/>
   <tile gid="212"/>
   <tile gid="34"/>
   <tile gid="34"/>
   <tile gid="34"/>
   <tile gid="212"/>
   <tile gid="212"/>
   <tile gid="212"/>
   <tile gid="212"/>
   <tile gid="212"/>
   <tile gid="212"/>
   <tile gid="212"/>
   <tile gid="212"/>
   <tile gid="212"/>
   <tile gid="212"/>
   <tile gid="212"/>
   <tile gid="212"/>
   <tile gid="212"/>
   <tile gid="212"/>
   <tile gid="212"/>
   <tile gid="212"/>
   <tile gid="212"/>
   <tile gid="212"/>
   <tile gid="212"/>
   <tile gid="212"/>
   <tile gid="212"/>
   <tile gid="212"/>
   <tile gid="212"/>
   <tile gid="212"/>
   <tile gid="212"/>
   <tile gid="34"/>
   <tile gid="34"/>
   <tile gid="34"/>
   <tile gid="212"/>
   <tile gid="212"/>
   <tile gid="212"/>
   <tile gid="212"/>
   <tile gid="212"/>
   <tile gid="212"/>
   <tile gid="212"/>
   <tile gid="212"/>
   <tile gid="212"/>
   <tile gid="212"/>
   <tile gid="212"/>
   <tile gid="212"/>
   <tile gid="212"/>
   <tile gid="212"/>
   <tile gid="212"/>
   <tile gid="212"/>
   <tile gid="212"/>
   <tile gid="212"/>
   <tile gid="212"/>
   <tile gid="212"/>
   <tile gid="212"/>
   <tile gid="212"/>
   <tile gid="34"/>
   <tile gid="34"/>
   <tile gid="34"/>
   <tile gid="34"/>
   <tile gid="34"/>
   <tile gid="34"/>
   <tile gid="34"/>
   <tile gid="34"/>
   <tile gid="34"/>
   <tile gid="34"/>
   <tile gid="34"/>
   <tile gid="34"/>
   <tile gid="34"/>
   <tile gid="34"/>
   <tile gid="212"/>
   <tile gid="212"/>
   <tile gid="212"/>
   <tile gid="34"/>
   <tile gid="34"/>
   <tile gid="34"/>
   <tile gid="34"/>
   <tile gid="34"/>
   <tile gid="34"/>
   <tile gid="34"/>
   <tile gid="34"/>
   <tile gid="34"/>
   <tile gid="34"/>
   <tile gid="34"/>
   <tile gid="34"/>
   <tile gid="34"/>
   <tile gid="34"/>
   <tile gid="34"/>
   <tile gid="34"/>
   <tile gid="34"/>
   <tile gid="34"/>
   <tile gid="34"/>
   <tile gid="34"/>
   <tile gid="34"/>
   <tile gid="34"/>
   <tile gid="34"/>
   <tile gid="34"/>
   <tile gid="34"/>
   <tile gid="34"/>
   <tile gid="34"/>
   <tile gid="34"/>
   <tile gid="34"/>
   <tile gid="34"/>
   <tile gid="34"/>
   <tile gid="34"/>
   <tile gid="34"/>
   <tile gid="34"/>
   <tile gid="34"/>
   <tile gid="34"/>
   <tile gid="34"/>
   <tile gid="34"/>
   <tile gid="34"/>
   <tile gid="34"/>
   <tile gid="34"/>
   <tile gid="34"/>
   <tile gid="34"/>
   <tile gid="34"/>
   <tile gid="34"/>
   <tile gid="34"/>
   <tile gid="34"/>
   <tile gid="34"/>
   <tile gid="34"/>
   <tile gid="34"/>
   <tile gid="34"/>
   <tile gid="34"/>
   <tile gid="34"/>
   <tile gid="34"/>
   <tile gid="34"/>
   <tile gid="34"/>
   <tile gid="34"/>
   <tile gid="34"/>
   <tile gid="34"/>
   <tile gid="34"/>
   <tile gid="34"/>
   <tile gid="34"/>
   <tile gid="34"/>
   <tile gid="34"/>
   <tile gid="34"/>
   <tile gid="34"/>
   <tile gid="34"/>
   <tile gid="34"/>
   <tile gid="34"/>
   <tile gid="34"/>
   <tile gid="34"/>
   <tile gid="34"/>
   <tile gid="34"/>
   <tile gid="34"/>
   <tile gid="34"/>
   <tile gid="34"/>
   <tile gid="34"/>
   <tile gid="34"/>
   <tile gid="34"/>
   <tile gid="34"/>
   <tile gid="34"/>
   <tile gid="34"/>
   <tile gid="34"/>
   <tile gid="34"/>
   <tile gid="34"/>
   <tile gid="34"/>
   <tile gid="34"/>
   <tile gid="34"/>
   <tile gid="34"/>
   <tile gid="34"/>
   <tile gid="34"/>
   <tile gid="34"/>
   <tile gid="34"/>
   <tile gid="34"/>
   <tile gid="34"/>
   <tile gid="34"/>
   <tile gid="34"/>
   <tile gid="34"/>
   <tile gid="34"/>
   <tile gid="34"/>
   <tile gid="34"/>
   <tile gid="34"/>
   <tile gid="34"/>
   <tile gid="34"/>
   <tile gid="34"/>
   <tile gid="34"/>
   <tile gid="34"/>
   <tile gid="34"/>
   <tile gid="34"/>
   <tile gid="34"/>
   <tile gid="34"/>
   <tile gid="212"/>
   <tile gid="212"/>
   <tile gid="212"/>
   <tile gid="212"/>
   <tile gid="212"/>
   <tile gid="212"/>
   <tile gid="212"/>
   <tile gid="212"/>
   <tile gid="212"/>
   <tile gid="212"/>
   <tile gid="212"/>
   <tile gid="212"/>
   <tile gid="212"/>
   <tile gid="212"/>
   <tile gid="212"/>
   <tile gid="212"/>
   <tile gid="212"/>
   <tile gid="212"/>
   <tile gid="212"/>
   <tile gid="212"/>
   <tile gid="212"/>
   <tile gid="212"/>
   <tile gid="34"/>
   <tile gid="34"/>
   <tile gid="34"/>
   <tile gid="34"/>
   <tile gid="34"/>
   <tile gid="34"/>
   <tile gid="34"/>
   <tile gid="34"/>
   <tile gid="34"/>
   <tile gid="34"/>
   <tile gid="34"/>
   <tile gid="34"/>
   <tile gid="34"/>
   <tile gid="34"/>
   <tile gid="212"/>
   <tile gid="212"/>
   <tile gid="212"/>
   <tile gid="34"/>
   <tile gid="34"/>
   <tile gid="34"/>
   <tile gid="34"/>
   <tile gid="34"/>
   <tile gid="34"/>
   <tile gid="34"/>
   <tile gid="34"/>
   <tile gid="34"/>
   <tile gid="34"/>
   <tile gid="34"/>
   <tile gid="34"/>
   <tile gid="34"/>
   <tile gid="34"/>
   <tile gid="34"/>
   <tile gid="34"/>
   <tile gid="34"/>
   <tile gid="34"/>
   <tile gid="34"/>
   <tile gid="34"/>
   <tile gid="34"/>
   <tile gid="34"/>
   <tile gid="34"/>
   <tile gid="34"/>
   <tile gid="34"/>
   <tile gid="34"/>
   <tile gid="34"/>
   <tile gid="34"/>
   <tile gid="34"/>
   <tile gid="34"/>
   <tile gid="34"/>
   <tile gid="34"/>
   <tile gid="34"/>
   <tile gid="34"/>
   <tile gid="34"/>
   <tile gid="34"/>
   <tile gid="34"/>
   <tile gid="34"/>
   <tile gid="34"/>
   <tile gid="34"/>
   <tile gid="34"/>
   <tile gid="34"/>
   <tile gid="34"/>
   <tile gid="34"/>
   <tile gid="34"/>
   <tile gid="34"/>
   <tile gid="34"/>
   <tile gid="34"/>
   <tile gid="34"/>
   <tile gid="34"/>
   <tile gid="34"/>
   <tile gid="34"/>
   <tile gid="34"/>
   <tile gid="34"/>
   <tile gid="34"/>
   <tile gid="34"/>
   <tile gid="34"/>
   <tile gid="34"/>
   <tile gid="34"/>
   <tile gid="34"/>
   <tile gid="34"/>
   <tile gid="34"/>
   <tile gid="34"/>
   <tile gid="34"/>
   <tile gid="34"/>
   <tile gid="34"/>
   <tile gid="34"/>
   <tile gid="34"/>
   <tile gid="34"/>
   <tile gid="34"/>
   <tile gid="34"/>
   <tile gid="34"/>
   <tile gid="34"/>
   <tile gid="34"/>
   <tile gid="34"/>
   <tile gid="34"/>
   <tile gid="34"/>
   <tile gid="34"/>
   <tile gid="34"/>
   <tile gid="34"/>
   <tile gid="34"/>
   <tile gid="34"/>
   <tile gid="34"/>
   <tile gid="34"/>
   <tile gid="34"/>
   <tile gid="34"/>
   <tile gid="34"/>
   <tile gid="34"/>
   <tile gid="34"/>
   <tile gid="34"/>
   <tile gid="34"/>
   <tile gid="34"/>
   <tile gid="34"/>
   <tile gid="34"/>
   <tile gid="34"/>
   <tile gid="34"/>
   <tile gid="34"/>
   <tile gid="34"/>
   <tile gid="34"/>
   <tile gid="34"/>
   <tile gid="34"/>
   <tile gid="34"/>
   <tile gid="34"/>
   <tile gid="34"/>
   <tile gid="34"/>
   <tile gid="34"/>
   <tile gid="34"/>
   <tile gid="34"/>
   <tile gid="34"/>
   <tile gid="34"/>
   <tile gid="34"/>
   <tile gid="212"/>
   <tile gid="212"/>
   <tile gid="212"/>
   <tile gid="212"/>
   <tile gid="212"/>
   <tile gid="212"/>
   <tile gid="212"/>
   <tile gid="212"/>
   <tile gid="212"/>
   <tile gid="212"/>
   <tile gid="212"/>
   <tile gid="212"/>
   <tile gid="212"/>
   <tile gid="212"/>
   <tile gid="212"/>
   <tile gid="212"/>
   <tile gid="212"/>
   <tile gid="212"/>
   <tile gid="212"/>
   <tile gid="212"/>
   <tile gid="212"/>
   <tile gid="212"/>
   <tile gid="34"/>
   <tile gid="34"/>
   <tile gid="34"/>
   <tile gid="34"/>
   <tile gid="34"/>
   <tile gid="34"/>
   <tile gid="34"/>
   <tile gid="34"/>
   <tile gid="34"/>
   <tile gid="34"/>
   <tile gid="34"/>
   <tile gid="34"/>
   <tile gid="34"/>
   <tile gid="34"/>
   <tile gid="212"/>
   <tile gid="212"/>
   <tile gid="212"/>
   <tile gid="34"/>
   <tile gid="34"/>
   <tile gid="34"/>
   <tile gid="34"/>
   <tile gid="34"/>
   <tile gid="34"/>
   <tile gid="34"/>
   <tile gid="34"/>
   <tile gid="34"/>
   <tile gid="34"/>
   <tile gid="34"/>
   <tile gid="34"/>
   <tile gid="34"/>
   <tile gid="34"/>
   <tile gid="34"/>
   <tile gid="34"/>
   <tile gid="34"/>
   <tile gid="34"/>
   <tile gid="34"/>
   <tile gid="34"/>
   <tile gid="34"/>
   <tile gid="34"/>
   <tile gid="34"/>
   <tile gid="34"/>
   <tile gid="34"/>
   <tile gid="34"/>
   <tile gid="34"/>
   <tile gid="34"/>
   <tile gid="34"/>
   <tile gid="34"/>
   <tile gid="34"/>
   <tile gid="34"/>
   <tile gid="34"/>
   <tile gid="34"/>
   <tile gid="34"/>
   <tile gid="34"/>
   <tile gid="34"/>
   <tile gid="34"/>
   <tile gid="34"/>
   <tile gid="34"/>
   <tile gid="34"/>
   <tile gid="34"/>
   <tile gid="34"/>
   <tile gid="34"/>
   <tile gid="34"/>
   <tile gid="34"/>
   <tile gid="34"/>
   <tile gid="34"/>
   <tile gid="34"/>
   <tile gid="34"/>
   <tile gid="34"/>
   <tile gid="34"/>
   <tile gid="34"/>
   <tile gid="34"/>
   <tile gid="34"/>
   <tile gid="34"/>
   <tile gid="34"/>
   <tile gid="34"/>
   <tile gid="34"/>
   <tile gid="34"/>
   <tile gid="34"/>
   <tile gid="34"/>
   <tile gid="34"/>
   <tile gid="34"/>
   <tile gid="34"/>
   <tile gid="34"/>
   <tile gid="34"/>
   <tile gid="34"/>
   <tile gid="34"/>
   <tile gid="34"/>
   <tile gid="34"/>
   <tile gid="34"/>
   <tile gid="34"/>
   <tile gid="34"/>
   <tile gid="34"/>
   <tile gid="34"/>
   <tile gid="34"/>
   <tile gid="34"/>
   <tile gid="34"/>
   <tile gid="34"/>
   <tile gid="34"/>
   <tile gid="34"/>
   <tile gid="34"/>
   <tile gid="34"/>
   <tile gid="34"/>
   <tile gid="34"/>
   <tile gid="34"/>
   <tile gid="34"/>
   <tile gid="34"/>
   <tile gid="34"/>
   <tile gid="34"/>
   <tile gid="34"/>
   <tile gid="34"/>
   <tile gid="34"/>
   <tile gid="34"/>
   <tile gid="34"/>
   <tile gid="34"/>
   <tile gid="34"/>
   <tile gid="34"/>
   <tile gid="34"/>
   <tile gid="34"/>
   <tile gid="34"/>
   <tile gid="34"/>
   <tile gid="34"/>
   <tile gid="34"/>
   <tile gid="34"/>
   <tile gid="34"/>
   <tile gid="34"/>
   <tile gid="34"/>
   <tile gid="34"/>
   <tile gid="34"/>
   <tile gid="212"/>
   <tile gid="212"/>
   <tile gid="212"/>
   <tile gid="212"/>
   <tile gid="212"/>
   <tile gid="212"/>
   <tile gid="212"/>
   <tile gid="212"/>
   <tile gid="212"/>
   <tile gid="212"/>
   <tile gid="212"/>
   <tile gid="212"/>
   <tile gid="212"/>
   <tile gid="212"/>
   <tile gid="212"/>
   <tile gid="212"/>
   <tile gid="212"/>
   <tile gid="212"/>
   <tile gid="212"/>
   <tile gid="212"/>
   <tile gid="212"/>
   <tile gid="212"/>
   <tile gid="34"/>
   <tile gid="34"/>
   <tile gid="34"/>
   <tile gid="34"/>
   <tile gid="34"/>
   <tile gid="34"/>
   <tile gid="212"/>
   <tile gid="212"/>
   <tile gid="212"/>
   <tile gid="212"/>
   <tile gid="212"/>
   <tile gid="212"/>
   <tile gid="212"/>
   <tile gid="212"/>
   <tile gid="212"/>
   <tile gid="212"/>
   <tile gid="212"/>
   <tile gid="212"/>
   <tile gid="212"/>
   <tile gid="212"/>
   <tile gid="212"/>
   <tile gid="212"/>
   <tile gid="212"/>
   <tile gid="212"/>
   <tile gid="212"/>
   <tile gid="212"/>
   <tile gid="212"/>
   <tile gid="212"/>
   <tile gid="34"/>
   <tile gid="34"/>
   <tile gid="34"/>
   <tile gid="212"/>
   <tile gid="212"/>
   <tile gid="212"/>
   <tile gid="212"/>
   <tile gid="212"/>
   <tile gid="212"/>
   <tile gid="212"/>
   <tile gid="212"/>
   <tile gid="212"/>
   <tile gid="212"/>
   <tile gid="212"/>
   <tile gid="212"/>
   <tile gid="212"/>
   <tile gid="212"/>
   <tile gid="212"/>
   <tile gid="212"/>
   <tile gid="212"/>
   <tile gid="212"/>
   <tile gid="212"/>
   <tile gid="212"/>
   <tile gid="212"/>
   <tile gid="212"/>
   <tile gid="212"/>
   <tile gid="212"/>
   <tile gid="212"/>
   <tile gid="212"/>
   <tile gid="212"/>
   <tile gid="212"/>
   <tile gid="212"/>
   <tile gid="212"/>
   <tile gid="212"/>
   <tile gid="212"/>
   <tile gid="212"/>
   <tile gid="212"/>
   <tile gid="212"/>
   <tile gid="212"/>
   <tile gid="212"/>
   <tile gid="212"/>
   <tile gid="34"/>
   <tile gid="34"/>
   <tile gid="34"/>
   <tile gid="212"/>
   <tile gid="212"/>
   <tile gid="212"/>
   <tile gid="212"/>
   <tile gid="212"/>
   <tile gid="212"/>
   <tile gid="212"/>
   <tile gid="212"/>
   <tile gid="212"/>
   <tile gid="212"/>
   <tile gid="212"/>
   <tile gid="212"/>
   <tile gid="212"/>
   <tile gid="212"/>
   <tile gid="212"/>
   <tile gid="212"/>
   <tile gid="212"/>
   <tile gid="212"/>
   <tile gid="212"/>
   <tile gid="212"/>
   <tile gid="212"/>
   <tile gid="212"/>
   <tile gid="212"/>
   <tile gid="212"/>
   <tile gid="212"/>
   <tile gid="34"/>
   <tile gid="34"/>
   <tile gid="34"/>
   <tile gid="212"/>
   <tile gid="212"/>
   <tile gid="212"/>
   <tile gid="212"/>
   <tile gid="212"/>
   <tile gid="212"/>
   <tile gid="212"/>
   <tile gid="212"/>
   <tile gid="212"/>
   <tile gid="212"/>
   <tile gid="212"/>
   <tile gid="212"/>
   <tile gid="212"/>
   <tile gid="212"/>
   <tile gid="212"/>
   <tile gid="212"/>
   <tile gid="212"/>
   <tile gid="212"/>
   <tile gid="212"/>
   <tile gid="212"/>
   <tile gid="212"/>
   <tile gid="212"/>
   <tile gid="212"/>
   <tile gid="212"/>
   <tile gid="212"/>
   <tile gid="34"/>
   <tile gid="34"/>
   <tile gid="34"/>
   <tile gid="212"/>
   <tile gid="212"/>
   <tile gid="212"/>
   <tile gid="212"/>
   <tile gid="212"/>
   <tile gid="212"/>
   <tile gid="212"/>
   <tile gid="212"/>
   <tile gid="212"/>
   <tile gid="212"/>
   <tile gid="212"/>
   <tile gid="212"/>
   <tile gid="212"/>
   <tile gid="212"/>
   <tile gid="212"/>
   <tile gid="212"/>
   <tile gid="212"/>
   <tile gid="212"/>
   <tile gid="212"/>
   <tile gid="212"/>
   <tile gid="212"/>
   <tile gid="212"/>
   <tile gid="34"/>
   <tile gid="34"/>
   <tile gid="34"/>
   <tile gid="34"/>
   <tile gid="34"/>
   <tile gid="34"/>
   <tile gid="212"/>
   <tile gid="212"/>
   <tile gid="212"/>
   <tile gid="212"/>
   <tile gid="212"/>
   <tile gid="212"/>
   <tile gid="212"/>
   <tile gid="212"/>
   <tile gid="212"/>
   <tile gid="212"/>
   <tile gid="212"/>
   <tile gid="212"/>
   <tile gid="212"/>
   <tile gid="212"/>
   <tile gid="212"/>
   <tile gid="212"/>
   <tile gid="212"/>
   <tile gid="212"/>
   <tile gid="212"/>
   <tile gid="212"/>
   <tile gid="212"/>
   <tile gid="212"/>
   <tile gid="34"/>
   <tile gid="34"/>
   <tile gid="34"/>
   <tile gid="212"/>
   <tile gid="212"/>
   <tile gid="212"/>
   <tile gid="212"/>
   <tile gid="212"/>
   <tile gid="212"/>
   <tile gid="212"/>
   <tile gid="212"/>
   <tile gid="212"/>
   <tile gid="212"/>
   <tile gid="212"/>
   <tile gid="212"/>
   <tile gid="212"/>
   <tile gid="212"/>
   <tile gid="212"/>
   <tile gid="212"/>
   <tile gid="212"/>
   <tile gid="212"/>
   <tile gid="212"/>
   <tile gid="212"/>
   <tile gid="212"/>
   <tile gid="212"/>
   <tile gid="212"/>
   <tile gid="212"/>
   <tile gid="212"/>
   <tile gid="212"/>
   <tile gid="212"/>
   <tile gid="212"/>
   <tile gid="212"/>
   <tile gid="212"/>
   <tile gid="212"/>
   <tile gid="212"/>
   <tile gid="212"/>
   <tile gid="212"/>
   <tile gid="212"/>
   <tile gid="212"/>
   <tile gid="212"/>
   <tile gid="212"/>
   <tile gid="34"/>
   <tile gid="34"/>
   <tile gid="34"/>
   <tile gid="212"/>
   <tile gid="212"/>
   <tile gid="212"/>
   <tile gid="212"/>
   <tile gid="212"/>
   <tile gid="212"/>
   <tile gid="212"/>
   <tile gid="212"/>
   <tile gid="212"/>
   <tile gid="212"/>
   <tile gid="212"/>
   <tile gid="212"/>
   <tile gid="212"/>
   <tile gid="212"/>
   <tile gid="212"/>
   <tile gid="212"/>
   <tile gid="212"/>
   <tile gid="212"/>
   <tile gid="212"/>
   <tile gid="212"/>
   <tile gid="212"/>
   <tile gid="212"/>
   <tile gid="212"/>
   <tile gid="212"/>
   <tile gid="212"/>
   <tile gid="34"/>
   <tile gid="34"/>
   <tile gid="34"/>
   <tile gid="212"/>
   <tile gid="212"/>
   <tile gid="212"/>
   <tile gid="212"/>
   <tile gid="212"/>
   <tile gid="212"/>
   <tile gid="212"/>
   <tile gid="212"/>
   <tile gid="212"/>
   <tile gid="212"/>
   <tile gid="212"/>
   <tile gid="212"/>
   <tile gid="212"/>
   <tile gid="212"/>
   <tile gid="212"/>
   <tile gid="212"/>
   <tile gid="212"/>
   <tile gid="212"/>
   <tile gid="212"/>
   <tile gid="212"/>
   <tile gid="212"/>
   <tile gid="212"/>
   <tile gid="212"/>
   <tile gid="212"/>
   <tile gid="212"/>
   <tile gid="34"/>
   <tile gid="34"/>
   <tile gid="34"/>
   <tile gid="212"/>
   <tile gid="212"/>
   <tile gid="212"/>
   <tile gid="212"/>
   <tile gid="212"/>
   <tile gid="212"/>
   <tile gid="212"/>
   <tile gid="212"/>
   <tile gid="212"/>
   <tile gid="212"/>
   <tile gid="212"/>
   <tile gid="212"/>
   <tile gid="212"/>
   <tile gid="212"/>
   <tile gid="212"/>
   <tile gid="212"/>
   <tile gid="212"/>
   <tile gid="212"/>
   <tile gid="212"/>
   <tile gid="212"/>
   <tile gid="212"/>
   <tile gid="212"/>
   <tile gid="34"/>
   <tile gid="34"/>
   <tile gid="34"/>
   <tile gid="34"/>
   <tile gid="34"/>
   <tile gid="34"/>
   <tile gid="212"/>
   <tile gid="212"/>
   <tile gid="212"/>
   <tile gid="212"/>
   <tile gid="212"/>
   <tile gid="212"/>
   <tile gid="212"/>
   <tile gid="212"/>
   <tile gid="212"/>
   <tile gid="212"/>
   <tile gid="212"/>
   <tile gid="212"/>
   <tile gid="212"/>
   <tile gid="212"/>
   <tile gid="212"/>
   <tile gid="212"/>
   <tile gid="212"/>
   <tile gid="212"/>
   <tile gid="212"/>
   <tile gid="212"/>
   <tile gid="212"/>
   <tile gid="212"/>
   <tile gid="34"/>
   <tile gid="34"/>
   <tile gid="34"/>
   <tile gid="212"/>
   <tile gid="212"/>
   <tile gid="212"/>
   <tile gid="212"/>
   <tile gid="212"/>
   <tile gid="212"/>
   <tile gid="212"/>
   <tile gid="212"/>
   <tile gid="212"/>
   <tile gid="212"/>
   <tile gid="212"/>
   <tile gid="212"/>
   <tile gid="212"/>
   <tile gid="212"/>
   <tile gid="212"/>
   <tile gid="212"/>
   <tile gid="212"/>
   <tile gid="212"/>
   <tile gid="212"/>
   <tile gid="212"/>
   <tile gid="212"/>
   <tile gid="212"/>
   <tile gid="212"/>
   <tile gid="212"/>
   <tile gid="212"/>
   <tile gid="212"/>
   <tile gid="212"/>
   <tile gid="212"/>
   <tile gid="212"/>
   <tile gid="212"/>
   <tile gid="212"/>
   <tile gid="212"/>
   <tile gid="212"/>
   <tile gid="212"/>
   <tile gid="212"/>
   <tile gid="212"/>
   <tile gid="212"/>
   <tile gid="212"/>
   <tile gid="34"/>
   <tile gid="34"/>
   <tile gid="34"/>
   <tile gid="212"/>
   <tile gid="212"/>
   <tile gid="212"/>
   <tile gid="212"/>
   <tile gid="212"/>
   <tile gid="212"/>
   <tile gid="212"/>
   <tile gid="212"/>
   <tile gid="212"/>
   <tile gid="212"/>
   <tile gid="212"/>
   <tile gid="212"/>
   <tile gid="212"/>
   <tile gid="212"/>
   <tile gid="212"/>
   <tile gid="212"/>
   <tile gid="212"/>
   <tile gid="212"/>
   <tile gid="212"/>
   <tile gid="212"/>
   <tile gid="212"/>
   <tile gid="212"/>
   <tile gid="212"/>
   <tile gid="212"/>
   <tile gid="212"/>
   <tile gid="34"/>
   <tile gid="34"/>
   <tile gid="34"/>
   <tile gid="212"/>
   <tile gid="212"/>
   <tile gid="212"/>
   <tile gid="212"/>
   <tile gid="212"/>
   <tile gid="212"/>
   <tile gid="212"/>
   <tile gid="212"/>
   <tile gid="212"/>
   <tile gid="212"/>
   <tile gid="212"/>
   <tile gid="212"/>
   <tile gid="212"/>
   <tile gid="212"/>
   <tile gid="212"/>
   <tile gid="212"/>
   <tile gid="212"/>
   <tile gid="212"/>
   <tile gid="212"/>
   <tile gid="212"/>
   <tile gid="212"/>
   <tile gid="212"/>
   <tile gid="212"/>
   <tile gid="212"/>
   <tile gid="212"/>
   <tile gid="34"/>
   <tile gid="34"/>
   <tile gid="34"/>
   <tile gid="212"/>
   <tile gid="212"/>
   <tile gid="212"/>
   <tile gid="212"/>
   <tile gid="212"/>
   <tile gid="212"/>
   <tile gid="212"/>
   <tile gid="212"/>
   <tile gid="212"/>
   <tile gid="212"/>
   <tile gid="212"/>
   <tile gid="212"/>
   <tile gid="212"/>
   <tile gid="212"/>
   <tile gid="212"/>
   <tile gid="212"/>
   <tile gid="212"/>
   <tile gid="212"/>
   <tile gid="212"/>
   <tile gid="212"/>
   <tile gid="212"/>
   <tile gid="212"/>
   <tile gid="34"/>
   <tile gid="34"/>
   <tile gid="34"/>
   <tile gid="34"/>
   <tile gid="34"/>
   <tile gid="34"/>
   <tile gid="212"/>
   <tile gid="212"/>
   <tile gid="212"/>
   <tile gid="212"/>
   <tile gid="212"/>
   <tile gid="212"/>
   <tile gid="212"/>
   <tile gid="212"/>
   <tile gid="212"/>
   <tile gid="212"/>
   <tile gid="212"/>
   <tile gid="212"/>
   <tile gid="212"/>
   <tile gid="212"/>
   <tile gid="212"/>
   <tile gid="212"/>
   <tile gid="212"/>
   <tile gid="212"/>
   <tile gid="212"/>
   <tile gid="212"/>
   <tile gid="212"/>
   <tile gid="212"/>
   <tile gid="34"/>
   <tile gid="34"/>
   <tile gid="34"/>
   <tile gid="212"/>
   <tile gid="212"/>
   <tile gid="212"/>
   <tile gid="212"/>
   <tile gid="212"/>
   <tile gid="212"/>
   <tile gid="212"/>
   <tile gid="212"/>
   <tile gid="212"/>
   <tile gid="212"/>
   <tile gid="212"/>
   <tile gid="212"/>
   <tile gid="212"/>
   <tile gid="212"/>
   <tile gid="212"/>
   <tile gid="212"/>
   <tile gid="212"/>
   <tile gid="212"/>
   <tile gid="212"/>
   <tile gid="212"/>
   <tile gid="212"/>
   <tile gid="212"/>
   <tile gid="212"/>
   <tile gid="212"/>
   <tile gid="212"/>
   <tile gid="212"/>
   <tile gid="212"/>
   <tile gid="212"/>
   <tile gid="212"/>
   <tile gid="212"/>
   <tile gid="212"/>
   <tile gid="212"/>
   <tile gid="212"/>
   <tile gid="212"/>
   <tile gid="212"/>
   <tile gid="212"/>
   <tile gid="212"/>
   <tile gid="212"/>
   <tile gid="34"/>
   <tile gid="34"/>
   <tile gid="34"/>
   <tile gid="212"/>
   <tile gid="212"/>
   <tile gid="212"/>
   <tile gid="212"/>
   <tile gid="212"/>
   <tile gid="212"/>
   <tile gid="212"/>
   <tile gid="212"/>
   <tile gid="212"/>
   <tile gid="212"/>
   <tile gid="212"/>
   <tile gid="212"/>
   <tile gid="212"/>
   <tile gid="212"/>
   <tile gid="212"/>
   <tile gid="212"/>
   <tile gid="212"/>
   <tile gid="212"/>
   <tile gid="212"/>
   <tile gid="212"/>
   <tile gid="212"/>
   <tile gid="212"/>
   <tile gid="212"/>
   <tile gid="212"/>
   <tile gid="212"/>
   <tile gid="34"/>
   <tile gid="34"/>
   <tile gid="34"/>
   <tile gid="212"/>
   <tile gid="212"/>
   <tile gid="212"/>
   <tile gid="212"/>
   <tile gid="212"/>
   <tile gid="212"/>
   <tile gid="212"/>
   <tile gid="212"/>
   <tile gid="212"/>
   <tile gid="212"/>
   <tile gid="212"/>
   <tile gid="212"/>
   <tile gid="212"/>
   <tile gid="212"/>
   <tile gid="212"/>
   <tile gid="212"/>
   <tile gid="212"/>
   <tile gid="212"/>
   <tile gid="212"/>
   <tile gid="212"/>
   <tile gid="212"/>
   <tile gid="212"/>
   <tile gid="212"/>
   <tile gid="212"/>
   <tile gid="212"/>
   <tile gid="34"/>
   <tile gid="34"/>
   <tile gid="34"/>
   <tile gid="212"/>
   <tile gid="212"/>
   <tile gid="212"/>
   <tile gid="212"/>
   <tile gid="212"/>
   <tile gid="212"/>
   <tile gid="212"/>
   <tile gid="212"/>
   <tile gid="212"/>
   <tile gid="212"/>
   <tile gid="212"/>
   <tile gid="212"/>
   <tile gid="212"/>
   <tile gid="212"/>
   <tile gid="212"/>
   <tile gid="212"/>
   <tile gid="212"/>
   <tile gid="212"/>
   <tile gid="212"/>
   <tile gid="212"/>
   <tile gid="212"/>
   <tile gid="212"/>
   <tile gid="34"/>
   <tile gid="34"/>
   <tile gid="34"/>
   <tile gid="34"/>
   <tile gid="34"/>
   <tile gid="34"/>
   <tile gid="212"/>
   <tile gid="212"/>
   <tile gid="212"/>
   <tile gid="212"/>
   <tile gid="212"/>
   <tile gid="212"/>
   <tile gid="212"/>
   <tile gid="212"/>
   <tile gid="212"/>
   <tile gid="212"/>
   <tile gid="212"/>
   <tile gid="212"/>
   <tile gid="212"/>
   <tile gid="212"/>
   <tile gid="212"/>
   <tile gid="212"/>
   <tile gid="212"/>
   <tile gid="212"/>
   <tile gid="212"/>
   <tile gid="212"/>
   <tile gid="212"/>
   <tile gid="212"/>
   <tile gid="34"/>
   <tile gid="34"/>
   <tile gid="34"/>
   <tile gid="212"/>
   <tile gid="212"/>
   <tile gid="212"/>
   <tile gid="212"/>
   <tile gid="212"/>
   <tile gid="212"/>
   <tile gid="212"/>
   <tile gid="212"/>
   <tile gid="212"/>
   <tile gid="212"/>
   <tile gid="212"/>
   <tile gid="212"/>
   <tile gid="212"/>
   <tile gid="212"/>
   <tile gid="212"/>
   <tile gid="212"/>
   <tile gid="212"/>
   <tile gid="212"/>
   <tile gid="212"/>
   <tile gid="212"/>
   <tile gid="212"/>
   <tile gid="212"/>
   <tile gid="212"/>
   <tile gid="212"/>
   <tile gid="212"/>
   <tile gid="212"/>
   <tile gid="212"/>
   <tile gid="212"/>
   <tile gid="212"/>
   <tile gid="212"/>
   <tile gid="212"/>
   <tile gid="212"/>
   <tile gid="212"/>
   <tile gid="212"/>
   <tile gid="212"/>
   <tile gid="212"/>
   <tile gid="212"/>
   <tile gid="212"/>
   <tile gid="34"/>
   <tile gid="34"/>
   <tile gid="34"/>
   <tile gid="212"/>
   <tile gid="212"/>
   <tile gid="212"/>
   <tile gid="212"/>
   <tile gid="212"/>
   <tile gid="212"/>
   <tile gid="212"/>
   <tile gid="212"/>
   <tile gid="212"/>
   <tile gid="212"/>
   <tile gid="212"/>
   <tile gid="212"/>
   <tile gid="212"/>
   <tile gid="212"/>
   <tile gid="212"/>
   <tile gid="212"/>
   <tile gid="212"/>
   <tile gid="212"/>
   <tile gid="212"/>
   <tile gid="212"/>
   <tile gid="212"/>
   <tile gid="212"/>
   <tile gid="212"/>
   <tile gid="212"/>
   <tile gid="212"/>
   <tile gid="34"/>
   <tile gid="34"/>
   <tile gid="34"/>
   <tile gid="212"/>
   <tile gid="212"/>
   <tile gid="212"/>
   <tile gid="212"/>
   <tile gid="212"/>
   <tile gid="212"/>
   <tile gid="212"/>
   <tile gid="212"/>
   <tile gid="212"/>
   <tile gid="212"/>
   <tile gid="212"/>
   <tile gid="212"/>
   <tile gid="212"/>
   <tile gid="212"/>
   <tile gid="212"/>
   <tile gid="212"/>
   <tile gid="212"/>
   <tile gid="212"/>
   <tile gid="212"/>
   <tile gid="212"/>
   <tile gid="212"/>
   <tile gid="212"/>
   <tile gid="212"/>
   <tile gid="212"/>
   <tile gid="212"/>
   <tile gid="34"/>
   <tile gid="34"/>
   <tile gid="34"/>
   <tile gid="212"/>
   <tile gid="212"/>
   <tile gid="212"/>
   <tile gid="212"/>
   <tile gid="212"/>
   <tile gid="212"/>
   <tile gid="212"/>
   <tile gid="212"/>
   <tile gid="212"/>
   <tile gid="212"/>
   <tile gid="212"/>
   <tile gid="212"/>
   <tile gid="212"/>
   <tile gid="212"/>
   <tile gid="212"/>
   <tile gid="212"/>
   <tile gid="212"/>
   <tile gid="212"/>
   <tile gid="212"/>
   <tile gid="212"/>
   <tile gid="212"/>
   <tile gid="212"/>
   <tile gid="34"/>
   <tile gid="34"/>
   <tile gid="34"/>
   <tile gid="34"/>
   <tile gid="34"/>
   <tile gid="34"/>
   <tile gid="212"/>
   <tile gid="212"/>
   <tile gid="212"/>
   <tile gid="212"/>
   <tile gid="212"/>
   <tile gid="212"/>
   <tile gid="212"/>
   <tile gid="212"/>
   <tile gid="212"/>
   <tile gid="212"/>
   <tile gid="212"/>
   <tile gid="212"/>
   <tile gid="212"/>
   <tile gid="212"/>
   <tile gid="212"/>
   <tile gid="212"/>
   <tile gid="212"/>
   <tile gid="212"/>
   <tile gid="212"/>
   <tile gid="212"/>
   <tile gid="212"/>
   <tile gid="212"/>
   <tile gid="34"/>
   <tile gid="34"/>
   <tile gid="34"/>
   <tile gid="212"/>
   <tile gid="212"/>
   <tile gid="212"/>
   <tile gid="212"/>
   <tile gid="212"/>
   <tile gid="212"/>
   <tile gid="212"/>
   <tile gid="212"/>
   <tile gid="212"/>
   <tile gid="212"/>
   <tile gid="212"/>
   <tile gid="212"/>
   <tile gid="212"/>
   <tile gid="212"/>
   <tile gid="212"/>
   <tile gid="212"/>
   <tile gid="212"/>
   <tile gid="212"/>
   <tile gid="212"/>
   <tile gid="212"/>
   <tile gid="212"/>
   <tile gid="212"/>
   <tile gid="212"/>
   <tile gid="212"/>
   <tile gid="212"/>
   <tile gid="212"/>
   <tile gid="212"/>
   <tile gid="212"/>
   <tile gid="212"/>
   <tile gid="212"/>
   <tile gid="212"/>
   <tile gid="212"/>
   <tile gid="212"/>
   <tile gid="212"/>
   <tile gid="212"/>
   <tile gid="212"/>
   <tile gid="212"/>
   <tile gid="212"/>
   <tile gid="34"/>
   <tile gid="34"/>
   <tile gid="34"/>
   <tile gid="212"/>
   <tile gid="212"/>
   <tile gid="212"/>
   <tile gid="212"/>
   <tile gid="212"/>
   <tile gid="212"/>
   <tile gid="212"/>
   <tile gid="212"/>
   <tile gid="212"/>
   <tile gid="212"/>
   <tile gid="212"/>
   <tile gid="212"/>
   <tile gid="212"/>
   <tile gid="212"/>
   <tile gid="212"/>
   <tile gid="212"/>
   <tile gid="212"/>
   <tile gid="212"/>
   <tile gid="212"/>
   <tile gid="212"/>
   <tile gid="212"/>
   <tile gid="212"/>
   <tile gid="212"/>
   <tile gid="212"/>
   <tile gid="212"/>
   <tile gid="34"/>
   <tile gid="34"/>
   <tile gid="34"/>
   <tile gid="212"/>
   <tile gid="212"/>
   <tile gid="212"/>
   <tile gid="212"/>
   <tile gid="212"/>
   <tile gid="212"/>
   <tile gid="212"/>
   <tile gid="212"/>
   <tile gid="212"/>
   <tile gid="212"/>
   <tile gid="212"/>
   <tile gid="212"/>
   <tile gid="212"/>
   <tile gid="212"/>
   <tile gid="212"/>
   <tile gid="212"/>
   <tile gid="212"/>
   <tile gid="212"/>
   <tile gid="212"/>
   <tile gid="212"/>
   <tile gid="212"/>
   <tile gid="212"/>
   <tile gid="212"/>
   <tile gid="212"/>
   <tile gid="212"/>
   <tile gid="34"/>
   <tile gid="34"/>
   <tile gid="34"/>
   <tile gid="212"/>
   <tile gid="212"/>
   <tile gid="212"/>
   <tile gid="212"/>
   <tile gid="212"/>
   <tile gid="212"/>
   <tile gid="212"/>
   <tile gid="212"/>
   <tile gid="212"/>
   <tile gid="212"/>
   <tile gid="212"/>
   <tile gid="212"/>
   <tile gid="212"/>
   <tile gid="212"/>
   <tile gid="212"/>
   <tile gid="212"/>
   <tile gid="212"/>
   <tile gid="212"/>
   <tile gid="212"/>
   <tile gid="212"/>
   <tile gid="212"/>
   <tile gid="212"/>
   <tile gid="34"/>
   <tile gid="34"/>
   <tile gid="34"/>
   <tile gid="34"/>
   <tile gid="34"/>
   <tile gid="34"/>
   <tile gid="212"/>
   <tile gid="212"/>
   <tile gid="212"/>
   <tile gid="212"/>
   <tile gid="212"/>
   <tile gid="212"/>
   <tile gid="212"/>
   <tile gid="212"/>
   <tile gid="212"/>
   <tile gid="212"/>
   <tile gid="212"/>
   <tile gid="212"/>
   <tile gid="212"/>
   <tile gid="212"/>
   <tile gid="212"/>
   <tile gid="212"/>
   <tile gid="212"/>
   <tile gid="212"/>
   <tile gid="212"/>
   <tile gid="212"/>
   <tile gid="212"/>
   <tile gid="212"/>
   <tile gid="34"/>
   <tile gid="34"/>
   <tile gid="34"/>
   <tile gid="212"/>
   <tile gid="212"/>
   <tile gid="212"/>
   <tile gid="212"/>
   <tile gid="212"/>
   <tile gid="212"/>
   <tile gid="212"/>
   <tile gid="212"/>
   <tile gid="212"/>
   <tile gid="212"/>
   <tile gid="212"/>
   <tile gid="212"/>
   <tile gid="212"/>
   <tile gid="212"/>
   <tile gid="212"/>
   <tile gid="212"/>
   <tile gid="212"/>
   <tile gid="212"/>
   <tile gid="212"/>
   <tile gid="212"/>
   <tile gid="212"/>
   <tile gid="212"/>
   <tile gid="212"/>
   <tile gid="212"/>
   <tile gid="212"/>
   <tile gid="212"/>
   <tile gid="212"/>
   <tile gid="212"/>
   <tile gid="212"/>
   <tile gid="212"/>
   <tile gid="212"/>
   <tile gid="212"/>
   <tile gid="212"/>
   <tile gid="212"/>
   <tile gid="212"/>
   <tile gid="212"/>
   <tile gid="212"/>
   <tile gid="212"/>
   <tile gid="34"/>
   <tile gid="34"/>
   <tile gid="34"/>
   <tile gid="212"/>
   <tile gid="212"/>
   <tile gid="212"/>
   <tile gid="212"/>
   <tile gid="212"/>
   <tile gid="212"/>
   <tile gid="212"/>
   <tile gid="212"/>
   <tile gid="212"/>
   <tile gid="212"/>
   <tile gid="212"/>
   <tile gid="212"/>
   <tile gid="212"/>
   <tile gid="212"/>
   <tile gid="212"/>
   <tile gid="212"/>
   <tile gid="212"/>
   <tile gid="212"/>
   <tile gid="212"/>
   <tile gid="212"/>
   <tile gid="212"/>
   <tile gid="212"/>
   <tile gid="212"/>
   <tile gid="212"/>
   <tile gid="212"/>
   <tile gid="34"/>
   <tile gid="34"/>
   <tile gid="34"/>
   <tile gid="212"/>
   <tile gid="212"/>
   <tile gid="212"/>
   <tile gid="212"/>
   <tile gid="212"/>
   <tile gid="212"/>
   <tile gid="212"/>
   <tile gid="212"/>
   <tile gid="212"/>
   <tile gid="212"/>
   <tile gid="212"/>
   <tile gid="212"/>
   <tile gid="212"/>
   <tile gid="212"/>
   <tile gid="212"/>
   <tile gid="212"/>
   <tile gid="212"/>
   <tile gid="212"/>
   <tile gid="212"/>
   <tile gid="212"/>
   <tile gid="212"/>
   <tile gid="212"/>
   <tile gid="212"/>
   <tile gid="212"/>
   <tile gid="212"/>
   <tile gid="34"/>
   <tile gid="34"/>
   <tile gid="34"/>
   <tile gid="212"/>
   <tile gid="212"/>
   <tile gid="212"/>
   <tile gid="212"/>
   <tile gid="212"/>
   <tile gid="212"/>
   <tile gid="212"/>
   <tile gid="212"/>
   <tile gid="212"/>
   <tile gid="212"/>
   <tile gid="212"/>
   <tile gid="212"/>
   <tile gid="212"/>
   <tile gid="212"/>
   <tile gid="212"/>
   <tile gid="212"/>
   <tile gid="212"/>
   <tile gid="212"/>
   <tile gid="212"/>
   <tile gid="212"/>
   <tile gid="212"/>
   <tile gid="212"/>
   <tile gid="34"/>
   <tile gid="34"/>
   <tile gid="34"/>
   <tile gid="34"/>
   <tile gid="34"/>
   <tile gid="34"/>
   <tile gid="212"/>
   <tile gid="212"/>
   <tile gid="212"/>
   <tile gid="212"/>
   <tile gid="212"/>
   <tile gid="212"/>
   <tile gid="212"/>
   <tile gid="212"/>
   <tile gid="212"/>
   <tile gid="212"/>
   <tile gid="212"/>
   <tile gid="212"/>
   <tile gid="212"/>
   <tile gid="212"/>
   <tile gid="212"/>
   <tile gid="212"/>
   <tile gid="212"/>
   <tile gid="212"/>
   <tile gid="212"/>
   <tile gid="212"/>
   <tile gid="212"/>
   <tile gid="212"/>
   <tile gid="34"/>
   <tile gid="34"/>
   <tile gid="34"/>
   <tile gid="212"/>
   <tile gid="212"/>
   <tile gid="212"/>
   <tile gid="212"/>
   <tile gid="212"/>
   <tile gid="212"/>
   <tile gid="212"/>
   <tile gid="212"/>
   <tile gid="212"/>
   <tile gid="212"/>
   <tile gid="212"/>
   <tile gid="212"/>
   <tile gid="212"/>
   <tile gid="212"/>
   <tile gid="212"/>
   <tile gid="212"/>
   <tile gid="212"/>
   <tile gid="212"/>
   <tile gid="212"/>
   <tile gid="212"/>
   <tile gid="212"/>
   <tile gid="212"/>
   <tile gid="212"/>
   <tile gid="212"/>
   <tile gid="212"/>
   <tile gid="212"/>
   <tile gid="212"/>
   <tile gid="212"/>
   <tile gid="212"/>
   <tile gid="212"/>
   <tile gid="212"/>
   <tile gid="212"/>
   <tile gid="212"/>
   <tile gid="212"/>
   <tile gid="212"/>
   <tile gid="212"/>
   <tile gid="212"/>
   <tile gid="212"/>
   <tile gid="34"/>
   <tile gid="34"/>
   <tile gid="34"/>
   <tile gid="212"/>
   <tile gid="212"/>
   <tile gid="212"/>
   <tile gid="212"/>
   <tile gid="212"/>
   <tile gid="212"/>
   <tile gid="212"/>
   <tile gid="212"/>
   <tile gid="212"/>
   <tile gid="212"/>
   <tile gid="212"/>
   <tile gid="212"/>
   <tile gid="212"/>
   <tile gid="212"/>
   <tile gid="212"/>
   <tile gid="212"/>
   <tile gid="212"/>
   <tile gid="212"/>
   <tile gid="212"/>
   <tile gid="212"/>
   <tile gid="212"/>
   <tile gid="212"/>
   <tile gid="212"/>
   <tile gid="212"/>
   <tile gid="212"/>
   <tile gid="212"/>
   <tile gid="212"/>
   <tile gid="212"/>
   <tile gid="212"/>
   <tile gid="212"/>
   <tile gid="212"/>
   <tile gid="212"/>
   <tile gid="212"/>
   <tile gid="212"/>
   <tile gid="212"/>
   <tile gid="212"/>
   <tile gid="212"/>
   <tile gid="212"/>
   <tile gid="212"/>
   <tile gid="212"/>
   <tile gid="212"/>
   <tile gid="212"/>
   <tile gid="212"/>
   <tile gid="212"/>
   <tile gid="212"/>
   <tile gid="212"/>
   <tile gid="212"/>
   <tile gid="212"/>
   <tile gid="212"/>
   <tile gid="212"/>
   <tile gid="212"/>
   <tile gid="212"/>
   <tile gid="212"/>
   <tile gid="34"/>
   <tile gid="34"/>
   <tile gid="34"/>
   <tile gid="212"/>
   <tile gid="212"/>
   <tile gid="212"/>
   <tile gid="212"/>
   <tile gid="212"/>
   <tile gid="212"/>
   <tile gid="212"/>
   <tile gid="212"/>
   <tile gid="212"/>
   <tile gid="212"/>
   <tile gid="212"/>
   <tile gid="212"/>
   <tile gid="212"/>
   <tile gid="212"/>
   <tile gid="212"/>
   <tile gid="212"/>
   <tile gid="212"/>
   <tile gid="212"/>
   <tile gid="212"/>
   <tile gid="212"/>
   <tile gid="212"/>
   <tile gid="212"/>
   <tile gid="34"/>
   <tile gid="34"/>
   <tile gid="34"/>
   <tile gid="34"/>
   <tile gid="34"/>
   <tile gid="34"/>
   <tile gid="212"/>
   <tile gid="212"/>
   <tile gid="212"/>
   <tile gid="212"/>
   <tile gid="212"/>
   <tile gid="212"/>
   <tile gid="212"/>
   <tile gid="212"/>
   <tile gid="212"/>
   <tile gid="212"/>
   <tile gid="212"/>
   <tile gid="212"/>
   <tile gid="212"/>
   <tile gid="212"/>
   <tile gid="212"/>
   <tile gid="212"/>
   <tile gid="212"/>
   <tile gid="212"/>
   <tile gid="212"/>
   <tile gid="212"/>
   <tile gid="212"/>
   <tile gid="212"/>
   <tile gid="34"/>
   <tile gid="34"/>
   <tile gid="34"/>
   <tile gid="212"/>
   <tile gid="212"/>
   <tile gid="212"/>
   <tile gid="212"/>
   <tile gid="212"/>
   <tile gid="212"/>
   <tile gid="212"/>
   <tile gid="212"/>
   <tile gid="212"/>
   <tile gid="212"/>
   <tile gid="212"/>
   <tile gid="212"/>
   <tile gid="212"/>
   <tile gid="212"/>
   <tile gid="212"/>
   <tile gid="212"/>
   <tile gid="212"/>
   <tile gid="212"/>
   <tile gid="212"/>
   <tile gid="212"/>
   <tile gid="212"/>
   <tile gid="212"/>
   <tile gid="212"/>
   <tile gid="212"/>
   <tile gid="212"/>
   <tile gid="212"/>
   <tile gid="212"/>
   <tile gid="212"/>
   <tile gid="212"/>
   <tile gid="212"/>
   <tile gid="212"/>
   <tile gid="212"/>
   <tile gid="212"/>
   <tile gid="212"/>
   <tile gid="212"/>
   <tile gid="212"/>
   <tile gid="212"/>
   <tile gid="212"/>
   <tile gid="212"/>
   <tile gid="212"/>
   <tile gid="212"/>
   <tile gid="212"/>
   <tile gid="212"/>
   <tile gid="212"/>
   <tile gid="212"/>
   <tile gid="212"/>
   <tile gid="212"/>
   <tile gid="212"/>
   <tile gid="212"/>
   <tile gid="212"/>
   <tile gid="212"/>
   <tile gid="212"/>
   <tile gid="212"/>
   <tile gid="212"/>
   <tile gid="212"/>
   <tile gid="212"/>
   <tile gid="212"/>
   <tile gid="212"/>
   <tile gid="212"/>
   <tile gid="212"/>
   <tile gid="212"/>
   <tile gid="212"/>
   <tile gid="212"/>
   <tile gid="212"/>
   <tile gid="212"/>
   <tile gid="212"/>
   <tile gid="212"/>
   <tile gid="212"/>
   <tile gid="212"/>
   <tile gid="212"/>
   <tile gid="212"/>
   <tile gid="212"/>
   <tile gid="212"/>
   <tile gid="212"/>
   <tile gid="212"/>
   <tile gid="212"/>
   <tile gid="212"/>
   <tile gid="212"/>
   <tile gid="212"/>
   <tile gid="212"/>
   <tile gid="212"/>
   <tile gid="212"/>
   <tile gid="212"/>
   <tile gid="212"/>
   <tile gid="212"/>
   <tile gid="212"/>
   <tile gid="212"/>
   <tile gid="212"/>
   <tile gid="212"/>
   <tile gid="212"/>
   <tile gid="212"/>
   <tile gid="212"/>
   <tile gid="212"/>
   <tile gid="212"/>
   <tile gid="34"/>
   <tile gid="34"/>
   <tile gid="34"/>
   <tile gid="212"/>
   <tile gid="212"/>
   <tile gid="212"/>
   <tile gid="212"/>
   <tile gid="212"/>
   <tile gid="212"/>
   <tile gid="212"/>
   <tile gid="212"/>
   <tile gid="212"/>
   <tile gid="212"/>
   <tile gid="212"/>
   <tile gid="212"/>
   <tile gid="212"/>
   <tile gid="212"/>
   <tile gid="212"/>
   <tile gid="212"/>
   <tile gid="212"/>
   <tile gid="212"/>
   <tile gid="212"/>
   <tile gid="212"/>
   <tile gid="212"/>
   <tile gid="212"/>
   <tile gid="34"/>
   <tile gid="34"/>
   <tile gid="34"/>
   <tile gid="34"/>
   <tile gid="34"/>
   <tile gid="34"/>
   <tile gid="212"/>
   <tile gid="212"/>
   <tile gid="212"/>
   <tile gid="212"/>
   <tile gid="212"/>
   <tile gid="212"/>
   <tile gid="212"/>
   <tile gid="212"/>
   <tile gid="212"/>
   <tile gid="212"/>
   <tile gid="212"/>
   <tile gid="212"/>
   <tile gid="212"/>
   <tile gid="212"/>
   <tile gid="212"/>
   <tile gid="212"/>
   <tile gid="212"/>
   <tile gid="212"/>
   <tile gid="212"/>
   <tile gid="212"/>
   <tile gid="212"/>
   <tile gid="212"/>
   <tile gid="34"/>
   <tile gid="34"/>
   <tile gid="34"/>
   <tile gid="212"/>
   <tile gid="212"/>
   <tile gid="212"/>
   <tile gid="212"/>
   <tile gid="212"/>
   <tile gid="212"/>
   <tile gid="212"/>
   <tile gid="212"/>
   <tile gid="212"/>
   <tile gid="212"/>
   <tile gid="212"/>
   <tile gid="212"/>
   <tile gid="212"/>
   <tile gid="212"/>
   <tile gid="212"/>
   <tile gid="212"/>
   <tile gid="212"/>
   <tile gid="212"/>
   <tile gid="212"/>
   <tile gid="212"/>
   <tile gid="212"/>
   <tile gid="212"/>
   <tile gid="212"/>
   <tile gid="212"/>
   <tile gid="212"/>
   <tile gid="212"/>
   <tile gid="212"/>
   <tile gid="212"/>
   <tile gid="212"/>
   <tile gid="212"/>
   <tile gid="212"/>
   <tile gid="212"/>
   <tile gid="212"/>
   <tile gid="212"/>
   <tile gid="212"/>
   <tile gid="212"/>
   <tile gid="212"/>
   <tile gid="212"/>
   <tile gid="212"/>
   <tile gid="212"/>
   <tile gid="212"/>
   <tile gid="212"/>
   <tile gid="212"/>
   <tile gid="212"/>
   <tile gid="212"/>
   <tile gid="212"/>
   <tile gid="212"/>
   <tile gid="212"/>
   <tile gid="212"/>
   <tile gid="212"/>
   <tile gid="212"/>
   <tile gid="212"/>
   <tile gid="212"/>
   <tile gid="212"/>
   <tile gid="212"/>
   <tile gid="212"/>
   <tile gid="212"/>
   <tile gid="212"/>
   <tile gid="212"/>
   <tile gid="212"/>
   <tile gid="212"/>
   <tile gid="212"/>
   <tile gid="212"/>
   <tile gid="212"/>
   <tile gid="212"/>
   <tile gid="212"/>
   <tile gid="212"/>
   <tile gid="212"/>
   <tile gid="212"/>
   <tile gid="212"/>
   <tile gid="212"/>
   <tile gid="212"/>
   <tile gid="212"/>
   <tile gid="212"/>
   <tile gid="212"/>
   <tile gid="212"/>
   <tile gid="212"/>
   <tile gid="212"/>
   <tile gid="212"/>
   <tile gid="212"/>
   <tile gid="212"/>
   <tile gid="212"/>
   <tile gid="212"/>
   <tile gid="212"/>
   <tile gid="212"/>
   <tile gid="212"/>
   <tile gid="212"/>
   <tile gid="212"/>
   <tile gid="212"/>
   <tile gid="212"/>
   <tile gid="212"/>
   <tile gid="212"/>
   <tile gid="212"/>
   <tile gid="212"/>
   <tile gid="34"/>
   <tile gid="34"/>
   <tile gid="34"/>
   <tile gid="212"/>
   <tile gid="212"/>
   <tile gid="212"/>
   <tile gid="212"/>
   <tile gid="212"/>
   <tile gid="212"/>
   <tile gid="212"/>
   <tile gid="212"/>
   <tile gid="212"/>
   <tile gid="212"/>
   <tile gid="212"/>
   <tile gid="212"/>
   <tile gid="212"/>
   <tile gid="212"/>
   <tile gid="212"/>
   <tile gid="212"/>
   <tile gid="212"/>
   <tile gid="212"/>
   <tile gid="212"/>
   <tile gid="212"/>
   <tile gid="212"/>
   <tile gid="212"/>
   <tile gid="34"/>
   <tile gid="34"/>
   <tile gid="34"/>
   <tile gid="34"/>
   <tile gid="34"/>
   <tile gid="34"/>
   <tile gid="212"/>
   <tile gid="212"/>
   <tile gid="212"/>
   <tile gid="212"/>
   <tile gid="212"/>
   <tile gid="212"/>
   <tile gid="212"/>
   <tile gid="212"/>
   <tile gid="212"/>
   <tile gid="212"/>
   <tile gid="212"/>
   <tile gid="212"/>
   <tile gid="212"/>
   <tile gid="212"/>
   <tile gid="212"/>
   <tile gid="212"/>
   <tile gid="212"/>
   <tile gid="212"/>
   <tile gid="212"/>
   <tile gid="212"/>
   <tile gid="212"/>
   <tile gid="212"/>
   <tile gid="34"/>
   <tile gid="34"/>
   <tile gid="34"/>
   <tile gid="212"/>
   <tile gid="212"/>
   <tile gid="212"/>
   <tile gid="212"/>
   <tile gid="212"/>
   <tile gid="212"/>
   <tile gid="212"/>
   <tile gid="212"/>
   <tile gid="212"/>
   <tile gid="212"/>
   <tile gid="212"/>
   <tile gid="212"/>
   <tile gid="212"/>
   <tile gid="212"/>
   <tile gid="212"/>
   <tile gid="212"/>
   <tile gid="212"/>
   <tile gid="212"/>
   <tile gid="212"/>
   <tile gid="212"/>
   <tile gid="212"/>
   <tile gid="212"/>
   <tile gid="212"/>
   <tile gid="212"/>
   <tile gid="212"/>
   <tile gid="212"/>
   <tile gid="212"/>
   <tile gid="212"/>
   <tile gid="212"/>
   <tile gid="212"/>
   <tile gid="212"/>
   <tile gid="212"/>
   <tile gid="212"/>
   <tile gid="212"/>
   <tile gid="212"/>
   <tile gid="212"/>
   <tile gid="212"/>
   <tile gid="212"/>
   <tile gid="212"/>
   <tile gid="212"/>
   <tile gid="212"/>
   <tile gid="212"/>
   <tile gid="212"/>
   <tile gid="212"/>
   <tile gid="212"/>
   <tile gid="212"/>
   <tile gid="212"/>
   <tile gid="212"/>
   <tile gid="212"/>
   <tile gid="212"/>
   <tile gid="212"/>
   <tile gid="212"/>
   <tile gid="212"/>
   <tile gid="212"/>
   <tile gid="212"/>
   <tile gid="212"/>
   <tile gid="212"/>
   <tile gid="212"/>
   <tile gid="212"/>
   <tile gid="212"/>
   <tile gid="212"/>
   <tile gid="212"/>
   <tile gid="212"/>
   <tile gid="212"/>
   <tile gid="212"/>
   <tile gid="212"/>
   <tile gid="212"/>
   <tile gid="212"/>
   <tile gid="212"/>
   <tile gid="212"/>
   <tile gid="212"/>
   <tile gid="212"/>
   <tile gid="212"/>
   <tile gid="212"/>
   <tile gid="212"/>
   <tile gid="212"/>
   <tile gid="212"/>
   <tile gid="212"/>
   <tile gid="212"/>
   <tile gid="212"/>
   <tile gid="212"/>
   <tile gid="212"/>
   <tile gid="212"/>
   <tile gid="212"/>
   <tile gid="212"/>
   <tile gid="212"/>
   <tile gid="212"/>
   <tile gid="212"/>
   <tile gid="212"/>
   <tile gid="212"/>
   <tile gid="212"/>
   <tile gid="212"/>
   <tile gid="212"/>
   <tile gid="212"/>
   <tile gid="34"/>
   <tile gid="34"/>
   <tile gid="34"/>
   <tile gid="212"/>
   <tile gid="212"/>
   <tile gid="212"/>
   <tile gid="212"/>
   <tile gid="212"/>
   <tile gid="212"/>
   <tile gid="212"/>
   <tile gid="212"/>
   <tile gid="212"/>
   <tile gid="212"/>
   <tile gid="212"/>
   <tile gid="212"/>
   <tile gid="212"/>
   <tile gid="212"/>
   <tile gid="212"/>
   <tile gid="212"/>
   <tile gid="212"/>
   <tile gid="212"/>
   <tile gid="212"/>
   <tile gid="212"/>
   <tile gid="212"/>
   <tile gid="212"/>
   <tile gid="34"/>
   <tile gid="34"/>
   <tile gid="34"/>
   <tile gid="34"/>
   <tile gid="34"/>
   <tile gid="34"/>
   <tile gid="212"/>
   <tile gid="212"/>
   <tile gid="212"/>
   <tile gid="212"/>
   <tile gid="212"/>
   <tile gid="212"/>
   <tile gid="212"/>
   <tile gid="212"/>
   <tile gid="212"/>
   <tile gid="212"/>
   <tile gid="212"/>
   <tile gid="212"/>
   <tile gid="212"/>
   <tile gid="212"/>
   <tile gid="212"/>
   <tile gid="212"/>
   <tile gid="212"/>
   <tile gid="212"/>
   <tile gid="212"/>
   <tile gid="212"/>
   <tile gid="212"/>
   <tile gid="212"/>
   <tile gid="34"/>
   <tile gid="34"/>
   <tile gid="34"/>
   <tile gid="212"/>
   <tile gid="212"/>
   <tile gid="212"/>
   <tile gid="212"/>
   <tile gid="212"/>
   <tile gid="212"/>
   <tile gid="212"/>
   <tile gid="212"/>
   <tile gid="212"/>
   <tile gid="212"/>
   <tile gid="212"/>
   <tile gid="212"/>
   <tile gid="212"/>
   <tile gid="212"/>
   <tile gid="212"/>
   <tile gid="212"/>
   <tile gid="212"/>
   <tile gid="212"/>
   <tile gid="212"/>
   <tile gid="212"/>
   <tile gid="212"/>
   <tile gid="212"/>
   <tile gid="212"/>
   <tile gid="212"/>
   <tile gid="212"/>
   <tile gid="212"/>
   <tile gid="212"/>
   <tile gid="212"/>
   <tile gid="212"/>
   <tile gid="212"/>
   <tile gid="212"/>
   <tile gid="212"/>
   <tile gid="212"/>
   <tile gid="212"/>
   <tile gid="212"/>
   <tile gid="212"/>
   <tile gid="212"/>
   <tile gid="212"/>
   <tile gid="34"/>
   <tile gid="34"/>
   <tile gid="34"/>
   <tile gid="212"/>
   <tile gid="212"/>
   <tile gid="212"/>
   <tile gid="212"/>
   <tile gid="212"/>
   <tile gid="212"/>
   <tile gid="212"/>
   <tile gid="212"/>
   <tile gid="212"/>
   <tile gid="212"/>
   <tile gid="212"/>
   <tile gid="212"/>
   <tile gid="212"/>
   <tile gid="212"/>
   <tile gid="212"/>
   <tile gid="212"/>
   <tile gid="212"/>
   <tile gid="212"/>
   <tile gid="212"/>
   <tile gid="212"/>
   <tile gid="212"/>
   <tile gid="212"/>
   <tile gid="212"/>
   <tile gid="212"/>
   <tile gid="212"/>
   <tile gid="34"/>
   <tile gid="34"/>
   <tile gid="34"/>
   <tile gid="212"/>
   <tile gid="212"/>
   <tile gid="212"/>
   <tile gid="212"/>
   <tile gid="212"/>
   <tile gid="212"/>
   <tile gid="212"/>
   <tile gid="212"/>
   <tile gid="212"/>
   <tile gid="212"/>
   <tile gid="212"/>
   <tile gid="212"/>
   <tile gid="212"/>
   <tile gid="212"/>
   <tile gid="212"/>
   <tile gid="212"/>
   <tile gid="212"/>
   <tile gid="212"/>
   <tile gid="212"/>
   <tile gid="212"/>
   <tile gid="212"/>
   <tile gid="212"/>
   <tile gid="212"/>
   <tile gid="212"/>
   <tile gid="212"/>
   <tile gid="34"/>
   <tile gid="34"/>
   <tile gid="34"/>
   <tile gid="212"/>
   <tile gid="212"/>
   <tile gid="212"/>
   <tile gid="212"/>
   <tile gid="212"/>
   <tile gid="212"/>
   <tile gid="212"/>
   <tile gid="212"/>
   <tile gid="212"/>
   <tile gid="212"/>
   <tile gid="212"/>
   <tile gid="212"/>
   <tile gid="212"/>
   <tile gid="212"/>
   <tile gid="212"/>
   <tile gid="212"/>
   <tile gid="212"/>
   <tile gid="212"/>
   <tile gid="212"/>
   <tile gid="212"/>
   <tile gid="212"/>
   <tile gid="212"/>
   <tile gid="34"/>
   <tile gid="34"/>
   <tile gid="34"/>
   <tile gid="34"/>
   <tile gid="34"/>
   <tile gid="34"/>
   <tile gid="212"/>
   <tile gid="212"/>
   <tile gid="212"/>
   <tile gid="212"/>
   <tile gid="212"/>
   <tile gid="212"/>
   <tile gid="212"/>
   <tile gid="212"/>
   <tile gid="212"/>
   <tile gid="212"/>
   <tile gid="212"/>
   <tile gid="212"/>
   <tile gid="212"/>
   <tile gid="212"/>
   <tile gid="212"/>
   <tile gid="212"/>
   <tile gid="212"/>
   <tile gid="212"/>
   <tile gid="212"/>
   <tile gid="212"/>
   <tile gid="212"/>
   <tile gid="212"/>
   <tile gid="34"/>
   <tile gid="34"/>
   <tile gid="34"/>
   <tile gid="212"/>
   <tile gid="212"/>
   <tile gid="212"/>
   <tile gid="212"/>
   <tile gid="212"/>
   <tile gid="212"/>
   <tile gid="212"/>
   <tile gid="212"/>
   <tile gid="212"/>
   <tile gid="212"/>
   <tile gid="212"/>
   <tile gid="212"/>
   <tile gid="212"/>
   <tile gid="212"/>
   <tile gid="212"/>
   <tile gid="212"/>
   <tile gid="212"/>
   <tile gid="212"/>
   <tile gid="212"/>
   <tile gid="212"/>
   <tile gid="212"/>
   <tile gid="212"/>
   <tile gid="212"/>
   <tile gid="212"/>
   <tile gid="212"/>
   <tile gid="212"/>
   <tile gid="212"/>
   <tile gid="212"/>
   <tile gid="212"/>
   <tile gid="212"/>
   <tile gid="212"/>
   <tile gid="212"/>
   <tile gid="212"/>
   <tile gid="212"/>
   <tile gid="212"/>
   <tile gid="212"/>
   <tile gid="212"/>
   <tile gid="212"/>
   <tile gid="34"/>
   <tile gid="34"/>
   <tile gid="34"/>
   <tile gid="212"/>
   <tile gid="212"/>
   <tile gid="212"/>
   <tile gid="212"/>
   <tile gid="212"/>
   <tile gid="212"/>
   <tile gid="212"/>
   <tile gid="212"/>
   <tile gid="212"/>
   <tile gid="212"/>
   <tile gid="212"/>
   <tile gid="212"/>
   <tile gid="212"/>
   <tile gid="212"/>
   <tile gid="212"/>
   <tile gid="212"/>
   <tile gid="212"/>
   <tile gid="212"/>
   <tile gid="212"/>
   <tile gid="212"/>
   <tile gid="212"/>
   <tile gid="212"/>
   <tile gid="212"/>
   <tile gid="212"/>
   <tile gid="212"/>
   <tile gid="34"/>
   <tile gid="34"/>
   <tile gid="34"/>
   <tile gid="212"/>
   <tile gid="212"/>
   <tile gid="212"/>
   <tile gid="212"/>
   <tile gid="212"/>
   <tile gid="212"/>
   <tile gid="212"/>
   <tile gid="212"/>
   <tile gid="212"/>
   <tile gid="212"/>
   <tile gid="212"/>
   <tile gid="212"/>
   <tile gid="212"/>
   <tile gid="212"/>
   <tile gid="212"/>
   <tile gid="212"/>
   <tile gid="212"/>
   <tile gid="212"/>
   <tile gid="212"/>
   <tile gid="212"/>
   <tile gid="212"/>
   <tile gid="212"/>
   <tile gid="212"/>
   <tile gid="212"/>
   <tile gid="212"/>
   <tile gid="212"/>
   <tile gid="212"/>
   <tile gid="212"/>
   <tile gid="212"/>
   <tile gid="212"/>
   <tile gid="212"/>
   <tile gid="212"/>
   <tile gid="212"/>
   <tile gid="212"/>
   <tile gid="212"/>
   <tile gid="212"/>
   <tile gid="212"/>
   <tile gid="212"/>
   <tile gid="212"/>
   <tile gid="212"/>
   <tile gid="212"/>
   <tile gid="212"/>
   <tile gid="212"/>
   <tile gid="212"/>
   <tile gid="212"/>
   <tile gid="212"/>
   <tile gid="212"/>
   <tile gid="212"/>
   <tile gid="212"/>
   <tile gid="212"/>
   <tile gid="34"/>
   <tile gid="34"/>
   <tile gid="34"/>
   <tile gid="34"/>
   <tile gid="34"/>
   <tile gid="34"/>
   <tile gid="212"/>
   <tile gid="212"/>
   <tile gid="212"/>
   <tile gid="212"/>
   <tile gid="212"/>
   <tile gid="212"/>
   <tile gid="212"/>
   <tile gid="212"/>
   <tile gid="212"/>
   <tile gid="212"/>
   <tile gid="212"/>
   <tile gid="212"/>
   <tile gid="212"/>
   <tile gid="212"/>
   <tile gid="212"/>
   <tile gid="212"/>
   <tile gid="212"/>
   <tile gid="212"/>
   <tile gid="212"/>
   <tile gid="212"/>
   <tile gid="212"/>
   <tile gid="212"/>
   <tile gid="34"/>
   <tile gid="34"/>
   <tile gid="34"/>
   <tile gid="212"/>
   <tile gid="212"/>
   <tile gid="212"/>
   <tile gid="212"/>
   <tile gid="212"/>
   <tile gid="212"/>
   <tile gid="212"/>
   <tile gid="212"/>
   <tile gid="212"/>
   <tile gid="212"/>
   <tile gid="212"/>
   <tile gid="212"/>
   <tile gid="212"/>
   <tile gid="212"/>
   <tile gid="212"/>
   <tile gid="212"/>
   <tile gid="212"/>
   <tile gid="212"/>
   <tile gid="212"/>
   <tile gid="212"/>
   <tile gid="212"/>
   <tile gid="212"/>
   <tile gid="212"/>
   <tile gid="212"/>
   <tile gid="212"/>
   <tile gid="212"/>
   <tile gid="212"/>
   <tile gid="212"/>
   <tile gid="212"/>
   <tile gid="212"/>
   <tile gid="212"/>
   <tile gid="212"/>
   <tile gid="212"/>
   <tile gid="212"/>
   <tile gid="212"/>
   <tile gid="212"/>
   <tile gid="212"/>
   <tile gid="212"/>
   <tile gid="34"/>
   <tile gid="34"/>
   <tile gid="34"/>
   <tile gid="212"/>
   <tile gid="212"/>
   <tile gid="212"/>
   <tile gid="212"/>
   <tile gid="212"/>
   <tile gid="212"/>
   <tile gid="212"/>
   <tile gid="212"/>
   <tile gid="212"/>
   <tile gid="212"/>
   <tile gid="212"/>
   <tile gid="212"/>
   <tile gid="212"/>
   <tile gid="212"/>
   <tile gid="212"/>
   <tile gid="212"/>
   <tile gid="212"/>
   <tile gid="212"/>
   <tile gid="212"/>
   <tile gid="212"/>
   <tile gid="212"/>
   <tile gid="212"/>
   <tile gid="212"/>
   <tile gid="212"/>
   <tile gid="212"/>
   <tile gid="34"/>
   <tile gid="34"/>
   <tile gid="34"/>
   <tile gid="212"/>
   <tile gid="212"/>
   <tile gid="212"/>
   <tile gid="212"/>
   <tile gid="212"/>
   <tile gid="212"/>
   <tile gid="212"/>
   <tile gid="212"/>
   <tile gid="212"/>
   <tile gid="212"/>
   <tile gid="212"/>
   <tile gid="212"/>
   <tile gid="212"/>
   <tile gid="212"/>
   <tile gid="212"/>
   <tile gid="212"/>
   <tile gid="212"/>
   <tile gid="212"/>
   <tile gid="212"/>
   <tile gid="212"/>
   <tile gid="212"/>
   <tile gid="212"/>
   <tile gid="212"/>
   <tile gid="212"/>
   <tile gid="212"/>
   <tile gid="212"/>
   <tile gid="212"/>
   <tile gid="212"/>
   <tile gid="212"/>
   <tile gid="212"/>
   <tile gid="212"/>
   <tile gid="212"/>
   <tile gid="212"/>
   <tile gid="212"/>
   <tile gid="212"/>
   <tile gid="212"/>
   <tile gid="212"/>
   <tile gid="212"/>
   <tile gid="212"/>
   <tile gid="212"/>
   <tile gid="212"/>
   <tile gid="212"/>
   <tile gid="212"/>
   <tile gid="212"/>
   <tile gid="212"/>
   <tile gid="212"/>
   <tile gid="212"/>
   <tile gid="212"/>
   <tile gid="212"/>
   <tile gid="212"/>
   <tile gid="34"/>
   <tile gid="34"/>
   <tile gid="34"/>
   <tile gid="34"/>
   <tile gid="34"/>
   <tile gid="34"/>
   <tile gid="212"/>
   <tile gid="212"/>
   <tile gid="212"/>
   <tile gid="212"/>
   <tile gid="212"/>
   <tile gid="212"/>
   <tile gid="212"/>
   <tile gid="212"/>
   <tile gid="212"/>
   <tile gid="212"/>
   <tile gid="212"/>
   <tile gid="212"/>
   <tile gid="212"/>
   <tile gid="212"/>
   <tile gid="212"/>
   <tile gid="212"/>
   <tile gid="212"/>
   <tile gid="212"/>
   <tile gid="212"/>
   <tile gid="212"/>
   <tile gid="212"/>
   <tile gid="212"/>
   <tile gid="34"/>
   <tile gid="34"/>
   <tile gid="34"/>
   <tile gid="212"/>
   <tile gid="212"/>
   <tile gid="212"/>
   <tile gid="212"/>
   <tile gid="212"/>
   <tile gid="212"/>
   <tile gid="212"/>
   <tile gid="212"/>
   <tile gid="212"/>
   <tile gid="212"/>
   <tile gid="212"/>
   <tile gid="212"/>
   <tile gid="212"/>
   <tile gid="212"/>
   <tile gid="212"/>
   <tile gid="212"/>
   <tile gid="212"/>
   <tile gid="212"/>
   <tile gid="212"/>
   <tile gid="212"/>
   <tile gid="212"/>
   <tile gid="212"/>
   <tile gid="212"/>
   <tile gid="212"/>
   <tile gid="212"/>
   <tile gid="212"/>
   <tile gid="212"/>
   <tile gid="212"/>
   <tile gid="212"/>
   <tile gid="212"/>
   <tile gid="212"/>
   <tile gid="212"/>
   <tile gid="212"/>
   <tile gid="212"/>
   <tile gid="212"/>
   <tile gid="212"/>
   <tile gid="212"/>
   <tile gid="212"/>
   <tile gid="34"/>
   <tile gid="34"/>
   <tile gid="34"/>
   <tile gid="212"/>
   <tile gid="212"/>
   <tile gid="212"/>
   <tile gid="212"/>
   <tile gid="212"/>
   <tile gid="212"/>
   <tile gid="212"/>
   <tile gid="212"/>
   <tile gid="212"/>
   <tile gid="212"/>
   <tile gid="212"/>
   <tile gid="212"/>
   <tile gid="212"/>
   <tile gid="212"/>
   <tile gid="212"/>
   <tile gid="212"/>
   <tile gid="212"/>
   <tile gid="212"/>
   <tile gid="212"/>
   <tile gid="212"/>
   <tile gid="212"/>
   <tile gid="212"/>
   <tile gid="212"/>
   <tile gid="212"/>
   <tile gid="212"/>
   <tile gid="34"/>
   <tile gid="34"/>
   <tile gid="34"/>
   <tile gid="212"/>
   <tile gid="212"/>
   <tile gid="212"/>
   <tile gid="212"/>
   <tile gid="212"/>
   <tile gid="212"/>
   <tile gid="212"/>
   <tile gid="212"/>
   <tile gid="212"/>
   <tile gid="212"/>
   <tile gid="212"/>
   <tile gid="212"/>
   <tile gid="212"/>
   <tile gid="212"/>
   <tile gid="212"/>
   <tile gid="212"/>
   <tile gid="212"/>
   <tile gid="212"/>
   <tile gid="212"/>
   <tile gid="212"/>
   <tile gid="212"/>
   <tile gid="212"/>
   <tile gid="212"/>
   <tile gid="212"/>
   <tile gid="212"/>
   <tile gid="212"/>
   <tile gid="212"/>
   <tile gid="212"/>
   <tile gid="212"/>
   <tile gid="212"/>
   <tile gid="212"/>
   <tile gid="212"/>
   <tile gid="212"/>
   <tile gid="212"/>
   <tile gid="212"/>
   <tile gid="212"/>
   <tile gid="212"/>
   <tile gid="212"/>
   <tile gid="212"/>
   <tile gid="212"/>
   <tile gid="212"/>
   <tile gid="212"/>
   <tile gid="212"/>
   <tile gid="212"/>
   <tile gid="212"/>
   <tile gid="212"/>
   <tile gid="212"/>
   <tile gid="212"/>
   <tile gid="212"/>
   <tile gid="212"/>
   <tile gid="34"/>
   <tile gid="34"/>
   <tile gid="34"/>
   <tile gid="34"/>
   <tile gid="34"/>
   <tile gid="34"/>
   <tile gid="212"/>
   <tile gid="212"/>
   <tile gid="212"/>
   <tile gid="212"/>
   <tile gid="212"/>
   <tile gid="212"/>
   <tile gid="212"/>
   <tile gid="212"/>
   <tile gid="212"/>
   <tile gid="212"/>
   <tile gid="212"/>
   <tile gid="212"/>
   <tile gid="212"/>
   <tile gid="212"/>
   <tile gid="212"/>
   <tile gid="212"/>
   <tile gid="212"/>
   <tile gid="212"/>
   <tile gid="212"/>
   <tile gid="212"/>
   <tile gid="212"/>
   <tile gid="212"/>
   <tile gid="34"/>
   <tile gid="34"/>
   <tile gid="34"/>
   <tile gid="212"/>
   <tile gid="212"/>
   <tile gid="212"/>
   <tile gid="212"/>
   <tile gid="212"/>
   <tile gid="212"/>
   <tile gid="212"/>
   <tile gid="212"/>
   <tile gid="212"/>
   <tile gid="212"/>
   <tile gid="212"/>
   <tile gid="212"/>
   <tile gid="212"/>
   <tile gid="212"/>
   <tile gid="212"/>
   <tile gid="212"/>
   <tile gid="212"/>
   <tile gid="212"/>
   <tile gid="212"/>
   <tile gid="212"/>
   <tile gid="212"/>
   <tile gid="212"/>
   <tile gid="212"/>
   <tile gid="212"/>
   <tile gid="212"/>
   <tile gid="212"/>
   <tile gid="212"/>
   <tile gid="212"/>
   <tile gid="212"/>
   <tile gid="212"/>
   <tile gid="212"/>
   <tile gid="212"/>
   <tile gid="212"/>
   <tile gid="212"/>
   <tile gid="212"/>
   <tile gid="212"/>
   <tile gid="212"/>
   <tile gid="212"/>
   <tile gid="34"/>
   <tile gid="34"/>
   <tile gid="34"/>
   <tile gid="212"/>
   <tile gid="212"/>
   <tile gid="212"/>
   <tile gid="212"/>
   <tile gid="212"/>
   <tile gid="212"/>
   <tile gid="212"/>
   <tile gid="212"/>
   <tile gid="212"/>
   <tile gid="212"/>
   <tile gid="212"/>
   <tile gid="212"/>
   <tile gid="212"/>
   <tile gid="212"/>
   <tile gid="212"/>
   <tile gid="212"/>
   <tile gid="212"/>
   <tile gid="212"/>
   <tile gid="212"/>
   <tile gid="212"/>
   <tile gid="212"/>
   <tile gid="212"/>
   <tile gid="212"/>
   <tile gid="212"/>
   <tile gid="212"/>
   <tile gid="34"/>
   <tile gid="34"/>
   <tile gid="34"/>
   <tile gid="212"/>
   <tile gid="212"/>
   <tile gid="212"/>
   <tile gid="212"/>
   <tile gid="212"/>
   <tile gid="212"/>
   <tile gid="212"/>
   <tile gid="212"/>
   <tile gid="212"/>
   <tile gid="212"/>
   <tile gid="212"/>
   <tile gid="212"/>
   <tile gid="212"/>
   <tile gid="212"/>
   <tile gid="212"/>
   <tile gid="212"/>
   <tile gid="212"/>
   <tile gid="212"/>
   <tile gid="212"/>
   <tile gid="212"/>
   <tile gid="212"/>
   <tile gid="212"/>
   <tile gid="212"/>
   <tile gid="212"/>
   <tile gid="212"/>
   <tile gid="34"/>
   <tile gid="34"/>
   <tile gid="34"/>
   <tile gid="212"/>
   <tile gid="212"/>
   <tile gid="212"/>
   <tile gid="212"/>
   <tile gid="212"/>
   <tile gid="212"/>
   <tile gid="212"/>
   <tile gid="212"/>
   <tile gid="212"/>
   <tile gid="212"/>
   <tile gid="212"/>
   <tile gid="212"/>
   <tile gid="212"/>
   <tile gid="212"/>
   <tile gid="212"/>
   <tile gid="212"/>
   <tile gid="212"/>
   <tile gid="212"/>
   <tile gid="212"/>
   <tile gid="212"/>
   <tile gid="212"/>
   <tile gid="212"/>
   <tile gid="34"/>
   <tile gid="34"/>
   <tile gid="34"/>
   <tile gid="34"/>
   <tile gid="34"/>
   <tile gid="34"/>
   <tile gid="212"/>
   <tile gid="212"/>
   <tile gid="212"/>
   <tile gid="212"/>
   <tile gid="212"/>
   <tile gid="212"/>
   <tile gid="212"/>
   <tile gid="212"/>
   <tile gid="212"/>
   <tile gid="212"/>
   <tile gid="212"/>
   <tile gid="212"/>
   <tile gid="212"/>
   <tile gid="212"/>
   <tile gid="212"/>
   <tile gid="212"/>
   <tile gid="212"/>
   <tile gid="212"/>
   <tile gid="212"/>
   <tile gid="212"/>
   <tile gid="212"/>
   <tile gid="212"/>
   <tile gid="34"/>
   <tile gid="34"/>
   <tile gid="34"/>
   <tile gid="212"/>
   <tile gid="212"/>
   <tile gid="212"/>
   <tile gid="212"/>
   <tile gid="212"/>
   <tile gid="212"/>
   <tile gid="212"/>
   <tile gid="212"/>
   <tile gid="212"/>
   <tile gid="212"/>
   <tile gid="212"/>
   <tile gid="212"/>
   <tile gid="212"/>
   <tile gid="212"/>
   <tile gid="212"/>
   <tile gid="212"/>
   <tile gid="212"/>
   <tile gid="212"/>
   <tile gid="212"/>
   <tile gid="212"/>
   <tile gid="212"/>
   <tile gid="212"/>
   <tile gid="212"/>
   <tile gid="212"/>
   <tile gid="212"/>
   <tile gid="212"/>
   <tile gid="212"/>
   <tile gid="212"/>
   <tile gid="212"/>
   <tile gid="212"/>
   <tile gid="212"/>
   <tile gid="212"/>
   <tile gid="212"/>
   <tile gid="212"/>
   <tile gid="212"/>
   <tile gid="212"/>
   <tile gid="212"/>
   <tile gid="212"/>
   <tile gid="34"/>
   <tile gid="34"/>
   <tile gid="34"/>
   <tile gid="212"/>
   <tile gid="212"/>
   <tile gid="212"/>
   <tile gid="212"/>
   <tile gid="212"/>
   <tile gid="212"/>
   <tile gid="212"/>
   <tile gid="212"/>
   <tile gid="212"/>
   <tile gid="212"/>
   <tile gid="212"/>
   <tile gid="212"/>
   <tile gid="212"/>
   <tile gid="212"/>
   <tile gid="212"/>
   <tile gid="212"/>
   <tile gid="212"/>
   <tile gid="212"/>
   <tile gid="212"/>
   <tile gid="212"/>
   <tile gid="212"/>
   <tile gid="212"/>
   <tile gid="212"/>
   <tile gid="212"/>
   <tile gid="212"/>
   <tile gid="34"/>
   <tile gid="34"/>
   <tile gid="34"/>
   <tile gid="212"/>
   <tile gid="212"/>
   <tile gid="212"/>
   <tile gid="212"/>
   <tile gid="212"/>
   <tile gid="212"/>
   <tile gid="212"/>
   <tile gid="212"/>
   <tile gid="212"/>
   <tile gid="212"/>
   <tile gid="212"/>
   <tile gid="212"/>
   <tile gid="212"/>
   <tile gid="212"/>
   <tile gid="212"/>
   <tile gid="212"/>
   <tile gid="212"/>
   <tile gid="212"/>
   <tile gid="212"/>
   <tile gid="212"/>
   <tile gid="212"/>
   <tile gid="212"/>
   <tile gid="212"/>
   <tile gid="212"/>
   <tile gid="212"/>
   <tile gid="34"/>
   <tile gid="34"/>
   <tile gid="34"/>
   <tile gid="212"/>
   <tile gid="212"/>
   <tile gid="212"/>
   <tile gid="212"/>
   <tile gid="212"/>
   <tile gid="212"/>
   <tile gid="212"/>
   <tile gid="212"/>
   <tile gid="212"/>
   <tile gid="212"/>
   <tile gid="212"/>
   <tile gid="212"/>
   <tile gid="212"/>
   <tile gid="212"/>
   <tile gid="212"/>
   <tile gid="212"/>
   <tile gid="212"/>
   <tile gid="212"/>
   <tile gid="212"/>
   <tile gid="212"/>
   <tile gid="212"/>
   <tile gid="212"/>
   <tile gid="34"/>
   <tile gid="34"/>
   <tile gid="34"/>
   <tile gid="34"/>
   <tile gid="34"/>
   <tile gid="34"/>
   <tile gid="212"/>
   <tile gid="212"/>
   <tile gid="212"/>
   <tile gid="212"/>
   <tile gid="212"/>
   <tile gid="212"/>
   <tile gid="212"/>
   <tile gid="212"/>
   <tile gid="212"/>
   <tile gid="212"/>
   <tile gid="212"/>
   <tile gid="212"/>
   <tile gid="212"/>
   <tile gid="212"/>
   <tile gid="212"/>
   <tile gid="212"/>
   <tile gid="212"/>
   <tile gid="212"/>
   <tile gid="212"/>
   <tile gid="212"/>
   <tile gid="212"/>
   <tile gid="212"/>
   <tile gid="34"/>
   <tile gid="34"/>
   <tile gid="34"/>
   <tile gid="212"/>
   <tile gid="212"/>
   <tile gid="212"/>
   <tile gid="212"/>
   <tile gid="212"/>
   <tile gid="212"/>
   <tile gid="212"/>
   <tile gid="212"/>
   <tile gid="212"/>
   <tile gid="212"/>
   <tile gid="212"/>
   <tile gid="212"/>
   <tile gid="212"/>
   <tile gid="212"/>
   <tile gid="212"/>
   <tile gid="212"/>
   <tile gid="212"/>
   <tile gid="212"/>
   <tile gid="212"/>
   <tile gid="212"/>
   <tile gid="212"/>
   <tile gid="212"/>
   <tile gid="212"/>
   <tile gid="212"/>
   <tile gid="212"/>
   <tile gid="212"/>
   <tile gid="212"/>
   <tile gid="212"/>
   <tile gid="212"/>
   <tile gid="212"/>
   <tile gid="212"/>
   <tile gid="212"/>
   <tile gid="212"/>
   <tile gid="212"/>
   <tile gid="212"/>
   <tile gid="212"/>
   <tile gid="212"/>
   <tile gid="212"/>
   <tile gid="34"/>
   <tile gid="34"/>
   <tile gid="34"/>
   <tile gid="212"/>
   <tile gid="212"/>
   <tile gid="212"/>
   <tile gid="212"/>
   <tile gid="212"/>
   <tile gid="212"/>
   <tile gid="212"/>
   <tile gid="212"/>
   <tile gid="212"/>
   <tile gid="212"/>
   <tile gid="212"/>
   <tile gid="212"/>
   <tile gid="212"/>
   <tile gid="212"/>
   <tile gid="212"/>
   <tile gid="212"/>
   <tile gid="212"/>
   <tile gid="212"/>
   <tile gid="212"/>
   <tile gid="212"/>
   <tile gid="212"/>
   <tile gid="212"/>
   <tile gid="212"/>
   <tile gid="212"/>
   <tile gid="212"/>
   <tile gid="34"/>
   <tile gid="34"/>
   <tile gid="34"/>
   <tile gid="212"/>
   <tile gid="212"/>
   <tile gid="212"/>
   <tile gid="212"/>
   <tile gid="212"/>
   <tile gid="212"/>
   <tile gid="212"/>
   <tile gid="212"/>
   <tile gid="212"/>
   <tile gid="212"/>
   <tile gid="212"/>
   <tile gid="212"/>
   <tile gid="212"/>
   <tile gid="212"/>
   <tile gid="212"/>
   <tile gid="212"/>
   <tile gid="212"/>
   <tile gid="212"/>
   <tile gid="212"/>
   <tile gid="212"/>
   <tile gid="212"/>
   <tile gid="212"/>
   <tile gid="212"/>
   <tile gid="212"/>
   <tile gid="212"/>
   <tile gid="34"/>
   <tile gid="34"/>
   <tile gid="34"/>
   <tile gid="212"/>
   <tile gid="212"/>
   <tile gid="212"/>
   <tile gid="212"/>
   <tile gid="212"/>
   <tile gid="212"/>
   <tile gid="212"/>
   <tile gid="212"/>
   <tile gid="212"/>
   <tile gid="212"/>
   <tile gid="212"/>
   <tile gid="212"/>
   <tile gid="212"/>
   <tile gid="212"/>
   <tile gid="212"/>
   <tile gid="212"/>
   <tile gid="212"/>
   <tile gid="212"/>
   <tile gid="212"/>
   <tile gid="212"/>
   <tile gid="212"/>
   <tile gid="212"/>
   <tile gid="34"/>
   <tile gid="34"/>
   <tile gid="34"/>
   <tile gid="34"/>
   <tile gid="34"/>
   <tile gid="34"/>
   <tile gid="212"/>
   <tile gid="212"/>
   <tile gid="212"/>
   <tile gid="212"/>
   <tile gid="212"/>
   <tile gid="212"/>
   <tile gid="212"/>
   <tile gid="212"/>
   <tile gid="212"/>
   <tile gid="212"/>
   <tile gid="212"/>
   <tile gid="212"/>
   <tile gid="212"/>
   <tile gid="212"/>
   <tile gid="212"/>
   <tile gid="212"/>
   <tile gid="212"/>
   <tile gid="212"/>
   <tile gid="212"/>
   <tile gid="212"/>
   <tile gid="212"/>
   <tile gid="212"/>
   <tile gid="34"/>
   <tile gid="34"/>
   <tile gid="34"/>
   <tile gid="212"/>
   <tile gid="212"/>
   <tile gid="212"/>
   <tile gid="212"/>
   <tile gid="212"/>
   <tile gid="212"/>
   <tile gid="212"/>
   <tile gid="212"/>
   <tile gid="212"/>
   <tile gid="212"/>
   <tile gid="212"/>
   <tile gid="212"/>
   <tile gid="212"/>
   <tile gid="212"/>
   <tile gid="212"/>
   <tile gid="212"/>
   <tile gid="212"/>
   <tile gid="212"/>
   <tile gid="212"/>
   <tile gid="212"/>
   <tile gid="212"/>
   <tile gid="212"/>
   <tile gid="212"/>
   <tile gid="212"/>
   <tile gid="212"/>
   <tile gid="212"/>
   <tile gid="212"/>
   <tile gid="212"/>
   <tile gid="212"/>
   <tile gid="212"/>
   <tile gid="212"/>
   <tile gid="212"/>
   <tile gid="212"/>
   <tile gid="212"/>
   <tile gid="212"/>
   <tile gid="212"/>
   <tile gid="212"/>
   <tile gid="212"/>
   <tile gid="34"/>
   <tile gid="34"/>
   <tile gid="34"/>
   <tile gid="212"/>
   <tile gid="212"/>
   <tile gid="212"/>
   <tile gid="212"/>
   <tile gid="212"/>
   <tile gid="212"/>
   <tile gid="212"/>
   <tile gid="212"/>
   <tile gid="212"/>
   <tile gid="212"/>
   <tile gid="212"/>
   <tile gid="212"/>
   <tile gid="212"/>
   <tile gid="212"/>
   <tile gid="212"/>
   <tile gid="212"/>
   <tile gid="212"/>
   <tile gid="212"/>
   <tile gid="212"/>
   <tile gid="212"/>
   <tile gid="212"/>
   <tile gid="212"/>
   <tile gid="212"/>
   <tile gid="212"/>
   <tile gid="212"/>
   <tile gid="34"/>
   <tile gid="34"/>
   <tile gid="34"/>
   <tile gid="212"/>
   <tile gid="212"/>
   <tile gid="212"/>
   <tile gid="212"/>
   <tile gid="212"/>
   <tile gid="212"/>
   <tile gid="212"/>
   <tile gid="212"/>
   <tile gid="212"/>
   <tile gid="212"/>
   <tile gid="212"/>
   <tile gid="212"/>
   <tile gid="212"/>
   <tile gid="212"/>
   <tile gid="212"/>
   <tile gid="212"/>
   <tile gid="212"/>
   <tile gid="212"/>
   <tile gid="212"/>
   <tile gid="212"/>
   <tile gid="212"/>
   <tile gid="212"/>
   <tile gid="212"/>
   <tile gid="212"/>
   <tile gid="212"/>
   <tile gid="34"/>
   <tile gid="34"/>
   <tile gid="34"/>
   <tile gid="212"/>
   <tile gid="212"/>
   <tile gid="212"/>
   <tile gid="212"/>
   <tile gid="212"/>
   <tile gid="212"/>
   <tile gid="212"/>
   <tile gid="212"/>
   <tile gid="212"/>
   <tile gid="212"/>
   <tile gid="212"/>
   <tile gid="212"/>
   <tile gid="212"/>
   <tile gid="212"/>
   <tile gid="212"/>
   <tile gid="212"/>
   <tile gid="212"/>
   <tile gid="212"/>
   <tile gid="212"/>
   <tile gid="212"/>
   <tile gid="212"/>
   <tile gid="212"/>
   <tile gid="34"/>
   <tile gid="34"/>
   <tile gid="34"/>
   <tile gid="34"/>
   <tile gid="34"/>
   <tile gid="34"/>
   <tile gid="212"/>
   <tile gid="212"/>
   <tile gid="212"/>
   <tile gid="212"/>
   <tile gid="212"/>
   <tile gid="212"/>
   <tile gid="212"/>
   <tile gid="212"/>
   <tile gid="212"/>
   <tile gid="212"/>
   <tile gid="212"/>
   <tile gid="212"/>
   <tile gid="212"/>
   <tile gid="212"/>
   <tile gid="212"/>
   <tile gid="212"/>
   <tile gid="212"/>
   <tile gid="212"/>
   <tile gid="212"/>
   <tile gid="212"/>
   <tile gid="212"/>
   <tile gid="212"/>
   <tile gid="34"/>
   <tile gid="34"/>
   <tile gid="34"/>
   <tile gid="212"/>
   <tile gid="212"/>
   <tile gid="212"/>
   <tile gid="212"/>
   <tile gid="212"/>
   <tile gid="212"/>
   <tile gid="212"/>
   <tile gid="212"/>
   <tile gid="212"/>
   <tile gid="212"/>
   <tile gid="212"/>
   <tile gid="212"/>
   <tile gid="212"/>
   <tile gid="212"/>
   <tile gid="212"/>
   <tile gid="212"/>
   <tile gid="212"/>
   <tile gid="212"/>
   <tile gid="212"/>
   <tile gid="212"/>
   <tile gid="212"/>
   <tile gid="212"/>
   <tile gid="212"/>
   <tile gid="212"/>
   <tile gid="212"/>
   <tile gid="212"/>
   <tile gid="212"/>
   <tile gid="212"/>
   <tile gid="212"/>
   <tile gid="212"/>
   <tile gid="212"/>
   <tile gid="212"/>
   <tile gid="212"/>
   <tile gid="212"/>
   <tile gid="212"/>
   <tile gid="212"/>
   <tile gid="212"/>
   <tile gid="212"/>
   <tile gid="34"/>
   <tile gid="34"/>
   <tile gid="34"/>
   <tile gid="212"/>
   <tile gid="212"/>
   <tile gid="212"/>
   <tile gid="212"/>
   <tile gid="212"/>
   <tile gid="212"/>
   <tile gid="212"/>
   <tile gid="212"/>
   <tile gid="212"/>
   <tile gid="212"/>
   <tile gid="212"/>
   <tile gid="212"/>
   <tile gid="212"/>
   <tile gid="212"/>
   <tile gid="212"/>
   <tile gid="212"/>
   <tile gid="212"/>
   <tile gid="212"/>
   <tile gid="212"/>
   <tile gid="212"/>
   <tile gid="212"/>
   <tile gid="212"/>
   <tile gid="212"/>
   <tile gid="212"/>
   <tile gid="212"/>
   <tile gid="34"/>
   <tile gid="34"/>
   <tile gid="34"/>
   <tile gid="212"/>
   <tile gid="212"/>
   <tile gid="212"/>
   <tile gid="212"/>
   <tile gid="212"/>
   <tile gid="212"/>
   <tile gid="212"/>
   <tile gid="212"/>
   <tile gid="212"/>
   <tile gid="212"/>
   <tile gid="212"/>
   <tile gid="212"/>
   <tile gid="212"/>
   <tile gid="212"/>
   <tile gid="212"/>
   <tile gid="212"/>
   <tile gid="212"/>
   <tile gid="212"/>
   <tile gid="212"/>
   <tile gid="212"/>
   <tile gid="212"/>
   <tile gid="212"/>
   <tile gid="212"/>
   <tile gid="212"/>
   <tile gid="212"/>
   <tile gid="34"/>
   <tile gid="34"/>
   <tile gid="34"/>
   <tile gid="212"/>
   <tile gid="212"/>
   <tile gid="212"/>
   <tile gid="212"/>
   <tile gid="212"/>
   <tile gid="212"/>
   <tile gid="212"/>
   <tile gid="212"/>
   <tile gid="212"/>
   <tile gid="212"/>
   <tile gid="212"/>
   <tile gid="212"/>
   <tile gid="212"/>
   <tile gid="212"/>
   <tile gid="212"/>
   <tile gid="212"/>
   <tile gid="212"/>
   <tile gid="212"/>
   <tile gid="212"/>
   <tile gid="212"/>
   <tile gid="212"/>
   <tile gid="212"/>
   <tile gid="34"/>
   <tile gid="34"/>
   <tile gid="34"/>
   <tile gid="34"/>
   <tile gid="34"/>
   <tile gid="34"/>
   <tile gid="212"/>
   <tile gid="212"/>
   <tile gid="212"/>
   <tile gid="212"/>
   <tile gid="212"/>
   <tile gid="212"/>
   <tile gid="212"/>
   <tile gid="212"/>
   <tile gid="212"/>
   <tile gid="212"/>
   <tile gid="212"/>
   <tile gid="212"/>
   <tile gid="212"/>
   <tile gid="212"/>
   <tile gid="212"/>
   <tile gid="212"/>
   <tile gid="212"/>
   <tile gid="212"/>
   <tile gid="212"/>
   <tile gid="212"/>
   <tile gid="212"/>
   <tile gid="212"/>
   <tile gid="34"/>
   <tile gid="34"/>
   <tile gid="34"/>
   <tile gid="212"/>
   <tile gid="212"/>
   <tile gid="212"/>
   <tile gid="212"/>
   <tile gid="212"/>
   <tile gid="212"/>
   <tile gid="212"/>
   <tile gid="212"/>
   <tile gid="212"/>
   <tile gid="212"/>
   <tile gid="212"/>
   <tile gid="212"/>
   <tile gid="212"/>
   <tile gid="212"/>
   <tile gid="212"/>
   <tile gid="212"/>
   <tile gid="212"/>
   <tile gid="212"/>
   <tile gid="212"/>
   <tile gid="212"/>
   <tile gid="212"/>
   <tile gid="212"/>
   <tile gid="212"/>
   <tile gid="212"/>
   <tile gid="212"/>
   <tile gid="212"/>
   <tile gid="212"/>
   <tile gid="212"/>
   <tile gid="212"/>
   <tile gid="212"/>
   <tile gid="212"/>
   <tile gid="212"/>
   <tile gid="212"/>
   <tile gid="212"/>
   <tile gid="212"/>
   <tile gid="212"/>
   <tile gid="212"/>
   <tile gid="212"/>
   <tile gid="34"/>
   <tile gid="34"/>
   <tile gid="34"/>
   <tile gid="212"/>
   <tile gid="212"/>
   <tile gid="212"/>
   <tile gid="212"/>
   <tile gid="212"/>
   <tile gid="212"/>
   <tile gid="212"/>
   <tile gid="212"/>
   <tile gid="212"/>
   <tile gid="212"/>
   <tile gid="212"/>
   <tile gid="212"/>
   <tile gid="212"/>
   <tile gid="212"/>
   <tile gid="212"/>
   <tile gid="212"/>
   <tile gid="212"/>
   <tile gid="212"/>
   <tile gid="212"/>
   <tile gid="212"/>
   <tile gid="212"/>
   <tile gid="212"/>
   <tile gid="212"/>
   <tile gid="212"/>
   <tile gid="212"/>
   <tile gid="34"/>
   <tile gid="34"/>
   <tile gid="34"/>
   <tile gid="212"/>
   <tile gid="212"/>
   <tile gid="212"/>
   <tile gid="212"/>
   <tile gid="212"/>
   <tile gid="212"/>
   <tile gid="212"/>
   <tile gid="212"/>
   <tile gid="212"/>
   <tile gid="212"/>
   <tile gid="212"/>
   <tile gid="212"/>
   <tile gid="212"/>
   <tile gid="212"/>
   <tile gid="212"/>
   <tile gid="212"/>
   <tile gid="212"/>
   <tile gid="212"/>
   <tile gid="212"/>
   <tile gid="212"/>
   <tile gid="212"/>
   <tile gid="212"/>
   <tile gid="212"/>
   <tile gid="212"/>
   <tile gid="212"/>
   <tile gid="34"/>
   <tile gid="34"/>
   <tile gid="34"/>
   <tile gid="212"/>
   <tile gid="212"/>
   <tile gid="212"/>
   <tile gid="212"/>
   <tile gid="212"/>
   <tile gid="212"/>
   <tile gid="212"/>
   <tile gid="212"/>
   <tile gid="212"/>
   <tile gid="212"/>
   <tile gid="212"/>
   <tile gid="212"/>
   <tile gid="212"/>
   <tile gid="212"/>
   <tile gid="212"/>
   <tile gid="212"/>
   <tile gid="212"/>
   <tile gid="212"/>
   <tile gid="212"/>
   <tile gid="212"/>
   <tile gid="212"/>
   <tile gid="212"/>
   <tile gid="34"/>
   <tile gid="34"/>
   <tile gid="34"/>
   <tile gid="34"/>
   <tile gid="34"/>
   <tile gid="34"/>
   <tile gid="212"/>
   <tile gid="212"/>
   <tile gid="212"/>
   <tile gid="212"/>
   <tile gid="212"/>
   <tile gid="212"/>
   <tile gid="212"/>
   <tile gid="212"/>
   <tile gid="212"/>
   <tile gid="212"/>
   <tile gid="212"/>
   <tile gid="212"/>
   <tile gid="212"/>
   <tile gid="212"/>
   <tile gid="212"/>
   <tile gid="212"/>
   <tile gid="212"/>
   <tile gid="212"/>
   <tile gid="212"/>
   <tile gid="212"/>
   <tile gid="212"/>
   <tile gid="212"/>
   <tile gid="34"/>
   <tile gid="34"/>
   <tile gid="34"/>
   <tile gid="212"/>
   <tile gid="212"/>
   <tile gid="212"/>
   <tile gid="212"/>
   <tile gid="212"/>
   <tile gid="212"/>
   <tile gid="212"/>
   <tile gid="212"/>
   <tile gid="212"/>
   <tile gid="212"/>
   <tile gid="212"/>
   <tile gid="212"/>
   <tile gid="212"/>
   <tile gid="212"/>
   <tile gid="212"/>
   <tile gid="212"/>
   <tile gid="212"/>
   <tile gid="212"/>
   <tile gid="212"/>
   <tile gid="212"/>
   <tile gid="212"/>
   <tile gid="212"/>
   <tile gid="212"/>
   <tile gid="212"/>
   <tile gid="212"/>
   <tile gid="212"/>
   <tile gid="212"/>
   <tile gid="212"/>
   <tile gid="212"/>
   <tile gid="212"/>
   <tile gid="212"/>
   <tile gid="212"/>
   <tile gid="212"/>
   <tile gid="212"/>
   <tile gid="212"/>
   <tile gid="212"/>
   <tile gid="212"/>
   <tile gid="212"/>
   <tile gid="34"/>
   <tile gid="34"/>
   <tile gid="34"/>
   <tile gid="212"/>
   <tile gid="212"/>
   <tile gid="212"/>
   <tile gid="212"/>
   <tile gid="212"/>
   <tile gid="212"/>
   <tile gid="212"/>
   <tile gid="212"/>
   <tile gid="212"/>
   <tile gid="212"/>
   <tile gid="212"/>
   <tile gid="212"/>
   <tile gid="212"/>
   <tile gid="212"/>
   <tile gid="212"/>
   <tile gid="212"/>
   <tile gid="212"/>
   <tile gid="212"/>
   <tile gid="212"/>
   <tile gid="212"/>
   <tile gid="212"/>
   <tile gid="212"/>
   <tile gid="212"/>
   <tile gid="212"/>
   <tile gid="212"/>
   <tile gid="34"/>
   <tile gid="34"/>
   <tile gid="34"/>
   <tile gid="212"/>
   <tile gid="212"/>
   <tile gid="212"/>
   <tile gid="212"/>
   <tile gid="212"/>
   <tile gid="212"/>
   <tile gid="212"/>
   <tile gid="212"/>
   <tile gid="212"/>
   <tile gid="212"/>
   <tile gid="212"/>
   <tile gid="212"/>
   <tile gid="212"/>
   <tile gid="212"/>
   <tile gid="212"/>
   <tile gid="212"/>
   <tile gid="212"/>
   <tile gid="212"/>
   <tile gid="212"/>
   <tile gid="212"/>
   <tile gid="212"/>
   <tile gid="212"/>
   <tile gid="212"/>
   <tile gid="212"/>
   <tile gid="212"/>
   <tile gid="34"/>
   <tile gid="34"/>
   <tile gid="34"/>
   <tile gid="212"/>
   <tile gid="212"/>
   <tile gid="212"/>
   <tile gid="212"/>
   <tile gid="212"/>
   <tile gid="212"/>
   <tile gid="212"/>
   <tile gid="212"/>
   <tile gid="212"/>
   <tile gid="212"/>
   <tile gid="212"/>
   <tile gid="212"/>
   <tile gid="212"/>
   <tile gid="212"/>
   <tile gid="212"/>
   <tile gid="212"/>
   <tile gid="212"/>
   <tile gid="212"/>
   <tile gid="212"/>
   <tile gid="212"/>
   <tile gid="212"/>
   <tile gid="212"/>
   <tile gid="34"/>
   <tile gid="34"/>
   <tile gid="34"/>
   <tile gid="34"/>
   <tile gid="34"/>
   <tile gid="34"/>
   <tile gid="212"/>
   <tile gid="212"/>
   <tile gid="212"/>
   <tile gid="212"/>
   <tile gid="212"/>
   <tile gid="212"/>
   <tile gid="212"/>
   <tile gid="212"/>
   <tile gid="212"/>
   <tile gid="212"/>
   <tile gid="212"/>
   <tile gid="212"/>
   <tile gid="212"/>
   <tile gid="212"/>
   <tile gid="212"/>
   <tile gid="212"/>
   <tile gid="212"/>
   <tile gid="212"/>
   <tile gid="212"/>
   <tile gid="212"/>
   <tile gid="212"/>
   <tile gid="212"/>
   <tile gid="34"/>
   <tile gid="34"/>
   <tile gid="34"/>
   <tile gid="212"/>
   <tile gid="212"/>
   <tile gid="212"/>
   <tile gid="212"/>
   <tile gid="212"/>
   <tile gid="212"/>
   <tile gid="212"/>
   <tile gid="212"/>
   <tile gid="212"/>
   <tile gid="212"/>
   <tile gid="212"/>
   <tile gid="212"/>
   <tile gid="212"/>
   <tile gid="212"/>
   <tile gid="212"/>
   <tile gid="212"/>
   <tile gid="212"/>
   <tile gid="212"/>
   <tile gid="212"/>
   <tile gid="212"/>
   <tile gid="212"/>
   <tile gid="212"/>
   <tile gid="212"/>
   <tile gid="212"/>
   <tile gid="212"/>
   <tile gid="212"/>
   <tile gid="212"/>
   <tile gid="212"/>
   <tile gid="212"/>
   <tile gid="212"/>
   <tile gid="212"/>
   <tile gid="212"/>
   <tile gid="212"/>
   <tile gid="212"/>
   <tile gid="212"/>
   <tile gid="212"/>
   <tile gid="212"/>
   <tile gid="212"/>
   <tile gid="34"/>
   <tile gid="34"/>
   <tile gid="34"/>
   <tile gid="212"/>
   <tile gid="212"/>
   <tile gid="212"/>
   <tile gid="212"/>
   <tile gid="212"/>
   <tile gid="212"/>
   <tile gid="212"/>
   <tile gid="212"/>
   <tile gid="212"/>
   <tile gid="212"/>
   <tile gid="212"/>
   <tile gid="212"/>
   <tile gid="212"/>
   <tile gid="212"/>
   <tile gid="212"/>
   <tile gid="212"/>
   <tile gid="212"/>
   <tile gid="212"/>
   <tile gid="212"/>
   <tile gid="212"/>
   <tile gid="212"/>
   <tile gid="212"/>
   <tile gid="212"/>
   <tile gid="212"/>
   <tile gid="212"/>
   <tile gid="34"/>
   <tile gid="34"/>
   <tile gid="34"/>
   <tile gid="212"/>
   <tile gid="212"/>
   <tile gid="212"/>
   <tile gid="212"/>
   <tile gid="212"/>
   <tile gid="212"/>
   <tile gid="212"/>
   <tile gid="212"/>
   <tile gid="212"/>
   <tile gid="212"/>
   <tile gid="212"/>
   <tile gid="212"/>
   <tile gid="212"/>
   <tile gid="212"/>
   <tile gid="212"/>
   <tile gid="212"/>
   <tile gid="212"/>
   <tile gid="212"/>
   <tile gid="212"/>
   <tile gid="212"/>
   <tile gid="212"/>
   <tile gid="212"/>
   <tile gid="212"/>
   <tile gid="212"/>
   <tile gid="212"/>
   <tile gid="34"/>
   <tile gid="34"/>
   <tile gid="34"/>
   <tile gid="212"/>
   <tile gid="212"/>
   <tile gid="212"/>
   <tile gid="212"/>
   <tile gid="212"/>
   <tile gid="212"/>
   <tile gid="212"/>
   <tile gid="212"/>
   <tile gid="212"/>
   <tile gid="212"/>
   <tile gid="212"/>
   <tile gid="212"/>
   <tile gid="212"/>
   <tile gid="212"/>
   <tile gid="212"/>
   <tile gid="212"/>
   <tile gid="212"/>
   <tile gid="212"/>
   <tile gid="212"/>
   <tile gid="212"/>
   <tile gid="212"/>
   <tile gid="212"/>
   <tile gid="34"/>
   <tile gid="34"/>
   <tile gid="34"/>
   <tile gid="34"/>
   <tile gid="34"/>
   <tile gid="34"/>
   <tile gid="212"/>
   <tile gid="212"/>
   <tile gid="212"/>
   <tile gid="212"/>
   <tile gid="212"/>
   <tile gid="212"/>
   <tile gid="212"/>
   <tile gid="212"/>
   <tile gid="212"/>
   <tile gid="212"/>
   <tile gid="212"/>
   <tile gid="212"/>
   <tile gid="212"/>
   <tile gid="212"/>
   <tile gid="212"/>
   <tile gid="212"/>
   <tile gid="212"/>
   <tile gid="212"/>
   <tile gid="212"/>
   <tile gid="212"/>
   <tile gid="212"/>
   <tile gid="212"/>
   <tile gid="34"/>
   <tile gid="34"/>
   <tile gid="34"/>
   <tile gid="212"/>
   <tile gid="212"/>
   <tile gid="212"/>
   <tile gid="212"/>
   <tile gid="212"/>
   <tile gid="212"/>
   <tile gid="212"/>
   <tile gid="212"/>
   <tile gid="212"/>
   <tile gid="212"/>
   <tile gid="212"/>
   <tile gid="212"/>
   <tile gid="212"/>
   <tile gid="212"/>
   <tile gid="212"/>
   <tile gid="212"/>
   <tile gid="212"/>
   <tile gid="212"/>
   <tile gid="212"/>
   <tile gid="212"/>
   <tile gid="212"/>
   <tile gid="212"/>
   <tile gid="212"/>
   <tile gid="212"/>
   <tile gid="212"/>
   <tile gid="212"/>
   <tile gid="212"/>
   <tile gid="212"/>
   <tile gid="212"/>
   <tile gid="212"/>
   <tile gid="212"/>
   <tile gid="212"/>
   <tile gid="212"/>
   <tile gid="212"/>
   <tile gid="212"/>
   <tile gid="212"/>
   <tile gid="212"/>
   <tile gid="212"/>
   <tile gid="34"/>
   <tile gid="34"/>
   <tile gid="34"/>
   <tile gid="212"/>
   <tile gid="212"/>
   <tile gid="212"/>
   <tile gid="212"/>
   <tile gid="212"/>
   <tile gid="212"/>
   <tile gid="212"/>
   <tile gid="212"/>
   <tile gid="212"/>
   <tile gid="212"/>
   <tile gid="212"/>
   <tile gid="212"/>
   <tile gid="212"/>
   <tile gid="212"/>
   <tile gid="212"/>
   <tile gid="212"/>
   <tile gid="212"/>
   <tile gid="212"/>
   <tile gid="212"/>
   <tile gid="212"/>
   <tile gid="212"/>
   <tile gid="212"/>
   <tile gid="212"/>
   <tile gid="212"/>
   <tile gid="212"/>
   <tile gid="34"/>
   <tile gid="34"/>
   <tile gid="34"/>
   <tile gid="212"/>
   <tile gid="212"/>
   <tile gid="212"/>
   <tile gid="212"/>
   <tile gid="212"/>
   <tile gid="212"/>
   <tile gid="212"/>
   <tile gid="212"/>
   <tile gid="212"/>
   <tile gid="212"/>
   <tile gid="212"/>
   <tile gid="212"/>
   <tile gid="212"/>
   <tile gid="212"/>
   <tile gid="212"/>
   <tile gid="212"/>
   <tile gid="212"/>
   <tile gid="212"/>
   <tile gid="212"/>
   <tile gid="212"/>
   <tile gid="212"/>
   <tile gid="212"/>
   <tile gid="212"/>
   <tile gid="212"/>
   <tile gid="212"/>
   <tile gid="34"/>
   <tile gid="34"/>
   <tile gid="34"/>
   <tile gid="212"/>
   <tile gid="212"/>
   <tile gid="212"/>
   <tile gid="212"/>
   <tile gid="212"/>
   <tile gid="212"/>
   <tile gid="212"/>
   <tile gid="212"/>
   <tile gid="212"/>
   <tile gid="212"/>
   <tile gid="212"/>
   <tile gid="212"/>
   <tile gid="212"/>
   <tile gid="212"/>
   <tile gid="212"/>
   <tile gid="212"/>
   <tile gid="212"/>
   <tile gid="212"/>
   <tile gid="212"/>
   <tile gid="212"/>
   <tile gid="212"/>
   <tile gid="212"/>
   <tile gid="34"/>
   <tile gid="34"/>
   <tile gid="34"/>
   <tile gid="34"/>
   <tile gid="34"/>
   <tile gid="34"/>
   <tile gid="212"/>
   <tile gid="212"/>
   <tile gid="212"/>
   <tile gid="212"/>
   <tile gid="212"/>
   <tile gid="212"/>
   <tile gid="212"/>
   <tile gid="212"/>
   <tile gid="212"/>
   <tile gid="212"/>
   <tile gid="212"/>
   <tile gid="212"/>
   <tile gid="212"/>
   <tile gid="212"/>
   <tile gid="212"/>
   <tile gid="212"/>
   <tile gid="212"/>
   <tile gid="212"/>
   <tile gid="212"/>
   <tile gid="212"/>
   <tile gid="212"/>
   <tile gid="212"/>
   <tile gid="34"/>
   <tile gid="34"/>
   <tile gid="34"/>
   <tile gid="212"/>
   <tile gid="212"/>
   <tile gid="212"/>
   <tile gid="212"/>
   <tile gid="212"/>
   <tile gid="212"/>
   <tile gid="212"/>
   <tile gid="212"/>
   <tile gid="212"/>
   <tile gid="212"/>
   <tile gid="212"/>
   <tile gid="212"/>
   <tile gid="212"/>
   <tile gid="212"/>
   <tile gid="212"/>
   <tile gid="212"/>
   <tile gid="212"/>
   <tile gid="212"/>
   <tile gid="212"/>
   <tile gid="212"/>
   <tile gid="212"/>
   <tile gid="212"/>
   <tile gid="212"/>
   <tile gid="212"/>
   <tile gid="212"/>
   <tile gid="212"/>
   <tile gid="212"/>
   <tile gid="212"/>
   <tile gid="212"/>
   <tile gid="212"/>
   <tile gid="212"/>
   <tile gid="212"/>
   <tile gid="212"/>
   <tile gid="212"/>
   <tile gid="212"/>
   <tile gid="212"/>
   <tile gid="212"/>
   <tile gid="212"/>
   <tile gid="34"/>
   <tile gid="34"/>
   <tile gid="34"/>
   <tile gid="212"/>
   <tile gid="212"/>
   <tile gid="212"/>
   <tile gid="212"/>
   <tile gid="212"/>
   <tile gid="212"/>
   <tile gid="212"/>
   <tile gid="212"/>
   <tile gid="212"/>
   <tile gid="212"/>
   <tile gid="212"/>
   <tile gid="212"/>
   <tile gid="212"/>
   <tile gid="212"/>
   <tile gid="212"/>
   <tile gid="212"/>
   <tile gid="212"/>
   <tile gid="212"/>
   <tile gid="212"/>
   <tile gid="212"/>
   <tile gid="212"/>
   <tile gid="212"/>
   <tile gid="212"/>
   <tile gid="212"/>
   <tile gid="212"/>
   <tile gid="34"/>
   <tile gid="34"/>
   <tile gid="34"/>
   <tile gid="212"/>
   <tile gid="212"/>
   <tile gid="212"/>
   <tile gid="212"/>
   <tile gid="212"/>
   <tile gid="212"/>
   <tile gid="212"/>
   <tile gid="212"/>
   <tile gid="212"/>
   <tile gid="212"/>
   <tile gid="212"/>
   <tile gid="212"/>
   <tile gid="212"/>
   <tile gid="212"/>
   <tile gid="212"/>
   <tile gid="212"/>
   <tile gid="212"/>
   <tile gid="212"/>
   <tile gid="212"/>
   <tile gid="212"/>
   <tile gid="212"/>
   <tile gid="212"/>
   <tile gid="212"/>
   <tile gid="212"/>
   <tile gid="212"/>
   <tile gid="34"/>
   <tile gid="34"/>
   <tile gid="34"/>
   <tile gid="212"/>
   <tile gid="212"/>
   <tile gid="212"/>
   <tile gid="212"/>
   <tile gid="212"/>
   <tile gid="212"/>
   <tile gid="212"/>
   <tile gid="212"/>
   <tile gid="212"/>
   <tile gid="212"/>
   <tile gid="212"/>
   <tile gid="212"/>
   <tile gid="212"/>
   <tile gid="212"/>
   <tile gid="212"/>
   <tile gid="212"/>
   <tile gid="212"/>
   <tile gid="212"/>
   <tile gid="212"/>
   <tile gid="212"/>
   <tile gid="212"/>
   <tile gid="212"/>
   <tile gid="34"/>
   <tile gid="34"/>
   <tile gid="34"/>
   <tile gid="34"/>
   <tile gid="34"/>
   <tile gid="34"/>
   <tile gid="212"/>
   <tile gid="212"/>
   <tile gid="212"/>
   <tile gid="212"/>
   <tile gid="212"/>
   <tile gid="212"/>
   <tile gid="212"/>
   <tile gid="212"/>
   <tile gid="212"/>
   <tile gid="212"/>
   <tile gid="212"/>
   <tile gid="212"/>
   <tile gid="212"/>
   <tile gid="212"/>
   <tile gid="212"/>
   <tile gid="212"/>
   <tile gid="212"/>
   <tile gid="212"/>
   <tile gid="212"/>
   <tile gid="212"/>
   <tile gid="212"/>
   <tile gid="212"/>
   <tile gid="34"/>
   <tile gid="34"/>
   <tile gid="34"/>
   <tile gid="212"/>
   <tile gid="212"/>
   <tile gid="212"/>
   <tile gid="212"/>
   <tile gid="212"/>
   <tile gid="212"/>
   <tile gid="212"/>
   <tile gid="212"/>
   <tile gid="212"/>
   <tile gid="212"/>
   <tile gid="212"/>
   <tile gid="212"/>
   <tile gid="212"/>
   <tile gid="212"/>
   <tile gid="212"/>
   <tile gid="212"/>
   <tile gid="212"/>
   <tile gid="212"/>
   <tile gid="212"/>
   <tile gid="212"/>
   <tile gid="212"/>
   <tile gid="212"/>
   <tile gid="212"/>
   <tile gid="212"/>
   <tile gid="212"/>
   <tile gid="212"/>
   <tile gid="212"/>
   <tile gid="212"/>
   <tile gid="212"/>
   <tile gid="212"/>
   <tile gid="212"/>
   <tile gid="212"/>
   <tile gid="212"/>
   <tile gid="212"/>
   <tile gid="212"/>
   <tile gid="212"/>
   <tile gid="212"/>
   <tile gid="212"/>
   <tile gid="34"/>
   <tile gid="34"/>
   <tile gid="34"/>
   <tile gid="212"/>
   <tile gid="212"/>
   <tile gid="212"/>
   <tile gid="212"/>
   <tile gid="212"/>
   <tile gid="212"/>
   <tile gid="212"/>
   <tile gid="212"/>
   <tile gid="212"/>
   <tile gid="212"/>
   <tile gid="212"/>
   <tile gid="212"/>
   <tile gid="212"/>
   <tile gid="212"/>
   <tile gid="212"/>
   <tile gid="212"/>
   <tile gid="212"/>
   <tile gid="212"/>
   <tile gid="212"/>
   <tile gid="212"/>
   <tile gid="212"/>
   <tile gid="212"/>
   <tile gid="212"/>
   <tile gid="212"/>
   <tile gid="212"/>
   <tile gid="34"/>
   <tile gid="34"/>
   <tile gid="34"/>
   <tile gid="212"/>
   <tile gid="212"/>
   <tile gid="212"/>
   <tile gid="212"/>
   <tile gid="212"/>
   <tile gid="212"/>
   <tile gid="212"/>
   <tile gid="212"/>
   <tile gid="212"/>
   <tile gid="212"/>
   <tile gid="212"/>
   <tile gid="212"/>
   <tile gid="212"/>
   <tile gid="212"/>
   <tile gid="212"/>
   <tile gid="212"/>
   <tile gid="212"/>
   <tile gid="212"/>
   <tile gid="212"/>
   <tile gid="212"/>
   <tile gid="212"/>
   <tile gid="212"/>
   <tile gid="212"/>
   <tile gid="212"/>
   <tile gid="212"/>
   <tile gid="34"/>
   <tile gid="34"/>
   <tile gid="34"/>
   <tile gid="212"/>
   <tile gid="212"/>
   <tile gid="212"/>
   <tile gid="212"/>
   <tile gid="212"/>
   <tile gid="212"/>
   <tile gid="212"/>
   <tile gid="212"/>
   <tile gid="212"/>
   <tile gid="212"/>
   <tile gid="212"/>
   <tile gid="212"/>
   <tile gid="212"/>
   <tile gid="212"/>
   <tile gid="212"/>
   <tile gid="212"/>
   <tile gid="212"/>
   <tile gid="212"/>
   <tile gid="212"/>
   <tile gid="212"/>
   <tile gid="212"/>
   <tile gid="212"/>
   <tile gid="34"/>
   <tile gid="34"/>
   <tile gid="34"/>
   <tile gid="34"/>
   <tile gid="34"/>
   <tile gid="34"/>
   <tile gid="212"/>
   <tile gid="212"/>
   <tile gid="212"/>
   <tile gid="212"/>
   <tile gid="212"/>
   <tile gid="212"/>
   <tile gid="212"/>
   <tile gid="212"/>
   <tile gid="212"/>
   <tile gid="212"/>
   <tile gid="212"/>
   <tile gid="212"/>
   <tile gid="212"/>
   <tile gid="212"/>
   <tile gid="212"/>
   <tile gid="212"/>
   <tile gid="212"/>
   <tile gid="212"/>
   <tile gid="212"/>
   <tile gid="212"/>
   <tile gid="212"/>
   <tile gid="212"/>
   <tile gid="34"/>
   <tile gid="34"/>
   <tile gid="34"/>
   <tile gid="212"/>
   <tile gid="212"/>
   <tile gid="212"/>
   <tile gid="212"/>
   <tile gid="212"/>
   <tile gid="212"/>
   <tile gid="212"/>
   <tile gid="212"/>
   <tile gid="212"/>
   <tile gid="212"/>
   <tile gid="212"/>
   <tile gid="212"/>
   <tile gid="212"/>
   <tile gid="212"/>
   <tile gid="212"/>
   <tile gid="212"/>
   <tile gid="212"/>
   <tile gid="212"/>
   <tile gid="212"/>
   <tile gid="212"/>
   <tile gid="212"/>
   <tile gid="212"/>
   <tile gid="212"/>
   <tile gid="212"/>
   <tile gid="212"/>
   <tile gid="212"/>
   <tile gid="212"/>
   <tile gid="212"/>
   <tile gid="212"/>
   <tile gid="212"/>
   <tile gid="212"/>
   <tile gid="212"/>
   <tile gid="212"/>
   <tile gid="212"/>
   <tile gid="212"/>
   <tile gid="212"/>
   <tile gid="212"/>
   <tile gid="212"/>
   <tile gid="34"/>
   <tile gid="34"/>
   <tile gid="34"/>
   <tile gid="212"/>
   <tile gid="212"/>
   <tile gid="212"/>
   <tile gid="212"/>
   <tile gid="212"/>
   <tile gid="212"/>
   <tile gid="212"/>
   <tile gid="212"/>
   <tile gid="212"/>
   <tile gid="212"/>
   <tile gid="212"/>
   <tile gid="212"/>
   <tile gid="212"/>
   <tile gid="212"/>
   <tile gid="212"/>
   <tile gid="212"/>
   <tile gid="212"/>
   <tile gid="212"/>
   <tile gid="212"/>
   <tile gid="212"/>
   <tile gid="212"/>
   <tile gid="212"/>
   <tile gid="212"/>
   <tile gid="212"/>
   <tile gid="212"/>
   <tile gid="34"/>
   <tile gid="34"/>
   <tile gid="34"/>
   <tile gid="212"/>
   <tile gid="212"/>
   <tile gid="212"/>
   <tile gid="212"/>
   <tile gid="212"/>
   <tile gid="212"/>
   <tile gid="212"/>
   <tile gid="212"/>
   <tile gid="212"/>
   <tile gid="212"/>
   <tile gid="212"/>
   <tile gid="212"/>
   <tile gid="212"/>
   <tile gid="212"/>
   <tile gid="212"/>
   <tile gid="212"/>
   <tile gid="212"/>
   <tile gid="212"/>
   <tile gid="212"/>
   <tile gid="212"/>
   <tile gid="212"/>
   <tile gid="212"/>
   <tile gid="212"/>
   <tile gid="212"/>
   <tile gid="212"/>
   <tile gid="34"/>
   <tile gid="34"/>
   <tile gid="34"/>
   <tile gid="212"/>
   <tile gid="212"/>
   <tile gid="212"/>
   <tile gid="212"/>
   <tile gid="212"/>
   <tile gid="212"/>
   <tile gid="212"/>
   <tile gid="212"/>
   <tile gid="212"/>
   <tile gid="212"/>
   <tile gid="212"/>
   <tile gid="212"/>
   <tile gid="212"/>
   <tile gid="212"/>
   <tile gid="212"/>
   <tile gid="212"/>
   <tile gid="212"/>
   <tile gid="212"/>
   <tile gid="212"/>
   <tile gid="212"/>
   <tile gid="212"/>
   <tile gid="212"/>
   <tile gid="34"/>
   <tile gid="34"/>
   <tile gid="34"/>
   <tile gid="34"/>
   <tile gid="34"/>
   <tile gid="34"/>
   <tile gid="212"/>
   <tile gid="212"/>
   <tile gid="212"/>
   <tile gid="212"/>
   <tile gid="212"/>
   <tile gid="212"/>
   <tile gid="212"/>
   <tile gid="212"/>
   <tile gid="212"/>
   <tile gid="212"/>
   <tile gid="212"/>
   <tile gid="212"/>
   <tile gid="212"/>
   <tile gid="212"/>
   <tile gid="212"/>
   <tile gid="212"/>
   <tile gid="212"/>
   <tile gid="212"/>
   <tile gid="212"/>
   <tile gid="212"/>
   <tile gid="212"/>
   <tile gid="212"/>
   <tile gid="34"/>
   <tile gid="34"/>
   <tile gid="34"/>
   <tile gid="34"/>
   <tile gid="34"/>
   <tile gid="34"/>
   <tile gid="34"/>
   <tile gid="34"/>
   <tile gid="34"/>
   <tile gid="34"/>
   <tile gid="212"/>
   <tile gid="212"/>
   <tile gid="212"/>
   <tile gid="212"/>
   <tile gid="34"/>
   <tile gid="34"/>
   <tile gid="34"/>
   <tile gid="34"/>
   <tile gid="34"/>
   <tile gid="34"/>
   <tile gid="34"/>
   <tile gid="34"/>
   <tile gid="34"/>
   <tile gid="34"/>
   <tile gid="34"/>
   <tile gid="34"/>
   <tile gid="34"/>
   <tile gid="34"/>
   <tile gid="34"/>
   <tile gid="34"/>
   <tile gid="34"/>
   <tile gid="34"/>
   <tile gid="34"/>
   <tile gid="212"/>
   <tile gid="212"/>
   <tile gid="212"/>
   <tile gid="34"/>
   <tile gid="34"/>
   <tile gid="34"/>
   <tile gid="34"/>
   <tile gid="34"/>
   <tile gid="34"/>
   <tile gid="34"/>
   <tile gid="34"/>
   <tile gid="212"/>
   <tile gid="212"/>
   <tile gid="212"/>
   <tile gid="212"/>
   <tile gid="212"/>
   <tile gid="212"/>
   <tile gid="212"/>
   <tile gid="212"/>
   <tile gid="212"/>
   <tile gid="212"/>
   <tile gid="212"/>
   <tile gid="212"/>
   <tile gid="212"/>
   <tile gid="212"/>
   <tile gid="212"/>
   <tile gid="212"/>
   <tile gid="212"/>
   <tile gid="212"/>
   <tile gid="212"/>
   <tile gid="212"/>
   <tile gid="212"/>
   <tile gid="212"/>
   <tile gid="212"/>
   <tile gid="212"/>
   <tile gid="212"/>
   <tile gid="34"/>
   <tile gid="34"/>
   <tile gid="34"/>
   <tile gid="212"/>
   <tile gid="212"/>
   <tile gid="212"/>
   <tile gid="212"/>
   <tile gid="212"/>
   <tile gid="212"/>
   <tile gid="212"/>
   <tile gid="212"/>
   <tile gid="212"/>
   <tile gid="212"/>
   <tile gid="212"/>
   <tile gid="212"/>
   <tile gid="212"/>
   <tile gid="212"/>
   <tile gid="212"/>
   <tile gid="212"/>
   <tile gid="212"/>
   <tile gid="212"/>
   <tile gid="212"/>
   <tile gid="212"/>
   <tile gid="212"/>
   <tile gid="212"/>
   <tile gid="212"/>
   <tile gid="212"/>
   <tile gid="212"/>
   <tile gid="34"/>
   <tile gid="34"/>
   <tile gid="34"/>
   <tile gid="212"/>
   <tile gid="212"/>
   <tile gid="212"/>
   <tile gid="212"/>
   <tile gid="212"/>
   <tile gid="212"/>
   <tile gid="212"/>
   <tile gid="212"/>
   <tile gid="212"/>
   <tile gid="212"/>
   <tile gid="212"/>
   <tile gid="212"/>
   <tile gid="212"/>
   <tile gid="212"/>
   <tile gid="212"/>
   <tile gid="212"/>
   <tile gid="212"/>
   <tile gid="212"/>
   <tile gid="212"/>
   <tile gid="212"/>
   <tile gid="212"/>
   <tile gid="212"/>
   <tile gid="34"/>
   <tile gid="34"/>
   <tile gid="34"/>
   <tile gid="34"/>
   <tile gid="34"/>
   <tile gid="34"/>
   <tile gid="212"/>
   <tile gid="212"/>
   <tile gid="212"/>
   <tile gid="212"/>
   <tile gid="212"/>
   <tile gid="212"/>
   <tile gid="212"/>
   <tile gid="212"/>
   <tile gid="212"/>
   <tile gid="212"/>
   <tile gid="212"/>
   <tile gid="212"/>
   <tile gid="212"/>
   <tile gid="212"/>
   <tile gid="212"/>
   <tile gid="212"/>
   <tile gid="212"/>
   <tile gid="212"/>
   <tile gid="212"/>
   <tile gid="212"/>
   <tile gid="212"/>
   <tile gid="212"/>
   <tile gid="34"/>
   <tile gid="34"/>
   <tile gid="34"/>
   <tile gid="34"/>
   <tile gid="34"/>
   <tile gid="34"/>
   <tile gid="34"/>
   <tile gid="34"/>
   <tile gid="34"/>
   <tile gid="34"/>
   <tile gid="212"/>
   <tile gid="212"/>
   <tile gid="212"/>
   <tile gid="212"/>
   <tile gid="34"/>
   <tile gid="34"/>
   <tile gid="34"/>
   <tile gid="34"/>
   <tile gid="34"/>
   <tile gid="34"/>
   <tile gid="34"/>
   <tile gid="34"/>
   <tile gid="34"/>
   <tile gid="34"/>
   <tile gid="34"/>
   <tile gid="34"/>
   <tile gid="34"/>
   <tile gid="34"/>
   <tile gid="34"/>
   <tile gid="34"/>
   <tile gid="34"/>
   <tile gid="34"/>
   <tile gid="34"/>
   <tile gid="212"/>
   <tile gid="212"/>
   <tile gid="212"/>
   <tile gid="34"/>
   <tile gid="34"/>
   <tile gid="34"/>
   <tile gid="34"/>
   <tile gid="34"/>
   <tile gid="34"/>
   <tile gid="34"/>
   <tile gid="34"/>
   <tile gid="212"/>
   <tile gid="212"/>
   <tile gid="212"/>
   <tile gid="212"/>
   <tile gid="212"/>
   <tile gid="212"/>
   <tile gid="212"/>
   <tile gid="212"/>
   <tile gid="212"/>
   <tile gid="212"/>
   <tile gid="212"/>
   <tile gid="212"/>
   <tile gid="212"/>
   <tile gid="212"/>
   <tile gid="212"/>
   <tile gid="212"/>
   <tile gid="212"/>
   <tile gid="212"/>
   <tile gid="212"/>
   <tile gid="212"/>
   <tile gid="212"/>
   <tile gid="212"/>
   <tile gid="212"/>
   <tile gid="212"/>
   <tile gid="212"/>
   <tile gid="34"/>
   <tile gid="34"/>
   <tile gid="34"/>
   <tile gid="212"/>
   <tile gid="212"/>
   <tile gid="212"/>
   <tile gid="212"/>
   <tile gid="212"/>
   <tile gid="212"/>
   <tile gid="212"/>
   <tile gid="212"/>
   <tile gid="212"/>
   <tile gid="212"/>
   <tile gid="212"/>
   <tile gid="212"/>
   <tile gid="212"/>
   <tile gid="212"/>
   <tile gid="212"/>
   <tile gid="212"/>
   <tile gid="212"/>
   <tile gid="212"/>
   <tile gid="212"/>
   <tile gid="212"/>
   <tile gid="212"/>
   <tile gid="212"/>
   <tile gid="212"/>
   <tile gid="212"/>
   <tile gid="212"/>
   <tile gid="34"/>
   <tile gid="34"/>
   <tile gid="34"/>
   <tile gid="212"/>
   <tile gid="212"/>
   <tile gid="212"/>
   <tile gid="212"/>
   <tile gid="212"/>
   <tile gid="212"/>
   <tile gid="212"/>
   <tile gid="212"/>
   <tile gid="212"/>
   <tile gid="212"/>
   <tile gid="212"/>
   <tile gid="212"/>
   <tile gid="212"/>
   <tile gid="212"/>
   <tile gid="212"/>
   <tile gid="212"/>
   <tile gid="212"/>
   <tile gid="212"/>
   <tile gid="212"/>
   <tile gid="212"/>
   <tile gid="212"/>
   <tile gid="212"/>
   <tile gid="34"/>
   <tile gid="34"/>
   <tile gid="34"/>
   <tile gid="34"/>
   <tile gid="34"/>
   <tile gid="34"/>
   <tile gid="212"/>
   <tile gid="212"/>
   <tile gid="212"/>
   <tile gid="212"/>
   <tile gid="212"/>
   <tile gid="212"/>
   <tile gid="212"/>
   <tile gid="212"/>
   <tile gid="212"/>
   <tile gid="212"/>
   <tile gid="212"/>
   <tile gid="212"/>
   <tile gid="212"/>
   <tile gid="212"/>
   <tile gid="212"/>
   <tile gid="212"/>
   <tile gid="212"/>
   <tile gid="212"/>
   <tile gid="212"/>
   <tile gid="212"/>
   <tile gid="212"/>
   <tile gid="212"/>
   <tile gid="34"/>
   <tile gid="34"/>
   <tile gid="34"/>
   <tile gid="34"/>
   <tile gid="34"/>
   <tile gid="34"/>
   <tile gid="34"/>
   <tile gid="34"/>
   <tile gid="34"/>
   <tile gid="34"/>
   <tile gid="212"/>
   <tile gid="212"/>
   <tile gid="212"/>
   <tile gid="212"/>
   <tile gid="34"/>
   <tile gid="34"/>
   <tile gid="34"/>
   <tile gid="34"/>
   <tile gid="34"/>
   <tile gid="34"/>
   <tile gid="34"/>
   <tile gid="34"/>
   <tile gid="34"/>
   <tile gid="34"/>
   <tile gid="34"/>
   <tile gid="34"/>
   <tile gid="34"/>
   <tile gid="34"/>
   <tile gid="34"/>
   <tile gid="34"/>
   <tile gid="34"/>
   <tile gid="34"/>
   <tile gid="34"/>
   <tile gid="212"/>
   <tile gid="212"/>
   <tile gid="212"/>
   <tile gid="34"/>
   <tile gid="34"/>
   <tile gid="34"/>
   <tile gid="34"/>
   <tile gid="34"/>
   <tile gid="34"/>
   <tile gid="34"/>
   <tile gid="34"/>
   <tile gid="212"/>
   <tile gid="212"/>
   <tile gid="212"/>
   <tile gid="212"/>
   <tile gid="212"/>
   <tile gid="212"/>
   <tile gid="212"/>
   <tile gid="212"/>
   <tile gid="212"/>
   <tile gid="212"/>
   <tile gid="212"/>
   <tile gid="212"/>
   <tile gid="212"/>
   <tile gid="212"/>
   <tile gid="212"/>
   <tile gid="212"/>
   <tile gid="212"/>
   <tile gid="212"/>
   <tile gid="212"/>
   <tile gid="212"/>
   <tile gid="212"/>
   <tile gid="212"/>
   <tile gid="212"/>
   <tile gid="212"/>
   <tile gid="212"/>
   <tile gid="34"/>
   <tile gid="34"/>
   <tile gid="34"/>
   <tile gid="212"/>
   <tile gid="212"/>
   <tile gid="212"/>
   <tile gid="212"/>
   <tile gid="212"/>
   <tile gid="212"/>
   <tile gid="212"/>
   <tile gid="212"/>
   <tile gid="212"/>
   <tile gid="212"/>
   <tile gid="212"/>
   <tile gid="212"/>
   <tile gid="212"/>
   <tile gid="212"/>
   <tile gid="212"/>
   <tile gid="212"/>
   <tile gid="212"/>
   <tile gid="212"/>
   <tile gid="212"/>
   <tile gid="212"/>
   <tile gid="212"/>
   <tile gid="212"/>
   <tile gid="212"/>
   <tile gid="212"/>
   <tile gid="212"/>
   <tile gid="34"/>
   <tile gid="34"/>
   <tile gid="34"/>
   <tile gid="212"/>
   <tile gid="212"/>
   <tile gid="212"/>
   <tile gid="212"/>
   <tile gid="212"/>
   <tile gid="212"/>
   <tile gid="212"/>
   <tile gid="212"/>
   <tile gid="212"/>
   <tile gid="212"/>
   <tile gid="212"/>
   <tile gid="212"/>
   <tile gid="212"/>
   <tile gid="212"/>
   <tile gid="212"/>
   <tile gid="212"/>
   <tile gid="212"/>
   <tile gid="212"/>
   <tile gid="212"/>
   <tile gid="212"/>
   <tile gid="212"/>
   <tile gid="212"/>
   <tile gid="34"/>
   <tile gid="34"/>
   <tile gid="34"/>
   <tile gid="34"/>
   <tile gid="34"/>
   <tile gid="34"/>
   <tile gid="212"/>
   <tile gid="212"/>
   <tile gid="212"/>
   <tile gid="212"/>
   <tile gid="212"/>
   <tile gid="212"/>
   <tile gid="212"/>
   <tile gid="212"/>
   <tile gid="212"/>
   <tile gid="212"/>
   <tile gid="212"/>
   <tile gid="212"/>
   <tile gid="212"/>
   <tile gid="212"/>
   <tile gid="212"/>
   <tile gid="212"/>
   <tile gid="212"/>
   <tile gid="212"/>
   <tile gid="212"/>
   <tile gid="212"/>
   <tile gid="212"/>
   <tile gid="212"/>
   <tile gid="212"/>
   <tile gid="212"/>
   <tile gid="212"/>
   <tile gid="212"/>
   <tile gid="212"/>
   <tile gid="212"/>
   <tile gid="212"/>
   <tile gid="212"/>
   <tile gid="212"/>
   <tile gid="212"/>
   <tile gid="212"/>
   <tile gid="212"/>
   <tile gid="212"/>
   <tile gid="212"/>
   <tile gid="212"/>
   <tile gid="212"/>
   <tile gid="212"/>
   <tile gid="212"/>
   <tile gid="212"/>
   <tile gid="212"/>
   <tile gid="212"/>
   <tile gid="212"/>
   <tile gid="212"/>
   <tile gid="34"/>
   <tile gid="34"/>
   <tile gid="34"/>
   <tile gid="212"/>
   <tile gid="212"/>
   <tile gid="212"/>
   <tile gid="212"/>
   <tile gid="212"/>
   <tile gid="212"/>
   <tile gid="212"/>
   <tile gid="212"/>
   <tile gid="212"/>
   <tile gid="212"/>
   <tile gid="212"/>
   <tile gid="212"/>
   <tile gid="212"/>
   <tile gid="212"/>
   <tile gid="212"/>
   <tile gid="34"/>
   <tile gid="34"/>
   <tile gid="34"/>
   <tile gid="212"/>
   <tile gid="212"/>
   <tile gid="212"/>
   <tile gid="212"/>
   <tile gid="212"/>
   <tile gid="212"/>
   <tile gid="212"/>
   <tile gid="212"/>
   <tile gid="212"/>
   <tile gid="212"/>
   <tile gid="212"/>
   <tile gid="212"/>
   <tile gid="212"/>
   <tile gid="212"/>
   <tile gid="212"/>
   <tile gid="212"/>
   <tile gid="212"/>
   <tile gid="212"/>
   <tile gid="212"/>
   <tile gid="212"/>
   <tile gid="212"/>
   <tile gid="212"/>
   <tile gid="212"/>
   <tile gid="212"/>
   <tile gid="212"/>
   <tile gid="34"/>
   <tile gid="34"/>
   <tile gid="34"/>
   <tile gid="212"/>
   <tile gid="212"/>
   <tile gid="212"/>
   <tile gid="212"/>
   <tile gid="212"/>
   <tile gid="212"/>
   <tile gid="212"/>
   <tile gid="212"/>
   <tile gid="212"/>
   <tile gid="212"/>
   <tile gid="212"/>
   <tile gid="212"/>
   <tile gid="212"/>
   <tile gid="212"/>
   <tile gid="212"/>
   <tile gid="212"/>
   <tile gid="212"/>
   <tile gid="212"/>
   <tile gid="212"/>
   <tile gid="212"/>
   <tile gid="212"/>
   <tile gid="212"/>
   <tile gid="212"/>
   <tile gid="212"/>
   <tile gid="212"/>
   <tile gid="34"/>
   <tile gid="34"/>
   <tile gid="34"/>
   <tile gid="212"/>
   <tile gid="212"/>
   <tile gid="212"/>
   <tile gid="212"/>
   <tile gid="212"/>
   <tile gid="212"/>
   <tile gid="212"/>
   <tile gid="212"/>
   <tile gid="212"/>
   <tile gid="212"/>
   <tile gid="212"/>
   <tile gid="212"/>
   <tile gid="212"/>
   <tile gid="212"/>
   <tile gid="212"/>
   <tile gid="212"/>
   <tile gid="212"/>
   <tile gid="212"/>
   <tile gid="212"/>
   <tile gid="212"/>
   <tile gid="212"/>
   <tile gid="212"/>
   <tile gid="34"/>
   <tile gid="34"/>
   <tile gid="34"/>
   <tile gid="34"/>
   <tile gid="34"/>
   <tile gid="34"/>
   <tile gid="212"/>
   <tile gid="212"/>
   <tile gid="212"/>
   <tile gid="212"/>
   <tile gid="212"/>
   <tile gid="212"/>
   <tile gid="212"/>
   <tile gid="212"/>
   <tile gid="212"/>
   <tile gid="212"/>
   <tile gid="212"/>
   <tile gid="212"/>
   <tile gid="212"/>
   <tile gid="212"/>
   <tile gid="212"/>
   <tile gid="212"/>
   <tile gid="212"/>
   <tile gid="212"/>
   <tile gid="212"/>
   <tile gid="212"/>
   <tile gid="212"/>
   <tile gid="212"/>
   <tile gid="212"/>
   <tile gid="212"/>
   <tile gid="212"/>
   <tile gid="212"/>
   <tile gid="212"/>
   <tile gid="212"/>
   <tile gid="212"/>
   <tile gid="212"/>
   <tile gid="212"/>
   <tile gid="212"/>
   <tile gid="212"/>
   <tile gid="212"/>
   <tile gid="212"/>
   <tile gid="212"/>
   <tile gid="212"/>
   <tile gid="212"/>
   <tile gid="212"/>
   <tile gid="212"/>
   <tile gid="212"/>
   <tile gid="212"/>
   <tile gid="212"/>
   <tile gid="212"/>
   <tile gid="212"/>
   <tile gid="34"/>
   <tile gid="34"/>
   <tile gid="34"/>
   <tile gid="212"/>
   <tile gid="212"/>
   <tile gid="212"/>
   <tile gid="212"/>
   <tile gid="212"/>
   <tile gid="212"/>
   <tile gid="212"/>
   <tile gid="212"/>
   <tile gid="212"/>
   <tile gid="212"/>
   <tile gid="212"/>
   <tile gid="212"/>
   <tile gid="212"/>
   <tile gid="212"/>
   <tile gid="212"/>
   <tile gid="34"/>
   <tile gid="34"/>
   <tile gid="34"/>
   <tile gid="212"/>
   <tile gid="212"/>
   <tile gid="212"/>
   <tile gid="212"/>
   <tile gid="212"/>
   <tile gid="212"/>
   <tile gid="212"/>
   <tile gid="212"/>
   <tile gid="212"/>
   <tile gid="212"/>
   <tile gid="212"/>
   <tile gid="212"/>
   <tile gid="212"/>
   <tile gid="212"/>
   <tile gid="212"/>
   <tile gid="212"/>
   <tile gid="212"/>
   <tile gid="212"/>
   <tile gid="212"/>
   <tile gid="212"/>
   <tile gid="212"/>
   <tile gid="212"/>
   <tile gid="212"/>
   <tile gid="212"/>
   <tile gid="212"/>
   <tile gid="34"/>
   <tile gid="34"/>
   <tile gid="34"/>
   <tile gid="212"/>
   <tile gid="212"/>
   <tile gid="212"/>
   <tile gid="212"/>
   <tile gid="212"/>
   <tile gid="212"/>
   <tile gid="212"/>
   <tile gid="212"/>
   <tile gid="212"/>
   <tile gid="212"/>
   <tile gid="212"/>
   <tile gid="212"/>
   <tile gid="212"/>
   <tile gid="212"/>
   <tile gid="212"/>
   <tile gid="212"/>
   <tile gid="212"/>
   <tile gid="212"/>
   <tile gid="212"/>
   <tile gid="212"/>
   <tile gid="212"/>
   <tile gid="212"/>
   <tile gid="212"/>
   <tile gid="212"/>
   <tile gid="212"/>
   <tile gid="34"/>
   <tile gid="34"/>
   <tile gid="34"/>
   <tile gid="212"/>
   <tile gid="212"/>
   <tile gid="212"/>
   <tile gid="212"/>
   <tile gid="212"/>
   <tile gid="212"/>
   <tile gid="212"/>
   <tile gid="212"/>
   <tile gid="212"/>
   <tile gid="212"/>
   <tile gid="212"/>
   <tile gid="212"/>
   <tile gid="212"/>
   <tile gid="212"/>
   <tile gid="212"/>
   <tile gid="212"/>
   <tile gid="212"/>
   <tile gid="212"/>
   <tile gid="212"/>
   <tile gid="212"/>
   <tile gid="212"/>
   <tile gid="212"/>
   <tile gid="34"/>
   <tile gid="34"/>
   <tile gid="34"/>
   <tile gid="34"/>
   <tile gid="34"/>
   <tile gid="34"/>
   <tile gid="212"/>
   <tile gid="212"/>
   <tile gid="212"/>
   <tile gid="212"/>
   <tile gid="212"/>
   <tile gid="212"/>
   <tile gid="212"/>
   <tile gid="212"/>
   <tile gid="212"/>
   <tile gid="212"/>
   <tile gid="212"/>
   <tile gid="212"/>
   <tile gid="212"/>
   <tile gid="212"/>
   <tile gid="212"/>
   <tile gid="212"/>
   <tile gid="212"/>
   <tile gid="212"/>
   <tile gid="212"/>
   <tile gid="212"/>
   <tile gid="212"/>
   <tile gid="212"/>
   <tile gid="212"/>
   <tile gid="212"/>
   <tile gid="212"/>
   <tile gid="212"/>
   <tile gid="212"/>
   <tile gid="212"/>
   <tile gid="212"/>
   <tile gid="212"/>
   <tile gid="212"/>
   <tile gid="212"/>
   <tile gid="212"/>
   <tile gid="212"/>
   <tile gid="212"/>
   <tile gid="212"/>
   <tile gid="212"/>
   <tile gid="212"/>
   <tile gid="212"/>
   <tile gid="212"/>
   <tile gid="212"/>
   <tile gid="212"/>
   <tile gid="212"/>
   <tile gid="212"/>
   <tile gid="212"/>
   <tile gid="34"/>
   <tile gid="34"/>
   <tile gid="34"/>
   <tile gid="212"/>
   <tile gid="212"/>
   <tile gid="212"/>
   <tile gid="212"/>
   <tile gid="212"/>
   <tile gid="212"/>
   <tile gid="212"/>
   <tile gid="212"/>
   <tile gid="212"/>
   <tile gid="212"/>
   <tile gid="212"/>
   <tile gid="212"/>
   <tile gid="212"/>
   <tile gid="212"/>
   <tile gid="212"/>
   <tile gid="34"/>
   <tile gid="34"/>
   <tile gid="34"/>
   <tile gid="212"/>
   <tile gid="212"/>
   <tile gid="212"/>
   <tile gid="212"/>
   <tile gid="212"/>
   <tile gid="212"/>
   <tile gid="212"/>
   <tile gid="212"/>
   <tile gid="212"/>
   <tile gid="212"/>
   <tile gid="212"/>
   <tile gid="212"/>
   <tile gid="212"/>
   <tile gid="212"/>
   <tile gid="212"/>
   <tile gid="212"/>
   <tile gid="212"/>
   <tile gid="212"/>
   <tile gid="212"/>
   <tile gid="212"/>
   <tile gid="212"/>
   <tile gid="212"/>
   <tile gid="212"/>
   <tile gid="212"/>
   <tile gid="212"/>
   <tile gid="34"/>
   <tile gid="34"/>
   <tile gid="34"/>
   <tile gid="212"/>
   <tile gid="212"/>
   <tile gid="212"/>
   <tile gid="212"/>
   <tile gid="212"/>
   <tile gid="212"/>
   <tile gid="212"/>
   <tile gid="212"/>
   <tile gid="212"/>
   <tile gid="212"/>
   <tile gid="212"/>
   <tile gid="212"/>
   <tile gid="212"/>
   <tile gid="212"/>
   <tile gid="212"/>
   <tile gid="212"/>
   <tile gid="212"/>
   <tile gid="212"/>
   <tile gid="212"/>
   <tile gid="212"/>
   <tile gid="212"/>
   <tile gid="212"/>
   <tile gid="212"/>
   <tile gid="212"/>
   <tile gid="212"/>
   <tile gid="34"/>
   <tile gid="34"/>
   <tile gid="34"/>
   <tile gid="212"/>
   <tile gid="212"/>
   <tile gid="212"/>
   <tile gid="212"/>
   <tile gid="212"/>
   <tile gid="212"/>
   <tile gid="212"/>
   <tile gid="212"/>
   <tile gid="212"/>
   <tile gid="212"/>
   <tile gid="212"/>
   <tile gid="212"/>
   <tile gid="212"/>
   <tile gid="212"/>
   <tile gid="212"/>
   <tile gid="212"/>
   <tile gid="212"/>
   <tile gid="212"/>
   <tile gid="212"/>
   <tile gid="212"/>
   <tile gid="212"/>
   <tile gid="212"/>
   <tile gid="34"/>
   <tile gid="34"/>
   <tile gid="34"/>
   <tile gid="34"/>
   <tile gid="34"/>
   <tile gid="34"/>
   <tile gid="212"/>
   <tile gid="212"/>
   <tile gid="212"/>
   <tile gid="212"/>
   <tile gid="212"/>
   <tile gid="212"/>
   <tile gid="212"/>
   <tile gid="212"/>
   <tile gid="212"/>
   <tile gid="212"/>
   <tile gid="212"/>
   <tile gid="212"/>
   <tile gid="212"/>
   <tile gid="212"/>
   <tile gid="212"/>
   <tile gid="212"/>
   <tile gid="212"/>
   <tile gid="212"/>
   <tile gid="212"/>
   <tile gid="212"/>
   <tile gid="212"/>
   <tile gid="212"/>
   <tile gid="212"/>
   <tile gid="212"/>
   <tile gid="212"/>
   <tile gid="212"/>
   <tile gid="212"/>
   <tile gid="212"/>
   <tile gid="212"/>
   <tile gid="212"/>
   <tile gid="212"/>
   <tile gid="212"/>
   <tile gid="212"/>
   <tile gid="212"/>
   <tile gid="212"/>
   <tile gid="212"/>
   <tile gid="212"/>
   <tile gid="212"/>
   <tile gid="212"/>
   <tile gid="212"/>
   <tile gid="212"/>
   <tile gid="212"/>
   <tile gid="212"/>
   <tile gid="212"/>
   <tile gid="212"/>
   <tile gid="34"/>
   <tile gid="34"/>
   <tile gid="34"/>
   <tile gid="212"/>
   <tile gid="212"/>
   <tile gid="212"/>
   <tile gid="212"/>
   <tile gid="212"/>
   <tile gid="212"/>
   <tile gid="212"/>
   <tile gid="212"/>
   <tile gid="212"/>
   <tile gid="212"/>
   <tile gid="212"/>
   <tile gid="212"/>
   <tile gid="212"/>
   <tile gid="212"/>
   <tile gid="212"/>
   <tile gid="34"/>
   <tile gid="34"/>
   <tile gid="34"/>
   <tile gid="212"/>
   <tile gid="212"/>
   <tile gid="212"/>
   <tile gid="212"/>
   <tile gid="212"/>
   <tile gid="212"/>
   <tile gid="212"/>
   <tile gid="212"/>
   <tile gid="212"/>
   <tile gid="212"/>
   <tile gid="212"/>
   <tile gid="212"/>
   <tile gid="212"/>
   <tile gid="212"/>
   <tile gid="212"/>
   <tile gid="212"/>
   <tile gid="212"/>
   <tile gid="212"/>
   <tile gid="212"/>
   <tile gid="212"/>
   <tile gid="212"/>
   <tile gid="212"/>
   <tile gid="212"/>
   <tile gid="212"/>
   <tile gid="212"/>
   <tile gid="34"/>
   <tile gid="34"/>
   <tile gid="34"/>
   <tile gid="212"/>
   <tile gid="212"/>
   <tile gid="212"/>
   <tile gid="212"/>
   <tile gid="212"/>
   <tile gid="212"/>
   <tile gid="212"/>
   <tile gid="212"/>
   <tile gid="212"/>
   <tile gid="212"/>
   <tile gid="212"/>
   <tile gid="212"/>
   <tile gid="212"/>
   <tile gid="212"/>
   <tile gid="212"/>
   <tile gid="212"/>
   <tile gid="212"/>
   <tile gid="212"/>
   <tile gid="212"/>
   <tile gid="212"/>
   <tile gid="212"/>
   <tile gid="212"/>
   <tile gid="212"/>
   <tile gid="212"/>
   <tile gid="212"/>
   <tile gid="34"/>
   <tile gid="34"/>
   <tile gid="34"/>
   <tile gid="212"/>
   <tile gid="212"/>
   <tile gid="212"/>
   <tile gid="212"/>
   <tile gid="212"/>
   <tile gid="212"/>
   <tile gid="212"/>
   <tile gid="212"/>
   <tile gid="212"/>
   <tile gid="212"/>
   <tile gid="212"/>
   <tile gid="212"/>
   <tile gid="212"/>
   <tile gid="212"/>
   <tile gid="212"/>
   <tile gid="212"/>
   <tile gid="212"/>
   <tile gid="212"/>
   <tile gid="212"/>
   <tile gid="212"/>
   <tile gid="212"/>
   <tile gid="212"/>
   <tile gid="34"/>
   <tile gid="34"/>
   <tile gid="34"/>
   <tile gid="34"/>
   <tile gid="34"/>
   <tile gid="34"/>
   <tile gid="212"/>
   <tile gid="212"/>
   <tile gid="212"/>
   <tile gid="212"/>
   <tile gid="212"/>
   <tile gid="212"/>
   <tile gid="212"/>
   <tile gid="212"/>
   <tile gid="212"/>
   <tile gid="212"/>
   <tile gid="212"/>
   <tile gid="212"/>
   <tile gid="212"/>
   <tile gid="212"/>
   <tile gid="212"/>
   <tile gid="212"/>
   <tile gid="212"/>
   <tile gid="212"/>
   <tile gid="212"/>
   <tile gid="212"/>
   <tile gid="212"/>
   <tile gid="212"/>
   <tile gid="212"/>
   <tile gid="212"/>
   <tile gid="212"/>
   <tile gid="212"/>
   <tile gid="212"/>
   <tile gid="212"/>
   <tile gid="212"/>
   <tile gid="212"/>
   <tile gid="212"/>
   <tile gid="212"/>
   <tile gid="212"/>
   <tile gid="212"/>
   <tile gid="212"/>
   <tile gid="212"/>
   <tile gid="212"/>
   <tile gid="212"/>
   <tile gid="212"/>
   <tile gid="212"/>
   <tile gid="212"/>
   <tile gid="212"/>
   <tile gid="212"/>
   <tile gid="212"/>
   <tile gid="212"/>
   <tile gid="34"/>
   <tile gid="34"/>
   <tile gid="34"/>
   <tile gid="212"/>
   <tile gid="212"/>
   <tile gid="212"/>
   <tile gid="212"/>
   <tile gid="212"/>
   <tile gid="212"/>
   <tile gid="212"/>
   <tile gid="212"/>
   <tile gid="212"/>
   <tile gid="212"/>
   <tile gid="212"/>
   <tile gid="212"/>
   <tile gid="212"/>
   <tile gid="212"/>
   <tile gid="212"/>
   <tile gid="34"/>
   <tile gid="34"/>
   <tile gid="34"/>
   <tile gid="212"/>
   <tile gid="212"/>
   <tile gid="212"/>
   <tile gid="212"/>
   <tile gid="212"/>
   <tile gid="212"/>
   <tile gid="212"/>
   <tile gid="212"/>
   <tile gid="212"/>
   <tile gid="212"/>
   <tile gid="212"/>
   <tile gid="212"/>
   <tile gid="212"/>
   <tile gid="212"/>
   <tile gid="212"/>
   <tile gid="212"/>
   <tile gid="212"/>
   <tile gid="212"/>
   <tile gid="212"/>
   <tile gid="212"/>
   <tile gid="212"/>
   <tile gid="212"/>
   <tile gid="212"/>
   <tile gid="212"/>
   <tile gid="212"/>
   <tile gid="34"/>
   <tile gid="34"/>
   <tile gid="34"/>
   <tile gid="212"/>
   <tile gid="212"/>
   <tile gid="212"/>
   <tile gid="212"/>
   <tile gid="212"/>
   <tile gid="212"/>
   <tile gid="212"/>
   <tile gid="212"/>
   <tile gid="212"/>
   <tile gid="212"/>
   <tile gid="212"/>
   <tile gid="212"/>
   <tile gid="212"/>
   <tile gid="212"/>
   <tile gid="212"/>
   <tile gid="212"/>
   <tile gid="212"/>
   <tile gid="212"/>
   <tile gid="212"/>
   <tile gid="212"/>
   <tile gid="212"/>
   <tile gid="212"/>
   <tile gid="212"/>
   <tile gid="212"/>
   <tile gid="212"/>
   <tile gid="34"/>
   <tile gid="34"/>
   <tile gid="34"/>
   <tile gid="212"/>
   <tile gid="212"/>
   <tile gid="212"/>
   <tile gid="212"/>
   <tile gid="212"/>
   <tile gid="212"/>
   <tile gid="212"/>
   <tile gid="212"/>
   <tile gid="212"/>
   <tile gid="212"/>
   <tile gid="212"/>
   <tile gid="212"/>
   <tile gid="212"/>
   <tile gid="212"/>
   <tile gid="212"/>
   <tile gid="212"/>
   <tile gid="212"/>
   <tile gid="212"/>
   <tile gid="212"/>
   <tile gid="212"/>
   <tile gid="212"/>
   <tile gid="212"/>
   <tile gid="34"/>
   <tile gid="34"/>
   <tile gid="34"/>
   <tile gid="34"/>
   <tile gid="34"/>
   <tile gid="34"/>
   <tile gid="212"/>
   <tile gid="212"/>
   <tile gid="212"/>
   <tile gid="212"/>
   <tile gid="212"/>
   <tile gid="212"/>
   <tile gid="212"/>
   <tile gid="212"/>
   <tile gid="212"/>
   <tile gid="212"/>
   <tile gid="212"/>
   <tile gid="212"/>
   <tile gid="212"/>
   <tile gid="212"/>
   <tile gid="212"/>
   <tile gid="212"/>
   <tile gid="212"/>
   <tile gid="212"/>
   <tile gid="212"/>
   <tile gid="212"/>
   <tile gid="212"/>
   <tile gid="212"/>
   <tile gid="212"/>
   <tile gid="212"/>
   <tile gid="212"/>
   <tile gid="212"/>
   <tile gid="212"/>
   <tile gid="212"/>
   <tile gid="212"/>
   <tile gid="212"/>
   <tile gid="212"/>
   <tile gid="212"/>
   <tile gid="212"/>
   <tile gid="212"/>
   <tile gid="212"/>
   <tile gid="212"/>
   <tile gid="212"/>
   <tile gid="212"/>
   <tile gid="212"/>
   <tile gid="212"/>
   <tile gid="212"/>
   <tile gid="212"/>
   <tile gid="212"/>
   <tile gid="212"/>
   <tile gid="212"/>
   <tile gid="34"/>
   <tile gid="34"/>
   <tile gid="34"/>
   <tile gid="212"/>
   <tile gid="212"/>
   <tile gid="212"/>
   <tile gid="212"/>
   <tile gid="212"/>
   <tile gid="212"/>
   <tile gid="212"/>
   <tile gid="212"/>
   <tile gid="212"/>
   <tile gid="212"/>
   <tile gid="212"/>
   <tile gid="212"/>
   <tile gid="212"/>
   <tile gid="212"/>
   <tile gid="212"/>
   <tile gid="34"/>
   <tile gid="34"/>
   <tile gid="34"/>
   <tile gid="212"/>
   <tile gid="212"/>
   <tile gid="212"/>
   <tile gid="212"/>
   <tile gid="212"/>
   <tile gid="212"/>
   <tile gid="212"/>
   <tile gid="212"/>
   <tile gid="212"/>
   <tile gid="212"/>
   <tile gid="212"/>
   <tile gid="212"/>
   <tile gid="212"/>
   <tile gid="212"/>
   <tile gid="212"/>
   <tile gid="212"/>
   <tile gid="212"/>
   <tile gid="212"/>
   <tile gid="212"/>
   <tile gid="212"/>
   <tile gid="212"/>
   <tile gid="212"/>
   <tile gid="212"/>
   <tile gid="212"/>
   <tile gid="212"/>
   <tile gid="34"/>
   <tile gid="34"/>
   <tile gid="34"/>
   <tile gid="212"/>
   <tile gid="212"/>
   <tile gid="212"/>
   <tile gid="212"/>
   <tile gid="212"/>
   <tile gid="212"/>
   <tile gid="212"/>
   <tile gid="212"/>
   <tile gid="212"/>
   <tile gid="212"/>
   <tile gid="212"/>
   <tile gid="212"/>
   <tile gid="212"/>
   <tile gid="212"/>
   <tile gid="212"/>
   <tile gid="212"/>
   <tile gid="212"/>
   <tile gid="212"/>
   <tile gid="212"/>
   <tile gid="212"/>
   <tile gid="212"/>
   <tile gid="212"/>
   <tile gid="212"/>
   <tile gid="212"/>
   <tile gid="212"/>
   <tile gid="34"/>
   <tile gid="34"/>
   <tile gid="34"/>
   <tile gid="212"/>
   <tile gid="212"/>
   <tile gid="212"/>
   <tile gid="212"/>
   <tile gid="212"/>
   <tile gid="212"/>
   <tile gid="212"/>
   <tile gid="212"/>
   <tile gid="212"/>
   <tile gid="212"/>
   <tile gid="212"/>
   <tile gid="212"/>
   <tile gid="212"/>
   <tile gid="212"/>
   <tile gid="212"/>
   <tile gid="212"/>
   <tile gid="212"/>
   <tile gid="212"/>
   <tile gid="212"/>
   <tile gid="212"/>
   <tile gid="212"/>
   <tile gid="212"/>
   <tile gid="34"/>
   <tile gid="34"/>
   <tile gid="34"/>
   <tile gid="34"/>
   <tile gid="34"/>
   <tile gid="34"/>
   <tile gid="217"/>
   <tile gid="217"/>
   <tile gid="217"/>
   <tile gid="217"/>
   <tile gid="217"/>
   <tile gid="217"/>
   <tile gid="217"/>
   <tile gid="217"/>
   <tile gid="217"/>
   <tile gid="217"/>
   <tile gid="217"/>
   <tile gid="217"/>
   <tile gid="217"/>
   <tile gid="217"/>
   <tile gid="217"/>
   <tile gid="217"/>
   <tile gid="217"/>
   <tile gid="217"/>
   <tile gid="217"/>
   <tile gid="217"/>
   <tile gid="217"/>
   <tile gid="217"/>
   <tile gid="217"/>
   <tile gid="217"/>
   <tile gid="217"/>
   <tile gid="217"/>
   <tile gid="217"/>
   <tile gid="217"/>
   <tile gid="217"/>
   <tile gid="217"/>
   <tile gid="217"/>
   <tile gid="217"/>
   <tile gid="217"/>
   <tile gid="217"/>
   <tile gid="217"/>
   <tile gid="217"/>
   <tile gid="217"/>
   <tile gid="217"/>
   <tile gid="217"/>
   <tile gid="217"/>
   <tile gid="217"/>
   <tile gid="217"/>
   <tile gid="217"/>
   <tile gid="217"/>
   <tile gid="217"/>
   <tile gid="217"/>
   <tile gid="34"/>
   <tile gid="34"/>
   <tile gid="217"/>
   <tile gid="217"/>
   <tile gid="217"/>
   <tile gid="217"/>
   <tile gid="217"/>
   <tile gid="217"/>
   <tile gid="217"/>
   <tile gid="217"/>
   <tile gid="217"/>
   <tile gid="217"/>
   <tile gid="217"/>
   <tile gid="217"/>
   <tile gid="217"/>
   <tile gid="217"/>
   <tile gid="217"/>
   <tile gid="217"/>
   <tile gid="217"/>
   <tile gid="217"/>
   <tile gid="217"/>
   <tile gid="217"/>
   <tile gid="217"/>
   <tile gid="217"/>
   <tile gid="217"/>
   <tile gid="217"/>
   <tile gid="217"/>
   <tile gid="217"/>
   <tile gid="217"/>
   <tile gid="217"/>
   <tile gid="217"/>
   <tile gid="217"/>
   <tile gid="217"/>
   <tile gid="217"/>
   <tile gid="217"/>
   <tile gid="217"/>
   <tile gid="217"/>
   <tile gid="217"/>
   <tile gid="217"/>
   <tile gid="217"/>
   <tile gid="217"/>
   <tile gid="217"/>
   <tile gid="217"/>
   <tile gid="217"/>
   <tile gid="217"/>
   <tile gid="217"/>
   <tile gid="217"/>
   <tile gid="217"/>
   <tile gid="217"/>
   <tile gid="217"/>
   <tile gid="217"/>
   <tile gid="217"/>
   <tile gid="217"/>
   <tile gid="217"/>
   <tile gid="217"/>
   <tile gid="217"/>
   <tile gid="217"/>
   <tile gid="217"/>
   <tile gid="217"/>
   <tile gid="217"/>
   <tile gid="217"/>
   <tile gid="217"/>
   <tile gid="217"/>
   <tile gid="217"/>
   <tile gid="217"/>
   <tile gid="217"/>
   <tile gid="217"/>
   <tile gid="217"/>
   <tile gid="217"/>
   <tile gid="217"/>
   <tile gid="217"/>
   <tile gid="217"/>
   <tile gid="217"/>
   <tile gid="217"/>
   <tile gid="217"/>
   <tile gid="217"/>
   <tile gid="217"/>
   <tile gid="217"/>
   <tile gid="217"/>
   <tile gid="217"/>
   <tile gid="217"/>
   <tile gid="217"/>
   <tile gid="217"/>
   <tile gid="217"/>
   <tile gid="217"/>
   <tile gid="217"/>
   <tile gid="217"/>
   <tile gid="217"/>
   <tile gid="217"/>
   <tile gid="217"/>
   <tile gid="217"/>
   <tile gid="217"/>
   <tile gid="217"/>
   <tile gid="217"/>
   <tile gid="217"/>
   <tile gid="217"/>
   <tile gid="217"/>
   <tile gid="217"/>
   <tile gid="217"/>
   <tile gid="217"/>
   <tile gid="217"/>
   <tile gid="34"/>
   <tile gid="34"/>
   <tile gid="34"/>
   <tile gid="217"/>
   <tile gid="217"/>
   <tile gid="217"/>
   <tile gid="217"/>
   <tile gid="217"/>
   <tile gid="217"/>
   <tile gid="217"/>
   <tile gid="217"/>
   <tile gid="217"/>
   <tile gid="217"/>
   <tile gid="217"/>
   <tile gid="217"/>
   <tile gid="217"/>
   <tile gid="217"/>
   <tile gid="217"/>
   <tile gid="217"/>
   <tile gid="217"/>
   <tile gid="217"/>
   <tile gid="217"/>
   <tile gid="217"/>
   <tile gid="217"/>
   <tile gid="217"/>
   <tile gid="217"/>
   <tile gid="217"/>
   <tile gid="217"/>
   <tile gid="217"/>
   <tile gid="217"/>
   <tile gid="217"/>
   <tile gid="217"/>
   <tile gid="217"/>
   <tile gid="217"/>
   <tile gid="217"/>
   <tile gid="217"/>
   <tile gid="217"/>
   <tile gid="217"/>
   <tile gid="217"/>
   <tile gid="217"/>
   <tile gid="217"/>
   <tile gid="217"/>
   <tile gid="217"/>
   <tile gid="217"/>
   <tile gid="217"/>
   <tile gid="217"/>
   <tile gid="217"/>
   <tile gid="217"/>
   <tile gid="217"/>
   <tile gid="34"/>
   <tile gid="34"/>
   <tile gid="217"/>
   <tile gid="217"/>
   <tile gid="217"/>
   <tile gid="217"/>
   <tile gid="217"/>
   <tile gid="217"/>
   <tile gid="217"/>
   <tile gid="217"/>
   <tile gid="217"/>
   <tile gid="217"/>
   <tile gid="217"/>
   <tile gid="217"/>
   <tile gid="217"/>
   <tile gid="217"/>
   <tile gid="217"/>
   <tile gid="217"/>
   <tile gid="217"/>
   <tile gid="217"/>
   <tile gid="217"/>
   <tile gid="217"/>
   <tile gid="217"/>
   <tile gid="217"/>
   <tile gid="217"/>
   <tile gid="217"/>
   <tile gid="217"/>
   <tile gid="217"/>
   <tile gid="217"/>
   <tile gid="217"/>
   <tile gid="217"/>
   <tile gid="217"/>
   <tile gid="217"/>
   <tile gid="217"/>
   <tile gid="217"/>
   <tile gid="217"/>
   <tile gid="217"/>
   <tile gid="217"/>
   <tile gid="217"/>
   <tile gid="217"/>
   <tile gid="217"/>
   <tile gid="217"/>
   <tile gid="217"/>
   <tile gid="217"/>
   <tile gid="217"/>
   <tile gid="217"/>
   <tile gid="217"/>
   <tile gid="217"/>
   <tile gid="217"/>
   <tile gid="217"/>
   <tile gid="217"/>
   <tile gid="217"/>
   <tile gid="217"/>
   <tile gid="217"/>
   <tile gid="217"/>
   <tile gid="217"/>
   <tile gid="217"/>
   <tile gid="217"/>
   <tile gid="217"/>
   <tile gid="217"/>
   <tile gid="217"/>
   <tile gid="217"/>
   <tile gid="217"/>
   <tile gid="217"/>
   <tile gid="217"/>
   <tile gid="217"/>
   <tile gid="217"/>
   <tile gid="217"/>
   <tile gid="217"/>
   <tile gid="217"/>
   <tile gid="217"/>
   <tile gid="217"/>
   <tile gid="217"/>
   <tile gid="217"/>
   <tile gid="217"/>
   <tile gid="217"/>
   <tile gid="217"/>
   <tile gid="217"/>
   <tile gid="217"/>
   <tile gid="217"/>
   <tile gid="217"/>
   <tile gid="217"/>
   <tile gid="217"/>
   <tile gid="217"/>
   <tile gid="217"/>
   <tile gid="217"/>
   <tile gid="217"/>
   <tile gid="217"/>
   <tile gid="217"/>
   <tile gid="217"/>
   <tile gid="217"/>
   <tile gid="217"/>
   <tile gid="217"/>
   <tile gid="217"/>
   <tile gid="217"/>
   <tile gid="217"/>
   <tile gid="217"/>
   <tile gid="217"/>
   <tile gid="217"/>
   <tile gid="217"/>
   <tile gid="217"/>
   <tile gid="34"/>
   <tile gid="34"/>
   <tile gid="34"/>
   <tile gid="217"/>
   <tile gid="217"/>
   <tile gid="217"/>
   <tile gid="217"/>
   <tile gid="217"/>
   <tile gid="217"/>
   <tile gid="217"/>
   <tile gid="217"/>
   <tile gid="217"/>
   <tile gid="217"/>
   <tile gid="217"/>
   <tile gid="217"/>
   <tile gid="217"/>
   <tile gid="217"/>
   <tile gid="217"/>
   <tile gid="217"/>
   <tile gid="217"/>
   <tile gid="217"/>
   <tile gid="217"/>
   <tile gid="217"/>
   <tile gid="217"/>
   <tile gid="217"/>
   <tile gid="217"/>
   <tile gid="217"/>
   <tile gid="217"/>
   <tile gid="217"/>
   <tile gid="217"/>
   <tile gid="217"/>
   <tile gid="217"/>
   <tile gid="217"/>
   <tile gid="217"/>
   <tile gid="217"/>
   <tile gid="217"/>
   <tile gid="217"/>
   <tile gid="217"/>
   <tile gid="217"/>
   <tile gid="217"/>
   <tile gid="217"/>
   <tile gid="217"/>
   <tile gid="217"/>
   <tile gid="217"/>
   <tile gid="217"/>
   <tile gid="217"/>
   <tile gid="217"/>
   <tile gid="217"/>
   <tile gid="217"/>
   <tile gid="34"/>
   <tile gid="34"/>
   <tile gid="217"/>
   <tile gid="217"/>
   <tile gid="217"/>
   <tile gid="217"/>
   <tile gid="217"/>
   <tile gid="217"/>
   <tile gid="217"/>
   <tile gid="217"/>
   <tile gid="217"/>
   <tile gid="217"/>
   <tile gid="217"/>
   <tile gid="217"/>
   <tile gid="217"/>
   <tile gid="217"/>
   <tile gid="217"/>
   <tile gid="217"/>
   <tile gid="217"/>
   <tile gid="217"/>
   <tile gid="217"/>
   <tile gid="217"/>
   <tile gid="217"/>
   <tile gid="217"/>
   <tile gid="217"/>
   <tile gid="217"/>
   <tile gid="217"/>
   <tile gid="217"/>
   <tile gid="217"/>
   <tile gid="217"/>
   <tile gid="217"/>
   <tile gid="217"/>
   <tile gid="217"/>
   <tile gid="217"/>
   <tile gid="217"/>
   <tile gid="217"/>
   <tile gid="217"/>
   <tile gid="217"/>
   <tile gid="217"/>
   <tile gid="217"/>
   <tile gid="217"/>
   <tile gid="217"/>
   <tile gid="217"/>
   <tile gid="217"/>
   <tile gid="217"/>
   <tile gid="217"/>
   <tile gid="217"/>
   <tile gid="217"/>
   <tile gid="217"/>
   <tile gid="217"/>
   <tile gid="217"/>
   <tile gid="217"/>
   <tile gid="217"/>
   <tile gid="217"/>
   <tile gid="217"/>
   <tile gid="217"/>
   <tile gid="217"/>
   <tile gid="217"/>
   <tile gid="217"/>
   <tile gid="217"/>
   <tile gid="217"/>
   <tile gid="217"/>
   <tile gid="217"/>
   <tile gid="217"/>
   <tile gid="217"/>
   <tile gid="217"/>
   <tile gid="217"/>
   <tile gid="217"/>
   <tile gid="217"/>
   <tile gid="217"/>
   <tile gid="217"/>
   <tile gid="217"/>
   <tile gid="217"/>
   <tile gid="217"/>
   <tile gid="217"/>
   <tile gid="217"/>
   <tile gid="217"/>
   <tile gid="217"/>
   <tile gid="217"/>
   <tile gid="217"/>
   <tile gid="217"/>
   <tile gid="217"/>
   <tile gid="217"/>
   <tile gid="217"/>
   <tile gid="217"/>
   <tile gid="217"/>
   <tile gid="217"/>
   <tile gid="217"/>
   <tile gid="217"/>
   <tile gid="217"/>
   <tile gid="217"/>
   <tile gid="217"/>
   <tile gid="217"/>
   <tile gid="217"/>
   <tile gid="217"/>
   <tile gid="217"/>
   <tile gid="217"/>
   <tile gid="217"/>
   <tile gid="217"/>
   <tile gid="217"/>
   <tile gid="217"/>
  </data>
 </layer>
 <layer id="8" name="Map2" width="150" height="82">
  <properties>
   <property name="Draw" type="bool" value="true"/>
  </properties>
  <data>
   <tile gid="5026"/>
   <tile gid="5026"/>
   <tile gid="5026"/>
   <tile gid="5025"/>
   <tile gid="5026"/>
   <tile gid="5026"/>
   <tile gid="5026"/>
   <tile gid="5026"/>
   <tile gid="5026"/>
   <tile gid="5026"/>
   <tile gid="5026"/>
   <tile gid="5026"/>
   <tile gid="5026"/>
   <tile gid="5026"/>
   <tile gid="5026"/>
   <tile gid="5026"/>
   <tile gid="5026"/>
   <tile gid="5026"/>
   <tile gid="5026"/>
   <tile gid="5026"/>
   <tile gid="5026"/>
   <tile gid="5026"/>
   <tile gid="5026"/>
   <tile gid="5026"/>
   <tile gid="5026"/>
   <tile gid="5026"/>
   <tile gid="5026"/>
   <tile gid="5026"/>
   <tile gid="5026"/>
   <tile gid="5026"/>
   <tile gid="5026"/>
   <tile gid="5026"/>
   <tile gid="5027"/>
   <tile gid="217"/>
   <tile gid="217"/>
   <tile gid="217"/>
   <tile gid="5025"/>
   <tile gid="5026"/>
   <tile gid="5026"/>
   <tile gid="5026"/>
   <tile gid="5026"/>
   <tile gid="5026"/>
   <tile gid="5026"/>
   <tile gid="5026"/>
   <tile gid="5026"/>
   <tile gid="5026"/>
   <tile gid="5026"/>
   <tile gid="5026"/>
   <tile gid="5026"/>
   <tile gid="5027"/>
   <tile gid="217"/>
   <tile gid="217"/>
   <tile gid="217"/>
   <tile gid="217"/>
   <tile gid="217"/>
   <tile gid="217"/>
   <tile gid="217"/>
   <tile gid="217"/>
   <tile gid="217"/>
   <tile gid="217"/>
   <tile gid="217"/>
   <tile gid="217"/>
   <tile gid="217"/>
   <tile gid="217"/>
   <tile gid="217"/>
   <tile gid="217"/>
   <tile gid="217"/>
   <tile gid="217"/>
   <tile gid="217"/>
   <tile gid="217"/>
   <tile gid="5025"/>
   <tile/>
   <tile/>
   <tile/>
   <tile/>
   <tile/>
   <tile/>
   <tile/>
   <tile/>
   <tile/>
   <tile/>
   <tile/>
   <tile/>
   <tile/>
   <tile/>
   <tile/>
   <tile/>
   <tile/>
   <tile/>
   <tile/>
   <tile/>
   <tile/>
   <tile/>
   <tile gid="5027"/>
   <tile gid="217"/>
   <tile gid="217"/>
   <tile gid="217"/>
   <tile gid="5025"/>
   <tile/>
   <tile/>
   <tile/>
   <tile/>
   <tile/>
   <tile/>
   <tile/>
   <tile/>
   <tile/>
   <tile/>
   <tile/>
   <tile/>
   <tile/>
   <tile/>
   <tile/>
   <tile/>
   <tile/>
   <tile/>
   <tile/>
   <tile/>
   <tile/>
   <tile/>
   <tile/>
   <tile/>
   <tile/>
   <tile/>
   <tile/>
   <tile/>
   <tile/>
   <tile/>
   <tile/>
   <tile/>
   <tile/>
   <tile/>
   <tile/>
   <tile/>
   <tile/>
   <tile/>
   <tile/>
   <tile/>
   <tile/>
   <tile/>
   <tile/>
   <tile/>
   <tile/>
   <tile/>
   <tile/>
   <tile/>
   <tile gid="5027"/>
   <tile gid="217"/>
   <tile gid="217"/>
   <tile gid="217"/>
   <tile gid="5058"/>
   <tile gid="5058"/>
   <tile gid="5058"/>
   <tile gid="5057"/>
   <tile gid="5058"/>
   <tile gid="5058"/>
   <tile gid="5058"/>
   <tile gid="5058"/>
   <tile gid="5058"/>
   <tile gid="5058"/>
   <tile gid="5058"/>
   <tile gid="5058"/>
   <tile gid="5058"/>
   <tile gid="5058"/>
   <tile gid="5058"/>
   <tile gid="5058"/>
   <tile gid="5058"/>
   <tile gid="5058"/>
   <tile gid="5058"/>
   <tile gid="5058"/>
   <tile gid="5058"/>
   <tile gid="5058"/>
   <tile gid="5058"/>
   <tile gid="5058"/>
   <tile gid="5058"/>
   <tile gid="5058"/>
   <tile gid="5058"/>
   <tile gid="5058"/>
   <tile gid="5058"/>
   <tile gid="5058"/>
   <tile gid="5058"/>
   <tile gid="5058"/>
   <tile gid="5059"/>
   <tile gid="217"/>
   <tile gid="217"/>
   <tile gid="217"/>
   <tile gid="5057"/>
   <tile gid="5058"/>
   <tile gid="5058"/>
   <tile gid="5058"/>
   <tile gid="5058"/>
   <tile gid="5058"/>
   <tile gid="5058"/>
   <tile gid="5058"/>
   <tile gid="5058"/>
   <tile gid="5058"/>
   <tile gid="5058"/>
   <tile gid="5058"/>
   <tile gid="5058"/>
   <tile gid="5059"/>
   <tile gid="217"/>
   <tile gid="217"/>
   <tile gid="217"/>
   <tile gid="217"/>
   <tile gid="217"/>
   <tile gid="217"/>
   <tile gid="217"/>
   <tile gid="217"/>
   <tile gid="217"/>
   <tile gid="217"/>
   <tile gid="217"/>
   <tile gid="217"/>
   <tile gid="217"/>
   <tile gid="217"/>
   <tile gid="217"/>
   <tile gid="217"/>
   <tile gid="217"/>
   <tile gid="217"/>
   <tile gid="217"/>
   <tile gid="217"/>
   <tile gid="5057"/>
   <tile/>
   <tile/>
   <tile/>
   <tile/>
   <tile/>
   <tile/>
   <tile/>
   <tile/>
   <tile/>
   <tile/>
   <tile/>
   <tile/>
   <tile/>
   <tile/>
   <tile/>
   <tile/>
   <tile/>
   <tile/>
   <tile/>
   <tile/>
   <tile/>
   <tile/>
   <tile gid="5059"/>
   <tile gid="217"/>
   <tile gid="217"/>
   <tile gid="217"/>
   <tile gid="5057"/>
   <tile/>
   <tile/>
   <tile/>
   <tile/>
   <tile/>
   <tile/>
   <tile/>
   <tile/>
   <tile/>
   <tile/>
   <tile/>
   <tile/>
   <tile/>
   <tile/>
   <tile/>
   <tile/>
   <tile/>
   <tile/>
   <tile/>
   <tile/>
   <tile/>
   <tile/>
   <tile/>
   <tile/>
   <tile/>
   <tile/>
   <tile/>
   <tile/>
   <tile/>
   <tile/>
   <tile/>
   <tile/>
   <tile/>
   <tile/>
   <tile/>
   <tile/>
   <tile/>
   <tile/>
   <tile/>
   <tile/>
   <tile/>
   <tile/>
   <tile/>
   <tile/>
   <tile/>
   <tile/>
   <tile/>
   <tile/>
   <tile gid="5059"/>
   <tile gid="217"/>
   <tile gid="217"/>
   <tile gid="217"/>
   <tile gid="217"/>
   <tile gid="217"/>
   <tile gid="217"/>
   <tile gid="5089"/>
   <tile gid="5090"/>
   <tile gid="5090"/>
   <tile gid="5090"/>
   <tile gid="5090"/>
   <tile gid="5090"/>
   <tile gid="5090"/>
   <tile gid="5090"/>
   <tile gid="5090"/>
   <tile gid="5090"/>
   <tile gid="5090"/>
   <tile gid="5090"/>
   <tile gid="5090"/>
   <tile gid="5090"/>
   <tile gid="5090"/>
   <tile gid="5090"/>
   <tile gid="5090"/>
   <tile gid="5090"/>
   <tile gid="5090"/>
   <tile gid="5090"/>
   <tile gid="5090"/>
   <tile gid="5090"/>
   <tile gid="5090"/>
   <tile gid="5090"/>
   <tile gid="5090"/>
   <tile gid="5090"/>
   <tile gid="5090"/>
   <tile gid="5090"/>
   <tile gid="5090"/>
   <tile gid="5091"/>
   <tile gid="217"/>
   <tile gid="217"/>
   <tile gid="217"/>
   <tile gid="5089"/>
   <tile gid="5090"/>
   <tile gid="5090"/>
   <tile gid="5090"/>
   <tile gid="5090"/>
   <tile gid="5090"/>
   <tile gid="5090"/>
   <tile gid="5090"/>
   <tile gid="5090"/>
   <tile gid="5090"/>
   <tile gid="5090"/>
   <tile gid="5090"/>
   <tile gid="5090"/>
   <tile gid="5091"/>
   <tile gid="217"/>
   <tile gid="217"/>
   <tile gid="217"/>
   <tile gid="217"/>
   <tile gid="217"/>
   <tile gid="217"/>
   <tile gid="217"/>
   <tile gid="217"/>
   <tile gid="217"/>
   <tile gid="217"/>
   <tile gid="217"/>
   <tile gid="217"/>
   <tile gid="217"/>
   <tile gid="217"/>
   <tile gid="217"/>
   <tile gid="217"/>
   <tile gid="217"/>
   <tile gid="217"/>
   <tile gid="217"/>
   <tile gid="217"/>
   <tile gid="5089"/>
   <tile/>
   <tile/>
   <tile/>
   <tile/>
   <tile/>
   <tile/>
   <tile/>
   <tile/>
   <tile/>
   <tile/>
   <tile/>
   <tile/>
   <tile/>
   <tile/>
   <tile/>
   <tile/>
   <tile/>
   <tile/>
   <tile/>
   <tile/>
   <tile/>
   <tile/>
   <tile gid="5091"/>
   <tile gid="217"/>
   <tile gid="217"/>
   <tile gid="217"/>
   <tile gid="5089"/>
   <tile/>
   <tile/>
   <tile/>
   <tile/>
   <tile/>
   <tile/>
   <tile/>
   <tile/>
   <tile/>
   <tile/>
   <tile/>
   <tile/>
   <tile/>
   <tile/>
   <tile/>
   <tile/>
   <tile/>
   <tile/>
   <tile/>
   <tile/>
   <tile/>
   <tile/>
   <tile/>
   <tile/>
   <tile/>
   <tile/>
   <tile/>
   <tile/>
   <tile/>
   <tile/>
   <tile/>
   <tile/>
   <tile/>
   <tile/>
   <tile/>
   <tile/>
   <tile/>
   <tile/>
   <tile/>
   <tile/>
   <tile/>
   <tile/>
   <tile/>
   <tile/>
   <tile/>
   <tile/>
   <tile/>
   <tile/>
   <tile gid="5091"/>
   <tile gid="217"/>
   <tile gid="217"/>
   <tile gid="217"/>
   <tile gid="217"/>
   <tile gid="217"/>
   <tile gid="217"/>
   <tile/>
   <tile/>
   <tile/>
   <tile/>
   <tile/>
   <tile/>
   <tile/>
   <tile/>
   <tile/>
   <tile/>
   <tile/>
   <tile/>
   <tile/>
   <tile/>
   <tile/>
   <tile/>
   <tile/>
   <tile/>
   <tile/>
   <tile/>
   <tile/>
   <tile/>
   <tile/>
   <tile/>
   <tile/>
   <tile/>
   <tile/>
   <tile/>
   <tile/>
   <tile/>
   <tile gid="217"/>
   <tile gid="217"/>
   <tile gid="217"/>
   <tile/>
   <tile/>
   <tile/>
   <tile/>
   <tile/>
   <tile/>
   <tile/>
   <tile/>
   <tile/>
   <tile/>
   <tile/>
   <tile/>
   <tile/>
   <tile/>
   <tile gid="217"/>
   <tile gid="217"/>
   <tile gid="217"/>
   <tile gid="217"/>
   <tile gid="217"/>
   <tile gid="217"/>
   <tile gid="217"/>
   <tile gid="217"/>
   <tile gid="217"/>
   <tile gid="217"/>
   <tile gid="217"/>
   <tile gid="217"/>
   <tile gid="217"/>
   <tile gid="217"/>
   <tile gid="217"/>
   <tile gid="217"/>
   <tile gid="217"/>
   <tile gid="217"/>
   <tile gid="217"/>
   <tile gid="217"/>
   <tile/>
   <tile/>
   <tile/>
   <tile/>
   <tile/>
   <tile/>
   <tile/>
   <tile/>
   <tile/>
   <tile/>
   <tile/>
   <tile/>
   <tile/>
   <tile/>
   <tile/>
   <tile/>
   <tile/>
   <tile/>
   <tile/>
   <tile/>
   <tile/>
   <tile/>
   <tile/>
   <tile/>
   <tile gid="217"/>
   <tile gid="217"/>
   <tile gid="217"/>
   <tile/>
   <tile/>
   <tile/>
   <tile/>
   <tile/>
   <tile/>
   <tile/>
   <tile/>
   <tile/>
   <tile/>
   <tile/>
   <tile/>
   <tile/>
   <tile/>
   <tile/>
   <tile/>
   <tile/>
   <tile/>
   <tile/>
   <tile/>
   <tile/>
   <tile/>
   <tile/>
   <tile/>
   <tile/>
   <tile/>
   <tile/>
   <tile/>
   <tile/>
   <tile/>
   <tile/>
   <tile/>
   <tile/>
   <tile/>
   <tile/>
   <tile/>
   <tile/>
   <tile/>
   <tile/>
   <tile/>
   <tile/>
   <tile/>
   <tile/>
   <tile/>
   <tile/>
   <tile/>
   <tile/>
   <tile/>
   <tile/>
   <tile/>
   <tile gid="217"/>
   <tile gid="217"/>
   <tile gid="217"/>
   <tile gid="217"/>
   <tile gid="217"/>
   <tile gid="217"/>
   <tile/>
   <tile/>
   <tile/>
   <tile/>
   <tile/>
   <tile/>
   <tile/>
   <tile/>
   <tile/>
   <tile/>
   <tile/>
   <tile/>
   <tile/>
   <tile/>
   <tile/>
   <tile/>
   <tile/>
   <tile/>
   <tile/>
   <tile/>
   <tile/>
   <tile/>
   <tile/>
   <tile/>
   <tile/>
   <tile/>
   <tile/>
   <tile/>
   <tile/>
   <tile/>
   <tile gid="217"/>
   <tile gid="217"/>
   <tile gid="217"/>
   <tile/>
   <tile/>
   <tile/>
   <tile/>
   <tile/>
   <tile/>
   <tile/>
   <tile/>
   <tile/>
   <tile/>
   <tile/>
   <tile/>
   <tile/>
   <tile/>
   <tile gid="217"/>
   <tile gid="217"/>
   <tile gid="217"/>
   <tile gid="217"/>
   <tile gid="217"/>
   <tile gid="217"/>
   <tile gid="217"/>
   <tile gid="217"/>
   <tile gid="217"/>
   <tile gid="217"/>
   <tile gid="217"/>
   <tile gid="217"/>
   <tile gid="217"/>
   <tile gid="217"/>
   <tile gid="217"/>
   <tile gid="217"/>
   <tile gid="217"/>
   <tile gid="217"/>
   <tile gid="217"/>
   <tile gid="217"/>
   <tile/>
   <tile/>
   <tile/>
   <tile/>
   <tile/>
   <tile/>
   <tile/>
   <tile/>
   <tile/>
   <tile/>
   <tile/>
   <tile/>
   <tile/>
   <tile/>
   <tile/>
   <tile/>
   <tile/>
   <tile/>
   <tile/>
   <tile/>
   <tile/>
   <tile/>
   <tile/>
   <tile/>
   <tile gid="217"/>
   <tile gid="217"/>
   <tile gid="217"/>
   <tile/>
   <tile/>
   <tile/>
   <tile/>
   <tile/>
   <tile/>
   <tile/>
   <tile/>
   <tile/>
   <tile/>
   <tile/>
   <tile/>
   <tile/>
   <tile/>
   <tile/>
   <tile/>
   <tile/>
   <tile/>
   <tile/>
   <tile/>
   <tile/>
   <tile/>
   <tile/>
   <tile/>
   <tile/>
   <tile/>
   <tile/>
   <tile/>
   <tile/>
   <tile/>
   <tile/>
   <tile/>
   <tile/>
   <tile/>
   <tile/>
   <tile/>
   <tile/>
   <tile/>
   <tile/>
   <tile/>
   <tile/>
   <tile/>
   <tile/>
   <tile/>
   <tile/>
   <tile/>
   <tile/>
   <tile/>
   <tile/>
   <tile/>
   <tile gid="217"/>
   <tile gid="217"/>
   <tile gid="217"/>
   <tile gid="217"/>
   <tile gid="217"/>
   <tile gid="217"/>
   <tile/>
   <tile/>
   <tile/>
   <tile/>
   <tile/>
   <tile/>
   <tile/>
   <tile/>
   <tile/>
   <tile/>
   <tile/>
   <tile/>
   <tile/>
   <tile/>
   <tile/>
   <tile/>
   <tile/>
   <tile/>
   <tile/>
   <tile/>
   <tile/>
   <tile/>
   <tile/>
   <tile/>
   <tile/>
   <tile/>
   <tile/>
   <tile/>
   <tile/>
   <tile/>
   <tile gid="5025"/>
   <tile gid="5026"/>
   <tile gid="5027"/>
   <tile/>
   <tile/>
   <tile/>
   <tile/>
   <tile/>
   <tile/>
   <tile/>
   <tile/>
   <tile/>
   <tile/>
   <tile/>
   <tile/>
   <tile/>
   <tile/>
   <tile gid="217"/>
   <tile gid="217"/>
   <tile gid="217"/>
   <tile gid="217"/>
   <tile gid="217"/>
   <tile gid="217"/>
   <tile gid="217"/>
   <tile gid="217"/>
   <tile gid="217"/>
   <tile gid="217"/>
   <tile gid="217"/>
   <tile gid="217"/>
   <tile gid="217"/>
   <tile gid="217"/>
   <tile gid="217"/>
   <tile gid="217"/>
   <tile gid="217"/>
   <tile gid="217"/>
   <tile gid="217"/>
   <tile gid="217"/>
   <tile/>
   <tile/>
   <tile/>
   <tile/>
   <tile/>
   <tile/>
   <tile/>
   <tile/>
   <tile/>
   <tile/>
   <tile/>
   <tile/>
   <tile/>
   <tile/>
   <tile/>
   <tile/>
   <tile/>
   <tile/>
   <tile/>
   <tile/>
   <tile/>
   <tile/>
   <tile/>
   <tile/>
   <tile gid="217"/>
   <tile gid="217"/>
   <tile gid="217"/>
   <tile/>
   <tile/>
   <tile/>
   <tile/>
   <tile/>
   <tile/>
   <tile/>
   <tile/>
   <tile/>
   <tile/>
   <tile/>
   <tile/>
   <tile/>
   <tile/>
   <tile/>
   <tile/>
   <tile/>
   <tile/>
   <tile/>
   <tile/>
   <tile/>
   <tile/>
   <tile/>
   <tile/>
   <tile/>
   <tile/>
   <tile/>
   <tile/>
   <tile/>
   <tile/>
   <tile/>
   <tile/>
   <tile/>
   <tile/>
   <tile/>
   <tile/>
   <tile/>
   <tile/>
   <tile/>
   <tile/>
   <tile/>
   <tile/>
   <tile/>
   <tile/>
   <tile/>
   <tile/>
   <tile/>
   <tile/>
   <tile/>
   <tile/>
   <tile gid="217"/>
   <tile gid="217"/>
   <tile gid="217"/>
   <tile gid="217"/>
   <tile gid="217"/>
   <tile gid="217"/>
   <tile/>
   <tile/>
   <tile/>
   <tile/>
   <tile/>
   <tile/>
   <tile/>
   <tile/>
   <tile/>
   <tile/>
   <tile/>
   <tile/>
   <tile/>
   <tile/>
   <tile/>
   <tile/>
   <tile/>
   <tile/>
   <tile/>
   <tile/>
   <tile/>
   <tile/>
   <tile/>
   <tile/>
   <tile/>
   <tile/>
   <tile/>
   <tile/>
   <tile/>
   <tile/>
   <tile gid="5057"/>
   <tile gid="5058"/>
   <tile gid="5059"/>
   <tile/>
   <tile/>
   <tile/>
   <tile/>
   <tile/>
   <tile/>
   <tile/>
   <tile/>
   <tile/>
   <tile/>
   <tile/>
   <tile/>
   <tile/>
   <tile/>
   <tile gid="217"/>
   <tile gid="217"/>
   <tile gid="217"/>
   <tile gid="217"/>
   <tile gid="217"/>
   <tile gid="217"/>
   <tile gid="217"/>
   <tile gid="217"/>
   <tile gid="217"/>
   <tile gid="217"/>
   <tile gid="217"/>
   <tile gid="217"/>
   <tile gid="217"/>
   <tile gid="217"/>
   <tile gid="217"/>
   <tile gid="217"/>
   <tile gid="217"/>
   <tile gid="217"/>
   <tile gid="217"/>
   <tile gid="217"/>
   <tile/>
   <tile/>
   <tile/>
   <tile/>
   <tile/>
   <tile/>
   <tile/>
   <tile/>
   <tile/>
   <tile/>
   <tile/>
   <tile/>
   <tile/>
   <tile/>
   <tile/>
   <tile/>
   <tile/>
   <tile/>
   <tile/>
   <tile/>
   <tile/>
   <tile/>
   <tile/>
   <tile/>
   <tile gid="5025"/>
   <tile gid="5026"/>
   <tile gid="5027"/>
   <tile/>
   <tile/>
   <tile/>
   <tile/>
   <tile/>
   <tile/>
   <tile/>
   <tile/>
   <tile/>
   <tile/>
   <tile/>
   <tile/>
   <tile/>
   <tile/>
   <tile/>
   <tile/>
   <tile/>
   <tile/>
   <tile/>
   <tile/>
   <tile/>
   <tile/>
   <tile/>
   <tile/>
   <tile/>
   <tile/>
   <tile/>
   <tile/>
   <tile/>
   <tile/>
   <tile/>
   <tile/>
   <tile/>
   <tile/>
   <tile/>
   <tile/>
   <tile/>
   <tile/>
   <tile/>
   <tile/>
   <tile/>
   <tile/>
   <tile/>
   <tile/>
   <tile/>
   <tile/>
   <tile/>
   <tile/>
   <tile/>
   <tile/>
   <tile gid="217"/>
   <tile gid="217"/>
   <tile gid="217"/>
   <tile gid="217"/>
   <tile gid="217"/>
   <tile gid="217"/>
   <tile/>
   <tile/>
   <tile/>
   <tile/>
   <tile/>
   <tile/>
   <tile/>
   <tile/>
   <tile/>
   <tile/>
   <tile/>
   <tile/>
   <tile/>
   <tile/>
   <tile/>
   <tile/>
   <tile/>
   <tile/>
   <tile/>
   <tile/>
   <tile/>
   <tile/>
   <tile/>
   <tile/>
   <tile/>
   <tile/>
   <tile/>
   <tile/>
   <tile/>
   <tile/>
   <tile gid="5089"/>
   <tile gid="5090"/>
   <tile gid="5091"/>
   <tile/>
   <tile/>
   <tile/>
   <tile/>
   <tile/>
   <tile/>
   <tile/>
   <tile/>
   <tile/>
   <tile/>
   <tile/>
   <tile/>
   <tile/>
   <tile/>
   <tile gid="217"/>
   <tile gid="217"/>
   <tile gid="217"/>
   <tile gid="217"/>
   <tile gid="217"/>
   <tile gid="217"/>
   <tile gid="217"/>
   <tile gid="217"/>
   <tile gid="217"/>
   <tile gid="217"/>
   <tile gid="217"/>
   <tile gid="217"/>
   <tile gid="217"/>
   <tile gid="217"/>
   <tile gid="217"/>
   <tile gid="217"/>
   <tile gid="217"/>
   <tile gid="217"/>
   <tile gid="217"/>
   <tile gid="217"/>
   <tile/>
   <tile/>
   <tile/>
   <tile/>
   <tile/>
   <tile/>
   <tile/>
   <tile/>
   <tile/>
   <tile/>
   <tile/>
   <tile/>
   <tile/>
   <tile/>
   <tile/>
   <tile/>
   <tile/>
   <tile/>
   <tile/>
   <tile/>
   <tile/>
   <tile/>
   <tile/>
   <tile/>
   <tile gid="5057"/>
   <tile gid="5058"/>
   <tile gid="5059"/>
   <tile/>
   <tile/>
   <tile/>
   <tile/>
   <tile/>
   <tile/>
   <tile/>
   <tile/>
   <tile/>
   <tile/>
   <tile/>
   <tile/>
   <tile/>
   <tile/>
   <tile/>
   <tile/>
   <tile/>
   <tile/>
   <tile/>
   <tile/>
   <tile/>
   <tile/>
   <tile/>
   <tile/>
   <tile/>
   <tile/>
   <tile/>
   <tile/>
   <tile/>
   <tile/>
   <tile/>
   <tile/>
   <tile/>
   <tile/>
   <tile/>
   <tile/>
   <tile/>
   <tile/>
   <tile/>
   <tile/>
   <tile/>
   <tile/>
   <tile/>
   <tile/>
   <tile/>
   <tile/>
   <tile/>
   <tile/>
   <tile/>
   <tile/>
   <tile gid="217"/>
   <tile gid="217"/>
   <tile gid="217"/>
   <tile gid="217"/>
   <tile gid="217"/>
   <tile gid="217"/>
   <tile/>
   <tile/>
   <tile/>
   <tile/>
   <tile/>
   <tile/>
   <tile/>
   <tile/>
   <tile/>
   <tile/>
   <tile/>
   <tile/>
   <tile/>
   <tile/>
   <tile/>
   <tile/>
   <tile/>
   <tile/>
   <tile/>
   <tile/>
   <tile/>
   <tile/>
   <tile/>
   <tile/>
   <tile/>
   <tile/>
   <tile/>
   <tile/>
   <tile/>
   <tile/>
   <tile/>
   <tile/>
   <tile/>
   <tile/>
   <tile/>
   <tile/>
   <tile/>
   <tile/>
   <tile/>
   <tile/>
   <tile/>
   <tile/>
   <tile/>
   <tile/>
   <tile/>
   <tile/>
   <tile/>
   <tile gid="217"/>
   <tile gid="217"/>
   <tile gid="217"/>
   <tile gid="217"/>
   <tile gid="217"/>
   <tile gid="217"/>
   <tile gid="217"/>
   <tile gid="217"/>
   <tile gid="217"/>
   <tile gid="217"/>
   <tile gid="217"/>
   <tile gid="217"/>
   <tile gid="217"/>
   <tile gid="217"/>
   <tile gid="217"/>
   <tile gid="217"/>
   <tile gid="217"/>
   <tile gid="217"/>
   <tile gid="217"/>
   <tile gid="217"/>
   <tile/>
   <tile/>
   <tile/>
   <tile/>
   <tile/>
   <tile/>
   <tile/>
   <tile/>
   <tile/>
   <tile/>
   <tile/>
   <tile/>
   <tile/>
   <tile/>
   <tile/>
   <tile/>
   <tile/>
   <tile/>
   <tile/>
   <tile/>
   <tile/>
   <tile/>
   <tile/>
   <tile/>
   <tile gid="5089"/>
   <tile gid="5090"/>
   <tile gid="5091"/>
   <tile/>
   <tile/>
   <tile/>
   <tile/>
   <tile/>
   <tile/>
   <tile/>
   <tile/>
   <tile/>
   <tile/>
   <tile/>
   <tile/>
   <tile/>
   <tile/>
   <tile/>
   <tile/>
   <tile/>
   <tile/>
   <tile/>
   <tile/>
   <tile/>
   <tile/>
   <tile/>
   <tile/>
   <tile/>
   <tile/>
   <tile/>
   <tile/>
   <tile/>
   <tile/>
   <tile/>
   <tile/>
   <tile/>
   <tile/>
   <tile/>
   <tile/>
   <tile/>
   <tile/>
   <tile/>
   <tile/>
   <tile/>
   <tile/>
   <tile/>
   <tile/>
   <tile/>
   <tile/>
   <tile/>
   <tile/>
   <tile/>
   <tile/>
   <tile gid="217"/>
   <tile gid="217"/>
   <tile gid="217"/>
   <tile gid="217"/>
   <tile gid="217"/>
   <tile gid="217"/>
   <tile/>
   <tile/>
   <tile/>
   <tile/>
   <tile/>
   <tile/>
   <tile/>
   <tile/>
   <tile/>
   <tile/>
   <tile/>
   <tile/>
   <tile/>
   <tile/>
   <tile/>
   <tile/>
   <tile/>
   <tile/>
   <tile/>
   <tile/>
   <tile/>
   <tile/>
   <tile/>
   <tile/>
   <tile/>
   <tile/>
   <tile/>
   <tile/>
   <tile/>
   <tile/>
   <tile/>
   <tile/>
   <tile/>
   <tile/>
   <tile/>
   <tile/>
   <tile/>
   <tile/>
   <tile/>
   <tile/>
   <tile/>
   <tile/>
   <tile/>
   <tile/>
   <tile/>
   <tile/>
   <tile/>
   <tile gid="217"/>
   <tile gid="217"/>
   <tile gid="217"/>
   <tile gid="217"/>
   <tile gid="217"/>
   <tile gid="217"/>
   <tile gid="217"/>
   <tile gid="217"/>
   <tile gid="217"/>
   <tile gid="217"/>
   <tile gid="217"/>
   <tile gid="217"/>
   <tile gid="217"/>
   <tile gid="217"/>
   <tile gid="217"/>
   <tile gid="217"/>
   <tile gid="217"/>
   <tile gid="217"/>
   <tile gid="217"/>
   <tile gid="217"/>
   <tile/>
   <tile/>
   <tile/>
   <tile/>
   <tile/>
   <tile/>
   <tile/>
   <tile/>
   <tile/>
   <tile/>
   <tile/>
   <tile/>
   <tile/>
   <tile/>
   <tile/>
   <tile/>
   <tile/>
   <tile/>
   <tile/>
   <tile/>
   <tile/>
   <tile/>
   <tile/>
   <tile/>
   <tile/>
   <tile/>
   <tile/>
   <tile/>
   <tile/>
   <tile/>
   <tile/>
   <tile/>
   <tile/>
   <tile/>
   <tile/>
   <tile/>
   <tile/>
   <tile/>
   <tile/>
   <tile/>
   <tile/>
   <tile/>
   <tile/>
   <tile/>
   <tile/>
   <tile/>
   <tile/>
   <tile/>
   <tile/>
   <tile/>
   <tile/>
   <tile/>
   <tile/>
   <tile/>
   <tile/>
   <tile/>
   <tile/>
   <tile/>
   <tile/>
   <tile/>
   <tile/>
   <tile/>
   <tile/>
   <tile/>
   <tile/>
   <tile/>
   <tile/>
   <tile/>
   <tile/>
   <tile/>
   <tile/>
   <tile/>
   <tile/>
   <tile/>
   <tile/>
   <tile/>
   <tile/>
   <tile gid="217"/>
   <tile gid="217"/>
   <tile gid="217"/>
   <tile gid="217"/>
   <tile gid="217"/>
   <tile gid="217"/>
   <tile/>
   <tile/>
   <tile/>
   <tile/>
   <tile/>
   <tile/>
   <tile/>
   <tile/>
   <tile/>
   <tile/>
   <tile/>
   <tile/>
   <tile/>
   <tile/>
   <tile/>
   <tile/>
   <tile/>
   <tile/>
   <tile/>
   <tile/>
   <tile/>
   <tile/>
   <tile/>
   <tile/>
   <tile/>
   <tile/>
   <tile/>
   <tile/>
   <tile/>
   <tile/>
   <tile/>
   <tile/>
   <tile/>
   <tile/>
   <tile/>
   <tile/>
   <tile/>
   <tile/>
   <tile/>
   <tile/>
   <tile/>
   <tile/>
   <tile/>
   <tile/>
   <tile/>
   <tile/>
   <tile/>
   <tile gid="217"/>
   <tile gid="217"/>
   <tile gid="217"/>
   <tile gid="217"/>
   <tile gid="217"/>
   <tile gid="217"/>
   <tile gid="217"/>
   <tile gid="217"/>
   <tile gid="217"/>
   <tile gid="217"/>
   <tile gid="217"/>
   <tile gid="217"/>
   <tile gid="217"/>
   <tile gid="217"/>
   <tile gid="217"/>
   <tile gid="217"/>
   <tile gid="217"/>
   <tile gid="217"/>
   <tile gid="217"/>
   <tile gid="217"/>
   <tile/>
   <tile/>
   <tile/>
   <tile/>
   <tile/>
   <tile/>
   <tile/>
   <tile/>
   <tile/>
   <tile/>
   <tile/>
   <tile/>
   <tile/>
   <tile/>
   <tile/>
   <tile/>
   <tile/>
   <tile/>
   <tile/>
   <tile/>
   <tile/>
   <tile/>
   <tile/>
   <tile/>
   <tile/>
   <tile/>
   <tile/>
   <tile/>
   <tile/>
   <tile/>
   <tile/>
   <tile/>
   <tile/>
   <tile/>
   <tile/>
   <tile/>
   <tile/>
   <tile/>
   <tile/>
   <tile/>
   <tile/>
   <tile/>
   <tile/>
   <tile/>
   <tile/>
   <tile/>
   <tile/>
   <tile/>
   <tile/>
   <tile/>
   <tile/>
   <tile/>
   <tile/>
   <tile/>
   <tile/>
   <tile/>
   <tile/>
   <tile/>
   <tile/>
   <tile/>
   <tile/>
   <tile/>
   <tile/>
   <tile/>
   <tile/>
   <tile/>
   <tile/>
   <tile/>
   <tile/>
   <tile/>
   <tile/>
   <tile/>
   <tile/>
   <tile/>
   <tile/>
   <tile/>
   <tile/>
   <tile gid="217"/>
   <tile gid="217"/>
   <tile gid="217"/>
   <tile gid="217"/>
   <tile gid="217"/>
   <tile gid="217"/>
   <tile/>
   <tile/>
   <tile/>
   <tile/>
   <tile/>
   <tile/>
   <tile/>
   <tile/>
   <tile/>
   <tile/>
   <tile/>
   <tile/>
   <tile/>
   <tile/>
   <tile/>
   <tile/>
   <tile/>
   <tile/>
   <tile/>
   <tile/>
   <tile/>
   <tile/>
   <tile/>
   <tile/>
   <tile/>
   <tile/>
   <tile/>
   <tile/>
   <tile/>
   <tile/>
   <tile gid="217"/>
   <tile gid="217"/>
   <tile gid="217"/>
   <tile/>
   <tile/>
   <tile/>
   <tile/>
   <tile/>
   <tile/>
   <tile/>
   <tile/>
   <tile/>
   <tile/>
   <tile/>
   <tile/>
   <tile/>
   <tile/>
   <tile gid="217"/>
   <tile gid="217"/>
   <tile gid="217"/>
   <tile gid="217"/>
   <tile gid="217"/>
   <tile gid="217"/>
   <tile gid="217"/>
   <tile gid="217"/>
   <tile gid="217"/>
   <tile gid="217"/>
   <tile gid="217"/>
   <tile gid="217"/>
   <tile gid="217"/>
   <tile gid="217"/>
   <tile gid="217"/>
   <tile gid="217"/>
   <tile gid="217"/>
   <tile gid="217"/>
   <tile gid="217"/>
   <tile gid="217"/>
   <tile/>
   <tile/>
   <tile/>
   <tile/>
   <tile/>
   <tile/>
   <tile/>
   <tile/>
   <tile/>
   <tile/>
   <tile/>
   <tile/>
   <tile/>
   <tile/>
   <tile/>
   <tile/>
   <tile/>
   <tile/>
   <tile/>
   <tile/>
   <tile/>
   <tile/>
   <tile/>
   <tile/>
   <tile/>
   <tile/>
   <tile/>
   <tile/>
   <tile/>
   <tile/>
   <tile/>
   <tile/>
   <tile/>
   <tile/>
   <tile/>
   <tile/>
   <tile/>
   <tile/>
   <tile/>
   <tile/>
   <tile/>
   <tile/>
   <tile/>
   <tile/>
   <tile/>
   <tile/>
   <tile/>
   <tile/>
   <tile/>
   <tile/>
   <tile/>
   <tile/>
   <tile/>
   <tile/>
   <tile/>
   <tile/>
   <tile/>
   <tile/>
   <tile/>
   <tile/>
   <tile/>
   <tile/>
   <tile/>
   <tile/>
   <tile/>
   <tile/>
   <tile/>
   <tile/>
   <tile/>
   <tile/>
   <tile/>
   <tile/>
   <tile/>
   <tile/>
   <tile/>
   <tile/>
   <tile/>
   <tile gid="217"/>
   <tile gid="217"/>
   <tile gid="217"/>
   <tile gid="217"/>
   <tile gid="217"/>
   <tile gid="217"/>
   <tile/>
   <tile/>
   <tile/>
   <tile/>
   <tile/>
   <tile/>
   <tile/>
   <tile/>
   <tile/>
   <tile/>
   <tile/>
   <tile/>
   <tile/>
   <tile/>
   <tile/>
   <tile/>
   <tile/>
   <tile/>
   <tile/>
   <tile/>
   <tile/>
   <tile/>
   <tile/>
   <tile/>
   <tile/>
   <tile/>
   <tile/>
   <tile/>
   <tile/>
   <tile/>
   <tile gid="217"/>
   <tile gid="217"/>
   <tile gid="217"/>
   <tile/>
   <tile/>
   <tile/>
   <tile/>
   <tile/>
   <tile/>
   <tile/>
   <tile/>
   <tile/>
   <tile/>
   <tile/>
   <tile/>
   <tile/>
   <tile/>
   <tile gid="217"/>
   <tile gid="217"/>
   <tile gid="217"/>
   <tile gid="217"/>
   <tile gid="217"/>
   <tile gid="217"/>
   <tile gid="217"/>
   <tile gid="217"/>
   <tile gid="217"/>
   <tile gid="217"/>
   <tile gid="217"/>
   <tile gid="217"/>
   <tile gid="217"/>
   <tile gid="217"/>
   <tile gid="217"/>
   <tile gid="217"/>
   <tile gid="217"/>
   <tile gid="217"/>
   <tile gid="217"/>
   <tile gid="217"/>
   <tile/>
   <tile/>
   <tile/>
   <tile/>
   <tile/>
   <tile/>
   <tile/>
   <tile/>
   <tile/>
   <tile/>
   <tile/>
   <tile/>
   <tile/>
   <tile/>
   <tile/>
   <tile/>
   <tile/>
   <tile/>
   <tile/>
   <tile/>
   <tile/>
   <tile/>
   <tile/>
   <tile/>
   <tile gid="217"/>
   <tile gid="217"/>
   <tile gid="217"/>
   <tile/>
   <tile/>
   <tile/>
   <tile/>
   <tile/>
   <tile/>
   <tile/>
   <tile/>
   <tile/>
   <tile/>
   <tile/>
   <tile/>
   <tile/>
   <tile/>
   <tile/>
   <tile/>
   <tile/>
   <tile/>
   <tile/>
   <tile/>
   <tile/>
   <tile/>
   <tile/>
   <tile/>
   <tile/>
   <tile/>
   <tile/>
   <tile/>
   <tile/>
   <tile/>
   <tile/>
   <tile/>
   <tile/>
   <tile/>
   <tile/>
   <tile/>
   <tile/>
   <tile/>
   <tile/>
   <tile/>
   <tile/>
   <tile/>
   <tile/>
   <tile/>
   <tile/>
   <tile/>
   <tile/>
   <tile/>
   <tile/>
   <tile/>
   <tile gid="217"/>
   <tile gid="217"/>
   <tile gid="217"/>
   <tile gid="217"/>
   <tile gid="217"/>
   <tile gid="217"/>
   <tile/>
   <tile/>
   <tile/>
   <tile/>
   <tile/>
   <tile/>
   <tile/>
   <tile/>
   <tile/>
   <tile/>
   <tile/>
   <tile/>
   <tile/>
   <tile/>
   <tile/>
   <tile/>
   <tile/>
   <tile/>
   <tile/>
   <tile/>
   <tile/>
   <tile/>
   <tile/>
   <tile/>
   <tile/>
   <tile/>
   <tile/>
   <tile/>
   <tile/>
   <tile/>
   <tile gid="217"/>
   <tile gid="217"/>
   <tile gid="217"/>
   <tile/>
   <tile/>
   <tile/>
   <tile/>
   <tile/>
   <tile/>
   <tile/>
   <tile/>
   <tile/>
   <tile/>
   <tile/>
   <tile/>
   <tile/>
   <tile/>
   <tile gid="217"/>
   <tile gid="217"/>
   <tile gid="217"/>
   <tile gid="217"/>
   <tile gid="217"/>
   <tile gid="217"/>
   <tile gid="217"/>
   <tile gid="217"/>
   <tile gid="217"/>
   <tile gid="217"/>
   <tile gid="217"/>
   <tile gid="217"/>
   <tile gid="217"/>
   <tile gid="217"/>
   <tile gid="217"/>
   <tile gid="217"/>
   <tile gid="217"/>
   <tile gid="217"/>
   <tile gid="217"/>
   <tile gid="217"/>
   <tile/>
   <tile/>
   <tile/>
   <tile/>
   <tile/>
   <tile/>
   <tile/>
   <tile/>
   <tile/>
   <tile/>
   <tile/>
   <tile/>
   <tile/>
   <tile/>
   <tile/>
   <tile/>
   <tile/>
   <tile/>
   <tile/>
   <tile/>
   <tile/>
   <tile/>
   <tile/>
   <tile/>
   <tile gid="217"/>
   <tile gid="217"/>
   <tile gid="217"/>
   <tile/>
   <tile/>
   <tile/>
   <tile/>
   <tile/>
   <tile/>
   <tile/>
   <tile/>
   <tile/>
   <tile/>
   <tile/>
   <tile/>
   <tile/>
   <tile/>
   <tile/>
   <tile/>
   <tile/>
   <tile/>
   <tile/>
   <tile/>
   <tile/>
   <tile/>
   <tile/>
   <tile/>
   <tile/>
   <tile/>
   <tile/>
   <tile/>
   <tile/>
   <tile/>
   <tile/>
   <tile/>
   <tile/>
   <tile/>
   <tile/>
   <tile/>
   <tile/>
   <tile/>
   <tile/>
   <tile/>
   <tile/>
   <tile/>
   <tile/>
   <tile/>
   <tile/>
   <tile/>
   <tile/>
   <tile/>
   <tile/>
   <tile/>
   <tile gid="217"/>
   <tile gid="217"/>
   <tile gid="217"/>
   <tile gid="217"/>
   <tile gid="217"/>
   <tile gid="217"/>
   <tile/>
   <tile/>
   <tile/>
   <tile/>
   <tile/>
   <tile/>
   <tile/>
   <tile/>
   <tile/>
   <tile/>
   <tile/>
   <tile/>
   <tile/>
   <tile/>
   <tile/>
   <tile/>
   <tile/>
   <tile/>
   <tile/>
   <tile/>
   <tile/>
   <tile/>
   <tile/>
   <tile/>
   <tile/>
   <tile/>
   <tile/>
   <tile/>
   <tile/>
   <tile/>
   <tile gid="217"/>
   <tile gid="217"/>
   <tile gid="217"/>
   <tile/>
   <tile/>
   <tile/>
   <tile/>
   <tile/>
   <tile/>
   <tile/>
   <tile/>
   <tile/>
   <tile/>
   <tile/>
   <tile/>
   <tile/>
   <tile/>
   <tile gid="217"/>
   <tile gid="217"/>
   <tile gid="217"/>
   <tile gid="217"/>
   <tile gid="217"/>
   <tile gid="217"/>
   <tile gid="217"/>
   <tile gid="217"/>
   <tile gid="217"/>
   <tile gid="217"/>
   <tile gid="217"/>
   <tile gid="217"/>
   <tile gid="217"/>
   <tile gid="217"/>
   <tile gid="217"/>
   <tile gid="217"/>
   <tile gid="217"/>
   <tile gid="217"/>
   <tile gid="217"/>
   <tile gid="217"/>
   <tile/>
   <tile/>
   <tile/>
   <tile/>
   <tile/>
   <tile/>
   <tile/>
   <tile/>
   <tile/>
   <tile/>
   <tile/>
   <tile/>
   <tile/>
   <tile/>
   <tile/>
   <tile/>
   <tile/>
   <tile/>
   <tile/>
   <tile/>
   <tile/>
   <tile/>
   <tile/>
   <tile/>
   <tile gid="217"/>
   <tile gid="217"/>
   <tile gid="217"/>
   <tile/>
   <tile/>
   <tile/>
   <tile/>
   <tile/>
   <tile/>
   <tile/>
   <tile/>
   <tile/>
   <tile/>
   <tile/>
   <tile/>
   <tile/>
   <tile/>
   <tile/>
   <tile/>
   <tile/>
   <tile/>
   <tile/>
   <tile/>
   <tile/>
   <tile/>
   <tile/>
   <tile/>
   <tile/>
   <tile/>
   <tile/>
   <tile/>
   <tile/>
   <tile/>
   <tile/>
   <tile/>
   <tile/>
   <tile/>
   <tile/>
   <tile/>
   <tile/>
   <tile/>
   <tile/>
   <tile/>
   <tile/>
   <tile/>
   <tile/>
   <tile/>
   <tile/>
   <tile/>
   <tile/>
   <tile/>
   <tile/>
   <tile/>
   <tile gid="217"/>
   <tile gid="217"/>
   <tile gid="217"/>
   <tile gid="217"/>
   <tile gid="217"/>
   <tile gid="217"/>
   <tile/>
   <tile/>
   <tile/>
   <tile/>
   <tile/>
   <tile/>
   <tile/>
   <tile/>
   <tile/>
   <tile/>
   <tile/>
   <tile/>
   <tile/>
   <tile/>
   <tile/>
   <tile/>
   <tile/>
   <tile/>
   <tile/>
   <tile/>
   <tile/>
   <tile/>
   <tile/>
   <tile/>
   <tile/>
   <tile/>
   <tile/>
   <tile/>
   <tile/>
   <tile/>
   <tile gid="217"/>
   <tile gid="217"/>
   <tile gid="217"/>
   <tile/>
   <tile/>
   <tile/>
   <tile/>
   <tile/>
   <tile/>
   <tile/>
   <tile/>
   <tile/>
   <tile/>
   <tile/>
   <tile/>
   <tile/>
   <tile/>
   <tile gid="217"/>
   <tile gid="217"/>
   <tile gid="217"/>
   <tile gid="217"/>
   <tile gid="217"/>
   <tile gid="217"/>
   <tile gid="217"/>
   <tile gid="217"/>
   <tile gid="217"/>
   <tile gid="217"/>
   <tile gid="217"/>
   <tile gid="217"/>
   <tile gid="217"/>
   <tile gid="217"/>
   <tile gid="217"/>
   <tile gid="217"/>
   <tile gid="217"/>
   <tile gid="217"/>
   <tile gid="217"/>
   <tile gid="217"/>
   <tile/>
   <tile/>
   <tile/>
   <tile/>
   <tile/>
   <tile/>
   <tile/>
   <tile/>
   <tile/>
   <tile/>
   <tile/>
   <tile/>
   <tile/>
   <tile/>
   <tile/>
   <tile/>
   <tile/>
   <tile/>
   <tile/>
   <tile/>
   <tile/>
   <tile/>
   <tile/>
   <tile/>
   <tile gid="217"/>
   <tile gid="217"/>
   <tile gid="217"/>
   <tile/>
   <tile/>
   <tile/>
   <tile/>
   <tile/>
   <tile/>
   <tile/>
   <tile/>
   <tile/>
   <tile/>
   <tile/>
   <tile/>
   <tile/>
   <tile/>
   <tile/>
   <tile/>
   <tile/>
   <tile/>
   <tile/>
   <tile/>
   <tile/>
   <tile/>
   <tile/>
   <tile/>
   <tile/>
   <tile/>
   <tile/>
   <tile/>
   <tile/>
   <tile/>
   <tile/>
   <tile/>
   <tile/>
   <tile/>
   <tile/>
   <tile/>
   <tile/>
   <tile/>
   <tile/>
   <tile/>
   <tile/>
   <tile/>
   <tile/>
   <tile/>
   <tile/>
   <tile/>
   <tile/>
   <tile/>
   <tile/>
   <tile/>
   <tile gid="217"/>
   <tile gid="217"/>
   <tile gid="217"/>
   <tile gid="217"/>
   <tile gid="217"/>
   <tile gid="217"/>
   <tile/>
   <tile/>
   <tile/>
   <tile/>
   <tile/>
   <tile/>
   <tile/>
   <tile/>
   <tile/>
   <tile/>
   <tile/>
   <tile/>
   <tile/>
   <tile/>
   <tile/>
   <tile/>
   <tile/>
   <tile/>
   <tile/>
   <tile/>
   <tile/>
   <tile/>
   <tile/>
   <tile/>
   <tile/>
   <tile/>
   <tile/>
   <tile/>
   <tile/>
   <tile/>
   <tile gid="217"/>
   <tile gid="217"/>
   <tile gid="217"/>
   <tile/>
   <tile/>
   <tile/>
   <tile/>
   <tile/>
   <tile/>
   <tile/>
   <tile/>
   <tile/>
   <tile/>
   <tile/>
   <tile/>
   <tile/>
   <tile/>
   <tile gid="217"/>
   <tile gid="217"/>
   <tile gid="217"/>
   <tile gid="217"/>
   <tile gid="217"/>
   <tile gid="217"/>
   <tile gid="217"/>
   <tile gid="217"/>
   <tile gid="217"/>
   <tile gid="217"/>
   <tile gid="217"/>
   <tile gid="217"/>
   <tile gid="217"/>
   <tile gid="217"/>
   <tile gid="217"/>
   <tile gid="217"/>
   <tile gid="217"/>
   <tile gid="217"/>
   <tile gid="217"/>
   <tile gid="217"/>
   <tile/>
   <tile/>
   <tile/>
   <tile/>
   <tile/>
   <tile/>
   <tile/>
   <tile/>
   <tile/>
   <tile/>
   <tile/>
   <tile/>
   <tile/>
   <tile/>
   <tile/>
   <tile/>
   <tile/>
   <tile/>
   <tile/>
   <tile/>
   <tile/>
   <tile/>
   <tile/>
   <tile/>
   <tile gid="217"/>
   <tile gid="217"/>
   <tile gid="217"/>
   <tile/>
   <tile/>
   <tile/>
   <tile/>
   <tile/>
   <tile/>
   <tile/>
   <tile/>
   <tile/>
   <tile/>
   <tile/>
   <tile/>
   <tile/>
   <tile/>
   <tile/>
   <tile/>
   <tile/>
   <tile/>
   <tile/>
   <tile/>
   <tile/>
   <tile/>
   <tile/>
   <tile/>
   <tile/>
   <tile/>
   <tile/>
   <tile/>
   <tile/>
   <tile/>
   <tile/>
   <tile/>
   <tile/>
   <tile/>
   <tile/>
   <tile/>
   <tile/>
   <tile/>
   <tile/>
   <tile/>
   <tile/>
   <tile/>
   <tile/>
   <tile/>
   <tile/>
   <tile/>
   <tile/>
   <tile/>
   <tile/>
   <tile/>
   <tile gid="217"/>
   <tile gid="217"/>
   <tile gid="217"/>
   <tile gid="217"/>
   <tile gid="217"/>
   <tile gid="217"/>
   <tile gid="217"/>
   <tile gid="217"/>
   <tile gid="217"/>
   <tile gid="217"/>
   <tile/>
   <tile/>
   <tile/>
   <tile/>
   <tile gid="217"/>
   <tile gid="217"/>
   <tile gid="217"/>
   <tile gid="217"/>
   <tile gid="217"/>
   <tile gid="217"/>
   <tile gid="217"/>
   <tile gid="217"/>
   <tile gid="217"/>
   <tile gid="217"/>
   <tile gid="217"/>
   <tile gid="217"/>
   <tile gid="217"/>
   <tile gid="217"/>
   <tile gid="217"/>
   <tile gid="217"/>
   <tile gid="217"/>
   <tile gid="217"/>
   <tile gid="217"/>
   <tile gid="217"/>
   <tile gid="217"/>
   <tile gid="217"/>
   <tile gid="217"/>
   <tile gid="217"/>
   <tile gid="217"/>
   <tile gid="217"/>
   <tile gid="217"/>
   <tile gid="217"/>
   <tile gid="217"/>
   <tile gid="217"/>
   <tile gid="217"/>
   <tile gid="217"/>
   <tile gid="217"/>
   <tile gid="217"/>
   <tile gid="217"/>
   <tile gid="217"/>
   <tile gid="217"/>
   <tile gid="217"/>
   <tile gid="217"/>
   <tile gid="217"/>
   <tile gid="217"/>
   <tile gid="217"/>
   <tile gid="217"/>
   <tile gid="217"/>
   <tile gid="217"/>
   <tile gid="217"/>
   <tile gid="217"/>
   <tile gid="217"/>
   <tile gid="217"/>
   <tile gid="217"/>
   <tile gid="217"/>
   <tile gid="217"/>
   <tile gid="217"/>
   <tile gid="217"/>
   <tile gid="217"/>
   <tile gid="217"/>
   <tile gid="217"/>
   <tile gid="217"/>
   <tile gid="217"/>
   <tile gid="217"/>
   <tile gid="217"/>
   <tile gid="217"/>
   <tile gid="217"/>
   <tile gid="217"/>
   <tile gid="217"/>
   <tile gid="217"/>
   <tile gid="217"/>
   <tile gid="217"/>
   <tile gid="217"/>
   <tile gid="217"/>
   <tile gid="217"/>
   <tile gid="217"/>
   <tile gid="217"/>
   <tile gid="217"/>
   <tile gid="217"/>
   <tile gid="217"/>
   <tile/>
   <tile/>
   <tile/>
   <tile gid="217"/>
   <tile gid="217"/>
   <tile gid="217"/>
   <tile gid="217"/>
   <tile gid="217"/>
   <tile gid="217"/>
   <tile gid="217"/>
   <tile gid="217"/>
   <tile gid="217"/>
   <tile gid="217"/>
   <tile gid="217"/>
   <tile gid="217"/>
   <tile gid="217"/>
   <tile gid="217"/>
   <tile gid="217"/>
   <tile gid="217"/>
   <tile gid="217"/>
   <tile gid="217"/>
   <tile gid="217"/>
   <tile gid="217"/>
   <tile gid="217"/>
   <tile gid="217"/>
   <tile gid="217"/>
   <tile gid="217"/>
   <tile gid="217"/>
   <tile gid="217"/>
   <tile gid="217"/>
   <tile gid="217"/>
   <tile gid="217"/>
   <tile gid="217"/>
   <tile gid="217"/>
   <tile gid="217"/>
   <tile gid="217"/>
   <tile gid="217"/>
   <tile gid="217"/>
   <tile gid="217"/>
   <tile gid="217"/>
   <tile gid="217"/>
   <tile gid="217"/>
   <tile gid="217"/>
   <tile gid="217"/>
   <tile gid="217"/>
   <tile gid="217"/>
   <tile gid="217"/>
   <tile/>
   <tile/>
   <tile/>
   <tile gid="217"/>
   <tile gid="217"/>
   <tile gid="217"/>
   <tile gid="217"/>
   <tile gid="217"/>
   <tile gid="217"/>
   <tile gid="217"/>
   <tile gid="217"/>
   <tile gid="217"/>
   <tile gid="217"/>
   <tile gid="217"/>
   <tile gid="217"/>
   <tile gid="217"/>
   <tile gid="217"/>
   <tile gid="217"/>
   <tile gid="217"/>
   <tile gid="217"/>
   <tile gid="217"/>
   <tile gid="217"/>
   <tile gid="217"/>
   <tile/>
   <tile/>
   <tile/>
   <tile/>
   <tile gid="217"/>
   <tile gid="217"/>
   <tile gid="217"/>
   <tile gid="217"/>
   <tile gid="217"/>
   <tile gid="217"/>
   <tile gid="217"/>
   <tile gid="217"/>
   <tile gid="217"/>
   <tile gid="217"/>
   <tile gid="217"/>
   <tile gid="217"/>
   <tile gid="217"/>
   <tile gid="217"/>
   <tile gid="217"/>
   <tile gid="217"/>
   <tile gid="217"/>
   <tile gid="217"/>
   <tile gid="217"/>
   <tile gid="217"/>
   <tile gid="217"/>
   <tile gid="217"/>
   <tile gid="217"/>
   <tile gid="217"/>
   <tile gid="217"/>
   <tile gid="217"/>
   <tile gid="217"/>
   <tile gid="217"/>
   <tile gid="217"/>
   <tile gid="217"/>
   <tile gid="217"/>
   <tile gid="217"/>
   <tile gid="217"/>
   <tile gid="217"/>
   <tile gid="217"/>
   <tile gid="217"/>
   <tile gid="217"/>
   <tile gid="217"/>
   <tile gid="217"/>
   <tile gid="217"/>
   <tile gid="217"/>
   <tile gid="217"/>
   <tile gid="217"/>
   <tile gid="217"/>
   <tile gid="217"/>
   <tile gid="217"/>
   <tile gid="217"/>
   <tile gid="217"/>
   <tile gid="217"/>
   <tile gid="217"/>
   <tile gid="217"/>
   <tile gid="217"/>
   <tile gid="217"/>
   <tile gid="217"/>
   <tile gid="217"/>
   <tile gid="217"/>
   <tile gid="217"/>
   <tile gid="217"/>
   <tile gid="217"/>
   <tile gid="217"/>
   <tile gid="217"/>
   <tile gid="217"/>
   <tile gid="217"/>
   <tile gid="217"/>
   <tile gid="217"/>
   <tile gid="217"/>
   <tile gid="217"/>
   <tile gid="217"/>
   <tile gid="217"/>
   <tile gid="217"/>
   <tile gid="217"/>
   <tile gid="217"/>
   <tile gid="217"/>
   <tile gid="217"/>
   <tile gid="217"/>
   <tile gid="217"/>
   <tile/>
   <tile/>
   <tile/>
   <tile gid="217"/>
   <tile gid="217"/>
   <tile gid="217"/>
   <tile gid="217"/>
   <tile gid="217"/>
   <tile gid="217"/>
   <tile gid="217"/>
   <tile gid="217"/>
   <tile gid="217"/>
   <tile gid="217"/>
   <tile gid="217"/>
   <tile gid="217"/>
   <tile gid="217"/>
   <tile gid="217"/>
   <tile gid="217"/>
   <tile gid="217"/>
   <tile gid="217"/>
   <tile gid="217"/>
   <tile gid="217"/>
   <tile gid="217"/>
   <tile gid="217"/>
   <tile gid="217"/>
   <tile gid="217"/>
   <tile gid="217"/>
   <tile gid="217"/>
   <tile gid="217"/>
   <tile gid="217"/>
   <tile gid="217"/>
   <tile gid="217"/>
   <tile gid="217"/>
   <tile gid="217"/>
   <tile gid="217"/>
   <tile gid="217"/>
   <tile gid="217"/>
   <tile gid="217"/>
   <tile gid="217"/>
   <tile gid="217"/>
   <tile gid="217"/>
   <tile gid="217"/>
   <tile gid="217"/>
   <tile gid="217"/>
   <tile gid="217"/>
   <tile gid="217"/>
   <tile gid="217"/>
   <tile/>
   <tile/>
   <tile/>
   <tile gid="217"/>
   <tile gid="217"/>
   <tile gid="217"/>
   <tile gid="217"/>
   <tile gid="217"/>
   <tile gid="217"/>
   <tile gid="217"/>
   <tile gid="217"/>
   <tile gid="217"/>
   <tile gid="217"/>
   <tile gid="217"/>
   <tile gid="217"/>
   <tile gid="217"/>
   <tile gid="217"/>
   <tile gid="217"/>
   <tile gid="217"/>
   <tile gid="5025"/>
   <tile gid="5026"/>
   <tile gid="5026"/>
   <tile gid="5027"/>
   <tile/>
   <tile/>
   <tile/>
   <tile/>
   <tile gid="5025"/>
   <tile gid="5026"/>
   <tile gid="5026"/>
   <tile gid="5026"/>
   <tile gid="5026"/>
   <tile gid="5026"/>
   <tile gid="5026"/>
   <tile gid="5026"/>
   <tile gid="5026"/>
   <tile gid="5026"/>
   <tile gid="5026"/>
   <tile gid="5026"/>
   <tile gid="5026"/>
   <tile gid="5026"/>
   <tile gid="5026"/>
   <tile gid="5026"/>
   <tile gid="5026"/>
   <tile gid="5026"/>
   <tile gid="5026"/>
   <tile gid="5026"/>
   <tile gid="5026"/>
   <tile gid="5026"/>
   <tile gid="5026"/>
   <tile gid="5026"/>
   <tile gid="5026"/>
   <tile gid="5027"/>
   <tile gid="217"/>
   <tile gid="217"/>
   <tile gid="217"/>
   <tile gid="217"/>
   <tile gid="217"/>
   <tile gid="217"/>
   <tile gid="217"/>
   <tile gid="217"/>
   <tile gid="217"/>
   <tile gid="217"/>
   <tile gid="217"/>
   <tile gid="217"/>
   <tile gid="217"/>
   <tile gid="217"/>
   <tile gid="217"/>
   <tile gid="217"/>
   <tile gid="217"/>
   <tile gid="217"/>
   <tile gid="217"/>
   <tile gid="217"/>
   <tile gid="217"/>
   <tile gid="217"/>
   <tile gid="217"/>
   <tile gid="217"/>
   <tile gid="217"/>
   <tile gid="217"/>
   <tile gid="217"/>
   <tile gid="217"/>
   <tile gid="217"/>
   <tile gid="217"/>
   <tile gid="217"/>
   <tile gid="217"/>
   <tile gid="217"/>
   <tile gid="217"/>
   <tile gid="217"/>
   <tile gid="217"/>
   <tile gid="217"/>
   <tile gid="217"/>
   <tile gid="217"/>
   <tile gid="217"/>
   <tile gid="217"/>
   <tile gid="217"/>
   <tile gid="217"/>
   <tile gid="217"/>
   <tile gid="217"/>
   <tile gid="217"/>
   <tile gid="5025"/>
   <tile gid="5026"/>
   <tile gid="5026"/>
   <tile gid="5027"/>
   <tile/>
   <tile/>
   <tile/>
   <tile gid="5025"/>
   <tile gid="5026"/>
   <tile gid="5026"/>
   <tile gid="5027"/>
   <tile gid="217"/>
   <tile gid="217"/>
   <tile gid="217"/>
   <tile gid="5025"/>
   <tile gid="5026"/>
   <tile gid="5026"/>
   <tile gid="5026"/>
   <tile gid="5026"/>
   <tile gid="5026"/>
   <tile gid="5026"/>
   <tile gid="5026"/>
   <tile gid="5026"/>
   <tile gid="5026"/>
   <tile gid="5026"/>
   <tile gid="5026"/>
   <tile gid="5026"/>
   <tile gid="5026"/>
   <tile gid="5026"/>
   <tile gid="5026"/>
   <tile gid="5026"/>
   <tile gid="5026"/>
   <tile gid="5026"/>
   <tile gid="5026"/>
   <tile gid="5026"/>
   <tile gid="5026"/>
   <tile gid="5026"/>
   <tile gid="5026"/>
   <tile gid="5026"/>
   <tile gid="5026"/>
   <tile gid="5026"/>
   <tile gid="5026"/>
   <tile gid="5026"/>
   <tile gid="5026"/>
   <tile gid="5026"/>
   <tile gid="5026"/>
   <tile gid="5026"/>
   <tile gid="5026"/>
   <tile gid="5026"/>
   <tile gid="5026"/>
   <tile gid="5027"/>
   <tile/>
   <tile/>
   <tile/>
   <tile gid="5025"/>
   <tile gid="5026"/>
   <tile gid="5026"/>
   <tile gid="5026"/>
   <tile gid="5026"/>
   <tile gid="5026"/>
   <tile gid="5026"/>
   <tile gid="5026"/>
   <tile gid="5026"/>
   <tile gid="5027"/>
   <tile gid="217"/>
   <tile gid="217"/>
   <tile gid="217"/>
   <tile gid="217"/>
   <tile gid="217"/>
   <tile gid="217"/>
   <tile gid="5057"/>
   <tile gid="5058"/>
   <tile gid="5058"/>
   <tile gid="5059"/>
   <tile/>
   <tile/>
   <tile/>
   <tile/>
   <tile gid="5057"/>
   <tile gid="5058"/>
   <tile gid="5058"/>
   <tile gid="5058"/>
   <tile gid="5058"/>
   <tile gid="5058"/>
   <tile gid="5058"/>
   <tile gid="5058"/>
   <tile gid="5058"/>
   <tile gid="5058"/>
   <tile gid="5058"/>
   <tile gid="5058"/>
   <tile gid="5058"/>
   <tile gid="5058"/>
   <tile gid="5058"/>
   <tile gid="5058"/>
   <tile gid="5058"/>
   <tile gid="5058"/>
   <tile gid="5058"/>
   <tile gid="5058"/>
   <tile gid="5058"/>
   <tile gid="5058"/>
   <tile gid="5058"/>
   <tile gid="5058"/>
   <tile gid="5058"/>
   <tile gid="5059"/>
   <tile gid="217"/>
   <tile gid="217"/>
   <tile gid="217"/>
   <tile gid="217"/>
   <tile gid="217"/>
   <tile gid="217"/>
   <tile gid="217"/>
   <tile gid="217"/>
   <tile gid="217"/>
   <tile gid="217"/>
   <tile gid="217"/>
   <tile gid="217"/>
   <tile gid="217"/>
   <tile gid="217"/>
   <tile gid="217"/>
   <tile gid="217"/>
   <tile gid="217"/>
   <tile gid="217"/>
   <tile gid="217"/>
   <tile gid="217"/>
   <tile gid="217"/>
   <tile gid="217"/>
   <tile gid="217"/>
   <tile gid="217"/>
   <tile gid="217"/>
   <tile gid="217"/>
   <tile gid="217"/>
   <tile gid="217"/>
   <tile gid="217"/>
   <tile gid="217"/>
   <tile gid="217"/>
   <tile gid="217"/>
   <tile gid="217"/>
   <tile gid="217"/>
   <tile gid="217"/>
   <tile gid="217"/>
   <tile gid="217"/>
   <tile gid="217"/>
   <tile gid="217"/>
   <tile gid="217"/>
   <tile gid="217"/>
   <tile gid="217"/>
   <tile gid="217"/>
   <tile gid="217"/>
   <tile gid="217"/>
   <tile gid="217"/>
   <tile gid="5057"/>
   <tile gid="5058"/>
   <tile gid="5058"/>
   <tile gid="5059"/>
   <tile/>
   <tile/>
   <tile/>
   <tile gid="5057"/>
   <tile gid="5058"/>
   <tile gid="5058"/>
   <tile gid="5059"/>
   <tile gid="217"/>
   <tile gid="217"/>
   <tile gid="217"/>
   <tile gid="5057"/>
   <tile gid="5058"/>
   <tile gid="5058"/>
   <tile gid="5058"/>
   <tile gid="5058"/>
   <tile gid="5058"/>
   <tile gid="5058"/>
   <tile gid="5058"/>
   <tile gid="5058"/>
   <tile gid="5058"/>
   <tile gid="5058"/>
   <tile gid="5058"/>
   <tile gid="5058"/>
   <tile gid="5058"/>
   <tile gid="5058"/>
   <tile gid="5058"/>
   <tile gid="5058"/>
   <tile gid="5058"/>
   <tile gid="5058"/>
   <tile gid="5058"/>
   <tile gid="5058"/>
   <tile gid="5058"/>
   <tile gid="5058"/>
   <tile gid="5058"/>
   <tile gid="5058"/>
   <tile gid="5058"/>
   <tile gid="5058"/>
   <tile gid="5058"/>
   <tile gid="5058"/>
   <tile gid="5058"/>
   <tile gid="5058"/>
   <tile gid="5058"/>
   <tile gid="5058"/>
   <tile gid="5058"/>
   <tile gid="5058"/>
   <tile gid="5058"/>
   <tile gid="5059"/>
   <tile/>
   <tile/>
   <tile/>
   <tile gid="5057"/>
   <tile gid="5058"/>
   <tile gid="5058"/>
   <tile gid="5058"/>
   <tile gid="5058"/>
   <tile gid="5058"/>
   <tile gid="5058"/>
   <tile gid="5058"/>
   <tile gid="5058"/>
   <tile gid="5059"/>
   <tile gid="217"/>
   <tile gid="217"/>
   <tile gid="217"/>
   <tile gid="217"/>
   <tile gid="217"/>
   <tile gid="217"/>
   <tile gid="5089"/>
   <tile gid="5090"/>
   <tile gid="5090"/>
   <tile gid="5091"/>
   <tile/>
   <tile/>
   <tile/>
   <tile/>
   <tile gid="5089"/>
   <tile gid="5090"/>
   <tile gid="5090"/>
   <tile gid="5090"/>
   <tile gid="5090"/>
   <tile gid="5090"/>
   <tile gid="5090"/>
   <tile gid="5090"/>
   <tile gid="5090"/>
   <tile gid="5090"/>
   <tile gid="5090"/>
   <tile gid="5090"/>
   <tile gid="5090"/>
   <tile gid="5090"/>
   <tile gid="5090"/>
   <tile gid="5090"/>
   <tile gid="5090"/>
   <tile gid="5090"/>
   <tile gid="5090"/>
   <tile gid="5090"/>
   <tile gid="5090"/>
   <tile gid="5090"/>
   <tile gid="5090"/>
   <tile gid="5090"/>
   <tile gid="5090"/>
   <tile gid="5091"/>
   <tile gid="217"/>
   <tile gid="217"/>
   <tile gid="217"/>
   <tile gid="217"/>
   <tile gid="217"/>
   <tile gid="217"/>
   <tile gid="217"/>
   <tile gid="217"/>
   <tile gid="217"/>
   <tile gid="217"/>
   <tile gid="217"/>
   <tile gid="217"/>
   <tile gid="217"/>
   <tile gid="217"/>
   <tile gid="217"/>
   <tile gid="217"/>
   <tile gid="217"/>
   <tile gid="217"/>
   <tile gid="217"/>
   <tile gid="217"/>
   <tile gid="217"/>
   <tile gid="217"/>
   <tile gid="217"/>
   <tile gid="217"/>
   <tile gid="217"/>
   <tile gid="217"/>
   <tile gid="217"/>
   <tile gid="217"/>
   <tile gid="217"/>
   <tile gid="217"/>
   <tile gid="217"/>
   <tile gid="217"/>
   <tile gid="217"/>
   <tile gid="217"/>
   <tile gid="217"/>
   <tile gid="217"/>
   <tile gid="217"/>
   <tile gid="217"/>
   <tile gid="217"/>
   <tile gid="217"/>
   <tile gid="217"/>
   <tile gid="217"/>
   <tile gid="217"/>
   <tile gid="217"/>
   <tile gid="217"/>
   <tile gid="217"/>
   <tile gid="5089"/>
   <tile gid="5090"/>
   <tile gid="5090"/>
   <tile gid="5091"/>
   <tile/>
   <tile/>
   <tile/>
   <tile gid="5089"/>
   <tile gid="5090"/>
   <tile gid="5090"/>
   <tile gid="5091"/>
   <tile gid="217"/>
   <tile gid="217"/>
   <tile gid="217"/>
   <tile gid="5089"/>
   <tile gid="5090"/>
   <tile gid="5090"/>
   <tile gid="5090"/>
   <tile gid="5090"/>
   <tile gid="5090"/>
   <tile gid="5090"/>
   <tile gid="5090"/>
   <tile gid="5090"/>
   <tile gid="5090"/>
   <tile gid="5090"/>
   <tile gid="5090"/>
   <tile gid="5090"/>
   <tile gid="5090"/>
   <tile gid="5090"/>
   <tile gid="5090"/>
   <tile gid="5090"/>
   <tile gid="5090"/>
   <tile gid="5090"/>
   <tile gid="5090"/>
   <tile gid="5090"/>
   <tile gid="5090"/>
   <tile gid="5090"/>
   <tile gid="5090"/>
   <tile gid="5090"/>
   <tile gid="5090"/>
   <tile gid="5090"/>
   <tile gid="5090"/>
   <tile gid="5090"/>
   <tile gid="5090"/>
   <tile gid="5090"/>
   <tile gid="5090"/>
   <tile gid="5090"/>
   <tile gid="5090"/>
   <tile gid="5090"/>
   <tile gid="5090"/>
   <tile gid="5091"/>
   <tile/>
   <tile/>
   <tile/>
   <tile gid="5089"/>
   <tile gid="5090"/>
   <tile gid="5090"/>
   <tile gid="5090"/>
   <tile gid="5090"/>
   <tile gid="5090"/>
   <tile gid="5090"/>
   <tile gid="5090"/>
   <tile gid="5090"/>
   <tile gid="5091"/>
   <tile gid="217"/>
   <tile gid="217"/>
   <tile gid="217"/>
   <tile gid="217"/>
   <tile gid="217"/>
   <tile gid="217"/>
   <tile/>
   <tile/>
   <tile/>
   <tile/>
   <tile/>
   <tile/>
   <tile/>
   <tile/>
   <tile/>
   <tile/>
   <tile/>
   <tile/>
   <tile/>
   <tile/>
   <tile/>
   <tile/>
   <tile/>
   <tile/>
   <tile/>
   <tile/>
   <tile/>
   <tile/>
   <tile/>
   <tile/>
   <tile/>
   <tile/>
   <tile/>
   <tile/>
   <tile/>
   <tile/>
   <tile/>
   <tile/>
   <tile/>
   <tile/>
   <tile gid="217"/>
   <tile gid="217"/>
   <tile gid="217"/>
   <tile gid="217"/>
   <tile gid="217"/>
   <tile gid="217"/>
   <tile gid="217"/>
   <tile gid="217"/>
   <tile gid="217"/>
   <tile gid="217"/>
   <tile gid="217"/>
   <tile gid="217"/>
   <tile gid="217"/>
   <tile gid="217"/>
   <tile gid="217"/>
   <tile gid="217"/>
   <tile gid="217"/>
   <tile gid="217"/>
   <tile gid="217"/>
   <tile gid="217"/>
   <tile gid="217"/>
   <tile gid="217"/>
   <tile gid="217"/>
   <tile gid="217"/>
   <tile gid="217"/>
   <tile gid="217"/>
   <tile gid="217"/>
   <tile gid="217"/>
   <tile gid="217"/>
   <tile gid="217"/>
   <tile gid="217"/>
   <tile gid="217"/>
   <tile gid="217"/>
   <tile gid="217"/>
   <tile gid="217"/>
   <tile gid="217"/>
   <tile gid="217"/>
   <tile gid="217"/>
   <tile gid="217"/>
   <tile gid="217"/>
   <tile gid="217"/>
   <tile gid="217"/>
   <tile gid="217"/>
   <tile gid="217"/>
   <tile gid="217"/>
   <tile gid="217"/>
   <tile/>
   <tile/>
   <tile/>
   <tile/>
   <tile/>
   <tile/>
   <tile/>
   <tile/>
   <tile/>
   <tile/>
   <tile/>
   <tile gid="217"/>
   <tile gid="217"/>
   <tile gid="217"/>
   <tile/>
   <tile/>
   <tile/>
   <tile/>
   <tile/>
   <tile/>
   <tile/>
   <tile/>
   <tile/>
   <tile/>
   <tile/>
   <tile/>
   <tile/>
   <tile/>
   <tile/>
   <tile/>
   <tile/>
   <tile/>
   <tile/>
   <tile/>
   <tile/>
   <tile/>
   <tile/>
   <tile/>
   <tile/>
   <tile/>
   <tile/>
   <tile/>
   <tile/>
   <tile/>
   <tile/>
   <tile/>
   <tile/>
   <tile/>
   <tile/>
   <tile/>
   <tile/>
   <tile/>
   <tile/>
   <tile/>
   <tile/>
   <tile/>
   <tile/>
   <tile/>
   <tile/>
   <tile/>
   <tile/>
   <tile/>
   <tile/>
   <tile/>
   <tile gid="217"/>
   <tile gid="217"/>
   <tile gid="217"/>
   <tile gid="217"/>
   <tile gid="217"/>
   <tile gid="217"/>
   <tile/>
   <tile/>
   <tile/>
   <tile/>
   <tile/>
   <tile/>
   <tile/>
   <tile/>
   <tile/>
   <tile/>
   <tile/>
   <tile/>
   <tile/>
   <tile/>
   <tile/>
   <tile/>
   <tile/>
   <tile/>
   <tile/>
   <tile/>
   <tile/>
   <tile/>
   <tile/>
   <tile/>
   <tile/>
   <tile/>
   <tile/>
   <tile/>
   <tile/>
   <tile/>
   <tile/>
   <tile/>
   <tile/>
   <tile/>
   <tile gid="217"/>
   <tile gid="217"/>
   <tile gid="217"/>
   <tile gid="217"/>
   <tile gid="217"/>
   <tile gid="217"/>
   <tile gid="217"/>
   <tile gid="217"/>
   <tile gid="217"/>
   <tile gid="217"/>
   <tile gid="217"/>
   <tile gid="217"/>
   <tile gid="217"/>
   <tile gid="217"/>
   <tile gid="217"/>
   <tile gid="217"/>
   <tile gid="217"/>
   <tile gid="217"/>
   <tile gid="217"/>
   <tile gid="217"/>
   <tile gid="217"/>
   <tile gid="217"/>
   <tile gid="217"/>
   <tile gid="217"/>
   <tile gid="217"/>
   <tile gid="217"/>
   <tile gid="217"/>
   <tile gid="217"/>
   <tile gid="217"/>
   <tile gid="217"/>
   <tile gid="217"/>
   <tile gid="217"/>
   <tile gid="217"/>
   <tile gid="217"/>
   <tile gid="217"/>
   <tile gid="217"/>
   <tile gid="217"/>
   <tile gid="217"/>
   <tile gid="217"/>
   <tile gid="217"/>
   <tile gid="217"/>
   <tile gid="217"/>
   <tile gid="217"/>
   <tile gid="217"/>
   <tile gid="217"/>
   <tile gid="217"/>
   <tile/>
   <tile/>
   <tile/>
   <tile/>
   <tile/>
   <tile/>
   <tile/>
   <tile/>
   <tile/>
   <tile/>
   <tile/>
   <tile gid="217"/>
   <tile gid="217"/>
   <tile gid="217"/>
   <tile/>
   <tile/>
   <tile/>
   <tile/>
   <tile/>
   <tile/>
   <tile/>
   <tile/>
   <tile/>
   <tile/>
   <tile/>
   <tile/>
   <tile/>
   <tile/>
   <tile/>
   <tile/>
   <tile/>
   <tile/>
   <tile/>
   <tile/>
   <tile/>
   <tile/>
   <tile/>
   <tile/>
   <tile/>
   <tile/>
   <tile/>
   <tile/>
   <tile/>
   <tile/>
   <tile/>
   <tile/>
   <tile/>
   <tile/>
   <tile/>
   <tile/>
   <tile/>
   <tile/>
   <tile/>
   <tile/>
   <tile/>
   <tile/>
   <tile/>
   <tile/>
   <tile/>
   <tile/>
   <tile/>
   <tile/>
   <tile/>
   <tile/>
   <tile gid="217"/>
   <tile gid="217"/>
   <tile gid="217"/>
   <tile gid="217"/>
   <tile gid="217"/>
   <tile gid="217"/>
   <tile/>
   <tile/>
   <tile/>
   <tile/>
   <tile/>
   <tile/>
   <tile/>
   <tile/>
   <tile/>
   <tile/>
   <tile/>
   <tile/>
   <tile/>
   <tile/>
   <tile/>
   <tile/>
   <tile/>
   <tile/>
   <tile/>
   <tile/>
   <tile/>
   <tile/>
   <tile/>
   <tile/>
   <tile/>
   <tile/>
   <tile/>
   <tile/>
   <tile/>
   <tile/>
   <tile/>
   <tile/>
   <tile/>
   <tile/>
   <tile gid="5025"/>
   <tile gid="5026"/>
   <tile gid="5027"/>
   <tile gid="217"/>
   <tile gid="217"/>
   <tile gid="217"/>
   <tile gid="217"/>
   <tile gid="217"/>
   <tile gid="217"/>
   <tile gid="217"/>
   <tile gid="217"/>
   <tile gid="217"/>
   <tile gid="217"/>
   <tile gid="217"/>
   <tile gid="217"/>
   <tile gid="217"/>
   <tile gid="217"/>
   <tile gid="217"/>
   <tile gid="217"/>
   <tile gid="217"/>
   <tile gid="217"/>
   <tile gid="217"/>
   <tile gid="217"/>
   <tile gid="217"/>
   <tile gid="217"/>
   <tile gid="217"/>
   <tile gid="217"/>
   <tile gid="217"/>
   <tile gid="217"/>
   <tile gid="217"/>
   <tile gid="217"/>
   <tile gid="217"/>
   <tile gid="217"/>
   <tile gid="217"/>
   <tile gid="217"/>
   <tile gid="217"/>
   <tile gid="217"/>
   <tile gid="217"/>
   <tile gid="217"/>
   <tile gid="217"/>
   <tile gid="217"/>
   <tile gid="217"/>
   <tile gid="217"/>
   <tile gid="217"/>
   <tile gid="217"/>
   <tile gid="217"/>
   <tile/>
   <tile/>
   <tile/>
   <tile/>
   <tile/>
   <tile/>
   <tile/>
   <tile/>
   <tile/>
   <tile/>
   <tile/>
   <tile gid="217"/>
   <tile gid="217"/>
   <tile gid="217"/>
   <tile/>
   <tile/>
   <tile/>
   <tile/>
   <tile/>
   <tile/>
   <tile/>
   <tile/>
   <tile/>
   <tile/>
   <tile/>
   <tile/>
   <tile/>
   <tile/>
   <tile/>
   <tile/>
   <tile/>
   <tile/>
   <tile/>
   <tile/>
   <tile/>
   <tile/>
   <tile/>
   <tile/>
   <tile/>
   <tile/>
   <tile/>
   <tile/>
   <tile/>
   <tile/>
   <tile/>
   <tile/>
   <tile/>
   <tile/>
   <tile/>
   <tile/>
   <tile/>
   <tile/>
   <tile/>
   <tile/>
   <tile/>
   <tile/>
   <tile/>
   <tile/>
   <tile/>
   <tile/>
   <tile/>
   <tile/>
   <tile/>
   <tile/>
   <tile gid="217"/>
   <tile gid="217"/>
   <tile gid="217"/>
   <tile gid="217"/>
   <tile gid="217"/>
   <tile gid="217"/>
   <tile/>
   <tile/>
   <tile/>
   <tile/>
   <tile/>
   <tile/>
   <tile/>
   <tile/>
   <tile/>
   <tile/>
   <tile/>
   <tile/>
   <tile/>
   <tile/>
   <tile/>
   <tile/>
   <tile/>
   <tile/>
   <tile/>
   <tile/>
   <tile/>
   <tile/>
   <tile/>
   <tile/>
   <tile/>
   <tile/>
   <tile/>
   <tile/>
   <tile/>
   <tile/>
   <tile/>
   <tile/>
   <tile/>
   <tile/>
   <tile gid="5057"/>
   <tile gid="5058"/>
   <tile gid="5059"/>
   <tile gid="217"/>
   <tile gid="217"/>
   <tile gid="217"/>
   <tile gid="217"/>
   <tile gid="217"/>
   <tile gid="217"/>
   <tile gid="217"/>
   <tile gid="217"/>
   <tile gid="217"/>
   <tile gid="217"/>
   <tile gid="217"/>
   <tile gid="217"/>
   <tile gid="217"/>
   <tile gid="217"/>
   <tile gid="217"/>
   <tile gid="217"/>
   <tile gid="217"/>
   <tile gid="217"/>
   <tile gid="217"/>
   <tile gid="217"/>
   <tile gid="217"/>
   <tile gid="217"/>
   <tile gid="217"/>
   <tile gid="217"/>
   <tile gid="217"/>
   <tile gid="217"/>
   <tile gid="217"/>
   <tile gid="217"/>
   <tile gid="217"/>
   <tile gid="217"/>
   <tile gid="217"/>
   <tile gid="217"/>
   <tile gid="217"/>
   <tile gid="217"/>
   <tile gid="217"/>
   <tile gid="217"/>
   <tile gid="217"/>
   <tile gid="217"/>
   <tile gid="217"/>
   <tile gid="217"/>
   <tile gid="217"/>
   <tile gid="217"/>
   <tile gid="217"/>
   <tile/>
   <tile/>
   <tile/>
   <tile/>
   <tile/>
   <tile/>
   <tile/>
   <tile/>
   <tile/>
   <tile/>
   <tile/>
   <tile gid="217"/>
   <tile gid="217"/>
   <tile gid="217"/>
   <tile/>
   <tile/>
   <tile/>
   <tile/>
   <tile/>
   <tile/>
   <tile/>
   <tile/>
   <tile/>
   <tile/>
   <tile/>
   <tile/>
   <tile/>
   <tile/>
   <tile/>
   <tile/>
   <tile/>
   <tile/>
   <tile/>
   <tile/>
   <tile/>
   <tile/>
   <tile/>
   <tile/>
   <tile/>
   <tile/>
   <tile/>
   <tile/>
   <tile/>
   <tile/>
   <tile/>
   <tile/>
   <tile/>
   <tile/>
   <tile/>
   <tile/>
   <tile/>
   <tile/>
   <tile/>
   <tile/>
   <tile/>
   <tile/>
   <tile/>
   <tile/>
   <tile/>
   <tile/>
   <tile/>
   <tile/>
   <tile/>
   <tile/>
   <tile gid="217"/>
   <tile gid="217"/>
   <tile gid="217"/>
   <tile gid="217"/>
   <tile gid="217"/>
   <tile gid="217"/>
   <tile/>
   <tile/>
   <tile/>
   <tile/>
   <tile/>
   <tile/>
   <tile/>
   <tile/>
   <tile/>
   <tile/>
   <tile/>
   <tile/>
   <tile/>
   <tile/>
   <tile/>
   <tile/>
   <tile/>
   <tile/>
   <tile/>
   <tile/>
   <tile/>
   <tile/>
   <tile/>
   <tile/>
   <tile/>
   <tile/>
   <tile/>
   <tile/>
   <tile/>
   <tile/>
   <tile/>
   <tile/>
   <tile/>
   <tile/>
   <tile gid="5089"/>
   <tile gid="5090"/>
   <tile gid="5091"/>
   <tile gid="217"/>
   <tile gid="217"/>
   <tile gid="217"/>
   <tile gid="217"/>
   <tile gid="217"/>
   <tile gid="217"/>
   <tile gid="217"/>
   <tile gid="217"/>
   <tile gid="217"/>
   <tile gid="217"/>
   <tile gid="217"/>
   <tile gid="217"/>
   <tile gid="217"/>
   <tile gid="217"/>
   <tile gid="217"/>
   <tile gid="217"/>
   <tile gid="217"/>
   <tile gid="217"/>
   <tile gid="217"/>
   <tile gid="217"/>
   <tile gid="217"/>
   <tile gid="217"/>
   <tile gid="217"/>
   <tile gid="217"/>
   <tile gid="217"/>
   <tile gid="217"/>
   <tile gid="217"/>
   <tile gid="217"/>
   <tile gid="217"/>
   <tile gid="217"/>
   <tile gid="217"/>
   <tile gid="217"/>
   <tile gid="217"/>
   <tile gid="217"/>
   <tile gid="217"/>
   <tile gid="217"/>
   <tile gid="217"/>
   <tile gid="217"/>
   <tile gid="217"/>
   <tile gid="217"/>
   <tile gid="217"/>
   <tile gid="217"/>
   <tile gid="217"/>
   <tile/>
   <tile/>
   <tile/>
   <tile/>
   <tile/>
   <tile/>
   <tile/>
   <tile/>
   <tile/>
   <tile/>
   <tile/>
   <tile gid="217"/>
   <tile gid="217"/>
   <tile gid="217"/>
   <tile/>
   <tile/>
   <tile/>
   <tile/>
   <tile/>
   <tile/>
   <tile/>
   <tile/>
   <tile/>
   <tile/>
   <tile/>
   <tile/>
   <tile/>
   <tile/>
   <tile/>
   <tile/>
   <tile/>
   <tile/>
   <tile/>
   <tile/>
   <tile/>
   <tile/>
   <tile/>
   <tile/>
   <tile/>
   <tile/>
   <tile/>
   <tile/>
   <tile/>
   <tile/>
   <tile/>
   <tile/>
   <tile/>
   <tile/>
   <tile/>
   <tile/>
   <tile/>
   <tile/>
   <tile/>
   <tile/>
   <tile/>
   <tile/>
   <tile/>
   <tile/>
   <tile/>
   <tile/>
   <tile/>
   <tile/>
   <tile/>
   <tile/>
   <tile gid="217"/>
   <tile gid="217"/>
   <tile gid="217"/>
   <tile gid="217"/>
   <tile gid="217"/>
   <tile gid="217"/>
   <tile/>
   <tile/>
   <tile/>
   <tile/>
   <tile/>
   <tile/>
   <tile/>
   <tile/>
   <tile/>
   <tile/>
   <tile/>
   <tile/>
   <tile/>
   <tile/>
   <tile/>
   <tile/>
   <tile/>
   <tile/>
   <tile/>
   <tile/>
   <tile/>
   <tile/>
   <tile/>
   <tile/>
   <tile/>
   <tile/>
   <tile/>
   <tile/>
   <tile/>
   <tile/>
   <tile/>
   <tile/>
   <tile/>
   <tile/>
   <tile/>
   <tile/>
   <tile/>
   <tile gid="217"/>
   <tile gid="217"/>
   <tile gid="217"/>
   <tile gid="217"/>
   <tile gid="217"/>
   <tile gid="217"/>
   <tile gid="217"/>
   <tile gid="217"/>
   <tile gid="217"/>
   <tile gid="217"/>
   <tile gid="217"/>
   <tile gid="217"/>
   <tile gid="217"/>
   <tile gid="217"/>
   <tile gid="217"/>
   <tile gid="217"/>
   <tile gid="217"/>
   <tile gid="217"/>
   <tile gid="217"/>
   <tile gid="217"/>
   <tile gid="217"/>
   <tile gid="217"/>
   <tile gid="217"/>
   <tile gid="217"/>
   <tile gid="217"/>
   <tile gid="217"/>
   <tile gid="217"/>
   <tile gid="217"/>
   <tile gid="217"/>
   <tile gid="217"/>
   <tile gid="217"/>
   <tile gid="217"/>
   <tile gid="217"/>
   <tile gid="217"/>
   <tile gid="217"/>
   <tile gid="217"/>
   <tile gid="217"/>
   <tile gid="217"/>
   <tile gid="217"/>
   <tile gid="217"/>
   <tile gid="217"/>
   <tile gid="217"/>
   <tile gid="217"/>
   <tile/>
   <tile/>
   <tile/>
   <tile/>
   <tile/>
   <tile/>
   <tile/>
   <tile/>
   <tile/>
   <tile/>
   <tile/>
   <tile gid="217"/>
   <tile gid="217"/>
   <tile gid="217"/>
   <tile/>
   <tile/>
   <tile/>
   <tile/>
   <tile/>
   <tile/>
   <tile/>
   <tile/>
   <tile/>
   <tile/>
   <tile/>
   <tile/>
   <tile/>
   <tile/>
   <tile/>
   <tile/>
   <tile/>
   <tile/>
   <tile/>
   <tile/>
   <tile/>
   <tile/>
   <tile/>
   <tile/>
   <tile/>
   <tile/>
   <tile/>
   <tile/>
   <tile/>
   <tile/>
   <tile/>
   <tile/>
   <tile/>
   <tile/>
   <tile/>
   <tile/>
   <tile/>
   <tile/>
   <tile/>
   <tile/>
   <tile/>
   <tile/>
   <tile/>
   <tile/>
   <tile/>
   <tile/>
   <tile/>
   <tile/>
   <tile/>
   <tile/>
   <tile gid="217"/>
   <tile gid="217"/>
   <tile gid="217"/>
   <tile gid="217"/>
   <tile gid="217"/>
   <tile gid="217"/>
   <tile/>
   <tile/>
   <tile/>
   <tile/>
   <tile/>
   <tile/>
   <tile/>
   <tile/>
   <tile/>
   <tile/>
   <tile/>
   <tile/>
   <tile/>
   <tile/>
   <tile/>
   <tile/>
   <tile/>
   <tile/>
   <tile/>
   <tile/>
   <tile/>
   <tile/>
   <tile/>
   <tile/>
   <tile/>
   <tile/>
   <tile/>
   <tile/>
   <tile/>
   <tile/>
   <tile/>
   <tile/>
   <tile/>
   <tile/>
   <tile/>
   <tile/>
   <tile/>
   <tile gid="217"/>
   <tile gid="217"/>
   <tile gid="217"/>
   <tile gid="217"/>
   <tile gid="217"/>
   <tile gid="217"/>
   <tile gid="217"/>
   <tile gid="217"/>
   <tile gid="217"/>
   <tile gid="217"/>
   <tile gid="217"/>
   <tile gid="217"/>
   <tile gid="217"/>
   <tile gid="217"/>
   <tile gid="217"/>
   <tile gid="217"/>
   <tile gid="217"/>
   <tile gid="217"/>
   <tile gid="217"/>
   <tile gid="217"/>
   <tile gid="217"/>
   <tile gid="217"/>
   <tile gid="217"/>
   <tile gid="217"/>
   <tile gid="217"/>
   <tile gid="217"/>
   <tile gid="217"/>
   <tile gid="217"/>
   <tile gid="217"/>
   <tile gid="217"/>
   <tile gid="217"/>
   <tile gid="217"/>
   <tile gid="217"/>
   <tile gid="217"/>
   <tile gid="217"/>
   <tile gid="217"/>
   <tile gid="217"/>
   <tile gid="217"/>
   <tile gid="217"/>
   <tile gid="217"/>
   <tile gid="217"/>
   <tile gid="217"/>
   <tile gid="217"/>
   <tile/>
   <tile/>
   <tile/>
   <tile/>
   <tile/>
   <tile/>
   <tile/>
   <tile/>
   <tile/>
   <tile/>
   <tile/>
   <tile gid="217"/>
   <tile gid="217"/>
   <tile gid="217"/>
   <tile/>
   <tile/>
   <tile/>
   <tile/>
   <tile/>
   <tile/>
   <tile/>
   <tile/>
   <tile/>
   <tile/>
   <tile/>
   <tile/>
   <tile/>
   <tile/>
   <tile/>
   <tile/>
   <tile/>
   <tile/>
   <tile/>
   <tile/>
   <tile/>
   <tile/>
   <tile/>
   <tile/>
   <tile/>
   <tile/>
   <tile/>
   <tile/>
   <tile/>
   <tile/>
   <tile/>
   <tile/>
   <tile/>
   <tile/>
   <tile/>
   <tile/>
   <tile/>
   <tile/>
   <tile/>
   <tile/>
   <tile/>
   <tile/>
   <tile/>
   <tile/>
   <tile/>
   <tile/>
   <tile/>
   <tile/>
   <tile/>
   <tile/>
   <tile gid="217"/>
   <tile gid="217"/>
   <tile gid="217"/>
   <tile gid="217"/>
   <tile gid="217"/>
   <tile gid="217"/>
   <tile/>
   <tile/>
   <tile/>
   <tile/>
   <tile/>
   <tile/>
   <tile/>
   <tile/>
   <tile/>
   <tile/>
   <tile/>
   <tile/>
   <tile/>
   <tile/>
   <tile/>
   <tile/>
   <tile/>
   <tile/>
   <tile/>
   <tile/>
   <tile/>
   <tile/>
   <tile/>
   <tile/>
   <tile/>
   <tile/>
   <tile/>
   <tile/>
   <tile/>
   <tile/>
   <tile/>
   <tile/>
   <tile/>
   <tile/>
   <tile/>
   <tile/>
   <tile/>
   <tile gid="217"/>
   <tile gid="217"/>
   <tile gid="217"/>
   <tile gid="217"/>
   <tile gid="217"/>
   <tile gid="217"/>
   <tile gid="217"/>
   <tile gid="217"/>
   <tile gid="217"/>
   <tile gid="217"/>
   <tile gid="217"/>
   <tile gid="217"/>
   <tile gid="217"/>
   <tile gid="217"/>
   <tile gid="217"/>
   <tile gid="217"/>
   <tile gid="217"/>
   <tile gid="217"/>
   <tile gid="217"/>
   <tile gid="217"/>
   <tile gid="217"/>
   <tile gid="217"/>
   <tile gid="217"/>
   <tile gid="217"/>
   <tile gid="217"/>
   <tile gid="217"/>
   <tile gid="217"/>
   <tile gid="217"/>
   <tile gid="217"/>
   <tile gid="217"/>
   <tile gid="217"/>
   <tile gid="217"/>
   <tile gid="217"/>
   <tile gid="217"/>
   <tile gid="217"/>
   <tile gid="217"/>
   <tile gid="217"/>
   <tile gid="217"/>
   <tile gid="217"/>
   <tile gid="217"/>
   <tile gid="5025"/>
   <tile gid="5026"/>
   <tile gid="5027"/>
   <tile/>
   <tile/>
   <tile/>
   <tile/>
   <tile/>
   <tile/>
   <tile/>
   <tile/>
   <tile/>
   <tile/>
   <tile/>
   <tile gid="217"/>
   <tile gid="217"/>
   <tile gid="217"/>
   <tile/>
   <tile/>
   <tile/>
   <tile/>
   <tile/>
   <tile/>
   <tile/>
   <tile/>
   <tile/>
   <tile/>
   <tile/>
   <tile/>
   <tile/>
   <tile/>
   <tile/>
   <tile/>
   <tile/>
   <tile/>
   <tile/>
   <tile/>
   <tile/>
   <tile/>
   <tile/>
   <tile/>
   <tile/>
   <tile/>
   <tile/>
   <tile/>
   <tile/>
   <tile/>
   <tile/>
   <tile/>
   <tile/>
   <tile/>
   <tile/>
   <tile/>
   <tile/>
   <tile/>
   <tile/>
   <tile/>
   <tile/>
   <tile/>
   <tile/>
   <tile/>
   <tile/>
   <tile/>
   <tile/>
   <tile/>
   <tile/>
   <tile/>
   <tile gid="217"/>
   <tile gid="217"/>
   <tile gid="217"/>
   <tile gid="217"/>
   <tile gid="217"/>
   <tile gid="217"/>
   <tile/>
   <tile/>
   <tile/>
   <tile/>
   <tile/>
   <tile/>
   <tile/>
   <tile/>
   <tile/>
   <tile/>
   <tile/>
   <tile/>
   <tile/>
   <tile/>
   <tile/>
   <tile/>
   <tile/>
   <tile/>
   <tile/>
   <tile/>
   <tile/>
   <tile/>
   <tile/>
   <tile/>
   <tile/>
   <tile/>
   <tile/>
   <tile/>
   <tile/>
   <tile/>
   <tile/>
   <tile/>
   <tile/>
   <tile/>
   <tile gid="217"/>
   <tile gid="217"/>
   <tile gid="217"/>
   <tile gid="217"/>
   <tile gid="217"/>
   <tile gid="217"/>
   <tile gid="217"/>
   <tile gid="217"/>
   <tile gid="217"/>
   <tile gid="217"/>
   <tile gid="217"/>
   <tile gid="217"/>
   <tile gid="217"/>
   <tile gid="217"/>
   <tile gid="217"/>
   <tile gid="217"/>
   <tile gid="217"/>
   <tile gid="217"/>
   <tile gid="217"/>
   <tile gid="217"/>
   <tile gid="217"/>
   <tile gid="217"/>
   <tile gid="217"/>
   <tile gid="217"/>
   <tile gid="217"/>
   <tile gid="217"/>
   <tile gid="217"/>
   <tile gid="217"/>
   <tile gid="217"/>
   <tile gid="217"/>
   <tile gid="217"/>
   <tile gid="217"/>
   <tile gid="217"/>
   <tile gid="217"/>
   <tile gid="217"/>
   <tile gid="217"/>
   <tile gid="217"/>
   <tile gid="217"/>
   <tile gid="217"/>
   <tile gid="217"/>
   <tile gid="217"/>
   <tile gid="217"/>
   <tile gid="217"/>
   <tile gid="5057"/>
   <tile gid="5058"/>
   <tile gid="5059"/>
   <tile/>
   <tile/>
   <tile/>
   <tile/>
   <tile/>
   <tile/>
   <tile/>
   <tile/>
   <tile/>
   <tile/>
   <tile/>
   <tile gid="217"/>
   <tile gid="217"/>
   <tile gid="217"/>
   <tile/>
   <tile/>
   <tile/>
   <tile/>
   <tile/>
   <tile/>
   <tile/>
   <tile/>
   <tile/>
   <tile/>
   <tile/>
   <tile/>
   <tile/>
   <tile/>
   <tile/>
   <tile/>
   <tile/>
   <tile/>
   <tile/>
   <tile/>
   <tile/>
   <tile/>
   <tile/>
   <tile/>
   <tile/>
   <tile gid="217"/>
   <tile gid="217"/>
   <tile gid="217"/>
   <tile gid="217"/>
   <tile gid="217"/>
   <tile gid="217"/>
   <tile gid="217"/>
   <tile gid="217"/>
   <tile gid="217"/>
   <tile gid="217"/>
   <tile gid="217"/>
   <tile gid="217"/>
   <tile gid="217"/>
   <tile gid="217"/>
   <tile/>
   <tile/>
   <tile/>
   <tile gid="217"/>
   <tile gid="217"/>
   <tile gid="217"/>
   <tile gid="217"/>
   <tile gid="217"/>
   <tile gid="217"/>
   <tile gid="217"/>
   <tile gid="217"/>
   <tile gid="217"/>
   <tile gid="217"/>
   <tile gid="217"/>
   <tile gid="217"/>
   <tile gid="217"/>
   <tile gid="217"/>
   <tile/>
   <tile/>
   <tile/>
   <tile/>
   <tile/>
   <tile/>
   <tile/>
   <tile/>
   <tile/>
   <tile/>
   <tile/>
   <tile/>
   <tile/>
   <tile/>
   <tile/>
   <tile/>
   <tile/>
   <tile/>
   <tile/>
   <tile/>
   <tile/>
   <tile/>
   <tile/>
   <tile/>
   <tile/>
   <tile/>
   <tile/>
   <tile/>
   <tile/>
   <tile/>
   <tile/>
   <tile/>
   <tile/>
   <tile/>
   <tile gid="217"/>
   <tile gid="217"/>
   <tile gid="217"/>
   <tile gid="217"/>
   <tile gid="217"/>
   <tile gid="217"/>
   <tile gid="217"/>
   <tile gid="217"/>
   <tile gid="217"/>
   <tile gid="217"/>
   <tile gid="217"/>
   <tile gid="217"/>
   <tile gid="217"/>
   <tile gid="217"/>
   <tile gid="217"/>
   <tile gid="217"/>
   <tile gid="217"/>
   <tile gid="217"/>
   <tile gid="217"/>
   <tile gid="217"/>
   <tile gid="217"/>
   <tile gid="217"/>
   <tile gid="217"/>
   <tile gid="217"/>
   <tile gid="217"/>
   <tile gid="217"/>
   <tile gid="217"/>
   <tile gid="217"/>
   <tile gid="217"/>
   <tile gid="217"/>
   <tile gid="217"/>
   <tile gid="217"/>
   <tile gid="217"/>
   <tile gid="217"/>
   <tile gid="217"/>
   <tile gid="217"/>
   <tile gid="217"/>
   <tile gid="217"/>
   <tile gid="217"/>
   <tile gid="217"/>
   <tile gid="217"/>
   <tile gid="217"/>
   <tile gid="217"/>
   <tile gid="5089"/>
   <tile gid="5090"/>
   <tile gid="5091"/>
   <tile/>
   <tile/>
   <tile/>
   <tile/>
   <tile/>
   <tile/>
   <tile/>
   <tile/>
   <tile/>
   <tile/>
   <tile/>
   <tile gid="217"/>
   <tile gid="217"/>
   <tile gid="217"/>
   <tile/>
   <tile/>
   <tile/>
   <tile/>
   <tile/>
   <tile/>
   <tile/>
   <tile/>
   <tile/>
   <tile/>
   <tile/>
   <tile/>
   <tile/>
   <tile/>
   <tile/>
   <tile/>
   <tile/>
   <tile/>
   <tile/>
   <tile/>
   <tile/>
   <tile/>
   <tile/>
   <tile/>
   <tile/>
   <tile gid="217"/>
   <tile gid="217"/>
   <tile gid="217"/>
   <tile gid="217"/>
   <tile gid="217"/>
   <tile gid="217"/>
   <tile gid="217"/>
   <tile gid="217"/>
   <tile gid="217"/>
   <tile gid="217"/>
   <tile gid="217"/>
   <tile gid="217"/>
   <tile gid="217"/>
   <tile gid="217"/>
   <tile/>
   <tile/>
   <tile/>
   <tile gid="217"/>
   <tile gid="217"/>
   <tile gid="217"/>
   <tile gid="217"/>
   <tile gid="217"/>
   <tile gid="217"/>
   <tile gid="217"/>
   <tile gid="217"/>
   <tile gid="217"/>
   <tile gid="217"/>
   <tile gid="217"/>
   <tile gid="217"/>
   <tile gid="217"/>
   <tile gid="217"/>
   <tile/>
   <tile/>
   <tile/>
   <tile/>
   <tile/>
   <tile/>
   <tile/>
   <tile/>
   <tile/>
   <tile/>
   <tile/>
   <tile/>
   <tile/>
   <tile/>
   <tile/>
   <tile/>
   <tile/>
   <tile/>
   <tile/>
   <tile/>
   <tile/>
   <tile/>
   <tile/>
   <tile/>
   <tile/>
   <tile/>
   <tile/>
   <tile/>
   <tile/>
   <tile/>
   <tile/>
   <tile/>
   <tile/>
   <tile/>
   <tile gid="217"/>
   <tile gid="217"/>
   <tile gid="217"/>
   <tile gid="217"/>
   <tile gid="217"/>
   <tile gid="217"/>
   <tile gid="217"/>
   <tile gid="217"/>
   <tile gid="217"/>
   <tile gid="217"/>
   <tile gid="217"/>
   <tile gid="217"/>
   <tile gid="217"/>
   <tile gid="217"/>
   <tile gid="217"/>
   <tile gid="217"/>
   <tile gid="217"/>
   <tile gid="217"/>
   <tile gid="217"/>
   <tile gid="217"/>
   <tile gid="217"/>
   <tile gid="217"/>
   <tile gid="217"/>
   <tile gid="217"/>
   <tile gid="217"/>
   <tile gid="217"/>
   <tile gid="217"/>
   <tile gid="217"/>
   <tile gid="217"/>
   <tile gid="217"/>
   <tile gid="217"/>
   <tile gid="217"/>
   <tile gid="217"/>
   <tile gid="217"/>
   <tile gid="217"/>
   <tile gid="217"/>
   <tile gid="217"/>
   <tile gid="217"/>
   <tile gid="217"/>
   <tile gid="217"/>
   <tile gid="217"/>
   <tile gid="217"/>
   <tile gid="217"/>
   <tile/>
   <tile/>
   <tile/>
   <tile/>
   <tile/>
   <tile/>
   <tile/>
   <tile/>
   <tile/>
   <tile/>
   <tile/>
   <tile/>
   <tile/>
   <tile/>
   <tile gid="217"/>
   <tile gid="217"/>
   <tile gid="217"/>
   <tile/>
   <tile/>
   <tile/>
   <tile/>
   <tile/>
   <tile/>
   <tile/>
   <tile/>
   <tile/>
   <tile/>
   <tile/>
   <tile/>
   <tile/>
   <tile/>
   <tile/>
   <tile/>
   <tile/>
   <tile/>
   <tile/>
   <tile/>
   <tile/>
   <tile/>
   <tile/>
   <tile/>
   <tile/>
   <tile gid="217"/>
   <tile gid="217"/>
   <tile gid="217"/>
   <tile gid="5025"/>
   <tile gid="5026"/>
   <tile gid="5026"/>
   <tile gid="5026"/>
   <tile gid="5026"/>
   <tile gid="5026"/>
   <tile gid="5026"/>
   <tile gid="5026"/>
   <tile gid="5026"/>
   <tile gid="5026"/>
   <tile gid="5027"/>
   <tile/>
   <tile/>
   <tile/>
   <tile gid="5025"/>
   <tile gid="5026"/>
   <tile gid="5026"/>
   <tile gid="5026"/>
   <tile gid="5026"/>
   <tile gid="5026"/>
   <tile gid="5026"/>
   <tile gid="5027"/>
   <tile gid="217"/>
   <tile gid="217"/>
   <tile gid="217"/>
   <tile gid="217"/>
   <tile gid="217"/>
   <tile gid="217"/>
   <tile/>
   <tile/>
   <tile/>
   <tile/>
   <tile/>
   <tile/>
   <tile/>
   <tile/>
   <tile/>
   <tile/>
   <tile/>
   <tile/>
   <tile/>
   <tile/>
   <tile/>
   <tile/>
   <tile/>
   <tile/>
   <tile/>
   <tile/>
   <tile/>
   <tile/>
   <tile/>
   <tile/>
   <tile/>
   <tile/>
   <tile/>
   <tile/>
   <tile/>
   <tile/>
   <tile/>
   <tile/>
   <tile/>
   <tile/>
   <tile gid="217"/>
   <tile gid="217"/>
   <tile gid="217"/>
   <tile gid="217"/>
   <tile gid="217"/>
   <tile gid="217"/>
   <tile gid="217"/>
   <tile gid="217"/>
   <tile gid="217"/>
   <tile gid="217"/>
   <tile gid="217"/>
   <tile gid="217"/>
   <tile gid="217"/>
   <tile gid="217"/>
   <tile gid="217"/>
   <tile gid="217"/>
   <tile gid="217"/>
   <tile gid="217"/>
   <tile gid="217"/>
   <tile gid="217"/>
   <tile gid="217"/>
   <tile gid="217"/>
   <tile gid="217"/>
   <tile gid="217"/>
   <tile gid="217"/>
   <tile gid="217"/>
   <tile gid="217"/>
   <tile gid="217"/>
   <tile gid="217"/>
   <tile gid="217"/>
   <tile gid="217"/>
   <tile gid="217"/>
   <tile gid="217"/>
   <tile gid="217"/>
   <tile gid="217"/>
   <tile gid="217"/>
   <tile gid="217"/>
   <tile gid="217"/>
   <tile gid="217"/>
   <tile gid="217"/>
   <tile gid="217"/>
   <tile gid="217"/>
   <tile gid="217"/>
   <tile/>
   <tile/>
   <tile/>
   <tile/>
   <tile/>
   <tile/>
   <tile/>
   <tile/>
   <tile/>
   <tile/>
   <tile/>
   <tile/>
   <tile/>
   <tile/>
   <tile gid="217"/>
   <tile gid="217"/>
   <tile gid="217"/>
   <tile/>
   <tile/>
   <tile/>
   <tile/>
   <tile/>
   <tile/>
   <tile/>
   <tile/>
   <tile/>
   <tile/>
   <tile/>
   <tile/>
   <tile/>
   <tile/>
   <tile/>
   <tile/>
   <tile/>
   <tile/>
   <tile/>
   <tile/>
   <tile/>
   <tile/>
   <tile/>
   <tile/>
   <tile/>
   <tile gid="217"/>
   <tile gid="217"/>
   <tile gid="217"/>
   <tile gid="5057"/>
   <tile gid="5058"/>
   <tile gid="5058"/>
   <tile gid="5058"/>
   <tile gid="5058"/>
   <tile gid="5058"/>
   <tile gid="5058"/>
   <tile gid="5058"/>
   <tile gid="5058"/>
   <tile gid="5058"/>
   <tile gid="5059"/>
   <tile/>
   <tile/>
   <tile/>
   <tile gid="5057"/>
   <tile gid="5058"/>
   <tile gid="5058"/>
   <tile gid="5058"/>
   <tile gid="5058"/>
   <tile gid="5058"/>
   <tile gid="5058"/>
   <tile gid="5059"/>
   <tile gid="217"/>
   <tile gid="217"/>
   <tile gid="217"/>
   <tile gid="217"/>
   <tile gid="217"/>
   <tile gid="217"/>
   <tile/>
   <tile/>
   <tile/>
   <tile/>
   <tile/>
   <tile/>
   <tile/>
   <tile/>
   <tile/>
   <tile/>
   <tile/>
   <tile/>
   <tile/>
   <tile/>
   <tile/>
   <tile/>
   <tile/>
   <tile/>
   <tile/>
   <tile/>
   <tile/>
   <tile/>
   <tile/>
   <tile/>
   <tile/>
   <tile/>
   <tile/>
   <tile/>
   <tile/>
   <tile/>
   <tile/>
   <tile/>
   <tile/>
   <tile/>
   <tile gid="217"/>
   <tile gid="217"/>
   <tile gid="217"/>
   <tile gid="217"/>
   <tile gid="217"/>
   <tile gid="217"/>
   <tile gid="217"/>
   <tile gid="217"/>
   <tile gid="217"/>
   <tile gid="217"/>
   <tile gid="217"/>
   <tile gid="217"/>
   <tile gid="217"/>
   <tile gid="217"/>
   <tile gid="217"/>
   <tile gid="217"/>
   <tile gid="217"/>
   <tile gid="217"/>
   <tile gid="217"/>
   <tile gid="217"/>
   <tile gid="217"/>
   <tile gid="217"/>
   <tile gid="217"/>
   <tile gid="217"/>
   <tile gid="217"/>
   <tile gid="217"/>
   <tile gid="217"/>
   <tile gid="217"/>
   <tile gid="217"/>
   <tile gid="217"/>
   <tile gid="217"/>
   <tile gid="217"/>
   <tile gid="217"/>
   <tile gid="217"/>
   <tile gid="217"/>
   <tile gid="217"/>
   <tile gid="217"/>
   <tile gid="217"/>
   <tile gid="217"/>
   <tile gid="217"/>
   <tile gid="217"/>
   <tile gid="217"/>
   <tile gid="217"/>
   <tile gid="217"/>
   <tile gid="217"/>
   <tile gid="217"/>
   <tile/>
   <tile/>
   <tile/>
   <tile/>
   <tile/>
   <tile/>
   <tile/>
   <tile/>
   <tile/>
   <tile/>
   <tile/>
   <tile gid="217"/>
   <tile gid="217"/>
   <tile gid="217"/>
   <tile/>
   <tile/>
   <tile/>
   <tile/>
   <tile/>
   <tile/>
   <tile/>
   <tile/>
   <tile/>
   <tile/>
   <tile/>
   <tile/>
   <tile/>
   <tile/>
   <tile/>
   <tile/>
   <tile/>
   <tile/>
   <tile/>
   <tile/>
   <tile/>
   <tile/>
   <tile/>
   <tile/>
   <tile/>
   <tile gid="217"/>
   <tile gid="217"/>
   <tile gid="217"/>
   <tile gid="5089"/>
   <tile gid="5090"/>
   <tile gid="5090"/>
   <tile gid="5090"/>
   <tile gid="5090"/>
   <tile gid="5090"/>
   <tile gid="5090"/>
   <tile gid="5090"/>
   <tile gid="5090"/>
   <tile gid="5090"/>
   <tile gid="5091"/>
   <tile/>
   <tile/>
   <tile/>
   <tile gid="5089"/>
   <tile gid="5090"/>
   <tile gid="5090"/>
   <tile gid="5090"/>
   <tile gid="5090"/>
   <tile gid="5090"/>
   <tile gid="5090"/>
   <tile gid="5091"/>
   <tile gid="217"/>
   <tile gid="217"/>
   <tile gid="217"/>
   <tile gid="217"/>
   <tile gid="217"/>
   <tile gid="217"/>
   <tile/>
   <tile/>
   <tile/>
   <tile/>
   <tile/>
   <tile/>
   <tile/>
   <tile/>
   <tile/>
   <tile/>
   <tile/>
   <tile/>
   <tile/>
   <tile/>
   <tile/>
   <tile/>
   <tile/>
   <tile/>
   <tile/>
   <tile/>
   <tile/>
   <tile/>
   <tile/>
   <tile/>
   <tile/>
   <tile/>
   <tile/>
   <tile/>
   <tile/>
   <tile/>
   <tile/>
   <tile/>
   <tile/>
   <tile/>
   <tile gid="217"/>
   <tile gid="217"/>
   <tile gid="217"/>
   <tile gid="217"/>
   <tile gid="217"/>
   <tile gid="217"/>
   <tile gid="217"/>
   <tile gid="217"/>
   <tile gid="217"/>
   <tile gid="217"/>
   <tile gid="217"/>
   <tile gid="217"/>
   <tile gid="217"/>
   <tile gid="217"/>
   <tile gid="217"/>
   <tile gid="217"/>
   <tile gid="217"/>
   <tile gid="217"/>
   <tile gid="217"/>
   <tile gid="217"/>
   <tile gid="217"/>
   <tile gid="217"/>
   <tile gid="217"/>
   <tile gid="217"/>
   <tile gid="217"/>
   <tile gid="217"/>
   <tile gid="217"/>
   <tile gid="217"/>
   <tile gid="217"/>
   <tile gid="217"/>
   <tile gid="217"/>
   <tile gid="217"/>
   <tile gid="217"/>
   <tile gid="217"/>
   <tile gid="217"/>
   <tile gid="217"/>
   <tile gid="217"/>
   <tile gid="217"/>
   <tile gid="217"/>
   <tile gid="217"/>
   <tile gid="217"/>
   <tile gid="217"/>
   <tile gid="217"/>
   <tile gid="217"/>
   <tile gid="217"/>
   <tile gid="217"/>
   <tile/>
   <tile/>
   <tile/>
   <tile/>
   <tile/>
   <tile/>
   <tile/>
   <tile/>
   <tile/>
   <tile/>
   <tile/>
   <tile gid="217"/>
   <tile gid="217"/>
   <tile gid="217"/>
   <tile/>
   <tile/>
   <tile/>
   <tile/>
   <tile/>
   <tile/>
   <tile/>
   <tile/>
   <tile/>
   <tile/>
   <tile/>
   <tile/>
   <tile/>
   <tile/>
   <tile/>
   <tile/>
   <tile/>
   <tile/>
   <tile/>
   <tile/>
   <tile/>
   <tile/>
   <tile/>
   <tile/>
   <tile/>
   <tile gid="217"/>
   <tile gid="217"/>
   <tile gid="217"/>
   <tile/>
   <tile/>
   <tile/>
   <tile/>
   <tile/>
   <tile/>
   <tile/>
   <tile/>
   <tile/>
   <tile/>
   <tile/>
   <tile/>
   <tile/>
   <tile/>
   <tile/>
   <tile/>
   <tile/>
   <tile/>
   <tile/>
   <tile/>
   <tile/>
   <tile/>
   <tile gid="217"/>
   <tile gid="217"/>
   <tile gid="217"/>
   <tile gid="217"/>
   <tile gid="217"/>
   <tile gid="217"/>
   <tile/>
   <tile/>
   <tile/>
   <tile/>
   <tile/>
   <tile/>
   <tile/>
   <tile/>
   <tile/>
   <tile/>
   <tile/>
   <tile/>
   <tile/>
   <tile/>
   <tile/>
   <tile/>
   <tile/>
   <tile/>
   <tile/>
   <tile/>
   <tile/>
   <tile/>
   <tile/>
   <tile/>
   <tile/>
   <tile/>
   <tile/>
   <tile/>
   <tile/>
   <tile/>
   <tile/>
   <tile/>
   <tile/>
   <tile/>
   <tile gid="217"/>
   <tile gid="217"/>
   <tile gid="217"/>
   <tile gid="217"/>
   <tile gid="217"/>
   <tile gid="217"/>
   <tile gid="217"/>
   <tile gid="217"/>
   <tile gid="217"/>
   <tile gid="217"/>
   <tile gid="217"/>
   <tile gid="217"/>
   <tile gid="217"/>
   <tile gid="217"/>
   <tile gid="217"/>
   <tile gid="217"/>
   <tile gid="217"/>
   <tile gid="217"/>
   <tile gid="217"/>
   <tile gid="217"/>
   <tile gid="217"/>
   <tile gid="217"/>
   <tile gid="217"/>
   <tile gid="217"/>
   <tile gid="217"/>
   <tile gid="217"/>
   <tile gid="217"/>
   <tile gid="217"/>
   <tile gid="217"/>
   <tile gid="217"/>
   <tile gid="217"/>
   <tile gid="217"/>
   <tile gid="217"/>
   <tile gid="217"/>
   <tile gid="217"/>
   <tile gid="217"/>
   <tile gid="217"/>
   <tile gid="217"/>
   <tile gid="217"/>
   <tile gid="217"/>
   <tile gid="217"/>
   <tile gid="217"/>
   <tile gid="217"/>
   <tile gid="217"/>
   <tile gid="217"/>
   <tile gid="217"/>
   <tile/>
   <tile/>
   <tile/>
   <tile/>
   <tile/>
   <tile/>
   <tile/>
   <tile/>
   <tile/>
   <tile/>
   <tile/>
   <tile gid="217"/>
   <tile gid="217"/>
   <tile gid="217"/>
   <tile/>
   <tile/>
   <tile/>
   <tile/>
   <tile/>
   <tile/>
   <tile/>
   <tile/>
   <tile/>
   <tile/>
   <tile/>
   <tile/>
   <tile/>
   <tile/>
   <tile/>
   <tile/>
   <tile/>
   <tile/>
   <tile/>
   <tile/>
   <tile/>
   <tile/>
   <tile/>
   <tile/>
   <tile/>
   <tile gid="217"/>
   <tile gid="217"/>
   <tile gid="217"/>
   <tile/>
   <tile/>
   <tile/>
   <tile/>
   <tile/>
   <tile/>
   <tile/>
   <tile/>
   <tile/>
   <tile/>
   <tile/>
   <tile/>
   <tile/>
   <tile/>
   <tile/>
   <tile/>
   <tile/>
   <tile/>
   <tile/>
   <tile/>
   <tile/>
   <tile/>
   <tile gid="217"/>
   <tile gid="217"/>
   <tile gid="217"/>
   <tile gid="217"/>
   <tile gid="217"/>
   <tile gid="217"/>
   <tile/>
   <tile/>
   <tile/>
   <tile/>
   <tile/>
   <tile/>
   <tile/>
   <tile/>
   <tile/>
   <tile/>
   <tile/>
   <tile/>
   <tile/>
   <tile/>
   <tile/>
   <tile/>
   <tile/>
   <tile/>
   <tile/>
   <tile/>
   <tile/>
   <tile/>
   <tile/>
   <tile/>
   <tile/>
   <tile/>
   <tile/>
   <tile/>
   <tile/>
   <tile/>
   <tile/>
   <tile/>
   <tile/>
   <tile/>
   <tile gid="217"/>
   <tile gid="217"/>
   <tile gid="217"/>
   <tile gid="217"/>
   <tile gid="217"/>
   <tile gid="217"/>
   <tile gid="217"/>
   <tile gid="217"/>
   <tile gid="217"/>
   <tile gid="217"/>
   <tile gid="217"/>
   <tile gid="217"/>
   <tile gid="217"/>
   <tile gid="217"/>
   <tile gid="217"/>
   <tile gid="217"/>
   <tile gid="217"/>
   <tile gid="217"/>
   <tile gid="217"/>
   <tile gid="217"/>
   <tile gid="217"/>
   <tile gid="217"/>
   <tile gid="217"/>
   <tile gid="217"/>
   <tile gid="217"/>
   <tile gid="217"/>
   <tile gid="217"/>
   <tile gid="217"/>
   <tile gid="217"/>
   <tile gid="217"/>
   <tile gid="217"/>
   <tile gid="217"/>
   <tile gid="217"/>
   <tile gid="217"/>
   <tile gid="217"/>
   <tile gid="217"/>
   <tile gid="217"/>
   <tile gid="217"/>
   <tile gid="217"/>
   <tile gid="217"/>
   <tile gid="217"/>
   <tile gid="217"/>
   <tile gid="217"/>
   <tile gid="217"/>
   <tile gid="217"/>
   <tile gid="217"/>
   <tile/>
   <tile/>
   <tile/>
   <tile/>
   <tile/>
   <tile/>
   <tile/>
   <tile/>
   <tile/>
   <tile/>
   <tile/>
   <tile gid="217"/>
   <tile gid="217"/>
   <tile gid="217"/>
   <tile/>
   <tile/>
   <tile/>
   <tile/>
   <tile/>
   <tile/>
   <tile/>
   <tile/>
   <tile/>
   <tile/>
   <tile/>
   <tile/>
   <tile/>
   <tile/>
   <tile/>
   <tile/>
   <tile/>
   <tile/>
   <tile/>
   <tile/>
   <tile/>
   <tile/>
   <tile/>
   <tile/>
   <tile/>
   <tile gid="217"/>
   <tile gid="217"/>
   <tile gid="217"/>
   <tile/>
   <tile/>
   <tile/>
   <tile/>
   <tile/>
   <tile/>
   <tile/>
   <tile/>
   <tile/>
   <tile/>
   <tile/>
   <tile/>
   <tile/>
   <tile/>
   <tile/>
   <tile/>
   <tile/>
   <tile/>
   <tile/>
   <tile/>
   <tile/>
   <tile/>
   <tile gid="217"/>
   <tile gid="217"/>
   <tile gid="217"/>
   <tile gid="217"/>
   <tile gid="217"/>
   <tile gid="217"/>
   <tile/>
   <tile/>
   <tile/>
   <tile/>
   <tile/>
   <tile/>
   <tile/>
   <tile/>
   <tile/>
   <tile/>
   <tile/>
   <tile/>
   <tile/>
   <tile/>
   <tile/>
   <tile/>
   <tile/>
   <tile/>
   <tile/>
   <tile/>
   <tile/>
   <tile/>
   <tile/>
   <tile/>
   <tile/>
   <tile/>
   <tile/>
   <tile/>
   <tile/>
   <tile/>
   <tile/>
   <tile/>
   <tile/>
   <tile/>
   <tile gid="217"/>
   <tile gid="217"/>
   <tile gid="217"/>
   <tile gid="217"/>
   <tile gid="217"/>
   <tile gid="217"/>
   <tile gid="217"/>
   <tile gid="217"/>
   <tile gid="217"/>
   <tile gid="217"/>
   <tile gid="217"/>
   <tile gid="217"/>
   <tile gid="217"/>
   <tile gid="217"/>
   <tile gid="217"/>
   <tile gid="217"/>
   <tile gid="217"/>
   <tile gid="217"/>
   <tile gid="217"/>
   <tile gid="217"/>
   <tile gid="217"/>
   <tile gid="217"/>
   <tile gid="217"/>
   <tile gid="217"/>
   <tile gid="217"/>
   <tile gid="217"/>
   <tile gid="217"/>
   <tile gid="217"/>
   <tile gid="217"/>
   <tile gid="217"/>
   <tile gid="217"/>
   <tile gid="217"/>
   <tile gid="217"/>
   <tile gid="217"/>
   <tile gid="217"/>
   <tile gid="217"/>
   <tile gid="217"/>
   <tile gid="217"/>
   <tile gid="217"/>
   <tile gid="217"/>
   <tile gid="217"/>
   <tile gid="217"/>
   <tile gid="217"/>
   <tile gid="217"/>
   <tile gid="217"/>
   <tile gid="217"/>
   <tile/>
   <tile/>
   <tile/>
   <tile/>
   <tile/>
   <tile/>
   <tile/>
   <tile/>
   <tile/>
   <tile/>
   <tile/>
   <tile gid="217"/>
   <tile gid="217"/>
   <tile gid="217"/>
   <tile/>
   <tile/>
   <tile/>
   <tile/>
   <tile/>
   <tile/>
   <tile/>
   <tile/>
   <tile/>
   <tile/>
   <tile/>
   <tile/>
   <tile/>
   <tile/>
   <tile/>
   <tile/>
   <tile/>
   <tile/>
   <tile/>
   <tile/>
   <tile/>
   <tile/>
   <tile/>
   <tile/>
   <tile/>
   <tile gid="217"/>
   <tile gid="217"/>
   <tile gid="217"/>
   <tile/>
   <tile/>
   <tile/>
   <tile/>
   <tile/>
   <tile/>
   <tile/>
   <tile/>
   <tile/>
   <tile/>
   <tile/>
   <tile/>
   <tile/>
   <tile/>
   <tile/>
   <tile/>
   <tile/>
   <tile/>
   <tile/>
   <tile/>
   <tile/>
   <tile/>
   <tile gid="217"/>
   <tile gid="217"/>
   <tile gid="217"/>
   <tile gid="217"/>
   <tile gid="217"/>
   <tile gid="217"/>
   <tile/>
   <tile/>
   <tile/>
   <tile/>
   <tile/>
   <tile/>
   <tile/>
   <tile/>
   <tile/>
   <tile/>
   <tile/>
   <tile/>
   <tile/>
   <tile/>
   <tile/>
   <tile/>
   <tile/>
   <tile/>
   <tile/>
   <tile/>
   <tile/>
   <tile/>
   <tile/>
   <tile/>
   <tile/>
   <tile/>
   <tile/>
   <tile/>
   <tile/>
   <tile/>
   <tile/>
   <tile/>
   <tile/>
   <tile/>
   <tile gid="217"/>
   <tile gid="217"/>
   <tile gid="217"/>
   <tile gid="217"/>
   <tile gid="217"/>
   <tile gid="217"/>
   <tile gid="217"/>
   <tile gid="217"/>
   <tile gid="217"/>
   <tile gid="217"/>
   <tile gid="217"/>
   <tile gid="217"/>
   <tile gid="217"/>
   <tile gid="217"/>
   <tile gid="217"/>
   <tile gid="217"/>
   <tile gid="217"/>
   <tile gid="217"/>
   <tile gid="217"/>
   <tile gid="217"/>
   <tile gid="217"/>
   <tile gid="217"/>
   <tile gid="217"/>
   <tile gid="217"/>
   <tile gid="217"/>
   <tile gid="217"/>
   <tile gid="217"/>
   <tile gid="217"/>
   <tile gid="217"/>
   <tile gid="217"/>
   <tile gid="217"/>
   <tile gid="217"/>
   <tile gid="217"/>
   <tile gid="217"/>
   <tile gid="217"/>
   <tile gid="217"/>
   <tile gid="217"/>
   <tile gid="217"/>
   <tile gid="217"/>
   <tile gid="217"/>
   <tile gid="217"/>
   <tile gid="217"/>
   <tile gid="217"/>
   <tile gid="217"/>
   <tile gid="217"/>
   <tile gid="217"/>
   <tile/>
   <tile/>
   <tile/>
   <tile/>
   <tile/>
   <tile/>
   <tile/>
   <tile/>
   <tile/>
   <tile/>
   <tile/>
   <tile gid="217"/>
   <tile gid="217"/>
   <tile gid="217"/>
   <tile/>
   <tile/>
   <tile/>
   <tile/>
   <tile/>
   <tile/>
   <tile/>
   <tile/>
   <tile/>
   <tile/>
   <tile/>
   <tile/>
   <tile/>
   <tile/>
   <tile/>
   <tile/>
   <tile/>
   <tile/>
   <tile/>
   <tile/>
   <tile/>
   <tile/>
   <tile/>
   <tile/>
   <tile/>
   <tile gid="217"/>
   <tile gid="217"/>
   <tile gid="217"/>
   <tile/>
   <tile/>
   <tile/>
   <tile/>
   <tile/>
   <tile/>
   <tile/>
   <tile/>
   <tile/>
   <tile/>
   <tile/>
   <tile/>
   <tile/>
   <tile/>
   <tile/>
   <tile/>
   <tile/>
   <tile/>
   <tile/>
   <tile/>
   <tile/>
   <tile/>
   <tile gid="217"/>
   <tile gid="217"/>
   <tile gid="217"/>
   <tile gid="217"/>
   <tile gid="217"/>
   <tile gid="217"/>
   <tile gid="217"/>
   <tile gid="217"/>
   <tile gid="217"/>
   <tile gid="217"/>
   <tile gid="217"/>
   <tile gid="217"/>
   <tile gid="217"/>
   <tile gid="217"/>
   <tile/>
   <tile/>
   <tile/>
   <tile gid="217"/>
   <tile gid="217"/>
   <tile gid="217"/>
   <tile gid="217"/>
   <tile gid="217"/>
   <tile gid="217"/>
   <tile gid="217"/>
   <tile gid="217"/>
   <tile gid="217"/>
   <tile gid="217"/>
   <tile gid="217"/>
   <tile gid="217"/>
   <tile gid="217"/>
   <tile gid="217"/>
   <tile gid="217"/>
   <tile gid="217"/>
   <tile gid="217"/>
   <tile gid="217"/>
   <tile gid="217"/>
   <tile gid="217"/>
   <tile gid="217"/>
   <tile gid="217"/>
   <tile gid="217"/>
   <tile gid="217"/>
   <tile gid="217"/>
   <tile gid="217"/>
   <tile gid="217"/>
   <tile gid="217"/>
   <tile gid="217"/>
   <tile gid="217"/>
   <tile gid="217"/>
   <tile gid="217"/>
   <tile gid="217"/>
   <tile gid="217"/>
   <tile gid="217"/>
   <tile gid="217"/>
   <tile gid="217"/>
   <tile gid="217"/>
   <tile gid="217"/>
   <tile gid="217"/>
   <tile gid="217"/>
   <tile gid="217"/>
   <tile gid="217"/>
   <tile gid="217"/>
   <tile gid="217"/>
   <tile gid="217"/>
   <tile gid="217"/>
   <tile gid="217"/>
   <tile gid="217"/>
   <tile gid="217"/>
   <tile gid="217"/>
   <tile gid="217"/>
   <tile gid="217"/>
   <tile gid="217"/>
   <tile gid="217"/>
   <tile gid="217"/>
   <tile gid="217"/>
   <tile gid="217"/>
   <tile gid="217"/>
   <tile gid="217"/>
   <tile gid="217"/>
   <tile gid="217"/>
   <tile gid="217"/>
   <tile gid="217"/>
   <tile gid="217"/>
   <tile gid="217"/>
   <tile gid="217"/>
   <tile gid="217"/>
   <tile gid="217"/>
   <tile gid="217"/>
   <tile gid="217"/>
   <tile gid="217"/>
   <tile gid="217"/>
   <tile gid="217"/>
   <tile gid="217"/>
   <tile gid="217"/>
   <tile gid="217"/>
   <tile gid="217"/>
   <tile gid="217"/>
   <tile gid="217"/>
   <tile gid="217"/>
   <tile gid="217"/>
   <tile gid="217"/>
   <tile gid="217"/>
   <tile gid="217"/>
   <tile gid="217"/>
   <tile gid="217"/>
   <tile gid="217"/>
   <tile gid="217"/>
   <tile gid="217"/>
   <tile gid="217"/>
   <tile gid="217"/>
   <tile gid="217"/>
   <tile gid="217"/>
   <tile gid="217"/>
   <tile gid="217"/>
   <tile gid="217"/>
   <tile gid="217"/>
   <tile gid="217"/>
   <tile gid="217"/>
   <tile gid="217"/>
   <tile gid="217"/>
   <tile gid="217"/>
   <tile gid="217"/>
   <tile gid="217"/>
   <tile gid="217"/>
   <tile gid="217"/>
   <tile gid="217"/>
   <tile gid="217"/>
   <tile gid="217"/>
   <tile gid="217"/>
   <tile/>
   <tile/>
   <tile/>
   <tile/>
   <tile/>
   <tile/>
   <tile/>
   <tile/>
   <tile/>
   <tile/>
   <tile/>
   <tile/>
   <tile/>
   <tile/>
   <tile/>
   <tile/>
   <tile/>
   <tile/>
   <tile/>
   <tile/>
   <tile/>
   <tile/>
   <tile gid="217"/>
   <tile gid="217"/>
   <tile gid="217"/>
   <tile gid="217"/>
   <tile gid="217"/>
   <tile gid="217"/>
   <tile gid="217"/>
   <tile gid="217"/>
   <tile gid="217"/>
   <tile gid="217"/>
   <tile gid="217"/>
   <tile gid="217"/>
   <tile gid="217"/>
   <tile gid="217"/>
   <tile/>
   <tile/>
   <tile/>
   <tile gid="217"/>
   <tile gid="217"/>
   <tile gid="217"/>
   <tile gid="217"/>
   <tile gid="217"/>
   <tile gid="217"/>
   <tile gid="217"/>
   <tile gid="217"/>
   <tile gid="217"/>
   <tile gid="217"/>
   <tile gid="217"/>
   <tile gid="217"/>
   <tile gid="217"/>
   <tile gid="217"/>
   <tile gid="217"/>
   <tile gid="217"/>
   <tile gid="217"/>
   <tile gid="217"/>
   <tile gid="217"/>
   <tile gid="217"/>
   <tile gid="217"/>
   <tile gid="217"/>
   <tile gid="217"/>
   <tile gid="217"/>
   <tile gid="217"/>
   <tile gid="217"/>
   <tile gid="217"/>
   <tile gid="217"/>
   <tile gid="217"/>
   <tile gid="217"/>
   <tile gid="217"/>
   <tile gid="217"/>
   <tile gid="217"/>
   <tile gid="217"/>
   <tile gid="217"/>
   <tile gid="217"/>
   <tile gid="217"/>
   <tile gid="217"/>
   <tile gid="217"/>
   <tile gid="217"/>
   <tile gid="217"/>
   <tile gid="217"/>
   <tile gid="217"/>
   <tile gid="217"/>
   <tile gid="217"/>
   <tile gid="217"/>
   <tile gid="217"/>
   <tile gid="217"/>
   <tile gid="217"/>
   <tile gid="217"/>
   <tile gid="217"/>
   <tile gid="217"/>
   <tile gid="217"/>
   <tile gid="217"/>
   <tile gid="217"/>
   <tile gid="217"/>
   <tile gid="217"/>
   <tile gid="217"/>
   <tile gid="217"/>
   <tile gid="217"/>
   <tile gid="217"/>
   <tile gid="217"/>
   <tile gid="217"/>
   <tile gid="217"/>
   <tile gid="217"/>
   <tile gid="217"/>
   <tile gid="217"/>
   <tile gid="217"/>
   <tile gid="217"/>
   <tile gid="217"/>
   <tile gid="217"/>
   <tile gid="217"/>
   <tile gid="217"/>
   <tile gid="217"/>
   <tile gid="217"/>
   <tile gid="217"/>
   <tile gid="217"/>
   <tile gid="217"/>
   <tile gid="217"/>
   <tile gid="217"/>
   <tile gid="217"/>
   <tile gid="217"/>
   <tile gid="217"/>
   <tile gid="217"/>
   <tile gid="217"/>
   <tile gid="217"/>
   <tile gid="217"/>
   <tile gid="217"/>
   <tile gid="217"/>
   <tile gid="217"/>
   <tile gid="217"/>
   <tile gid="217"/>
   <tile gid="217"/>
   <tile gid="217"/>
   <tile gid="217"/>
   <tile gid="217"/>
   <tile gid="217"/>
   <tile gid="217"/>
   <tile gid="217"/>
   <tile gid="217"/>
   <tile gid="217"/>
   <tile gid="217"/>
   <tile gid="217"/>
   <tile gid="217"/>
   <tile gid="217"/>
   <tile gid="217"/>
   <tile gid="217"/>
   <tile gid="217"/>
   <tile gid="217"/>
   <tile gid="217"/>
   <tile gid="217"/>
   <tile/>
   <tile/>
   <tile/>
   <tile/>
   <tile/>
   <tile/>
   <tile/>
   <tile/>
   <tile/>
   <tile/>
   <tile/>
   <tile/>
   <tile/>
   <tile/>
   <tile/>
   <tile/>
   <tile/>
   <tile/>
   <tile/>
   <tile/>
   <tile/>
   <tile/>
   <tile gid="217"/>
   <tile gid="217"/>
   <tile gid="217"/>
   <tile gid="217"/>
   <tile gid="217"/>
   <tile gid="217"/>
   <tile gid="5025"/>
   <tile gid="5026"/>
   <tile gid="5026"/>
   <tile gid="5026"/>
   <tile gid="5026"/>
   <tile gid="5026"/>
   <tile gid="5026"/>
   <tile gid="5027"/>
   <tile/>
   <tile/>
   <tile/>
   <tile gid="5025"/>
   <tile gid="5026"/>
   <tile gid="5026"/>
   <tile gid="5026"/>
   <tile gid="5026"/>
   <tile gid="5026"/>
   <tile gid="5026"/>
   <tile gid="5026"/>
   <tile gid="5026"/>
   <tile gid="5026"/>
   <tile gid="5027"/>
   <tile gid="217"/>
   <tile gid="217"/>
   <tile gid="217"/>
   <tile gid="5025"/>
   <tile gid="5026"/>
   <tile gid="5026"/>
   <tile gid="5026"/>
   <tile gid="5026"/>
   <tile gid="5026"/>
   <tile gid="5026"/>
   <tile gid="5026"/>
   <tile gid="5026"/>
   <tile gid="5026"/>
   <tile gid="5026"/>
   <tile gid="5026"/>
   <tile gid="5026"/>
   <tile gid="5026"/>
   <tile gid="5026"/>
   <tile gid="5026"/>
   <tile gid="5026"/>
   <tile gid="5026"/>
   <tile gid="5026"/>
   <tile gid="5026"/>
   <tile gid="5026"/>
   <tile gid="5026"/>
   <tile gid="5026"/>
   <tile gid="5026"/>
   <tile gid="5026"/>
   <tile gid="5026"/>
   <tile gid="5026"/>
   <tile gid="5026"/>
   <tile gid="5026"/>
   <tile gid="5026"/>
   <tile gid="5026"/>
   <tile gid="5026"/>
   <tile gid="5026"/>
   <tile gid="5026"/>
   <tile gid="5026"/>
   <tile gid="5026"/>
   <tile gid="5026"/>
   <tile gid="5027"/>
   <tile gid="217"/>
   <tile gid="217"/>
   <tile gid="217"/>
   <tile gid="5025"/>
   <tile gid="5026"/>
   <tile gid="5026"/>
   <tile gid="5026"/>
   <tile gid="5026"/>
   <tile gid="5026"/>
   <tile gid="5026"/>
   <tile gid="5026"/>
   <tile gid="5026"/>
   <tile gid="5026"/>
   <tile gid="5026"/>
   <tile gid="5026"/>
   <tile gid="5026"/>
   <tile gid="5026"/>
   <tile gid="5026"/>
   <tile gid="5026"/>
   <tile gid="5026"/>
   <tile gid="5026"/>
   <tile gid="5026"/>
   <tile gid="5026"/>
   <tile gid="5026"/>
   <tile gid="5026"/>
   <tile gid="5026"/>
   <tile gid="5026"/>
   <tile gid="5027"/>
   <tile gid="217"/>
   <tile gid="217"/>
   <tile gid="217"/>
   <tile gid="5025"/>
   <tile gid="5026"/>
   <tile gid="5026"/>
   <tile gid="5026"/>
   <tile gid="5026"/>
   <tile gid="5026"/>
   <tile gid="5026"/>
   <tile gid="5026"/>
   <tile gid="5026"/>
   <tile gid="5026"/>
   <tile gid="5026"/>
   <tile gid="5026"/>
   <tile gid="5026"/>
   <tile gid="5026"/>
   <tile gid="5026"/>
   <tile gid="5026"/>
   <tile gid="5026"/>
   <tile gid="5026"/>
   <tile gid="5026"/>
   <tile gid="5026"/>
   <tile gid="5026"/>
   <tile gid="5026"/>
   <tile gid="5026"/>
   <tile gid="5026"/>
   <tile gid="5027"/>
   <tile gid="217"/>
   <tile gid="217"/>
   <tile gid="217"/>
   <tile/>
   <tile/>
   <tile/>
   <tile/>
   <tile/>
   <tile/>
   <tile/>
   <tile/>
   <tile/>
   <tile/>
   <tile/>
   <tile/>
   <tile/>
   <tile/>
   <tile/>
   <tile/>
   <tile/>
   <tile/>
   <tile/>
   <tile/>
   <tile/>
   <tile/>
   <tile gid="217"/>
   <tile gid="217"/>
   <tile gid="217"/>
   <tile gid="217"/>
   <tile gid="217"/>
   <tile gid="217"/>
   <tile gid="5057"/>
   <tile gid="5058"/>
   <tile gid="5058"/>
   <tile gid="5058"/>
   <tile gid="5058"/>
   <tile gid="5058"/>
   <tile gid="5058"/>
   <tile gid="5059"/>
   <tile/>
   <tile/>
   <tile/>
   <tile gid="5057"/>
   <tile gid="5058"/>
   <tile gid="5058"/>
   <tile gid="5058"/>
   <tile gid="5058"/>
   <tile gid="5058"/>
   <tile gid="5058"/>
   <tile gid="5058"/>
   <tile gid="5058"/>
   <tile gid="5058"/>
   <tile gid="5059"/>
   <tile gid="217"/>
   <tile gid="217"/>
   <tile gid="217"/>
   <tile gid="5057"/>
   <tile gid="5058"/>
   <tile gid="5058"/>
   <tile gid="5058"/>
   <tile gid="5058"/>
   <tile gid="5058"/>
   <tile gid="5058"/>
   <tile gid="5058"/>
   <tile gid="5058"/>
   <tile gid="5058"/>
   <tile gid="5058"/>
   <tile gid="5058"/>
   <tile gid="5058"/>
   <tile gid="5058"/>
   <tile gid="5058"/>
   <tile gid="5058"/>
   <tile gid="5058"/>
   <tile gid="5058"/>
   <tile gid="5058"/>
   <tile gid="5058"/>
   <tile gid="5058"/>
   <tile gid="5058"/>
   <tile gid="5058"/>
   <tile gid="5058"/>
   <tile gid="5058"/>
   <tile gid="5058"/>
   <tile gid="5058"/>
   <tile gid="5058"/>
   <tile gid="5058"/>
   <tile gid="5058"/>
   <tile gid="5058"/>
   <tile gid="5058"/>
   <tile gid="5058"/>
   <tile gid="5058"/>
   <tile gid="5058"/>
   <tile gid="5058"/>
   <tile gid="5058"/>
   <tile gid="5059"/>
   <tile gid="217"/>
   <tile gid="217"/>
   <tile gid="217"/>
   <tile gid="5057"/>
   <tile gid="5058"/>
   <tile gid="5058"/>
   <tile gid="5058"/>
   <tile gid="5058"/>
   <tile gid="5058"/>
   <tile gid="5058"/>
   <tile gid="5058"/>
   <tile gid="5058"/>
   <tile gid="5058"/>
   <tile gid="5058"/>
   <tile gid="5058"/>
   <tile gid="5058"/>
   <tile gid="5058"/>
   <tile gid="5058"/>
   <tile gid="5058"/>
   <tile gid="5058"/>
   <tile gid="5058"/>
   <tile gid="5058"/>
   <tile gid="5058"/>
   <tile gid="5058"/>
   <tile gid="5058"/>
   <tile gid="5058"/>
   <tile gid="5058"/>
   <tile gid="5059"/>
   <tile gid="217"/>
   <tile gid="217"/>
   <tile gid="217"/>
   <tile gid="5057"/>
   <tile gid="5058"/>
   <tile gid="5058"/>
   <tile gid="5058"/>
   <tile gid="5058"/>
   <tile gid="5058"/>
   <tile gid="5058"/>
   <tile gid="5058"/>
   <tile gid="5058"/>
   <tile gid="5058"/>
   <tile gid="5058"/>
   <tile gid="5058"/>
   <tile gid="5058"/>
   <tile gid="5058"/>
   <tile gid="5058"/>
   <tile gid="5058"/>
   <tile gid="5058"/>
   <tile gid="5058"/>
   <tile gid="5058"/>
   <tile gid="5058"/>
   <tile gid="5058"/>
   <tile gid="5058"/>
   <tile gid="5058"/>
   <tile gid="5058"/>
   <tile gid="5059"/>
   <tile gid="217"/>
   <tile gid="217"/>
   <tile gid="217"/>
   <tile/>
   <tile/>
   <tile/>
   <tile/>
   <tile/>
   <tile/>
   <tile/>
   <tile/>
   <tile/>
   <tile/>
   <tile/>
   <tile/>
   <tile/>
   <tile/>
   <tile/>
   <tile/>
   <tile/>
   <tile/>
   <tile/>
   <tile/>
   <tile/>
   <tile/>
   <tile gid="217"/>
   <tile gid="217"/>
   <tile gid="217"/>
   <tile gid="217"/>
   <tile gid="217"/>
   <tile gid="217"/>
   <tile gid="5089"/>
   <tile gid="5090"/>
   <tile gid="5090"/>
   <tile gid="5090"/>
   <tile gid="5090"/>
   <tile gid="5090"/>
   <tile gid="5090"/>
   <tile gid="5091"/>
   <tile/>
   <tile/>
   <tile/>
   <tile gid="5089"/>
   <tile gid="5090"/>
   <tile gid="5090"/>
   <tile gid="5090"/>
   <tile gid="5090"/>
   <tile gid="5090"/>
   <tile gid="5090"/>
   <tile gid="5090"/>
   <tile gid="5090"/>
   <tile gid="5090"/>
   <tile gid="5091"/>
   <tile gid="217"/>
   <tile gid="217"/>
   <tile gid="217"/>
   <tile gid="5089"/>
   <tile gid="5090"/>
   <tile gid="5090"/>
   <tile gid="5090"/>
   <tile gid="5090"/>
   <tile gid="5090"/>
   <tile gid="5090"/>
   <tile gid="5090"/>
   <tile gid="5090"/>
   <tile gid="5090"/>
   <tile gid="5090"/>
   <tile gid="5090"/>
   <tile gid="5090"/>
   <tile gid="5090"/>
   <tile gid="5090"/>
   <tile gid="5090"/>
   <tile gid="5090"/>
   <tile gid="5090"/>
   <tile gid="5090"/>
   <tile gid="5090"/>
   <tile gid="5090"/>
   <tile gid="5090"/>
   <tile gid="5090"/>
   <tile gid="5090"/>
   <tile gid="5090"/>
   <tile gid="5090"/>
   <tile gid="5090"/>
   <tile gid="5090"/>
   <tile gid="5090"/>
   <tile gid="5090"/>
   <tile gid="5090"/>
   <tile gid="5090"/>
   <tile gid="5090"/>
   <tile gid="5090"/>
   <tile gid="5090"/>
   <tile gid="5090"/>
   <tile gid="5090"/>
   <tile gid="5091"/>
   <tile gid="217"/>
   <tile gid="217"/>
   <tile gid="217"/>
   <tile gid="5089"/>
   <tile gid="5090"/>
   <tile gid="5090"/>
   <tile gid="5090"/>
   <tile gid="5090"/>
   <tile gid="5090"/>
   <tile gid="5090"/>
   <tile gid="5090"/>
   <tile gid="5090"/>
   <tile gid="5090"/>
   <tile gid="5090"/>
   <tile gid="5090"/>
   <tile gid="5090"/>
   <tile gid="5090"/>
   <tile gid="5090"/>
   <tile gid="5090"/>
   <tile gid="5090"/>
   <tile gid="5090"/>
   <tile gid="5090"/>
   <tile gid="5090"/>
   <tile gid="5090"/>
   <tile gid="5090"/>
   <tile gid="5090"/>
   <tile gid="5090"/>
   <tile gid="5091"/>
   <tile gid="217"/>
   <tile gid="217"/>
   <tile gid="217"/>
   <tile gid="5089"/>
   <tile gid="5090"/>
   <tile gid="5090"/>
   <tile gid="5090"/>
   <tile gid="5090"/>
   <tile gid="5090"/>
   <tile gid="5090"/>
   <tile gid="5090"/>
   <tile gid="5090"/>
   <tile gid="5090"/>
   <tile gid="5090"/>
   <tile gid="5090"/>
   <tile gid="5090"/>
   <tile gid="5090"/>
   <tile gid="5090"/>
   <tile gid="5090"/>
   <tile gid="5090"/>
   <tile gid="5090"/>
   <tile gid="5090"/>
   <tile gid="5090"/>
   <tile gid="5090"/>
   <tile gid="5090"/>
   <tile gid="5090"/>
   <tile gid="5090"/>
   <tile gid="5091"/>
   <tile gid="217"/>
   <tile gid="217"/>
   <tile gid="217"/>
   <tile/>
   <tile/>
   <tile/>
   <tile/>
   <tile/>
   <tile/>
   <tile/>
   <tile/>
   <tile/>
   <tile/>
   <tile/>
   <tile/>
   <tile/>
   <tile/>
   <tile/>
   <tile/>
   <tile/>
   <tile/>
   <tile/>
   <tile/>
   <tile/>
   <tile/>
   <tile gid="217"/>
   <tile gid="217"/>
   <tile gid="217"/>
   <tile gid="217"/>
   <tile gid="217"/>
   <tile gid="217"/>
   <tile/>
   <tile/>
   <tile/>
   <tile/>
   <tile/>
   <tile/>
   <tile/>
   <tile/>
   <tile/>
   <tile/>
   <tile/>
   <tile/>
   <tile/>
   <tile/>
   <tile/>
   <tile/>
   <tile/>
   <tile/>
   <tile/>
   <tile/>
   <tile/>
   <tile/>
   <tile gid="217"/>
   <tile gid="217"/>
   <tile gid="217"/>
   <tile/>
   <tile/>
   <tile/>
   <tile/>
   <tile/>
   <tile/>
   <tile/>
   <tile/>
   <tile/>
   <tile/>
   <tile/>
   <tile/>
   <tile/>
   <tile/>
   <tile/>
   <tile/>
   <tile/>
   <tile/>
   <tile/>
   <tile/>
   <tile/>
   <tile/>
   <tile/>
   <tile/>
   <tile/>
   <tile/>
   <tile/>
   <tile/>
   <tile/>
   <tile/>
   <tile/>
   <tile/>
   <tile/>
   <tile/>
   <tile/>
   <tile/>
   <tile/>
   <tile/>
   <tile gid="217"/>
   <tile gid="217"/>
   <tile gid="217"/>
   <tile/>
   <tile/>
   <tile/>
   <tile/>
   <tile/>
   <tile/>
   <tile/>
   <tile/>
   <tile/>
   <tile/>
   <tile/>
   <tile/>
   <tile/>
   <tile/>
   <tile/>
   <tile/>
   <tile/>
   <tile/>
   <tile/>
   <tile/>
   <tile/>
   <tile/>
   <tile/>
   <tile/>
   <tile/>
   <tile gid="217"/>
   <tile gid="217"/>
   <tile gid="217"/>
   <tile/>
   <tile/>
   <tile/>
   <tile/>
   <tile/>
   <tile/>
   <tile/>
   <tile/>
   <tile/>
   <tile/>
   <tile/>
   <tile/>
   <tile/>
   <tile/>
   <tile/>
   <tile/>
   <tile/>
   <tile/>
   <tile/>
   <tile/>
   <tile/>
   <tile/>
   <tile/>
   <tile/>
   <tile/>
   <tile gid="217"/>
   <tile gid="217"/>
   <tile gid="217"/>
   <tile/>
   <tile/>
   <tile/>
   <tile/>
   <tile/>
   <tile/>
   <tile/>
   <tile/>
   <tile/>
   <tile/>
   <tile/>
   <tile/>
   <tile/>
   <tile/>
   <tile/>
   <tile/>
   <tile/>
   <tile/>
   <tile/>
   <tile/>
   <tile/>
   <tile/>
   <tile gid="217"/>
   <tile gid="217"/>
   <tile gid="217"/>
   <tile gid="217"/>
   <tile gid="217"/>
   <tile gid="217"/>
   <tile/>
   <tile/>
   <tile/>
   <tile/>
   <tile/>
   <tile/>
   <tile/>
   <tile/>
   <tile/>
   <tile/>
   <tile/>
   <tile/>
   <tile/>
   <tile/>
   <tile/>
   <tile/>
   <tile/>
   <tile/>
   <tile/>
   <tile/>
   <tile/>
   <tile/>
   <tile gid="217"/>
   <tile gid="217"/>
   <tile gid="217"/>
   <tile/>
   <tile/>
   <tile/>
   <tile/>
   <tile/>
   <tile/>
   <tile/>
   <tile/>
   <tile/>
   <tile/>
   <tile/>
   <tile/>
   <tile/>
   <tile/>
   <tile/>
   <tile/>
   <tile/>
   <tile/>
   <tile/>
   <tile/>
   <tile/>
   <tile/>
   <tile/>
   <tile/>
   <tile/>
   <tile/>
   <tile/>
   <tile/>
   <tile/>
   <tile/>
   <tile/>
   <tile/>
   <tile/>
   <tile/>
   <tile/>
   <tile/>
   <tile/>
   <tile/>
   <tile gid="217"/>
   <tile gid="217"/>
   <tile gid="217"/>
   <tile/>
   <tile/>
   <tile/>
   <tile/>
   <tile/>
   <tile/>
   <tile/>
   <tile/>
   <tile/>
   <tile/>
   <tile/>
   <tile/>
   <tile/>
   <tile/>
   <tile/>
   <tile/>
   <tile/>
   <tile/>
   <tile/>
   <tile/>
   <tile/>
   <tile/>
   <tile/>
   <tile/>
   <tile/>
   <tile gid="217"/>
   <tile gid="217"/>
   <tile gid="217"/>
   <tile/>
   <tile/>
   <tile/>
   <tile/>
   <tile/>
   <tile/>
   <tile/>
   <tile/>
   <tile/>
   <tile/>
   <tile/>
   <tile/>
   <tile/>
   <tile/>
   <tile/>
   <tile/>
   <tile/>
   <tile/>
   <tile/>
   <tile/>
   <tile/>
   <tile/>
   <tile/>
   <tile/>
   <tile/>
   <tile gid="217"/>
   <tile gid="217"/>
   <tile gid="217"/>
   <tile/>
   <tile/>
   <tile/>
   <tile/>
   <tile/>
   <tile/>
   <tile/>
   <tile/>
   <tile/>
   <tile/>
   <tile/>
   <tile/>
   <tile/>
   <tile/>
   <tile/>
   <tile/>
   <tile/>
   <tile/>
   <tile/>
   <tile/>
   <tile/>
   <tile/>
   <tile gid="217"/>
   <tile gid="217"/>
   <tile gid="217"/>
   <tile gid="217"/>
   <tile gid="217"/>
   <tile gid="217"/>
   <tile/>
   <tile/>
   <tile/>
   <tile/>
   <tile/>
   <tile/>
   <tile/>
   <tile/>
   <tile/>
   <tile/>
   <tile/>
   <tile/>
   <tile/>
   <tile/>
   <tile/>
   <tile/>
   <tile/>
   <tile/>
   <tile/>
   <tile/>
   <tile/>
   <tile/>
   <tile gid="217"/>
   <tile gid="217"/>
   <tile gid="217"/>
   <tile/>
   <tile/>
   <tile/>
   <tile/>
   <tile/>
   <tile/>
   <tile/>
   <tile/>
   <tile/>
   <tile/>
   <tile/>
   <tile/>
   <tile/>
   <tile/>
   <tile/>
   <tile/>
   <tile/>
   <tile/>
   <tile/>
   <tile/>
   <tile/>
   <tile/>
   <tile/>
   <tile/>
   <tile/>
   <tile/>
   <tile/>
   <tile/>
   <tile/>
   <tile/>
   <tile/>
   <tile/>
   <tile/>
   <tile/>
   <tile/>
   <tile/>
   <tile/>
   <tile/>
   <tile gid="217"/>
   <tile gid="217"/>
   <tile gid="217"/>
   <tile/>
   <tile/>
   <tile/>
   <tile/>
   <tile/>
   <tile/>
   <tile/>
   <tile/>
   <tile/>
   <tile/>
   <tile/>
   <tile/>
   <tile/>
   <tile/>
   <tile/>
   <tile/>
   <tile/>
   <tile/>
   <tile/>
   <tile/>
   <tile/>
   <tile/>
   <tile/>
   <tile/>
   <tile/>
   <tile gid="217"/>
   <tile gid="217"/>
   <tile gid="217"/>
   <tile/>
   <tile/>
   <tile/>
   <tile/>
   <tile/>
   <tile/>
   <tile/>
   <tile/>
   <tile/>
   <tile/>
   <tile/>
   <tile/>
   <tile/>
   <tile/>
   <tile/>
   <tile/>
   <tile/>
   <tile/>
   <tile/>
   <tile/>
   <tile/>
   <tile/>
   <tile/>
   <tile/>
   <tile/>
   <tile gid="217"/>
   <tile gid="217"/>
   <tile gid="217"/>
   <tile/>
   <tile/>
   <tile/>
   <tile/>
   <tile/>
   <tile/>
   <tile/>
   <tile/>
   <tile/>
   <tile/>
   <tile/>
   <tile/>
   <tile/>
   <tile/>
   <tile/>
   <tile/>
   <tile/>
   <tile/>
   <tile/>
   <tile/>
   <tile/>
   <tile/>
   <tile gid="217"/>
   <tile gid="217"/>
   <tile gid="217"/>
   <tile gid="217"/>
   <tile gid="217"/>
   <tile gid="217"/>
   <tile/>
   <tile/>
   <tile/>
   <tile/>
   <tile/>
   <tile/>
   <tile/>
   <tile/>
   <tile/>
   <tile/>
   <tile/>
   <tile/>
   <tile/>
   <tile/>
   <tile/>
   <tile/>
   <tile/>
   <tile/>
   <tile/>
   <tile/>
   <tile/>
   <tile/>
   <tile gid="217"/>
   <tile gid="217"/>
   <tile gid="217"/>
   <tile/>
   <tile/>
   <tile/>
   <tile/>
   <tile/>
   <tile/>
   <tile/>
   <tile/>
   <tile/>
   <tile/>
   <tile/>
   <tile/>
   <tile/>
   <tile/>
   <tile/>
   <tile/>
   <tile/>
   <tile/>
   <tile/>
   <tile/>
   <tile/>
   <tile/>
   <tile/>
   <tile/>
   <tile/>
   <tile/>
   <tile/>
   <tile/>
   <tile/>
   <tile/>
   <tile/>
   <tile/>
   <tile/>
   <tile/>
   <tile/>
   <tile/>
   <tile/>
   <tile/>
   <tile gid="217"/>
   <tile gid="217"/>
   <tile gid="217"/>
   <tile/>
   <tile/>
   <tile/>
   <tile/>
   <tile/>
   <tile/>
   <tile/>
   <tile/>
   <tile/>
   <tile/>
   <tile/>
   <tile/>
   <tile/>
   <tile/>
   <tile/>
   <tile/>
   <tile/>
   <tile/>
   <tile/>
   <tile/>
   <tile/>
   <tile/>
   <tile/>
   <tile/>
   <tile/>
   <tile gid="5025"/>
   <tile gid="5026"/>
   <tile gid="5027"/>
   <tile/>
   <tile/>
   <tile/>
   <tile/>
   <tile/>
   <tile/>
   <tile/>
   <tile/>
   <tile/>
   <tile/>
   <tile/>
   <tile/>
   <tile/>
   <tile/>
   <tile/>
   <tile/>
   <tile/>
   <tile/>
   <tile/>
   <tile/>
   <tile/>
   <tile/>
   <tile/>
   <tile/>
   <tile/>
   <tile gid="217"/>
   <tile gid="217"/>
   <tile gid="217"/>
   <tile/>
   <tile/>
   <tile/>
   <tile/>
   <tile/>
   <tile/>
   <tile/>
   <tile/>
   <tile/>
   <tile/>
   <tile/>
   <tile/>
   <tile/>
   <tile/>
   <tile/>
   <tile/>
   <tile/>
   <tile/>
   <tile/>
   <tile/>
   <tile/>
   <tile/>
   <tile gid="217"/>
   <tile gid="217"/>
   <tile gid="217"/>
   <tile gid="217"/>
   <tile gid="217"/>
   <tile gid="217"/>
   <tile/>
   <tile/>
   <tile/>
   <tile/>
   <tile/>
   <tile/>
   <tile/>
   <tile/>
   <tile/>
   <tile/>
   <tile/>
   <tile/>
   <tile/>
   <tile/>
   <tile/>
   <tile/>
   <tile/>
   <tile/>
   <tile/>
   <tile/>
   <tile/>
   <tile/>
   <tile gid="217"/>
   <tile gid="217"/>
   <tile gid="217"/>
   <tile/>
   <tile/>
   <tile/>
   <tile/>
   <tile/>
   <tile/>
   <tile/>
   <tile/>
   <tile/>
   <tile/>
   <tile/>
   <tile/>
   <tile/>
   <tile/>
   <tile/>
   <tile/>
   <tile/>
   <tile/>
   <tile/>
   <tile/>
   <tile/>
   <tile/>
   <tile/>
   <tile/>
   <tile/>
   <tile/>
   <tile/>
   <tile/>
   <tile/>
   <tile/>
   <tile/>
   <tile/>
   <tile/>
   <tile/>
   <tile/>
   <tile/>
   <tile/>
   <tile/>
   <tile gid="5025"/>
   <tile gid="5026"/>
   <tile gid="5027"/>
   <tile/>
   <tile/>
   <tile/>
   <tile/>
   <tile/>
   <tile/>
   <tile/>
   <tile/>
   <tile/>
   <tile/>
   <tile/>
   <tile/>
   <tile/>
   <tile/>
   <tile/>
   <tile/>
   <tile/>
   <tile/>
   <tile/>
   <tile/>
   <tile/>
   <tile/>
   <tile/>
   <tile/>
   <tile/>
   <tile gid="5057"/>
   <tile gid="5058"/>
   <tile gid="5059"/>
   <tile/>
   <tile/>
   <tile/>
   <tile/>
   <tile/>
   <tile/>
   <tile/>
   <tile/>
   <tile/>
   <tile/>
   <tile/>
   <tile/>
   <tile/>
   <tile/>
   <tile/>
   <tile/>
   <tile/>
   <tile/>
   <tile/>
   <tile/>
   <tile/>
   <tile/>
   <tile/>
   <tile/>
   <tile/>
   <tile gid="217"/>
   <tile gid="217"/>
   <tile gid="217"/>
   <tile/>
   <tile/>
   <tile/>
   <tile/>
   <tile/>
   <tile/>
   <tile/>
   <tile/>
   <tile/>
   <tile/>
   <tile/>
   <tile/>
   <tile/>
   <tile/>
   <tile/>
   <tile/>
   <tile/>
   <tile/>
   <tile/>
   <tile/>
   <tile/>
   <tile/>
   <tile gid="217"/>
   <tile gid="217"/>
   <tile gid="217"/>
   <tile gid="217"/>
   <tile gid="217"/>
   <tile gid="217"/>
   <tile/>
   <tile/>
   <tile/>
   <tile/>
   <tile/>
   <tile/>
   <tile/>
   <tile/>
   <tile/>
   <tile/>
   <tile/>
   <tile/>
   <tile/>
   <tile/>
   <tile/>
   <tile/>
   <tile/>
   <tile/>
   <tile/>
   <tile/>
   <tile/>
   <tile/>
   <tile gid="217"/>
   <tile gid="217"/>
   <tile gid="217"/>
   <tile/>
   <tile/>
   <tile/>
   <tile/>
   <tile/>
   <tile/>
   <tile/>
   <tile/>
   <tile/>
   <tile/>
   <tile/>
   <tile/>
   <tile/>
   <tile/>
   <tile/>
   <tile/>
   <tile/>
   <tile/>
   <tile/>
   <tile/>
   <tile/>
   <tile/>
   <tile/>
   <tile/>
   <tile/>
   <tile/>
   <tile/>
   <tile/>
   <tile/>
   <tile/>
   <tile/>
   <tile/>
   <tile/>
   <tile/>
   <tile/>
   <tile/>
   <tile/>
   <tile/>
   <tile gid="5057"/>
   <tile gid="5058"/>
   <tile gid="5059"/>
   <tile/>
   <tile/>
   <tile/>
   <tile/>
   <tile/>
   <tile/>
   <tile/>
   <tile/>
   <tile/>
   <tile/>
   <tile/>
   <tile/>
   <tile/>
   <tile/>
   <tile/>
   <tile/>
   <tile/>
   <tile/>
   <tile/>
   <tile/>
   <tile/>
   <tile/>
   <tile/>
   <tile/>
   <tile/>
   <tile gid="5089"/>
   <tile gid="5090"/>
   <tile gid="5091"/>
   <tile/>
   <tile/>
   <tile/>
   <tile/>
   <tile/>
   <tile/>
   <tile/>
   <tile/>
   <tile/>
   <tile/>
   <tile/>
   <tile/>
   <tile/>
   <tile/>
   <tile/>
   <tile/>
   <tile/>
   <tile/>
   <tile/>
   <tile/>
   <tile/>
   <tile/>
   <tile/>
   <tile/>
   <tile/>
   <tile gid="217"/>
   <tile gid="217"/>
   <tile gid="217"/>
   <tile/>
   <tile/>
   <tile/>
   <tile/>
   <tile/>
   <tile/>
   <tile/>
   <tile/>
   <tile/>
   <tile/>
   <tile/>
   <tile/>
   <tile/>
   <tile/>
   <tile/>
   <tile/>
   <tile/>
   <tile/>
   <tile/>
   <tile/>
   <tile/>
   <tile/>
   <tile gid="217"/>
   <tile gid="217"/>
   <tile gid="217"/>
   <tile gid="217"/>
   <tile gid="217"/>
   <tile gid="217"/>
   <tile/>
   <tile/>
   <tile/>
   <tile/>
   <tile/>
   <tile/>
   <tile/>
   <tile/>
   <tile/>
   <tile/>
   <tile/>
   <tile/>
   <tile/>
   <tile/>
   <tile/>
   <tile/>
   <tile/>
   <tile/>
   <tile/>
   <tile/>
   <tile/>
   <tile/>
   <tile gid="217"/>
   <tile gid="217"/>
   <tile gid="217"/>
   <tile/>
   <tile/>
   <tile/>
   <tile/>
   <tile/>
   <tile/>
   <tile/>
   <tile/>
   <tile/>
   <tile/>
   <tile/>
   <tile/>
   <tile/>
   <tile/>
   <tile/>
   <tile/>
   <tile/>
   <tile/>
   <tile/>
   <tile/>
   <tile/>
   <tile/>
   <tile/>
   <tile/>
   <tile/>
   <tile/>
   <tile/>
   <tile/>
   <tile/>
   <tile/>
   <tile/>
   <tile/>
   <tile/>
   <tile/>
   <tile/>
   <tile/>
   <tile/>
   <tile/>
   <tile gid="5089"/>
   <tile gid="5090"/>
   <tile gid="5091"/>
   <tile/>
   <tile/>
   <tile/>
   <tile/>
   <tile/>
   <tile/>
   <tile/>
   <tile/>
   <tile/>
   <tile/>
   <tile/>
   <tile/>
   <tile/>
   <tile/>
   <tile/>
   <tile/>
   <tile/>
   <tile/>
   <tile/>
   <tile/>
   <tile/>
   <tile/>
   <tile/>
   <tile/>
   <tile/>
   <tile/>
   <tile/>
   <tile/>
   <tile/>
   <tile/>
   <tile/>
   <tile/>
   <tile/>
   <tile/>
   <tile/>
   <tile/>
   <tile/>
   <tile/>
   <tile/>
   <tile/>
   <tile/>
   <tile/>
   <tile/>
   <tile/>
   <tile/>
   <tile/>
   <tile/>
   <tile/>
   <tile/>
   <tile/>
   <tile/>
   <tile/>
   <tile/>
   <tile gid="217"/>
   <tile gid="217"/>
   <tile gid="217"/>
   <tile/>
   <tile/>
   <tile/>
   <tile/>
   <tile/>
   <tile/>
   <tile/>
   <tile/>
   <tile/>
   <tile/>
   <tile/>
   <tile/>
   <tile/>
   <tile/>
   <tile/>
   <tile/>
   <tile/>
   <tile/>
   <tile/>
   <tile/>
   <tile/>
   <tile/>
   <tile gid="217"/>
   <tile gid="217"/>
   <tile gid="217"/>
   <tile gid="217"/>
   <tile gid="217"/>
   <tile gid="217"/>
   <tile/>
   <tile/>
   <tile/>
   <tile/>
   <tile/>
   <tile/>
   <tile/>
   <tile/>
   <tile/>
   <tile/>
   <tile/>
   <tile/>
   <tile/>
   <tile/>
   <tile/>
   <tile/>
   <tile/>
   <tile/>
   <tile/>
   <tile/>
   <tile/>
   <tile/>
   <tile gid="217"/>
   <tile gid="217"/>
   <tile gid="217"/>
   <tile/>
   <tile/>
   <tile/>
   <tile/>
   <tile/>
   <tile/>
   <tile/>
   <tile/>
   <tile/>
   <tile/>
   <tile/>
   <tile/>
   <tile/>
   <tile/>
   <tile/>
   <tile/>
   <tile/>
   <tile/>
   <tile/>
   <tile/>
   <tile/>
   <tile/>
   <tile/>
   <tile/>
   <tile/>
   <tile/>
   <tile/>
   <tile/>
   <tile/>
   <tile/>
   <tile/>
   <tile/>
   <tile/>
   <tile/>
   <tile/>
   <tile/>
   <tile/>
   <tile/>
   <tile/>
   <tile/>
   <tile/>
   <tile/>
   <tile/>
   <tile/>
   <tile/>
   <tile/>
   <tile/>
   <tile/>
   <tile/>
   <tile/>
   <tile/>
   <tile/>
   <tile/>
   <tile/>
   <tile/>
   <tile/>
   <tile/>
   <tile/>
   <tile/>
   <tile/>
   <tile/>
   <tile/>
   <tile/>
   <tile/>
   <tile/>
   <tile/>
   <tile/>
   <tile/>
   <tile/>
   <tile/>
   <tile/>
   <tile/>
   <tile/>
   <tile/>
   <tile/>
   <tile/>
   <tile/>
   <tile/>
   <tile/>
   <tile/>
   <tile/>
   <tile/>
   <tile/>
   <tile/>
   <tile/>
   <tile/>
   <tile/>
   <tile/>
   <tile/>
   <tile/>
   <tile/>
   <tile/>
   <tile/>
   <tile/>
   <tile gid="217"/>
   <tile gid="217"/>
   <tile gid="217"/>
   <tile/>
   <tile/>
   <tile/>
   <tile/>
   <tile/>
   <tile/>
   <tile/>
   <tile/>
   <tile/>
   <tile/>
   <tile/>
   <tile/>
   <tile/>
   <tile/>
   <tile/>
   <tile/>
   <tile/>
   <tile/>
   <tile/>
   <tile/>
   <tile/>
   <tile/>
   <tile gid="217"/>
   <tile gid="217"/>
   <tile gid="217"/>
   <tile gid="217"/>
   <tile gid="217"/>
   <tile gid="217"/>
   <tile/>
   <tile/>
   <tile/>
   <tile/>
   <tile/>
   <tile/>
   <tile/>
   <tile/>
   <tile/>
   <tile/>
   <tile/>
   <tile/>
   <tile/>
   <tile/>
   <tile/>
   <tile/>
   <tile/>
   <tile/>
   <tile/>
   <tile/>
   <tile/>
   <tile/>
   <tile gid="217"/>
   <tile gid="217"/>
   <tile gid="217"/>
   <tile/>
   <tile/>
   <tile/>
   <tile/>
   <tile/>
   <tile/>
   <tile/>
   <tile/>
   <tile/>
   <tile/>
   <tile/>
   <tile/>
   <tile/>
   <tile/>
   <tile/>
   <tile/>
   <tile/>
   <tile/>
   <tile/>
   <tile/>
   <tile/>
   <tile/>
   <tile/>
   <tile/>
   <tile/>
   <tile/>
   <tile/>
   <tile/>
   <tile/>
   <tile/>
   <tile/>
   <tile/>
   <tile/>
   <tile/>
   <tile/>
   <tile/>
   <tile/>
   <tile/>
   <tile/>
   <tile/>
   <tile/>
   <tile/>
   <tile/>
   <tile/>
   <tile/>
   <tile/>
   <tile/>
   <tile/>
   <tile/>
   <tile/>
   <tile/>
   <tile/>
   <tile/>
   <tile/>
   <tile/>
   <tile/>
   <tile/>
   <tile/>
   <tile/>
   <tile/>
   <tile/>
   <tile/>
   <tile/>
   <tile/>
   <tile/>
   <tile/>
   <tile/>
   <tile/>
   <tile/>
   <tile/>
   <tile/>
   <tile/>
   <tile/>
   <tile/>
   <tile/>
   <tile/>
   <tile/>
   <tile/>
   <tile/>
   <tile/>
   <tile/>
   <tile/>
   <tile/>
   <tile/>
   <tile/>
   <tile/>
   <tile/>
   <tile/>
   <tile/>
   <tile/>
   <tile/>
   <tile/>
   <tile/>
   <tile/>
   <tile gid="5025"/>
   <tile gid="5026"/>
   <tile gid="5027"/>
   <tile/>
   <tile/>
   <tile/>
   <tile/>
   <tile/>
   <tile/>
   <tile/>
   <tile/>
   <tile/>
   <tile/>
   <tile/>
   <tile/>
   <tile/>
   <tile/>
   <tile/>
   <tile/>
   <tile/>
   <tile/>
   <tile/>
   <tile/>
   <tile/>
   <tile/>
   <tile gid="217"/>
   <tile gid="217"/>
   <tile gid="217"/>
   <tile gid="217"/>
   <tile gid="217"/>
   <tile gid="217"/>
   <tile/>
   <tile/>
   <tile/>
   <tile/>
   <tile/>
   <tile/>
   <tile/>
   <tile/>
   <tile/>
   <tile/>
   <tile/>
   <tile/>
   <tile/>
   <tile/>
   <tile/>
   <tile/>
   <tile/>
   <tile/>
   <tile/>
   <tile/>
   <tile/>
   <tile/>
   <tile gid="217"/>
   <tile gid="217"/>
   <tile gid="217"/>
   <tile/>
   <tile/>
   <tile/>
   <tile/>
   <tile/>
   <tile/>
   <tile/>
   <tile/>
   <tile/>
   <tile/>
   <tile/>
   <tile/>
   <tile/>
   <tile/>
   <tile/>
   <tile/>
   <tile/>
   <tile/>
   <tile/>
   <tile/>
   <tile/>
   <tile/>
   <tile/>
   <tile/>
   <tile/>
   <tile/>
   <tile/>
   <tile/>
   <tile/>
   <tile/>
   <tile/>
   <tile/>
   <tile/>
   <tile/>
   <tile/>
   <tile/>
   <tile/>
   <tile/>
   <tile gid="217"/>
   <tile gid="217"/>
   <tile gid="217"/>
   <tile/>
   <tile/>
   <tile/>
   <tile/>
   <tile/>
   <tile/>
   <tile/>
   <tile/>
   <tile/>
   <tile/>
   <tile/>
   <tile/>
   <tile/>
   <tile/>
   <tile/>
   <tile/>
   <tile/>
   <tile/>
   <tile/>
   <tile/>
   <tile/>
   <tile/>
   <tile/>
   <tile/>
   <tile/>
   <tile gid="217"/>
   <tile gid="217"/>
   <tile gid="217"/>
   <tile/>
   <tile/>
   <tile/>
   <tile/>
   <tile/>
   <tile/>
   <tile/>
   <tile/>
   <tile/>
   <tile/>
   <tile/>
   <tile/>
   <tile/>
   <tile/>
   <tile/>
   <tile/>
   <tile/>
   <tile/>
   <tile/>
   <tile/>
   <tile/>
   <tile/>
   <tile/>
   <tile/>
   <tile/>
   <tile gid="5057"/>
   <tile gid="5058"/>
   <tile gid="5059"/>
   <tile/>
   <tile/>
   <tile/>
   <tile/>
   <tile/>
   <tile/>
   <tile/>
   <tile/>
   <tile/>
   <tile/>
   <tile/>
   <tile/>
   <tile/>
   <tile/>
   <tile/>
   <tile/>
   <tile/>
   <tile/>
   <tile/>
   <tile/>
   <tile/>
   <tile/>
   <tile gid="217"/>
   <tile gid="217"/>
   <tile gid="217"/>
   <tile gid="217"/>
   <tile gid="217"/>
   <tile gid="217"/>
   <tile/>
   <tile/>
   <tile/>
   <tile/>
   <tile/>
   <tile/>
   <tile/>
   <tile/>
   <tile/>
   <tile/>
   <tile/>
   <tile/>
   <tile/>
   <tile/>
   <tile/>
   <tile/>
   <tile/>
   <tile/>
   <tile/>
   <tile/>
   <tile/>
   <tile/>
   <tile gid="217"/>
   <tile gid="217"/>
   <tile gid="217"/>
   <tile/>
   <tile/>
   <tile/>
   <tile/>
   <tile/>
   <tile/>
   <tile/>
   <tile/>
   <tile/>
   <tile/>
   <tile/>
   <tile/>
   <tile/>
   <tile/>
   <tile/>
   <tile/>
   <tile/>
   <tile/>
   <tile/>
   <tile/>
   <tile/>
   <tile/>
   <tile/>
   <tile/>
   <tile/>
   <tile/>
   <tile/>
   <tile/>
   <tile/>
   <tile/>
   <tile/>
   <tile/>
   <tile/>
   <tile/>
   <tile/>
   <tile/>
   <tile/>
   <tile/>
   <tile gid="217"/>
   <tile gid="217"/>
   <tile gid="217"/>
   <tile/>
   <tile/>
   <tile/>
   <tile/>
   <tile/>
   <tile/>
   <tile/>
   <tile/>
   <tile/>
   <tile/>
   <tile/>
   <tile/>
   <tile/>
   <tile/>
   <tile/>
   <tile/>
   <tile/>
   <tile/>
   <tile/>
   <tile/>
   <tile/>
   <tile/>
   <tile/>
   <tile/>
   <tile/>
   <tile gid="217"/>
   <tile gid="217"/>
   <tile gid="217"/>
   <tile/>
   <tile/>
   <tile/>
   <tile/>
   <tile/>
   <tile/>
   <tile/>
   <tile/>
   <tile/>
   <tile/>
   <tile/>
   <tile/>
   <tile/>
   <tile/>
   <tile/>
   <tile/>
   <tile/>
   <tile/>
   <tile/>
   <tile/>
   <tile/>
   <tile/>
   <tile/>
   <tile/>
   <tile/>
   <tile gid="5089"/>
   <tile gid="5090"/>
   <tile gid="5091"/>
   <tile/>
   <tile/>
   <tile/>
   <tile/>
   <tile/>
   <tile/>
   <tile/>
   <tile/>
   <tile/>
   <tile/>
   <tile/>
   <tile/>
   <tile/>
   <tile/>
   <tile/>
   <tile/>
   <tile/>
   <tile/>
   <tile/>
   <tile/>
   <tile/>
   <tile/>
   <tile gid="217"/>
   <tile gid="217"/>
   <tile gid="217"/>
   <tile gid="217"/>
   <tile gid="217"/>
   <tile gid="217"/>
   <tile/>
   <tile/>
   <tile/>
   <tile/>
   <tile/>
   <tile/>
   <tile/>
   <tile/>
   <tile/>
   <tile/>
   <tile/>
   <tile/>
   <tile/>
   <tile/>
   <tile/>
   <tile/>
   <tile/>
   <tile/>
   <tile/>
   <tile/>
   <tile/>
   <tile/>
   <tile gid="217"/>
   <tile gid="217"/>
   <tile gid="217"/>
   <tile/>
   <tile/>
   <tile/>
   <tile/>
   <tile/>
   <tile/>
   <tile/>
   <tile/>
   <tile/>
   <tile/>
   <tile/>
   <tile/>
   <tile/>
   <tile/>
   <tile/>
   <tile/>
   <tile/>
   <tile/>
   <tile/>
   <tile/>
   <tile/>
   <tile/>
   <tile/>
   <tile/>
   <tile/>
   <tile/>
   <tile/>
   <tile/>
   <tile/>
   <tile/>
   <tile/>
   <tile/>
   <tile/>
   <tile/>
   <tile/>
   <tile/>
   <tile/>
   <tile/>
   <tile gid="217"/>
   <tile gid="217"/>
   <tile gid="217"/>
   <tile/>
   <tile/>
   <tile/>
   <tile/>
   <tile/>
   <tile/>
   <tile/>
   <tile/>
   <tile/>
   <tile/>
   <tile/>
   <tile/>
   <tile/>
   <tile/>
   <tile/>
   <tile/>
   <tile/>
   <tile/>
   <tile/>
   <tile/>
   <tile/>
   <tile/>
   <tile/>
   <tile/>
   <tile/>
   <tile gid="217"/>
   <tile gid="217"/>
   <tile gid="217"/>
   <tile/>
   <tile/>
   <tile/>
   <tile/>
   <tile/>
   <tile/>
   <tile/>
   <tile/>
   <tile/>
   <tile/>
   <tile/>
   <tile/>
   <tile/>
   <tile/>
   <tile/>
   <tile/>
   <tile/>
   <tile/>
   <tile/>
   <tile/>
   <tile/>
   <tile/>
   <tile/>
   <tile/>
   <tile/>
   <tile/>
   <tile/>
   <tile/>
   <tile/>
   <tile/>
   <tile/>
   <tile/>
   <tile/>
   <tile/>
   <tile/>
   <tile/>
   <tile/>
   <tile/>
   <tile/>
   <tile/>
   <tile/>
   <tile/>
   <tile/>
   <tile/>
   <tile/>
   <tile/>
   <tile/>
   <tile/>
   <tile/>
   <tile/>
   <tile gid="217"/>
   <tile gid="217"/>
   <tile gid="217"/>
   <tile gid="217"/>
   <tile gid="217"/>
   <tile gid="217"/>
   <tile/>
   <tile/>
   <tile/>
   <tile/>
   <tile/>
   <tile/>
   <tile/>
   <tile/>
   <tile/>
   <tile/>
   <tile/>
   <tile/>
   <tile/>
   <tile/>
   <tile/>
   <tile/>
   <tile/>
   <tile/>
   <tile/>
   <tile/>
   <tile/>
   <tile/>
   <tile gid="217"/>
   <tile gid="217"/>
   <tile gid="217"/>
   <tile/>
   <tile/>
   <tile/>
   <tile/>
   <tile/>
   <tile/>
   <tile/>
   <tile/>
   <tile/>
   <tile/>
   <tile/>
   <tile/>
   <tile/>
   <tile/>
   <tile/>
   <tile/>
   <tile/>
   <tile/>
   <tile/>
   <tile/>
   <tile/>
   <tile/>
   <tile/>
   <tile/>
   <tile/>
   <tile/>
   <tile/>
   <tile/>
   <tile/>
   <tile/>
   <tile/>
   <tile/>
   <tile/>
   <tile/>
   <tile/>
   <tile/>
   <tile/>
   <tile/>
   <tile gid="217"/>
   <tile gid="217"/>
   <tile gid="217"/>
   <tile/>
   <tile/>
   <tile/>
   <tile/>
   <tile/>
   <tile/>
   <tile/>
   <tile/>
   <tile/>
   <tile/>
   <tile/>
   <tile/>
   <tile/>
   <tile/>
   <tile/>
   <tile/>
   <tile/>
   <tile/>
   <tile/>
   <tile/>
   <tile/>
   <tile/>
   <tile/>
   <tile/>
   <tile/>
   <tile gid="217"/>
   <tile gid="217"/>
   <tile gid="217"/>
   <tile/>
   <tile/>
   <tile/>
   <tile/>
   <tile/>
   <tile/>
   <tile/>
   <tile/>
   <tile/>
   <tile/>
   <tile/>
   <tile/>
   <tile/>
   <tile/>
   <tile/>
   <tile/>
   <tile/>
   <tile/>
   <tile/>
   <tile/>
   <tile/>
   <tile/>
   <tile/>
   <tile/>
   <tile/>
   <tile/>
   <tile/>
   <tile/>
   <tile/>
   <tile/>
   <tile/>
   <tile/>
   <tile/>
   <tile/>
   <tile/>
   <tile/>
   <tile/>
   <tile/>
   <tile/>
   <tile/>
   <tile/>
   <tile/>
   <tile/>
   <tile/>
   <tile/>
   <tile/>
   <tile/>
   <tile/>
   <tile/>
   <tile/>
   <tile gid="217"/>
   <tile gid="217"/>
   <tile gid="217"/>
   <tile gid="217"/>
   <tile gid="217"/>
   <tile gid="217"/>
   <tile/>
   <tile/>
   <tile/>
   <tile/>
   <tile/>
   <tile/>
   <tile/>
   <tile/>
   <tile/>
   <tile/>
   <tile/>
   <tile/>
   <tile/>
   <tile/>
   <tile/>
   <tile/>
   <tile/>
   <tile/>
   <tile/>
   <tile/>
   <tile/>
   <tile/>
   <tile gid="217"/>
   <tile gid="217"/>
   <tile gid="217"/>
   <tile/>
   <tile/>
   <tile/>
   <tile/>
   <tile/>
   <tile/>
   <tile/>
   <tile/>
   <tile/>
   <tile/>
   <tile/>
   <tile/>
   <tile/>
   <tile/>
   <tile/>
   <tile/>
   <tile/>
   <tile/>
   <tile/>
   <tile/>
   <tile/>
   <tile/>
   <tile/>
   <tile/>
   <tile/>
   <tile/>
   <tile/>
   <tile/>
   <tile/>
   <tile/>
   <tile/>
   <tile/>
   <tile/>
   <tile/>
   <tile/>
   <tile/>
   <tile/>
   <tile/>
   <tile gid="217"/>
   <tile gid="217"/>
   <tile gid="217"/>
   <tile/>
   <tile/>
   <tile/>
   <tile/>
   <tile/>
   <tile/>
   <tile/>
   <tile/>
   <tile/>
   <tile/>
   <tile/>
   <tile/>
   <tile/>
   <tile/>
   <tile/>
   <tile/>
   <tile/>
   <tile/>
   <tile/>
   <tile/>
   <tile/>
   <tile/>
   <tile/>
   <tile/>
   <tile/>
   <tile gid="217"/>
   <tile gid="217"/>
   <tile gid="217"/>
   <tile/>
   <tile/>
   <tile/>
   <tile/>
   <tile/>
   <tile/>
   <tile/>
   <tile/>
   <tile/>
   <tile/>
   <tile/>
   <tile/>
   <tile/>
   <tile/>
   <tile/>
   <tile/>
   <tile/>
   <tile/>
   <tile/>
   <tile/>
   <tile/>
   <tile/>
   <tile/>
   <tile/>
   <tile/>
   <tile gid="217"/>
   <tile gid="217"/>
   <tile gid="217"/>
   <tile/>
   <tile/>
   <tile/>
   <tile/>
   <tile/>
   <tile/>
   <tile/>
   <tile/>
   <tile/>
   <tile/>
   <tile/>
   <tile/>
   <tile/>
   <tile/>
   <tile/>
   <tile/>
   <tile/>
   <tile/>
   <tile/>
   <tile/>
   <tile/>
   <tile/>
   <tile gid="217"/>
   <tile gid="217"/>
   <tile gid="217"/>
   <tile gid="217"/>
   <tile gid="217"/>
   <tile gid="217"/>
   <tile/>
   <tile/>
   <tile/>
   <tile/>
   <tile/>
   <tile/>
   <tile/>
   <tile/>
   <tile/>
   <tile/>
   <tile/>
   <tile/>
   <tile/>
   <tile/>
   <tile/>
   <tile/>
   <tile/>
   <tile/>
   <tile/>
   <tile/>
   <tile/>
   <tile/>
   <tile gid="217"/>
   <tile gid="217"/>
   <tile gid="217"/>
   <tile/>
   <tile/>
   <tile/>
   <tile/>
   <tile/>
   <tile/>
   <tile/>
   <tile/>
   <tile/>
   <tile/>
   <tile/>
   <tile/>
   <tile/>
   <tile/>
   <tile/>
   <tile/>
   <tile/>
   <tile/>
   <tile/>
   <tile/>
   <tile/>
   <tile/>
   <tile/>
   <tile/>
   <tile/>
   <tile/>
   <tile/>
   <tile/>
   <tile/>
   <tile/>
   <tile/>
   <tile/>
   <tile/>
   <tile/>
   <tile/>
   <tile/>
   <tile/>
   <tile/>
   <tile gid="217"/>
   <tile gid="217"/>
   <tile gid="217"/>
   <tile/>
   <tile/>
   <tile/>
   <tile/>
   <tile/>
   <tile/>
   <tile/>
   <tile/>
   <tile/>
   <tile/>
   <tile/>
   <tile/>
   <tile/>
   <tile/>
   <tile/>
   <tile/>
   <tile/>
   <tile/>
   <tile/>
   <tile/>
   <tile/>
   <tile/>
   <tile/>
   <tile/>
   <tile/>
   <tile gid="217"/>
   <tile gid="217"/>
   <tile gid="217"/>
   <tile/>
   <tile/>
   <tile/>
   <tile/>
   <tile/>
   <tile/>
   <tile/>
   <tile/>
   <tile/>
   <tile/>
   <tile/>
   <tile/>
   <tile/>
   <tile/>
   <tile/>
   <tile/>
   <tile/>
   <tile/>
   <tile/>
   <tile/>
   <tile/>
   <tile/>
   <tile/>
   <tile/>
   <tile/>
   <tile gid="217"/>
   <tile gid="217"/>
   <tile gid="217"/>
   <tile/>
   <tile/>
   <tile/>
   <tile/>
   <tile/>
   <tile/>
   <tile/>
   <tile/>
   <tile/>
   <tile/>
   <tile/>
   <tile/>
   <tile/>
   <tile/>
   <tile/>
   <tile/>
   <tile/>
   <tile/>
   <tile/>
   <tile/>
   <tile/>
   <tile/>
   <tile gid="217"/>
   <tile gid="217"/>
   <tile gid="217"/>
   <tile gid="217"/>
   <tile gid="217"/>
   <tile gid="217"/>
   <tile/>
   <tile/>
   <tile/>
   <tile/>
   <tile/>
   <tile/>
   <tile/>
   <tile/>
   <tile/>
   <tile/>
   <tile/>
   <tile/>
   <tile/>
   <tile/>
   <tile/>
   <tile/>
   <tile/>
   <tile/>
   <tile/>
   <tile/>
   <tile/>
   <tile/>
   <tile gid="217"/>
   <tile gid="217"/>
   <tile gid="217"/>
   <tile/>
   <tile/>
   <tile/>
   <tile/>
   <tile/>
   <tile/>
   <tile/>
   <tile/>
   <tile/>
   <tile/>
   <tile/>
   <tile/>
   <tile/>
   <tile/>
   <tile/>
   <tile/>
   <tile/>
   <tile/>
   <tile/>
   <tile/>
   <tile/>
   <tile/>
   <tile/>
   <tile/>
   <tile/>
   <tile/>
   <tile/>
   <tile/>
   <tile/>
   <tile/>
   <tile/>
   <tile/>
   <tile/>
   <tile/>
   <tile/>
   <tile/>
   <tile/>
   <tile/>
   <tile gid="217"/>
   <tile gid="217"/>
   <tile gid="217"/>
   <tile/>
   <tile/>
   <tile/>
   <tile/>
   <tile/>
   <tile/>
   <tile/>
   <tile/>
   <tile/>
   <tile/>
   <tile/>
   <tile/>
   <tile/>
   <tile/>
   <tile/>
   <tile/>
   <tile/>
   <tile/>
   <tile/>
   <tile/>
   <tile/>
   <tile/>
   <tile/>
   <tile/>
   <tile/>
   <tile gid="217"/>
   <tile gid="217"/>
   <tile gid="217"/>
   <tile/>
   <tile/>
   <tile/>
   <tile/>
   <tile/>
   <tile/>
   <tile/>
   <tile/>
   <tile/>
   <tile/>
   <tile/>
   <tile/>
   <tile/>
   <tile/>
   <tile/>
   <tile/>
   <tile/>
   <tile/>
   <tile/>
   <tile/>
   <tile/>
   <tile/>
   <tile/>
   <tile/>
   <tile/>
   <tile gid="217"/>
   <tile gid="217"/>
   <tile gid="217"/>
   <tile/>
   <tile/>
   <tile/>
   <tile/>
   <tile/>
   <tile/>
   <tile/>
   <tile/>
   <tile/>
   <tile/>
   <tile/>
   <tile/>
   <tile/>
   <tile/>
   <tile/>
   <tile/>
   <tile/>
   <tile/>
   <tile/>
   <tile/>
   <tile/>
   <tile/>
   <tile gid="217"/>
   <tile gid="217"/>
   <tile gid="217"/>
   <tile gid="217"/>
   <tile gid="217"/>
   <tile gid="217"/>
   <tile/>
   <tile/>
   <tile/>
   <tile/>
   <tile/>
   <tile/>
   <tile/>
   <tile/>
   <tile/>
   <tile/>
   <tile/>
   <tile/>
   <tile/>
   <tile/>
   <tile/>
   <tile/>
   <tile/>
   <tile/>
   <tile/>
   <tile/>
   <tile/>
   <tile/>
   <tile gid="217"/>
   <tile gid="217"/>
   <tile gid="217"/>
   <tile/>
   <tile/>
   <tile/>
   <tile/>
   <tile/>
   <tile/>
   <tile/>
   <tile/>
   <tile/>
   <tile/>
   <tile/>
   <tile/>
   <tile/>
   <tile/>
   <tile/>
   <tile/>
   <tile/>
   <tile/>
   <tile/>
   <tile/>
   <tile/>
   <tile/>
   <tile/>
   <tile/>
   <tile/>
   <tile/>
   <tile/>
   <tile/>
   <tile/>
   <tile/>
   <tile/>
   <tile/>
   <tile/>
   <tile/>
   <tile/>
   <tile/>
   <tile/>
   <tile/>
   <tile gid="217"/>
   <tile gid="217"/>
   <tile gid="217"/>
   <tile/>
   <tile/>
   <tile/>
   <tile/>
   <tile/>
   <tile/>
   <tile/>
   <tile/>
   <tile/>
   <tile/>
   <tile/>
   <tile/>
   <tile/>
   <tile/>
   <tile/>
   <tile/>
   <tile/>
   <tile/>
   <tile/>
   <tile/>
   <tile/>
   <tile/>
   <tile/>
   <tile/>
   <tile/>
   <tile gid="217"/>
   <tile gid="217"/>
   <tile gid="217"/>
   <tile/>
   <tile/>
   <tile/>
   <tile/>
   <tile/>
   <tile/>
   <tile/>
   <tile/>
   <tile/>
   <tile/>
   <tile/>
   <tile/>
   <tile/>
   <tile/>
   <tile/>
   <tile/>
   <tile/>
   <tile/>
   <tile/>
   <tile/>
   <tile/>
   <tile/>
   <tile/>
   <tile/>
   <tile/>
   <tile gid="217"/>
   <tile gid="217"/>
   <tile gid="217"/>
   <tile/>
   <tile/>
   <tile/>
   <tile/>
   <tile/>
   <tile/>
   <tile/>
   <tile/>
   <tile/>
   <tile/>
   <tile/>
   <tile/>
   <tile/>
   <tile/>
   <tile/>
   <tile/>
   <tile/>
   <tile/>
   <tile/>
   <tile/>
   <tile/>
   <tile/>
   <tile gid="217"/>
   <tile gid="217"/>
   <tile gid="217"/>
   <tile gid="217"/>
   <tile gid="217"/>
   <tile gid="217"/>
   <tile/>
   <tile/>
   <tile/>
   <tile/>
   <tile/>
   <tile/>
   <tile/>
   <tile/>
   <tile/>
   <tile/>
   <tile/>
   <tile/>
   <tile/>
   <tile/>
   <tile/>
   <tile/>
   <tile/>
   <tile/>
   <tile/>
   <tile/>
   <tile/>
   <tile/>
   <tile gid="217"/>
   <tile gid="217"/>
   <tile gid="217"/>
   <tile/>
   <tile/>
   <tile/>
   <tile/>
   <tile/>
   <tile/>
   <tile/>
   <tile/>
   <tile/>
   <tile/>
   <tile/>
   <tile/>
   <tile/>
   <tile/>
   <tile/>
   <tile/>
   <tile/>
   <tile/>
   <tile/>
   <tile/>
   <tile/>
   <tile/>
   <tile/>
   <tile/>
   <tile/>
   <tile/>
   <tile/>
   <tile/>
   <tile/>
   <tile/>
   <tile/>
   <tile/>
   <tile/>
   <tile/>
   <tile/>
   <tile/>
   <tile/>
   <tile/>
   <tile gid="217"/>
   <tile gid="217"/>
   <tile gid="217"/>
   <tile/>
   <tile/>
   <tile/>
   <tile/>
   <tile/>
   <tile/>
   <tile/>
   <tile/>
   <tile/>
   <tile/>
   <tile/>
   <tile/>
   <tile/>
   <tile/>
   <tile/>
   <tile/>
   <tile/>
   <tile/>
   <tile/>
   <tile/>
   <tile/>
   <tile/>
   <tile/>
   <tile/>
   <tile/>
   <tile gid="217"/>
   <tile gid="217"/>
   <tile gid="217"/>
   <tile/>
   <tile/>
   <tile/>
   <tile/>
   <tile/>
   <tile/>
   <tile/>
   <tile/>
   <tile/>
   <tile/>
   <tile/>
   <tile/>
   <tile/>
   <tile/>
   <tile/>
   <tile/>
   <tile/>
   <tile/>
   <tile/>
   <tile/>
   <tile/>
   <tile/>
   <tile/>
   <tile/>
   <tile/>
   <tile gid="217"/>
   <tile gid="217"/>
   <tile gid="217"/>
   <tile/>
   <tile/>
   <tile/>
   <tile/>
   <tile/>
   <tile/>
   <tile/>
   <tile/>
   <tile/>
   <tile/>
   <tile/>
   <tile/>
   <tile/>
   <tile/>
   <tile/>
   <tile/>
   <tile/>
   <tile/>
   <tile/>
   <tile/>
   <tile/>
   <tile/>
   <tile gid="217"/>
   <tile gid="217"/>
   <tile gid="217"/>
   <tile gid="217"/>
   <tile gid="217"/>
   <tile gid="217"/>
   <tile/>
   <tile/>
   <tile/>
   <tile/>
   <tile/>
   <tile/>
   <tile/>
   <tile/>
   <tile/>
   <tile/>
   <tile/>
   <tile/>
   <tile/>
   <tile/>
   <tile/>
   <tile/>
   <tile/>
   <tile/>
   <tile/>
   <tile/>
   <tile/>
   <tile/>
   <tile gid="217"/>
   <tile gid="217"/>
   <tile gid="217"/>
   <tile/>
   <tile/>
   <tile/>
   <tile/>
   <tile/>
   <tile/>
   <tile/>
   <tile/>
   <tile/>
   <tile/>
   <tile/>
   <tile/>
   <tile/>
   <tile/>
   <tile/>
   <tile/>
   <tile/>
   <tile/>
   <tile/>
   <tile/>
   <tile/>
   <tile/>
   <tile/>
   <tile/>
   <tile/>
   <tile/>
   <tile/>
   <tile/>
   <tile/>
   <tile/>
   <tile/>
   <tile/>
   <tile/>
   <tile/>
   <tile/>
   <tile/>
   <tile/>
   <tile/>
   <tile gid="217"/>
   <tile gid="217"/>
   <tile gid="217"/>
   <tile/>
   <tile/>
   <tile/>
   <tile/>
   <tile/>
   <tile/>
   <tile/>
   <tile/>
   <tile/>
   <tile/>
   <tile/>
   <tile/>
   <tile/>
   <tile/>
   <tile/>
   <tile/>
   <tile/>
   <tile/>
   <tile/>
   <tile/>
   <tile/>
   <tile/>
   <tile/>
   <tile/>
   <tile/>
   <tile gid="217"/>
   <tile gid="217"/>
   <tile gid="217"/>
   <tile/>
   <tile/>
   <tile/>
   <tile/>
   <tile/>
   <tile/>
   <tile/>
   <tile/>
   <tile/>
   <tile/>
   <tile/>
   <tile/>
   <tile/>
   <tile/>
   <tile/>
   <tile/>
   <tile/>
   <tile/>
   <tile/>
   <tile/>
   <tile/>
   <tile/>
   <tile/>
   <tile/>
   <tile/>
   <tile gid="217"/>
   <tile gid="217"/>
   <tile gid="217"/>
   <tile/>
   <tile/>
   <tile/>
   <tile/>
   <tile/>
   <tile/>
   <tile/>
   <tile/>
   <tile/>
   <tile/>
   <tile/>
   <tile/>
   <tile/>
   <tile/>
   <tile/>
   <tile/>
   <tile/>
   <tile/>
   <tile/>
   <tile/>
   <tile/>
   <tile/>
   <tile gid="217"/>
   <tile gid="217"/>
   <tile gid="217"/>
   <tile gid="217"/>
   <tile gid="217"/>
   <tile gid="217"/>
   <tile/>
   <tile/>
   <tile/>
   <tile/>
   <tile/>
   <tile/>
   <tile/>
   <tile/>
   <tile/>
   <tile/>
   <tile/>
   <tile/>
   <tile/>
   <tile/>
   <tile/>
   <tile/>
   <tile/>
   <tile/>
   <tile/>
   <tile/>
   <tile/>
   <tile/>
   <tile gid="217"/>
   <tile gid="217"/>
   <tile gid="217"/>
   <tile/>
   <tile/>
   <tile/>
   <tile/>
   <tile/>
   <tile/>
   <tile/>
   <tile/>
   <tile/>
   <tile/>
   <tile/>
   <tile/>
   <tile/>
   <tile/>
   <tile/>
   <tile/>
   <tile/>
   <tile/>
   <tile/>
   <tile/>
   <tile/>
   <tile/>
   <tile/>
   <tile/>
   <tile/>
   <tile/>
   <tile/>
   <tile/>
   <tile/>
   <tile/>
   <tile/>
   <tile/>
   <tile/>
   <tile/>
   <tile/>
   <tile/>
   <tile/>
   <tile/>
   <tile gid="217"/>
   <tile gid="217"/>
   <tile gid="217"/>
   <tile/>
   <tile/>
   <tile/>
   <tile/>
   <tile/>
   <tile/>
   <tile/>
   <tile/>
   <tile/>
   <tile/>
   <tile/>
   <tile/>
   <tile/>
   <tile/>
   <tile/>
   <tile/>
   <tile/>
   <tile/>
   <tile/>
   <tile/>
   <tile/>
   <tile/>
   <tile/>
   <tile/>
   <tile/>
   <tile gid="217"/>
   <tile gid="217"/>
   <tile gid="217"/>
   <tile/>
   <tile/>
   <tile/>
   <tile/>
   <tile/>
   <tile/>
   <tile/>
   <tile/>
   <tile/>
   <tile/>
   <tile/>
   <tile/>
   <tile/>
   <tile/>
   <tile/>
   <tile/>
   <tile/>
   <tile/>
   <tile/>
   <tile/>
   <tile/>
   <tile/>
   <tile/>
   <tile/>
   <tile/>
   <tile gid="217"/>
   <tile gid="217"/>
   <tile gid="217"/>
   <tile/>
   <tile/>
   <tile/>
   <tile/>
   <tile/>
   <tile/>
   <tile/>
   <tile/>
   <tile/>
   <tile/>
   <tile/>
   <tile/>
   <tile/>
   <tile/>
   <tile/>
   <tile/>
   <tile/>
   <tile/>
   <tile/>
   <tile/>
   <tile/>
   <tile/>
   <tile gid="217"/>
   <tile gid="217"/>
   <tile gid="217"/>
   <tile gid="217"/>
   <tile gid="217"/>
   <tile gid="217"/>
   <tile/>
   <tile/>
   <tile/>
   <tile/>
   <tile/>
   <tile/>
   <tile/>
   <tile/>
   <tile/>
   <tile/>
   <tile/>
   <tile/>
   <tile/>
   <tile/>
   <tile/>
   <tile/>
   <tile/>
   <tile/>
   <tile/>
   <tile/>
   <tile/>
   <tile/>
   <tile gid="217"/>
   <tile gid="217"/>
   <tile gid="217"/>
   <tile/>
   <tile/>
   <tile/>
   <tile/>
   <tile/>
   <tile/>
   <tile/>
   <tile/>
   <tile/>
   <tile/>
   <tile/>
   <tile/>
   <tile/>
   <tile/>
   <tile/>
   <tile/>
   <tile/>
   <tile/>
   <tile/>
   <tile/>
   <tile/>
   <tile/>
   <tile/>
   <tile/>
   <tile/>
   <tile/>
   <tile/>
   <tile/>
   <tile/>
   <tile/>
   <tile/>
   <tile/>
   <tile/>
   <tile/>
   <tile/>
   <tile/>
   <tile/>
   <tile/>
   <tile gid="217"/>
   <tile gid="217"/>
   <tile gid="217"/>
   <tile/>
   <tile/>
   <tile/>
   <tile/>
   <tile/>
   <tile/>
   <tile/>
   <tile/>
   <tile/>
   <tile/>
   <tile/>
   <tile/>
   <tile/>
   <tile/>
   <tile/>
   <tile/>
   <tile/>
   <tile/>
   <tile/>
   <tile/>
   <tile/>
   <tile/>
   <tile/>
   <tile/>
   <tile/>
   <tile gid="217"/>
   <tile gid="217"/>
   <tile gid="217"/>
   <tile/>
   <tile/>
   <tile/>
   <tile/>
   <tile/>
   <tile/>
   <tile/>
   <tile/>
   <tile/>
   <tile/>
   <tile/>
   <tile/>
   <tile/>
   <tile/>
   <tile/>
   <tile/>
   <tile/>
   <tile/>
   <tile/>
   <tile/>
   <tile/>
   <tile/>
   <tile/>
   <tile/>
   <tile/>
   <tile gid="217"/>
   <tile gid="217"/>
   <tile gid="217"/>
   <tile/>
   <tile/>
   <tile/>
   <tile/>
   <tile/>
   <tile/>
   <tile/>
   <tile/>
   <tile/>
   <tile/>
   <tile/>
   <tile/>
   <tile/>
   <tile/>
   <tile/>
   <tile/>
   <tile/>
   <tile/>
   <tile/>
   <tile/>
   <tile/>
   <tile/>
   <tile gid="217"/>
   <tile gid="217"/>
   <tile gid="217"/>
   <tile gid="217"/>
   <tile gid="217"/>
   <tile gid="217"/>
   <tile/>
   <tile/>
   <tile/>
   <tile/>
   <tile/>
   <tile/>
   <tile/>
   <tile/>
   <tile/>
   <tile/>
   <tile/>
   <tile/>
   <tile/>
   <tile/>
   <tile/>
   <tile/>
   <tile/>
   <tile/>
   <tile/>
   <tile/>
   <tile/>
   <tile/>
   <tile gid="217"/>
   <tile gid="217"/>
   <tile gid="217"/>
   <tile/>
   <tile/>
   <tile/>
   <tile/>
   <tile/>
   <tile/>
   <tile/>
   <tile/>
   <tile/>
   <tile/>
   <tile/>
   <tile/>
   <tile/>
   <tile/>
   <tile/>
   <tile/>
   <tile/>
   <tile/>
   <tile/>
   <tile/>
   <tile/>
   <tile/>
   <tile/>
   <tile/>
   <tile/>
   <tile/>
   <tile/>
   <tile/>
   <tile/>
   <tile/>
   <tile/>
   <tile/>
   <tile/>
   <tile/>
   <tile/>
   <tile/>
   <tile/>
   <tile/>
   <tile gid="217"/>
   <tile gid="217"/>
   <tile gid="217"/>
   <tile/>
   <tile/>
   <tile/>
   <tile/>
   <tile/>
   <tile/>
   <tile/>
   <tile/>
   <tile/>
   <tile/>
   <tile/>
   <tile/>
   <tile/>
   <tile/>
   <tile/>
   <tile/>
   <tile/>
   <tile/>
   <tile/>
   <tile/>
   <tile/>
   <tile/>
   <tile/>
   <tile/>
   <tile/>
   <tile gid="217"/>
   <tile gid="217"/>
   <tile gid="217"/>
   <tile/>
   <tile/>
   <tile/>
   <tile/>
   <tile/>
   <tile/>
   <tile/>
   <tile/>
   <tile/>
   <tile/>
   <tile/>
   <tile/>
   <tile/>
   <tile/>
   <tile/>
   <tile/>
   <tile/>
   <tile/>
   <tile/>
   <tile/>
   <tile/>
   <tile/>
   <tile/>
   <tile/>
   <tile/>
   <tile gid="217"/>
   <tile gid="217"/>
   <tile gid="217"/>
   <tile/>
   <tile/>
   <tile/>
   <tile/>
   <tile/>
   <tile/>
   <tile/>
   <tile/>
   <tile/>
   <tile/>
   <tile/>
   <tile/>
   <tile/>
   <tile/>
   <tile/>
   <tile/>
   <tile/>
   <tile/>
   <tile/>
   <tile/>
   <tile/>
   <tile/>
   <tile gid="217"/>
   <tile gid="217"/>
   <tile gid="217"/>
   <tile gid="217"/>
   <tile gid="217"/>
   <tile gid="217"/>
   <tile/>
   <tile/>
   <tile/>
   <tile/>
   <tile/>
   <tile/>
   <tile/>
   <tile/>
   <tile/>
   <tile/>
   <tile/>
   <tile/>
   <tile/>
   <tile/>
   <tile/>
   <tile/>
   <tile/>
   <tile/>
   <tile/>
   <tile/>
   <tile/>
   <tile/>
   <tile gid="217"/>
   <tile gid="217"/>
   <tile gid="217"/>
   <tile/>
   <tile/>
   <tile/>
   <tile/>
   <tile/>
   <tile/>
   <tile/>
   <tile/>
   <tile/>
   <tile/>
   <tile/>
   <tile/>
   <tile/>
   <tile/>
   <tile/>
   <tile/>
   <tile/>
   <tile/>
   <tile/>
   <tile/>
   <tile/>
   <tile/>
   <tile/>
   <tile/>
   <tile/>
   <tile/>
   <tile/>
   <tile/>
   <tile/>
   <tile/>
   <tile/>
   <tile/>
   <tile/>
   <tile/>
   <tile/>
   <tile/>
   <tile/>
   <tile/>
   <tile gid="217"/>
   <tile gid="217"/>
   <tile gid="217"/>
   <tile/>
   <tile/>
   <tile/>
   <tile/>
   <tile/>
   <tile/>
   <tile/>
   <tile/>
   <tile/>
   <tile/>
   <tile/>
   <tile/>
   <tile/>
   <tile/>
   <tile/>
   <tile/>
   <tile/>
   <tile/>
   <tile/>
   <tile/>
   <tile/>
   <tile/>
   <tile/>
   <tile/>
   <tile/>
   <tile gid="217"/>
   <tile gid="217"/>
   <tile gid="217"/>
   <tile/>
   <tile/>
   <tile/>
   <tile/>
   <tile/>
   <tile/>
   <tile/>
   <tile/>
   <tile/>
   <tile/>
   <tile/>
   <tile/>
   <tile/>
   <tile/>
   <tile/>
   <tile/>
   <tile/>
   <tile/>
   <tile/>
   <tile/>
   <tile/>
   <tile/>
   <tile/>
   <tile/>
   <tile/>
   <tile gid="217"/>
   <tile gid="217"/>
   <tile gid="217"/>
   <tile/>
   <tile/>
   <tile/>
   <tile/>
   <tile/>
   <tile/>
   <tile/>
   <tile/>
   <tile/>
   <tile/>
   <tile/>
   <tile/>
   <tile/>
   <tile/>
   <tile/>
   <tile/>
   <tile/>
   <tile/>
   <tile/>
   <tile/>
   <tile/>
   <tile/>
   <tile gid="217"/>
   <tile gid="217"/>
   <tile gid="217"/>
   <tile gid="217"/>
   <tile gid="217"/>
   <tile gid="217"/>
   <tile/>
   <tile/>
   <tile/>
   <tile/>
   <tile/>
   <tile/>
   <tile/>
   <tile/>
   <tile/>
   <tile/>
   <tile/>
   <tile/>
   <tile/>
   <tile/>
   <tile/>
   <tile/>
   <tile/>
   <tile/>
   <tile/>
   <tile/>
   <tile/>
   <tile/>
   <tile gid="217"/>
   <tile gid="217"/>
   <tile gid="217"/>
   <tile/>
   <tile/>
   <tile/>
   <tile/>
   <tile/>
   <tile/>
   <tile/>
   <tile/>
   <tile/>
   <tile/>
   <tile/>
   <tile/>
   <tile/>
   <tile/>
   <tile/>
   <tile/>
   <tile/>
   <tile/>
   <tile/>
   <tile/>
   <tile/>
   <tile/>
   <tile/>
   <tile/>
   <tile/>
   <tile/>
   <tile/>
   <tile/>
   <tile/>
   <tile/>
   <tile/>
   <tile/>
   <tile/>
   <tile/>
   <tile/>
   <tile/>
   <tile/>
   <tile/>
   <tile gid="217"/>
   <tile gid="217"/>
   <tile gid="217"/>
   <tile/>
   <tile/>
   <tile/>
   <tile/>
   <tile/>
   <tile/>
   <tile/>
   <tile/>
   <tile/>
   <tile/>
   <tile/>
   <tile/>
   <tile/>
   <tile/>
   <tile/>
   <tile/>
   <tile/>
   <tile/>
   <tile/>
   <tile/>
   <tile/>
   <tile/>
   <tile/>
   <tile/>
   <tile/>
   <tile gid="217"/>
   <tile gid="217"/>
   <tile gid="217"/>
   <tile/>
   <tile/>
   <tile/>
   <tile/>
   <tile/>
   <tile/>
   <tile/>
   <tile/>
   <tile/>
   <tile/>
   <tile/>
   <tile/>
   <tile/>
   <tile/>
   <tile/>
   <tile/>
   <tile/>
   <tile/>
   <tile/>
   <tile/>
   <tile/>
   <tile/>
   <tile/>
   <tile/>
   <tile/>
   <tile gid="217"/>
   <tile gid="217"/>
   <tile gid="217"/>
   <tile/>
   <tile/>
   <tile/>
   <tile/>
   <tile/>
   <tile/>
   <tile/>
   <tile/>
   <tile/>
   <tile/>
   <tile/>
   <tile/>
   <tile/>
   <tile/>
   <tile/>
   <tile/>
   <tile/>
   <tile/>
   <tile/>
   <tile/>
   <tile/>
   <tile/>
   <tile gid="217"/>
   <tile gid="217"/>
   <tile gid="217"/>
   <tile gid="217"/>
   <tile gid="217"/>
   <tile gid="217"/>
   <tile/>
   <tile/>
   <tile/>
   <tile/>
   <tile/>
   <tile/>
   <tile/>
   <tile/>
   <tile/>
   <tile/>
   <tile/>
   <tile/>
   <tile/>
   <tile/>
   <tile/>
   <tile/>
   <tile/>
   <tile/>
   <tile/>
   <tile/>
   <tile/>
   <tile/>
   <tile gid="217"/>
   <tile gid="217"/>
   <tile gid="217"/>
   <tile/>
   <tile/>
   <tile/>
   <tile/>
   <tile/>
   <tile/>
   <tile/>
   <tile/>
   <tile/>
   <tile/>
   <tile/>
   <tile/>
   <tile/>
   <tile/>
   <tile/>
   <tile/>
   <tile/>
   <tile/>
   <tile/>
   <tile/>
   <tile/>
   <tile/>
   <tile/>
   <tile/>
   <tile/>
   <tile/>
   <tile/>
   <tile/>
   <tile/>
   <tile/>
   <tile/>
   <tile/>
   <tile/>
   <tile/>
   <tile/>
   <tile/>
   <tile/>
   <tile/>
   <tile gid="217"/>
   <tile gid="217"/>
   <tile gid="217"/>
   <tile/>
   <tile/>
   <tile/>
   <tile/>
   <tile/>
   <tile/>
   <tile/>
   <tile/>
   <tile/>
   <tile/>
   <tile/>
   <tile/>
   <tile/>
   <tile/>
   <tile/>
   <tile/>
   <tile/>
   <tile/>
   <tile/>
   <tile/>
   <tile/>
   <tile/>
   <tile/>
   <tile/>
   <tile/>
   <tile gid="217"/>
   <tile gid="217"/>
   <tile gid="217"/>
   <tile/>
   <tile/>
   <tile/>
   <tile/>
   <tile/>
   <tile/>
   <tile/>
   <tile/>
   <tile/>
   <tile/>
   <tile/>
   <tile/>
   <tile/>
   <tile/>
   <tile/>
   <tile/>
   <tile/>
   <tile/>
   <tile/>
   <tile/>
   <tile/>
   <tile/>
   <tile/>
   <tile/>
   <tile/>
   <tile gid="217"/>
   <tile gid="217"/>
   <tile gid="217"/>
   <tile/>
   <tile/>
   <tile/>
   <tile/>
   <tile/>
   <tile/>
   <tile/>
   <tile/>
   <tile/>
   <tile/>
   <tile/>
   <tile/>
   <tile/>
   <tile/>
   <tile/>
   <tile/>
   <tile/>
   <tile/>
   <tile/>
   <tile/>
   <tile/>
   <tile/>
   <tile gid="217"/>
   <tile gid="217"/>
   <tile gid="217"/>
   <tile gid="217"/>
   <tile gid="217"/>
   <tile gid="217"/>
   <tile/>
   <tile/>
   <tile/>
   <tile/>
   <tile/>
   <tile/>
   <tile/>
   <tile/>
   <tile/>
   <tile/>
   <tile/>
   <tile/>
   <tile/>
   <tile/>
   <tile/>
   <tile/>
   <tile/>
   <tile/>
   <tile/>
   <tile/>
   <tile/>
   <tile/>
   <tile gid="217"/>
   <tile gid="217"/>
   <tile gid="217"/>
   <tile gid="217"/>
   <tile gid="217"/>
   <tile gid="217"/>
   <tile gid="217"/>
   <tile gid="217"/>
   <tile gid="217"/>
   <tile gid="217"/>
   <tile/>
   <tile/>
   <tile/>
   <tile/>
   <tile gid="217"/>
   <tile gid="217"/>
   <tile gid="217"/>
   <tile gid="217"/>
   <tile gid="217"/>
   <tile gid="217"/>
   <tile gid="217"/>
   <tile gid="217"/>
   <tile gid="217"/>
   <tile gid="217"/>
   <tile gid="217"/>
   <tile gid="217"/>
   <tile gid="217"/>
   <tile gid="217"/>
   <tile gid="217"/>
   <tile gid="217"/>
   <tile gid="217"/>
   <tile gid="217"/>
   <tile gid="217"/>
   <tile/>
   <tile/>
   <tile/>
   <tile gid="217"/>
   <tile gid="217"/>
   <tile gid="217"/>
   <tile gid="217"/>
   <tile gid="217"/>
   <tile gid="217"/>
   <tile gid="217"/>
   <tile gid="217"/>
   <tile/>
   <tile/>
   <tile/>
   <tile/>
   <tile/>
   <tile/>
   <tile/>
   <tile/>
   <tile/>
   <tile/>
   <tile/>
   <tile/>
   <tile/>
   <tile/>
   <tile/>
   <tile/>
   <tile/>
   <tile/>
   <tile/>
   <tile/>
   <tile/>
   <tile/>
   <tile/>
   <tile/>
   <tile/>
   <tile gid="217"/>
   <tile gid="217"/>
   <tile gid="217"/>
   <tile/>
   <tile/>
   <tile/>
   <tile/>
   <tile/>
   <tile/>
   <tile/>
   <tile/>
   <tile/>
   <tile/>
   <tile/>
   <tile/>
   <tile/>
   <tile/>
   <tile/>
   <tile/>
   <tile/>
   <tile/>
   <tile/>
   <tile/>
   <tile/>
   <tile/>
   <tile/>
   <tile/>
   <tile/>
   <tile gid="217"/>
   <tile gid="217"/>
   <tile gid="217"/>
   <tile/>
   <tile/>
   <tile/>
   <tile/>
   <tile/>
   <tile/>
   <tile/>
   <tile/>
   <tile/>
   <tile/>
   <tile/>
   <tile/>
   <tile/>
   <tile/>
   <tile/>
   <tile/>
   <tile/>
   <tile/>
   <tile/>
   <tile/>
   <tile/>
   <tile/>
   <tile gid="217"/>
   <tile gid="217"/>
   <tile gid="217"/>
   <tile gid="217"/>
   <tile gid="217"/>
   <tile gid="217"/>
   <tile/>
   <tile/>
   <tile/>
   <tile/>
   <tile/>
   <tile/>
   <tile/>
   <tile/>
   <tile/>
   <tile/>
   <tile/>
   <tile/>
   <tile/>
   <tile/>
   <tile/>
   <tile/>
   <tile/>
   <tile/>
   <tile/>
   <tile/>
   <tile/>
   <tile/>
   <tile gid="217"/>
   <tile gid="217"/>
   <tile gid="217"/>
   <tile gid="217"/>
   <tile gid="217"/>
   <tile gid="217"/>
   <tile gid="217"/>
   <tile gid="217"/>
   <tile gid="217"/>
   <tile gid="217"/>
   <tile/>
   <tile/>
   <tile/>
   <tile/>
   <tile gid="217"/>
   <tile gid="217"/>
   <tile gid="217"/>
   <tile gid="217"/>
   <tile gid="217"/>
   <tile gid="217"/>
   <tile gid="217"/>
   <tile gid="217"/>
   <tile gid="217"/>
   <tile gid="217"/>
   <tile gid="217"/>
   <tile gid="217"/>
   <tile gid="217"/>
   <tile gid="217"/>
   <tile gid="217"/>
   <tile gid="217"/>
   <tile gid="217"/>
   <tile gid="217"/>
   <tile gid="217"/>
   <tile/>
   <tile/>
   <tile/>
   <tile gid="217"/>
   <tile gid="217"/>
   <tile gid="217"/>
   <tile gid="217"/>
   <tile gid="217"/>
   <tile gid="217"/>
   <tile gid="217"/>
   <tile gid="217"/>
   <tile/>
   <tile/>
   <tile/>
   <tile/>
   <tile/>
   <tile/>
   <tile/>
   <tile/>
   <tile/>
   <tile/>
   <tile/>
   <tile/>
   <tile/>
   <tile/>
   <tile/>
   <tile/>
   <tile/>
   <tile/>
   <tile/>
   <tile/>
   <tile/>
   <tile/>
   <tile/>
   <tile/>
   <tile/>
   <tile gid="217"/>
   <tile gid="217"/>
   <tile gid="217"/>
   <tile/>
   <tile/>
   <tile/>
   <tile/>
   <tile/>
   <tile/>
   <tile/>
   <tile/>
   <tile/>
   <tile/>
   <tile/>
   <tile/>
   <tile/>
   <tile/>
   <tile/>
   <tile/>
   <tile/>
   <tile/>
   <tile/>
   <tile/>
   <tile/>
   <tile/>
   <tile/>
   <tile/>
   <tile/>
   <tile gid="217"/>
   <tile gid="217"/>
   <tile gid="217"/>
   <tile/>
   <tile/>
   <tile/>
   <tile/>
   <tile/>
   <tile/>
   <tile/>
   <tile/>
   <tile/>
   <tile/>
   <tile/>
   <tile/>
   <tile/>
   <tile/>
   <tile/>
   <tile/>
   <tile/>
   <tile/>
   <tile/>
   <tile/>
   <tile/>
   <tile/>
   <tile gid="217"/>
   <tile gid="217"/>
   <tile gid="217"/>
   <tile gid="217"/>
   <tile gid="217"/>
   <tile gid="217"/>
   <tile/>
   <tile/>
   <tile/>
   <tile/>
   <tile/>
   <tile/>
   <tile/>
   <tile/>
   <tile/>
   <tile/>
   <tile/>
   <tile/>
   <tile/>
   <tile/>
   <tile/>
   <tile/>
   <tile/>
   <tile/>
   <tile/>
   <tile/>
   <tile/>
   <tile/>
   <tile gid="5025"/>
   <tile gid="5026"/>
   <tile gid="5026"/>
   <tile gid="5026"/>
   <tile gid="5026"/>
   <tile gid="5026"/>
   <tile gid="5026"/>
   <tile gid="5026"/>
   <tile gid="5026"/>
   <tile gid="5027"/>
   <tile/>
   <tile/>
   <tile/>
   <tile/>
   <tile gid="5025"/>
   <tile gid="5026"/>
   <tile gid="5026"/>
   <tile gid="5026"/>
   <tile gid="5026"/>
   <tile gid="5026"/>
   <tile gid="5026"/>
   <tile gid="5026"/>
   <tile gid="5027"/>
   <tile gid="217"/>
   <tile gid="217"/>
   <tile gid="217"/>
   <tile gid="5025"/>
   <tile gid="5026"/>
   <tile gid="5026"/>
   <tile gid="5026"/>
   <tile gid="5026"/>
   <tile gid="5026"/>
   <tile gid="5027"/>
   <tile/>
   <tile/>
   <tile/>
   <tile gid="5025"/>
   <tile gid="5026"/>
   <tile gid="5026"/>
   <tile gid="5026"/>
   <tile gid="5027"/>
   <tile gid="217"/>
   <tile gid="217"/>
   <tile gid="217"/>
   <tile/>
   <tile/>
   <tile/>
   <tile/>
   <tile/>
   <tile/>
   <tile/>
   <tile/>
   <tile/>
   <tile/>
   <tile/>
   <tile/>
   <tile/>
   <tile/>
   <tile/>
   <tile/>
   <tile/>
   <tile/>
   <tile/>
   <tile/>
   <tile/>
   <tile/>
   <tile/>
   <tile/>
   <tile/>
   <tile gid="217"/>
   <tile gid="217"/>
   <tile gid="217"/>
   <tile/>
   <tile/>
   <tile/>
   <tile/>
   <tile/>
   <tile/>
   <tile/>
   <tile/>
   <tile/>
   <tile/>
   <tile/>
   <tile/>
   <tile/>
   <tile/>
   <tile/>
   <tile/>
   <tile/>
   <tile/>
   <tile/>
   <tile/>
   <tile/>
   <tile/>
   <tile/>
   <tile/>
   <tile/>
   <tile gid="217"/>
   <tile gid="217"/>
   <tile gid="217"/>
   <tile/>
   <tile/>
   <tile/>
   <tile/>
   <tile/>
   <tile/>
   <tile/>
   <tile/>
   <tile/>
   <tile/>
   <tile/>
   <tile/>
   <tile/>
   <tile/>
   <tile/>
   <tile/>
   <tile/>
   <tile/>
   <tile/>
   <tile/>
   <tile/>
   <tile/>
   <tile gid="217"/>
   <tile gid="217"/>
   <tile gid="217"/>
   <tile gid="217"/>
   <tile gid="217"/>
   <tile gid="217"/>
   <tile/>
   <tile/>
   <tile/>
   <tile/>
   <tile/>
   <tile/>
   <tile/>
   <tile/>
   <tile/>
   <tile/>
   <tile/>
   <tile/>
   <tile/>
   <tile/>
   <tile/>
   <tile/>
   <tile/>
   <tile/>
   <tile/>
   <tile/>
   <tile/>
   <tile/>
   <tile gid="5057"/>
   <tile gid="5058"/>
   <tile gid="5058"/>
   <tile gid="5058"/>
   <tile gid="5058"/>
   <tile gid="5058"/>
   <tile gid="5058"/>
   <tile gid="5058"/>
   <tile gid="5058"/>
   <tile gid="5059"/>
   <tile/>
   <tile/>
   <tile/>
   <tile/>
   <tile gid="5057"/>
   <tile gid="5058"/>
   <tile gid="5058"/>
   <tile gid="5058"/>
   <tile gid="5058"/>
   <tile gid="5058"/>
   <tile gid="5058"/>
   <tile gid="5058"/>
   <tile gid="5059"/>
   <tile gid="217"/>
   <tile gid="217"/>
   <tile gid="217"/>
   <tile gid="5057"/>
   <tile gid="5058"/>
   <tile gid="5058"/>
   <tile gid="5058"/>
   <tile gid="5058"/>
   <tile gid="5058"/>
   <tile gid="5059"/>
   <tile/>
   <tile/>
   <tile/>
   <tile gid="5057"/>
   <tile gid="5058"/>
   <tile gid="5058"/>
   <tile gid="5058"/>
   <tile gid="5059"/>
   <tile gid="217"/>
   <tile gid="217"/>
   <tile gid="217"/>
   <tile/>
   <tile/>
   <tile/>
   <tile/>
   <tile/>
   <tile/>
   <tile/>
   <tile/>
   <tile/>
   <tile/>
   <tile/>
   <tile/>
   <tile/>
   <tile/>
   <tile/>
   <tile/>
   <tile/>
   <tile/>
   <tile/>
   <tile/>
   <tile/>
   <tile/>
   <tile/>
   <tile/>
   <tile/>
   <tile gid="217"/>
   <tile gid="217"/>
   <tile gid="217"/>
   <tile/>
   <tile/>
   <tile/>
   <tile/>
   <tile/>
   <tile/>
   <tile/>
   <tile/>
   <tile/>
   <tile/>
   <tile/>
   <tile/>
   <tile/>
   <tile/>
   <tile/>
   <tile/>
   <tile/>
   <tile/>
   <tile/>
   <tile/>
   <tile/>
   <tile/>
   <tile/>
   <tile/>
   <tile/>
   <tile gid="217"/>
   <tile gid="217"/>
   <tile gid="217"/>
   <tile/>
   <tile/>
   <tile/>
   <tile/>
   <tile/>
   <tile/>
   <tile/>
   <tile/>
   <tile/>
   <tile/>
   <tile/>
   <tile/>
   <tile/>
   <tile/>
   <tile/>
   <tile/>
   <tile/>
   <tile/>
   <tile/>
   <tile/>
   <tile/>
   <tile/>
   <tile gid="217"/>
   <tile gid="217"/>
   <tile gid="217"/>
   <tile gid="217"/>
   <tile gid="217"/>
   <tile gid="217"/>
   <tile/>
   <tile/>
   <tile/>
   <tile/>
   <tile/>
   <tile/>
   <tile/>
   <tile/>
   <tile/>
   <tile/>
   <tile/>
   <tile/>
   <tile/>
   <tile/>
   <tile/>
   <tile/>
   <tile/>
   <tile/>
   <tile/>
   <tile/>
   <tile/>
   <tile/>
   <tile gid="5089"/>
   <tile gid="5090"/>
   <tile gid="5090"/>
   <tile gid="5090"/>
   <tile gid="5090"/>
   <tile gid="5090"/>
   <tile gid="5090"/>
   <tile gid="5090"/>
   <tile gid="5090"/>
   <tile gid="5091"/>
   <tile/>
   <tile/>
   <tile/>
   <tile/>
   <tile gid="5089"/>
   <tile gid="5090"/>
   <tile gid="5090"/>
   <tile gid="5090"/>
   <tile gid="5090"/>
   <tile gid="5090"/>
   <tile gid="5090"/>
   <tile gid="5090"/>
   <tile gid="5091"/>
   <tile gid="217"/>
   <tile gid="217"/>
   <tile gid="217"/>
   <tile gid="5089"/>
   <tile gid="5090"/>
   <tile gid="5090"/>
   <tile gid="5090"/>
   <tile gid="5090"/>
   <tile gid="5090"/>
   <tile gid="5091"/>
   <tile/>
   <tile/>
   <tile/>
   <tile gid="5089"/>
   <tile gid="5090"/>
   <tile gid="5090"/>
   <tile gid="5090"/>
   <tile gid="5091"/>
   <tile gid="217"/>
   <tile gid="217"/>
   <tile gid="217"/>
   <tile/>
   <tile/>
   <tile/>
   <tile/>
   <tile/>
   <tile/>
   <tile/>
   <tile/>
   <tile/>
   <tile/>
   <tile/>
   <tile/>
   <tile/>
   <tile/>
   <tile/>
   <tile/>
   <tile/>
   <tile/>
   <tile/>
   <tile/>
   <tile/>
   <tile/>
   <tile/>
   <tile/>
   <tile/>
   <tile gid="217"/>
   <tile gid="217"/>
   <tile gid="217"/>
   <tile/>
   <tile/>
   <tile/>
   <tile/>
   <tile/>
   <tile/>
   <tile/>
   <tile/>
   <tile/>
   <tile/>
   <tile/>
   <tile/>
   <tile/>
   <tile/>
   <tile/>
   <tile/>
   <tile/>
   <tile/>
   <tile/>
   <tile/>
   <tile/>
   <tile/>
   <tile/>
   <tile/>
   <tile/>
   <tile gid="217"/>
   <tile gid="217"/>
   <tile gid="217"/>
   <tile/>
   <tile/>
   <tile/>
   <tile/>
   <tile/>
   <tile/>
   <tile/>
   <tile/>
   <tile/>
   <tile/>
   <tile/>
   <tile/>
   <tile/>
   <tile/>
   <tile/>
   <tile/>
   <tile/>
   <tile/>
   <tile/>
   <tile/>
   <tile/>
   <tile/>
   <tile gid="217"/>
   <tile gid="217"/>
   <tile gid="217"/>
   <tile gid="217"/>
   <tile gid="217"/>
   <tile gid="217"/>
   <tile/>
   <tile/>
   <tile/>
   <tile/>
   <tile/>
   <tile/>
   <tile/>
   <tile/>
   <tile/>
   <tile/>
   <tile/>
   <tile/>
   <tile/>
   <tile/>
   <tile/>
   <tile/>
   <tile/>
   <tile/>
   <tile/>
   <tile/>
   <tile/>
   <tile/>
   <tile/>
   <tile/>
   <tile/>
   <tile/>
   <tile/>
   <tile/>
   <tile/>
   <tile/>
   <tile/>
   <tile/>
   <tile/>
   <tile/>
   <tile/>
   <tile/>
   <tile/>
   <tile/>
   <tile/>
   <tile/>
   <tile/>
   <tile/>
   <tile/>
   <tile/>
   <tile/>
   <tile gid="217"/>
   <tile gid="217"/>
   <tile gid="217"/>
   <tile/>
   <tile/>
   <tile/>
   <tile/>
   <tile/>
   <tile/>
   <tile/>
   <tile/>
   <tile/>
   <tile/>
   <tile/>
   <tile/>
   <tile/>
   <tile/>
   <tile/>
   <tile gid="217"/>
   <tile gid="217"/>
   <tile gid="217"/>
   <tile/>
   <tile/>
   <tile/>
   <tile/>
   <tile/>
   <tile/>
   <tile/>
   <tile/>
   <tile/>
   <tile/>
   <tile/>
   <tile/>
   <tile/>
   <tile/>
   <tile/>
   <tile/>
   <tile/>
   <tile/>
   <tile/>
   <tile/>
   <tile/>
   <tile/>
   <tile/>
   <tile/>
   <tile/>
   <tile gid="217"/>
   <tile gid="217"/>
   <tile gid="217"/>
   <tile/>
   <tile/>
   <tile/>
   <tile/>
   <tile/>
   <tile/>
   <tile/>
   <tile/>
   <tile/>
   <tile/>
   <tile/>
   <tile/>
   <tile/>
   <tile/>
   <tile/>
   <tile/>
   <tile/>
   <tile/>
   <tile/>
   <tile/>
   <tile/>
   <tile/>
   <tile/>
   <tile/>
   <tile/>
   <tile gid="217"/>
   <tile gid="217"/>
   <tile gid="217"/>
   <tile/>
   <tile/>
   <tile/>
   <tile/>
   <tile/>
   <tile/>
   <tile/>
   <tile/>
   <tile/>
   <tile/>
   <tile/>
   <tile/>
   <tile/>
   <tile/>
   <tile/>
   <tile/>
   <tile/>
   <tile/>
   <tile/>
   <tile/>
   <tile/>
   <tile/>
   <tile gid="217"/>
   <tile gid="217"/>
   <tile gid="217"/>
   <tile gid="217"/>
   <tile gid="217"/>
   <tile gid="217"/>
   <tile/>
   <tile/>
   <tile/>
   <tile/>
   <tile/>
   <tile/>
   <tile/>
   <tile/>
   <tile/>
   <tile/>
   <tile/>
   <tile/>
   <tile/>
   <tile/>
   <tile/>
   <tile/>
   <tile/>
   <tile/>
   <tile/>
   <tile/>
   <tile/>
   <tile/>
   <tile/>
   <tile/>
   <tile/>
   <tile/>
   <tile/>
   <tile/>
   <tile/>
   <tile/>
   <tile/>
   <tile/>
   <tile/>
   <tile/>
   <tile/>
   <tile/>
   <tile/>
   <tile/>
   <tile/>
   <tile/>
   <tile/>
   <tile/>
   <tile/>
   <tile/>
   <tile/>
   <tile gid="217"/>
   <tile gid="217"/>
   <tile gid="217"/>
   <tile/>
   <tile/>
   <tile/>
   <tile/>
   <tile/>
   <tile/>
   <tile/>
   <tile/>
   <tile/>
   <tile/>
   <tile/>
   <tile/>
   <tile/>
   <tile/>
   <tile/>
   <tile gid="217"/>
   <tile gid="217"/>
   <tile gid="217"/>
   <tile/>
   <tile/>
   <tile/>
   <tile/>
   <tile/>
   <tile/>
   <tile/>
   <tile/>
   <tile/>
   <tile/>
   <tile/>
   <tile/>
   <tile/>
   <tile/>
   <tile/>
   <tile/>
   <tile/>
   <tile/>
   <tile/>
   <tile/>
   <tile/>
   <tile/>
   <tile/>
   <tile/>
   <tile/>
   <tile gid="217"/>
   <tile gid="217"/>
   <tile gid="217"/>
   <tile/>
   <tile/>
   <tile/>
   <tile/>
   <tile/>
   <tile/>
   <tile/>
   <tile/>
   <tile/>
   <tile/>
   <tile/>
   <tile/>
   <tile/>
   <tile/>
   <tile/>
   <tile/>
   <tile/>
   <tile/>
   <tile/>
   <tile/>
   <tile/>
   <tile/>
   <tile/>
   <tile/>
   <tile/>
   <tile gid="217"/>
   <tile gid="217"/>
   <tile gid="217"/>
   <tile/>
   <tile/>
   <tile/>
   <tile/>
   <tile/>
   <tile/>
   <tile/>
   <tile/>
   <tile/>
   <tile/>
   <tile/>
   <tile/>
   <tile/>
   <tile/>
   <tile/>
   <tile/>
   <tile/>
   <tile/>
   <tile/>
   <tile/>
   <tile/>
   <tile/>
   <tile gid="217"/>
   <tile gid="217"/>
   <tile gid="217"/>
   <tile gid="217"/>
   <tile gid="217"/>
   <tile gid="217"/>
   <tile/>
   <tile/>
   <tile/>
   <tile/>
   <tile/>
   <tile/>
   <tile/>
   <tile/>
   <tile/>
   <tile/>
   <tile/>
   <tile/>
   <tile/>
   <tile/>
   <tile/>
   <tile/>
   <tile/>
   <tile/>
   <tile/>
   <tile/>
   <tile/>
   <tile/>
   <tile/>
   <tile/>
   <tile/>
   <tile/>
   <tile/>
   <tile/>
   <tile/>
   <tile/>
   <tile/>
   <tile/>
   <tile/>
   <tile/>
   <tile/>
   <tile/>
   <tile/>
   <tile/>
   <tile/>
   <tile/>
   <tile/>
   <tile/>
   <tile/>
   <tile/>
   <tile/>
   <tile gid="217"/>
   <tile gid="217"/>
   <tile gid="217"/>
   <tile/>
   <tile/>
   <tile/>
   <tile/>
   <tile/>
   <tile/>
   <tile/>
   <tile/>
   <tile/>
   <tile/>
   <tile/>
   <tile/>
   <tile/>
   <tile/>
   <tile/>
   <tile gid="217"/>
   <tile gid="217"/>
   <tile gid="217"/>
   <tile/>
   <tile/>
   <tile/>
   <tile/>
   <tile/>
   <tile/>
   <tile/>
   <tile/>
   <tile/>
   <tile/>
   <tile/>
   <tile/>
   <tile/>
   <tile/>
   <tile/>
   <tile/>
   <tile/>
   <tile/>
   <tile/>
   <tile/>
   <tile/>
   <tile/>
   <tile/>
   <tile/>
   <tile/>
   <tile gid="217"/>
   <tile gid="217"/>
   <tile gid="217"/>
   <tile/>
   <tile/>
   <tile/>
   <tile/>
   <tile/>
   <tile/>
   <tile/>
   <tile/>
   <tile/>
   <tile/>
   <tile/>
   <tile/>
   <tile/>
   <tile/>
   <tile/>
   <tile/>
   <tile/>
   <tile/>
   <tile/>
   <tile/>
   <tile/>
   <tile/>
   <tile/>
   <tile/>
   <tile/>
   <tile gid="217"/>
   <tile gid="217"/>
   <tile gid="217"/>
   <tile/>
   <tile/>
   <tile/>
   <tile/>
   <tile/>
   <tile/>
   <tile/>
   <tile/>
   <tile/>
   <tile/>
   <tile/>
   <tile/>
   <tile/>
   <tile/>
   <tile/>
   <tile/>
   <tile/>
   <tile/>
   <tile/>
   <tile/>
   <tile/>
   <tile/>
   <tile gid="217"/>
   <tile gid="217"/>
   <tile gid="217"/>
   <tile gid="217"/>
   <tile gid="217"/>
   <tile gid="217"/>
   <tile/>
   <tile/>
   <tile/>
   <tile/>
   <tile/>
   <tile/>
   <tile/>
   <tile/>
   <tile/>
   <tile/>
   <tile/>
   <tile/>
   <tile/>
   <tile/>
   <tile/>
   <tile/>
   <tile/>
   <tile/>
   <tile/>
   <tile/>
   <tile/>
   <tile/>
   <tile/>
   <tile/>
   <tile/>
   <tile/>
   <tile/>
   <tile/>
   <tile/>
   <tile/>
   <tile/>
   <tile/>
   <tile/>
   <tile/>
   <tile/>
   <tile/>
   <tile/>
   <tile/>
   <tile/>
   <tile/>
   <tile/>
   <tile/>
   <tile/>
   <tile/>
   <tile/>
   <tile gid="217"/>
   <tile gid="217"/>
   <tile gid="217"/>
   <tile/>
   <tile/>
   <tile/>
   <tile/>
   <tile/>
   <tile/>
   <tile/>
   <tile/>
   <tile/>
   <tile/>
   <tile/>
   <tile/>
   <tile/>
   <tile/>
   <tile/>
   <tile gid="217"/>
   <tile gid="217"/>
   <tile gid="217"/>
   <tile/>
   <tile/>
   <tile/>
   <tile/>
   <tile/>
   <tile/>
   <tile/>
   <tile/>
   <tile/>
   <tile/>
   <tile/>
   <tile/>
   <tile/>
   <tile/>
   <tile/>
   <tile/>
   <tile/>
   <tile/>
   <tile/>
   <tile/>
   <tile/>
   <tile/>
   <tile/>
   <tile/>
   <tile/>
   <tile gid="217"/>
   <tile gid="217"/>
   <tile gid="217"/>
   <tile/>
   <tile/>
   <tile/>
   <tile/>
   <tile/>
   <tile/>
   <tile/>
   <tile/>
   <tile/>
   <tile/>
   <tile/>
   <tile/>
   <tile/>
   <tile/>
   <tile/>
   <tile/>
   <tile/>
   <tile/>
   <tile/>
   <tile/>
   <tile/>
   <tile/>
   <tile/>
   <tile/>
   <tile/>
   <tile gid="217"/>
   <tile gid="217"/>
   <tile gid="217"/>
   <tile/>
   <tile/>
   <tile/>
   <tile/>
   <tile/>
   <tile/>
   <tile/>
   <tile/>
   <tile/>
   <tile/>
   <tile/>
   <tile/>
   <tile/>
   <tile/>
   <tile/>
   <tile/>
   <tile/>
   <tile/>
   <tile/>
   <tile/>
   <tile/>
   <tile/>
   <tile gid="217"/>
   <tile gid="217"/>
   <tile gid="217"/>
   <tile gid="217"/>
   <tile gid="217"/>
   <tile gid="217"/>
   <tile/>
   <tile/>
   <tile/>
   <tile/>
   <tile/>
   <tile/>
   <tile/>
   <tile/>
   <tile/>
   <tile/>
   <tile/>
   <tile/>
   <tile/>
   <tile/>
   <tile/>
   <tile/>
   <tile/>
   <tile/>
   <tile/>
   <tile/>
   <tile/>
   <tile/>
   <tile/>
   <tile/>
   <tile/>
   <tile/>
   <tile/>
   <tile/>
   <tile/>
   <tile/>
   <tile/>
   <tile/>
   <tile/>
   <tile/>
   <tile/>
   <tile/>
   <tile/>
   <tile/>
   <tile/>
   <tile/>
   <tile/>
   <tile/>
   <tile/>
   <tile/>
   <tile/>
   <tile gid="217"/>
   <tile gid="217"/>
   <tile gid="217"/>
   <tile/>
   <tile/>
   <tile/>
   <tile/>
   <tile/>
   <tile/>
   <tile/>
   <tile/>
   <tile/>
   <tile/>
   <tile/>
   <tile/>
   <tile/>
   <tile/>
   <tile/>
   <tile gid="217"/>
   <tile gid="217"/>
   <tile gid="217"/>
   <tile/>
   <tile/>
   <tile/>
   <tile/>
   <tile/>
   <tile/>
   <tile/>
   <tile/>
   <tile/>
   <tile/>
   <tile/>
   <tile/>
   <tile/>
   <tile/>
   <tile/>
   <tile/>
   <tile/>
   <tile/>
   <tile/>
   <tile/>
   <tile/>
   <tile/>
   <tile/>
   <tile/>
   <tile/>
   <tile gid="217"/>
   <tile gid="217"/>
   <tile gid="217"/>
   <tile gid="217"/>
   <tile gid="217"/>
   <tile gid="217"/>
   <tile gid="217"/>
   <tile gid="217"/>
   <tile gid="217"/>
   <tile gid="217"/>
   <tile gid="217"/>
   <tile gid="217"/>
   <tile gid="217"/>
   <tile gid="217"/>
   <tile gid="217"/>
   <tile/>
   <tile/>
   <tile/>
   <tile gid="217"/>
   <tile gid="217"/>
   <tile gid="217"/>
   <tile gid="217"/>
   <tile gid="217"/>
   <tile gid="217"/>
   <tile gid="217"/>
   <tile gid="217"/>
   <tile gid="217"/>
   <tile gid="217"/>
   <tile gid="217"/>
   <tile gid="217"/>
   <tile gid="217"/>
   <tile/>
   <tile/>
   <tile/>
   <tile/>
   <tile/>
   <tile/>
   <tile/>
   <tile/>
   <tile/>
   <tile/>
   <tile/>
   <tile/>
   <tile/>
   <tile/>
   <tile/>
   <tile/>
   <tile/>
   <tile/>
   <tile/>
   <tile/>
   <tile/>
   <tile/>
   <tile gid="217"/>
   <tile gid="217"/>
   <tile gid="217"/>
   <tile gid="217"/>
   <tile gid="217"/>
   <tile gid="217"/>
   <tile/>
   <tile/>
   <tile/>
   <tile/>
   <tile/>
   <tile/>
   <tile/>
   <tile/>
   <tile/>
   <tile/>
   <tile/>
   <tile/>
   <tile/>
   <tile/>
   <tile/>
   <tile/>
   <tile/>
   <tile/>
   <tile/>
   <tile/>
   <tile/>
   <tile/>
   <tile/>
   <tile/>
   <tile/>
   <tile/>
   <tile/>
   <tile/>
   <tile/>
   <tile/>
   <tile/>
   <tile/>
   <tile/>
   <tile/>
   <tile/>
   <tile/>
   <tile/>
   <tile/>
   <tile/>
   <tile/>
   <tile/>
   <tile/>
   <tile/>
   <tile/>
   <tile/>
   <tile gid="217"/>
   <tile gid="217"/>
   <tile gid="217"/>
   <tile/>
   <tile/>
   <tile/>
   <tile/>
   <tile/>
   <tile/>
   <tile/>
   <tile/>
   <tile/>
   <tile/>
   <tile/>
   <tile/>
   <tile/>
   <tile/>
   <tile/>
   <tile gid="217"/>
   <tile gid="217"/>
   <tile gid="217"/>
   <tile/>
   <tile/>
   <tile/>
   <tile/>
   <tile/>
   <tile/>
   <tile/>
   <tile/>
   <tile/>
   <tile/>
   <tile/>
   <tile/>
   <tile/>
   <tile/>
   <tile/>
   <tile/>
   <tile/>
   <tile/>
   <tile/>
   <tile/>
   <tile/>
   <tile/>
   <tile/>
   <tile/>
   <tile/>
   <tile gid="217"/>
   <tile gid="217"/>
   <tile gid="217"/>
   <tile gid="217"/>
   <tile gid="217"/>
   <tile gid="217"/>
   <tile gid="217"/>
   <tile gid="217"/>
   <tile gid="217"/>
   <tile gid="217"/>
   <tile gid="217"/>
   <tile gid="217"/>
   <tile gid="217"/>
   <tile gid="217"/>
   <tile gid="217"/>
   <tile/>
   <tile/>
   <tile/>
   <tile gid="217"/>
   <tile gid="217"/>
   <tile gid="217"/>
   <tile gid="217"/>
   <tile gid="217"/>
   <tile gid="217"/>
   <tile gid="217"/>
   <tile gid="217"/>
   <tile gid="217"/>
   <tile gid="217"/>
   <tile gid="217"/>
   <tile gid="217"/>
   <tile gid="217"/>
   <tile/>
   <tile/>
   <tile/>
   <tile/>
   <tile/>
   <tile/>
   <tile/>
   <tile/>
   <tile/>
   <tile/>
   <tile/>
   <tile/>
   <tile/>
   <tile/>
   <tile/>
   <tile/>
   <tile/>
   <tile/>
   <tile/>
   <tile/>
   <tile/>
   <tile/>
   <tile gid="217"/>
   <tile gid="217"/>
   <tile gid="217"/>
   <tile gid="217"/>
   <tile gid="217"/>
   <tile gid="217"/>
   <tile/>
   <tile/>
   <tile/>
   <tile/>
   <tile/>
   <tile/>
   <tile/>
   <tile/>
   <tile/>
   <tile/>
   <tile/>
   <tile/>
   <tile/>
   <tile/>
   <tile/>
   <tile/>
   <tile/>
   <tile/>
   <tile/>
   <tile/>
   <tile/>
   <tile/>
   <tile/>
   <tile/>
   <tile/>
   <tile/>
   <tile/>
   <tile/>
   <tile/>
   <tile/>
   <tile/>
   <tile/>
   <tile/>
   <tile/>
   <tile/>
   <tile/>
   <tile/>
   <tile/>
   <tile/>
   <tile/>
   <tile/>
   <tile/>
   <tile/>
   <tile/>
   <tile/>
   <tile gid="217"/>
   <tile gid="217"/>
   <tile gid="217"/>
   <tile/>
   <tile/>
   <tile/>
   <tile/>
   <tile/>
   <tile/>
   <tile/>
   <tile/>
   <tile/>
   <tile/>
   <tile/>
   <tile/>
   <tile/>
   <tile/>
   <tile/>
   <tile gid="217"/>
   <tile gid="217"/>
   <tile gid="217"/>
   <tile/>
   <tile/>
   <tile/>
   <tile/>
   <tile/>
   <tile/>
   <tile/>
   <tile/>
   <tile/>
   <tile/>
   <tile/>
   <tile/>
   <tile/>
   <tile/>
   <tile/>
   <tile/>
   <tile/>
   <tile/>
   <tile/>
   <tile/>
   <tile/>
   <tile/>
   <tile/>
   <tile/>
   <tile/>
   <tile gid="217"/>
   <tile gid="217"/>
   <tile gid="217"/>
   <tile gid="217"/>
   <tile/>
   <tile/>
   <tile/>
   <tile/>
   <tile/>
   <tile/>
   <tile/>
   <tile/>
   <tile/>
   <tile/>
   <tile/>
   <tile/>
   <tile/>
   <tile/>
   <tile gid="217"/>
   <tile/>
   <tile/>
   <tile/>
   <tile/>
   <tile/>
   <tile/>
   <tile/>
   <tile/>
   <tile/>
   <tile gid="217"/>
   <tile gid="217"/>
   <tile gid="217"/>
   <tile/>
   <tile/>
   <tile/>
   <tile/>
   <tile/>
   <tile/>
   <tile/>
   <tile/>
   <tile/>
   <tile/>
   <tile/>
   <tile/>
   <tile/>
   <tile/>
   <tile/>
   <tile/>
   <tile/>
   <tile/>
   <tile/>
   <tile/>
   <tile/>
   <tile/>
   <tile gid="217"/>
   <tile gid="217"/>
   <tile gid="217"/>
  </data>
 </layer>
 <layer id="7" name="Navigation" width="150" height="82" visible="0">
  <properties>
   <property name="Draw" type="bool" value="false"/>
   <property name="Navigation" type="bool" value="true"/>
  </properties>
  <data>
   <tile/>
   <tile/>
   <tile/>
   <tile/>
   <tile/>
   <tile/>
   <tile/>
   <tile/>
   <tile/>
   <tile/>
   <tile/>
   <tile/>
   <tile/>
   <tile/>
   <tile/>
   <tile/>
   <tile/>
   <tile/>
   <tile/>
   <tile/>
   <tile/>
   <tile/>
   <tile/>
   <tile/>
   <tile/>
   <tile/>
   <tile/>
   <tile/>
   <tile/>
   <tile/>
   <tile/>
   <tile/>
   <tile/>
   <tile/>
   <tile/>
   <tile/>
   <tile/>
   <tile/>
   <tile/>
   <tile/>
   <tile/>
   <tile/>
   <tile/>
   <tile/>
   <tile/>
   <tile/>
   <tile/>
   <tile/>
   <tile/>
   <tile/>
   <tile/>
   <tile/>
   <tile/>
   <tile/>
   <tile/>
   <tile/>
   <tile/>
   <tile/>
   <tile/>
   <tile/>
   <tile/>
   <tile/>
   <tile/>
   <tile/>
   <tile/>
   <tile/>
   <tile/>
   <tile/>
   <tile/>
   <tile/>
   <tile/>
   <tile/>
   <tile/>
   <tile/>
   <tile/>
   <tile/>
   <tile/>
   <tile/>
   <tile/>
   <tile/>
   <tile/>
   <tile/>
   <tile/>
   <tile/>
   <tile/>
   <tile/>
   <tile/>
   <tile/>
   <tile/>
   <tile/>
   <tile/>
   <tile/>
   <tile/>
   <tile/>
   <tile/>
   <tile/>
   <tile/>
   <tile/>
   <tile/>
   <tile/>
   <tile/>
   <tile/>
   <tile/>
   <tile/>
   <tile/>
   <tile/>
   <tile/>
   <tile/>
   <tile/>
   <tile/>
   <tile/>
   <tile/>
   <tile/>
   <tile/>
   <tile/>
   <tile/>
   <tile/>
   <tile/>
   <tile/>
   <tile/>
   <tile/>
   <tile/>
   <tile/>
   <tile/>
   <tile/>
   <tile/>
   <tile/>
   <tile/>
   <tile/>
   <tile/>
   <tile/>
   <tile/>
   <tile/>
   <tile/>
   <tile/>
   <tile/>
   <tile/>
   <tile/>
   <tile/>
   <tile/>
   <tile/>
   <tile/>
   <tile/>
   <tile/>
   <tile/>
   <tile/>
   <tile/>
   <tile/>
   <tile/>
   <tile/>
   <tile/>
   <tile/>
   <tile/>
   <tile/>
   <tile/>
   <tile/>
   <tile/>
   <tile/>
   <tile/>
   <tile/>
   <tile/>
   <tile/>
   <tile/>
   <tile/>
   <tile/>
   <tile/>
   <tile/>
   <tile/>
   <tile/>
   <tile/>
   <tile/>
   <tile/>
   <tile/>
   <tile/>
   <tile/>
   <tile/>
   <tile/>
   <tile/>
   <tile/>
   <tile/>
   <tile/>
   <tile/>
   <tile/>
   <tile/>
   <tile/>
   <tile/>
   <tile/>
   <tile/>
   <tile/>
   <tile/>
   <tile/>
   <tile/>
   <tile/>
   <tile/>
   <tile/>
   <tile/>
   <tile/>
   <tile/>
   <tile/>
   <tile/>
   <tile/>
   <tile/>
   <tile/>
   <tile/>
   <tile/>
   <tile/>
   <tile/>
   <tile/>
   <tile/>
   <tile/>
   <tile/>
   <tile/>
   <tile/>
   <tile/>
   <tile/>
   <tile/>
   <tile/>
   <tile/>
   <tile/>
   <tile/>
   <tile/>
   <tile/>
   <tile/>
   <tile/>
   <tile/>
   <tile/>
   <tile/>
   <tile/>
   <tile/>
   <tile/>
   <tile/>
   <tile/>
   <tile/>
   <tile/>
   <tile/>
   <tile/>
   <tile/>
   <tile/>
   <tile/>
   <tile/>
   <tile/>
   <tile/>
   <tile/>
   <tile/>
   <tile/>
   <tile/>
   <tile/>
   <tile/>
   <tile/>
   <tile/>
   <tile/>
   <tile/>
   <tile/>
   <tile/>
   <tile/>
   <tile/>
   <tile/>
   <tile/>
   <tile/>
   <tile/>
   <tile/>
   <tile/>
   <tile/>
   <tile/>
   <tile/>
   <tile/>
   <tile/>
   <tile/>
   <tile/>
   <tile/>
   <tile/>
   <tile/>
   <tile/>
   <tile/>
   <tile/>
   <tile/>
   <tile/>
   <tile/>
   <tile/>
   <tile/>
   <tile/>
   <tile/>
   <tile/>
   <tile/>
   <tile/>
   <tile/>
   <tile/>
   <tile/>
   <tile/>
   <tile/>
   <tile/>
   <tile/>
   <tile/>
   <tile/>
   <tile/>
   <tile/>
   <tile/>
   <tile/>
   <tile/>
   <tile/>
   <tile/>
   <tile/>
   <tile gid="49"/>
   <tile gid="49"/>
   <tile gid="49"/>
   <tile gid="49"/>
   <tile gid="49"/>
   <tile gid="49"/>
   <tile gid="49"/>
   <tile gid="49"/>
   <tile gid="49"/>
   <tile gid="49"/>
   <tile gid="49"/>
   <tile gid="49"/>
   <tile gid="49"/>
   <tile gid="49"/>
   <tile gid="49"/>
   <tile gid="49"/>
   <tile gid="49"/>
   <tile gid="49"/>
   <tile gid="49"/>
   <tile gid="49"/>
   <tile gid="49"/>
   <tile gid="49"/>
   <tile gid="49"/>
   <tile gid="49"/>
   <tile gid="49"/>
   <tile gid="49"/>
   <tile gid="49"/>
   <tile gid="49"/>
   <tile gid="49"/>
   <tile gid="49"/>
   <tile gid="49"/>
   <tile gid="49"/>
   <tile/>
   <tile gid="49"/>
   <tile gid="49"/>
   <tile gid="49"/>
   <tile gid="49"/>
   <tile gid="49"/>
   <tile gid="49"/>
   <tile gid="49"/>
   <tile gid="49"/>
   <tile gid="49"/>
   <tile gid="49"/>
   <tile gid="49"/>
   <tile gid="49"/>
   <tile gid="49"/>
   <tile gid="49"/>
   <tile gid="49"/>
   <tile gid="49"/>
   <tile/>
   <tile/>
   <tile/>
   <tile/>
   <tile/>
   <tile/>
   <tile/>
   <tile/>
   <tile/>
   <tile/>
   <tile/>
   <tile/>
   <tile/>
   <tile/>
   <tile/>
   <tile/>
   <tile/>
   <tile/>
   <tile gid="49"/>
   <tile gid="49"/>
   <tile gid="49"/>
   <tile gid="49"/>
   <tile gid="49"/>
   <tile gid="49"/>
   <tile gid="49"/>
   <tile gid="49"/>
   <tile gid="49"/>
   <tile gid="49"/>
   <tile gid="49"/>
   <tile gid="49"/>
   <tile gid="49"/>
   <tile gid="49"/>
   <tile gid="49"/>
   <tile gid="49"/>
   <tile gid="49"/>
   <tile gid="49"/>
   <tile gid="49"/>
   <tile gid="49"/>
   <tile gid="49"/>
   <tile gid="49"/>
   <tile gid="49"/>
   <tile gid="49"/>
   <tile gid="49"/>
   <tile gid="49"/>
   <tile/>
   <tile gid="49"/>
   <tile gid="49"/>
   <tile gid="49"/>
   <tile gid="49"/>
   <tile gid="49"/>
   <tile gid="49"/>
   <tile gid="49"/>
   <tile gid="49"/>
   <tile gid="49"/>
   <tile gid="49"/>
   <tile gid="49"/>
   <tile gid="49"/>
   <tile gid="49"/>
   <tile gid="49"/>
   <tile gid="49"/>
   <tile gid="49"/>
   <tile gid="49"/>
   <tile gid="49"/>
   <tile gid="49"/>
   <tile gid="49"/>
   <tile gid="49"/>
   <tile gid="49"/>
   <tile gid="49"/>
   <tile gid="49"/>
   <tile gid="49"/>
   <tile gid="49"/>
   <tile gid="49"/>
   <tile gid="49"/>
   <tile gid="49"/>
   <tile gid="49"/>
   <tile gid="49"/>
   <tile gid="49"/>
   <tile gid="49"/>
   <tile gid="49"/>
   <tile gid="49"/>
   <tile gid="49"/>
   <tile gid="49"/>
   <tile gid="49"/>
   <tile gid="49"/>
   <tile gid="49"/>
   <tile gid="49"/>
   <tile gid="49"/>
   <tile gid="49"/>
   <tile gid="49"/>
   <tile gid="49"/>
   <tile gid="49"/>
   <tile gid="49"/>
   <tile gid="49"/>
   <tile gid="49"/>
   <tile gid="49"/>
   <tile gid="49"/>
   <tile gid="49"/>
   <tile/>
   <tile/>
   <tile/>
   <tile/>
   <tile gid="49"/>
   <tile/>
   <tile/>
   <tile/>
   <tile/>
   <tile/>
   <tile/>
   <tile/>
   <tile/>
   <tile/>
   <tile/>
   <tile/>
   <tile/>
   <tile/>
   <tile/>
   <tile/>
   <tile/>
   <tile/>
   <tile/>
   <tile/>
   <tile/>
   <tile/>
   <tile/>
   <tile/>
   <tile/>
   <tile/>
   <tile/>
   <tile/>
   <tile/>
   <tile/>
   <tile/>
   <tile gid="49"/>
   <tile/>
   <tile gid="49"/>
   <tile/>
   <tile/>
   <tile/>
   <tile/>
   <tile/>
   <tile/>
   <tile/>
   <tile/>
   <tile/>
   <tile/>
   <tile/>
   <tile/>
   <tile/>
   <tile/>
   <tile gid="49"/>
   <tile/>
   <tile/>
   <tile/>
   <tile/>
   <tile/>
   <tile/>
   <tile/>
   <tile/>
   <tile/>
   <tile/>
   <tile/>
   <tile/>
   <tile/>
   <tile/>
   <tile/>
   <tile/>
   <tile/>
   <tile/>
   <tile gid="49"/>
   <tile/>
   <tile/>
   <tile/>
   <tile/>
   <tile/>
   <tile/>
   <tile/>
   <tile/>
   <tile/>
   <tile/>
   <tile/>
   <tile/>
   <tile/>
   <tile/>
   <tile/>
   <tile/>
   <tile/>
   <tile/>
   <tile/>
   <tile/>
   <tile/>
   <tile/>
   <tile/>
   <tile/>
   <tile gid="49"/>
   <tile/>
   <tile gid="49"/>
   <tile/>
   <tile/>
   <tile/>
   <tile/>
   <tile/>
   <tile/>
   <tile/>
   <tile/>
   <tile/>
   <tile/>
   <tile/>
   <tile/>
   <tile/>
   <tile/>
   <tile/>
   <tile/>
   <tile/>
   <tile/>
   <tile/>
   <tile/>
   <tile/>
   <tile/>
   <tile/>
   <tile/>
   <tile/>
   <tile/>
   <tile/>
   <tile/>
   <tile/>
   <tile/>
   <tile/>
   <tile/>
   <tile/>
   <tile/>
   <tile/>
   <tile/>
   <tile/>
   <tile/>
   <tile/>
   <tile/>
   <tile/>
   <tile/>
   <tile/>
   <tile/>
   <tile/>
   <tile/>
   <tile/>
   <tile/>
   <tile/>
   <tile/>
   <tile gid="49"/>
   <tile/>
   <tile/>
   <tile/>
   <tile/>
   <tile gid="49"/>
   <tile/>
   <tile/>
   <tile/>
   <tile/>
   <tile/>
   <tile/>
   <tile/>
   <tile/>
   <tile/>
   <tile/>
   <tile/>
   <tile/>
   <tile/>
   <tile/>
   <tile/>
   <tile/>
   <tile/>
   <tile/>
   <tile/>
   <tile/>
   <tile/>
   <tile/>
   <tile/>
   <tile/>
   <tile/>
   <tile/>
   <tile/>
   <tile/>
   <tile/>
   <tile/>
   <tile gid="49"/>
   <tile/>
   <tile gid="49"/>
   <tile/>
   <tile/>
   <tile/>
   <tile/>
   <tile/>
   <tile/>
   <tile/>
   <tile/>
   <tile/>
   <tile/>
   <tile/>
   <tile/>
   <tile/>
   <tile/>
   <tile gid="49"/>
   <tile/>
   <tile/>
   <tile/>
   <tile/>
   <tile/>
   <tile/>
   <tile/>
   <tile/>
   <tile/>
   <tile/>
   <tile/>
   <tile/>
   <tile/>
   <tile/>
   <tile/>
   <tile/>
   <tile/>
   <tile/>
   <tile gid="49"/>
   <tile/>
   <tile/>
   <tile/>
   <tile/>
   <tile/>
   <tile/>
   <tile/>
   <tile/>
   <tile/>
   <tile/>
   <tile/>
   <tile/>
   <tile/>
   <tile/>
   <tile/>
   <tile/>
   <tile/>
   <tile/>
   <tile/>
   <tile/>
   <tile/>
   <tile/>
   <tile/>
   <tile/>
   <tile gid="49"/>
   <tile/>
   <tile gid="49"/>
   <tile/>
   <tile/>
   <tile/>
   <tile/>
   <tile/>
   <tile/>
   <tile/>
   <tile/>
   <tile/>
   <tile/>
   <tile/>
   <tile/>
   <tile/>
   <tile/>
   <tile/>
   <tile/>
   <tile/>
   <tile/>
   <tile/>
   <tile/>
   <tile/>
   <tile/>
   <tile/>
   <tile/>
   <tile/>
   <tile/>
   <tile/>
   <tile/>
   <tile/>
   <tile/>
   <tile/>
   <tile/>
   <tile/>
   <tile/>
   <tile/>
   <tile/>
   <tile/>
   <tile/>
   <tile/>
   <tile/>
   <tile/>
   <tile/>
   <tile/>
   <tile/>
   <tile/>
   <tile/>
   <tile/>
   <tile/>
   <tile/>
   <tile/>
   <tile gid="49"/>
   <tile/>
   <tile/>
   <tile/>
   <tile/>
   <tile gid="49"/>
   <tile/>
   <tile/>
   <tile/>
   <tile/>
   <tile/>
   <tile/>
   <tile/>
   <tile/>
   <tile/>
   <tile/>
   <tile/>
   <tile/>
   <tile/>
   <tile/>
   <tile/>
   <tile/>
   <tile/>
   <tile/>
   <tile/>
   <tile/>
   <tile/>
   <tile/>
   <tile/>
   <tile/>
   <tile/>
   <tile/>
   <tile/>
   <tile/>
   <tile/>
   <tile/>
   <tile gid="49"/>
   <tile/>
   <tile gid="49"/>
   <tile/>
   <tile/>
   <tile/>
   <tile/>
   <tile/>
   <tile/>
   <tile/>
   <tile/>
   <tile/>
   <tile/>
   <tile/>
   <tile/>
   <tile/>
   <tile/>
   <tile gid="49"/>
   <tile/>
   <tile/>
   <tile/>
   <tile/>
   <tile/>
   <tile/>
   <tile/>
   <tile/>
   <tile/>
   <tile/>
   <tile/>
   <tile/>
   <tile/>
   <tile/>
   <tile/>
   <tile/>
   <tile/>
   <tile/>
   <tile gid="49"/>
   <tile/>
   <tile/>
   <tile/>
   <tile/>
   <tile/>
   <tile/>
   <tile/>
   <tile/>
   <tile/>
   <tile/>
   <tile/>
   <tile/>
   <tile/>
   <tile/>
   <tile/>
   <tile/>
   <tile/>
   <tile/>
   <tile/>
   <tile/>
   <tile/>
   <tile/>
   <tile/>
   <tile/>
   <tile gid="49"/>
   <tile/>
   <tile gid="49"/>
   <tile/>
   <tile/>
   <tile/>
   <tile/>
   <tile/>
   <tile/>
   <tile/>
   <tile/>
   <tile/>
   <tile/>
   <tile/>
   <tile/>
   <tile/>
   <tile/>
   <tile/>
   <tile/>
   <tile/>
   <tile/>
   <tile/>
   <tile/>
   <tile/>
   <tile/>
   <tile/>
   <tile/>
   <tile/>
   <tile/>
   <tile/>
   <tile/>
   <tile/>
   <tile/>
   <tile/>
   <tile/>
   <tile/>
   <tile/>
   <tile/>
   <tile/>
   <tile/>
   <tile/>
   <tile/>
   <tile/>
   <tile/>
   <tile/>
   <tile/>
   <tile/>
   <tile/>
   <tile/>
   <tile/>
   <tile/>
   <tile/>
   <tile/>
   <tile gid="49"/>
   <tile/>
   <tile/>
   <tile/>
   <tile/>
   <tile gid="49"/>
   <tile/>
   <tile/>
   <tile/>
   <tile/>
   <tile/>
   <tile/>
   <tile/>
   <tile/>
   <tile/>
   <tile/>
   <tile/>
   <tile/>
   <tile/>
   <tile/>
   <tile/>
   <tile/>
   <tile/>
   <tile/>
   <tile/>
   <tile/>
   <tile/>
   <tile/>
   <tile/>
   <tile/>
   <tile/>
   <tile/>
   <tile/>
   <tile/>
   <tile/>
   <tile/>
   <tile gid="49"/>
   <tile gid="49"/>
   <tile gid="49"/>
   <tile/>
   <tile/>
   <tile/>
   <tile/>
   <tile/>
   <tile/>
   <tile/>
   <tile/>
   <tile/>
   <tile/>
   <tile/>
   <tile/>
   <tile/>
   <tile/>
   <tile gid="49"/>
   <tile/>
   <tile/>
   <tile/>
   <tile/>
   <tile/>
   <tile/>
   <tile/>
   <tile/>
   <tile/>
   <tile/>
   <tile/>
   <tile/>
   <tile/>
   <tile/>
   <tile/>
   <tile/>
   <tile/>
   <tile/>
   <tile gid="49"/>
   <tile/>
   <tile/>
   <tile/>
   <tile/>
   <tile/>
   <tile/>
   <tile/>
   <tile/>
   <tile/>
   <tile/>
   <tile/>
   <tile/>
   <tile/>
   <tile/>
   <tile/>
   <tile/>
   <tile/>
   <tile/>
   <tile/>
   <tile/>
   <tile/>
   <tile/>
   <tile/>
   <tile/>
   <tile gid="49"/>
   <tile/>
   <tile gid="49"/>
   <tile/>
   <tile/>
   <tile/>
   <tile/>
   <tile/>
   <tile/>
   <tile/>
   <tile/>
   <tile/>
   <tile/>
   <tile/>
   <tile/>
   <tile/>
   <tile/>
   <tile/>
   <tile/>
   <tile/>
   <tile/>
   <tile/>
   <tile/>
   <tile/>
   <tile/>
   <tile/>
   <tile/>
   <tile/>
   <tile/>
   <tile/>
   <tile/>
   <tile/>
   <tile/>
   <tile/>
   <tile/>
   <tile/>
   <tile/>
   <tile/>
   <tile/>
   <tile/>
   <tile/>
   <tile/>
   <tile/>
   <tile/>
   <tile/>
   <tile/>
   <tile/>
   <tile/>
   <tile/>
   <tile/>
   <tile/>
   <tile/>
   <tile/>
   <tile gid="49"/>
   <tile/>
   <tile/>
   <tile/>
   <tile/>
   <tile gid="49"/>
   <tile/>
   <tile/>
   <tile/>
   <tile/>
   <tile/>
   <tile/>
   <tile/>
   <tile/>
   <tile/>
   <tile/>
   <tile/>
   <tile/>
   <tile/>
   <tile/>
   <tile/>
   <tile/>
   <tile/>
   <tile/>
   <tile/>
   <tile/>
   <tile/>
   <tile/>
   <tile/>
   <tile/>
   <tile/>
   <tile/>
   <tile/>
   <tile/>
   <tile/>
   <tile/>
   <tile/>
   <tile/>
   <tile/>
   <tile/>
   <tile/>
   <tile/>
   <tile/>
   <tile/>
   <tile/>
   <tile/>
   <tile/>
   <tile/>
   <tile/>
   <tile/>
   <tile/>
   <tile/>
   <tile/>
   <tile gid="49"/>
   <tile/>
   <tile/>
   <tile/>
   <tile/>
   <tile/>
   <tile/>
   <tile/>
   <tile/>
   <tile/>
   <tile/>
   <tile/>
   <tile/>
   <tile/>
   <tile/>
   <tile/>
   <tile/>
   <tile/>
   <tile/>
   <tile gid="49"/>
   <tile/>
   <tile/>
   <tile/>
   <tile/>
   <tile/>
   <tile/>
   <tile/>
   <tile/>
   <tile/>
   <tile/>
   <tile/>
   <tile/>
   <tile/>
   <tile/>
   <tile/>
   <tile/>
   <tile/>
   <tile/>
   <tile/>
   <tile/>
   <tile/>
   <tile/>
   <tile/>
   <tile/>
   <tile gid="49"/>
   <tile gid="49"/>
   <tile gid="49"/>
   <tile/>
   <tile/>
   <tile/>
   <tile/>
   <tile/>
   <tile/>
   <tile/>
   <tile/>
   <tile/>
   <tile/>
   <tile/>
   <tile/>
   <tile/>
   <tile/>
   <tile/>
   <tile/>
   <tile/>
   <tile/>
   <tile/>
   <tile/>
   <tile/>
   <tile/>
   <tile/>
   <tile/>
   <tile/>
   <tile/>
   <tile/>
   <tile/>
   <tile/>
   <tile/>
   <tile/>
   <tile/>
   <tile/>
   <tile/>
   <tile/>
   <tile/>
   <tile/>
   <tile/>
   <tile/>
   <tile/>
   <tile/>
   <tile/>
   <tile/>
   <tile/>
   <tile/>
   <tile/>
   <tile/>
   <tile/>
   <tile/>
   <tile/>
   <tile gid="49"/>
   <tile/>
   <tile/>
   <tile/>
   <tile/>
   <tile gid="49"/>
   <tile/>
   <tile/>
   <tile/>
   <tile/>
   <tile/>
   <tile/>
   <tile/>
   <tile/>
   <tile/>
   <tile/>
   <tile/>
   <tile/>
   <tile/>
   <tile/>
   <tile/>
   <tile/>
   <tile/>
   <tile/>
   <tile/>
   <tile/>
   <tile/>
   <tile/>
   <tile/>
   <tile/>
   <tile/>
   <tile/>
   <tile/>
   <tile/>
   <tile/>
   <tile/>
   <tile/>
   <tile/>
   <tile/>
   <tile/>
   <tile/>
   <tile/>
   <tile/>
   <tile/>
   <tile/>
   <tile/>
   <tile/>
   <tile/>
   <tile/>
   <tile/>
   <tile/>
   <tile/>
   <tile/>
   <tile gid="49"/>
   <tile/>
   <tile/>
   <tile/>
   <tile/>
   <tile/>
   <tile/>
   <tile/>
   <tile/>
   <tile/>
   <tile/>
   <tile/>
   <tile/>
   <tile/>
   <tile/>
   <tile/>
   <tile/>
   <tile/>
   <tile/>
   <tile gid="49"/>
   <tile/>
   <tile/>
   <tile/>
   <tile/>
   <tile/>
   <tile/>
   <tile/>
   <tile/>
   <tile/>
   <tile/>
   <tile/>
   <tile/>
   <tile/>
   <tile/>
   <tile/>
   <tile/>
   <tile/>
   <tile/>
   <tile/>
   <tile/>
   <tile/>
   <tile/>
   <tile/>
   <tile/>
   <tile/>
   <tile/>
   <tile/>
   <tile/>
   <tile/>
   <tile/>
   <tile/>
   <tile/>
   <tile/>
   <tile/>
   <tile/>
   <tile/>
   <tile/>
   <tile/>
   <tile/>
   <tile/>
   <tile/>
   <tile/>
   <tile/>
   <tile/>
   <tile/>
   <tile/>
   <tile/>
   <tile/>
   <tile/>
   <tile/>
   <tile/>
   <tile/>
   <tile/>
   <tile/>
   <tile/>
   <tile/>
   <tile/>
   <tile/>
   <tile/>
   <tile/>
   <tile/>
   <tile/>
   <tile/>
   <tile/>
   <tile/>
   <tile/>
   <tile/>
   <tile/>
   <tile/>
   <tile/>
   <tile/>
   <tile/>
   <tile/>
   <tile/>
   <tile/>
   <tile/>
   <tile/>
   <tile gid="49"/>
   <tile/>
   <tile/>
   <tile/>
   <tile/>
   <tile gid="49"/>
   <tile/>
   <tile/>
   <tile/>
   <tile/>
   <tile/>
   <tile/>
   <tile/>
   <tile/>
   <tile/>
   <tile/>
   <tile/>
   <tile/>
   <tile/>
   <tile/>
   <tile/>
   <tile/>
   <tile/>
   <tile/>
   <tile/>
   <tile/>
   <tile/>
   <tile/>
   <tile/>
   <tile/>
   <tile/>
   <tile/>
   <tile/>
   <tile/>
   <tile/>
   <tile/>
   <tile/>
   <tile/>
   <tile/>
   <tile/>
   <tile/>
   <tile/>
   <tile/>
   <tile/>
   <tile/>
   <tile/>
   <tile/>
   <tile/>
   <tile/>
   <tile/>
   <tile/>
   <tile/>
   <tile/>
   <tile gid="49"/>
   <tile/>
   <tile/>
   <tile/>
   <tile/>
   <tile/>
   <tile/>
   <tile/>
   <tile/>
   <tile/>
   <tile/>
   <tile/>
   <tile/>
   <tile/>
   <tile/>
   <tile/>
   <tile/>
   <tile/>
   <tile/>
   <tile gid="49"/>
   <tile/>
   <tile/>
   <tile/>
   <tile/>
   <tile/>
   <tile/>
   <tile/>
   <tile/>
   <tile/>
   <tile/>
   <tile/>
   <tile/>
   <tile/>
   <tile/>
   <tile/>
   <tile/>
   <tile/>
   <tile/>
   <tile/>
   <tile/>
   <tile/>
   <tile/>
   <tile/>
   <tile/>
   <tile/>
   <tile/>
   <tile/>
   <tile/>
   <tile/>
   <tile/>
   <tile/>
   <tile/>
   <tile/>
   <tile/>
   <tile/>
   <tile/>
   <tile/>
   <tile/>
   <tile/>
   <tile/>
   <tile/>
   <tile/>
   <tile/>
   <tile/>
   <tile/>
   <tile/>
   <tile/>
   <tile/>
   <tile/>
   <tile/>
   <tile/>
   <tile/>
   <tile/>
   <tile/>
   <tile/>
   <tile/>
   <tile/>
   <tile/>
   <tile/>
   <tile/>
   <tile/>
   <tile/>
   <tile/>
   <tile/>
   <tile/>
   <tile/>
   <tile/>
   <tile/>
   <tile/>
   <tile/>
   <tile/>
   <tile/>
   <tile/>
   <tile/>
   <tile/>
   <tile/>
   <tile/>
   <tile gid="49"/>
   <tile/>
   <tile/>
   <tile/>
   <tile/>
   <tile gid="49"/>
   <tile/>
   <tile/>
   <tile/>
   <tile/>
   <tile/>
   <tile/>
   <tile/>
   <tile/>
   <tile/>
   <tile/>
   <tile/>
   <tile/>
   <tile/>
   <tile/>
   <tile/>
   <tile/>
   <tile/>
   <tile/>
   <tile/>
   <tile/>
   <tile/>
   <tile/>
   <tile/>
   <tile/>
   <tile/>
   <tile/>
   <tile/>
   <tile/>
   <tile/>
   <tile/>
   <tile/>
   <tile/>
   <tile/>
   <tile/>
   <tile/>
   <tile/>
   <tile/>
   <tile/>
   <tile/>
   <tile/>
   <tile/>
   <tile/>
   <tile/>
   <tile/>
   <tile/>
   <tile/>
   <tile/>
   <tile gid="49"/>
   <tile/>
   <tile/>
   <tile/>
   <tile/>
   <tile/>
   <tile/>
   <tile/>
   <tile/>
   <tile/>
   <tile/>
   <tile/>
   <tile/>
   <tile/>
   <tile/>
   <tile/>
   <tile/>
   <tile/>
   <tile/>
   <tile gid="49"/>
   <tile/>
   <tile/>
   <tile/>
   <tile/>
   <tile/>
   <tile/>
   <tile/>
   <tile/>
   <tile/>
   <tile/>
   <tile/>
   <tile/>
   <tile/>
   <tile/>
   <tile/>
   <tile/>
   <tile/>
   <tile/>
   <tile/>
   <tile/>
   <tile/>
   <tile/>
   <tile/>
   <tile/>
   <tile/>
   <tile/>
   <tile/>
   <tile/>
   <tile/>
   <tile/>
   <tile/>
   <tile/>
   <tile/>
   <tile/>
   <tile/>
   <tile/>
   <tile/>
   <tile/>
   <tile/>
   <tile/>
   <tile/>
   <tile/>
   <tile/>
   <tile/>
   <tile/>
   <tile/>
   <tile/>
   <tile/>
   <tile/>
   <tile/>
   <tile/>
   <tile/>
   <tile/>
   <tile/>
   <tile/>
   <tile/>
   <tile/>
   <tile/>
   <tile/>
   <tile/>
   <tile/>
   <tile/>
   <tile/>
   <tile/>
   <tile/>
   <tile/>
   <tile/>
   <tile/>
   <tile/>
   <tile/>
   <tile/>
   <tile/>
   <tile/>
   <tile/>
   <tile/>
   <tile/>
   <tile/>
   <tile gid="49"/>
   <tile/>
   <tile/>
   <tile/>
   <tile/>
   <tile gid="49"/>
   <tile/>
   <tile/>
   <tile/>
   <tile/>
   <tile/>
   <tile/>
   <tile/>
   <tile/>
   <tile/>
   <tile/>
   <tile/>
   <tile/>
   <tile/>
   <tile/>
   <tile/>
   <tile/>
   <tile/>
   <tile/>
   <tile/>
   <tile/>
   <tile/>
   <tile/>
   <tile/>
   <tile/>
   <tile/>
   <tile/>
   <tile/>
   <tile/>
   <tile/>
   <tile/>
   <tile gid="49"/>
   <tile gid="49"/>
   <tile gid="49"/>
   <tile/>
   <tile/>
   <tile/>
   <tile/>
   <tile/>
   <tile/>
   <tile/>
   <tile/>
   <tile/>
   <tile/>
   <tile/>
   <tile/>
   <tile/>
   <tile/>
   <tile gid="49"/>
   <tile/>
   <tile/>
   <tile/>
   <tile/>
   <tile/>
   <tile/>
   <tile/>
   <tile/>
   <tile/>
   <tile/>
   <tile/>
   <tile/>
   <tile/>
   <tile/>
   <tile/>
   <tile/>
   <tile/>
   <tile/>
   <tile gid="49"/>
   <tile/>
   <tile/>
   <tile/>
   <tile/>
   <tile/>
   <tile/>
   <tile/>
   <tile/>
   <tile/>
   <tile/>
   <tile/>
   <tile/>
   <tile/>
   <tile/>
   <tile/>
   <tile/>
   <tile/>
   <tile/>
   <tile/>
   <tile/>
   <tile/>
   <tile/>
   <tile/>
   <tile/>
   <tile/>
   <tile/>
   <tile/>
   <tile/>
   <tile/>
   <tile/>
   <tile/>
   <tile/>
   <tile/>
   <tile/>
   <tile/>
   <tile/>
   <tile/>
   <tile/>
   <tile/>
   <tile/>
   <tile/>
   <tile/>
   <tile/>
   <tile/>
   <tile/>
   <tile/>
   <tile/>
   <tile/>
   <tile/>
   <tile/>
   <tile/>
   <tile/>
   <tile/>
   <tile/>
   <tile/>
   <tile/>
   <tile/>
   <tile/>
   <tile/>
   <tile/>
   <tile/>
   <tile/>
   <tile/>
   <tile/>
   <tile/>
   <tile/>
   <tile/>
   <tile/>
   <tile/>
   <tile/>
   <tile/>
   <tile/>
   <tile/>
   <tile/>
   <tile/>
   <tile/>
   <tile/>
   <tile gid="49"/>
   <tile/>
   <tile/>
   <tile/>
   <tile/>
   <tile gid="49"/>
   <tile/>
   <tile/>
   <tile/>
   <tile/>
   <tile/>
   <tile/>
   <tile/>
   <tile/>
   <tile/>
   <tile/>
   <tile/>
   <tile/>
   <tile/>
   <tile/>
   <tile/>
   <tile/>
   <tile/>
   <tile/>
   <tile/>
   <tile/>
   <tile/>
   <tile/>
   <tile/>
   <tile/>
   <tile/>
   <tile/>
   <tile/>
   <tile/>
   <tile/>
   <tile/>
   <tile gid="49"/>
   <tile/>
   <tile gid="49"/>
   <tile/>
   <tile/>
   <tile/>
   <tile/>
   <tile/>
   <tile/>
   <tile/>
   <tile/>
   <tile/>
   <tile/>
   <tile/>
   <tile/>
   <tile/>
   <tile/>
   <tile gid="49"/>
   <tile/>
   <tile/>
   <tile/>
   <tile/>
   <tile/>
   <tile/>
   <tile/>
   <tile/>
   <tile/>
   <tile/>
   <tile/>
   <tile/>
   <tile/>
   <tile/>
   <tile/>
   <tile/>
   <tile/>
   <tile/>
   <tile gid="49"/>
   <tile/>
   <tile/>
   <tile/>
   <tile/>
   <tile/>
   <tile/>
   <tile/>
   <tile/>
   <tile/>
   <tile/>
   <tile/>
   <tile/>
   <tile/>
   <tile/>
   <tile/>
   <tile/>
   <tile/>
   <tile/>
   <tile/>
   <tile/>
   <tile/>
   <tile/>
   <tile/>
   <tile/>
   <tile gid="49"/>
   <tile gid="49"/>
   <tile gid="49"/>
   <tile/>
   <tile/>
   <tile/>
   <tile/>
   <tile/>
   <tile/>
   <tile/>
   <tile/>
   <tile/>
   <tile/>
   <tile/>
   <tile/>
   <tile/>
   <tile/>
   <tile/>
   <tile/>
   <tile/>
   <tile/>
   <tile/>
   <tile/>
   <tile/>
   <tile/>
   <tile/>
   <tile/>
   <tile/>
   <tile/>
   <tile/>
   <tile/>
   <tile/>
   <tile/>
   <tile/>
   <tile/>
   <tile/>
   <tile/>
   <tile/>
   <tile/>
   <tile/>
   <tile/>
   <tile/>
   <tile/>
   <tile/>
   <tile/>
   <tile/>
   <tile/>
   <tile/>
   <tile/>
   <tile/>
   <tile/>
   <tile/>
   <tile/>
   <tile gid="49"/>
   <tile/>
   <tile/>
   <tile/>
   <tile/>
   <tile gid="49"/>
   <tile/>
   <tile/>
   <tile/>
   <tile/>
   <tile/>
   <tile/>
   <tile/>
   <tile/>
   <tile/>
   <tile/>
   <tile/>
   <tile/>
   <tile/>
   <tile/>
   <tile/>
   <tile/>
   <tile/>
   <tile/>
   <tile/>
   <tile/>
   <tile/>
   <tile/>
   <tile/>
   <tile/>
   <tile/>
   <tile/>
   <tile/>
   <tile/>
   <tile/>
   <tile/>
   <tile gid="49"/>
   <tile/>
   <tile gid="49"/>
   <tile/>
   <tile/>
   <tile/>
   <tile/>
   <tile/>
   <tile/>
   <tile/>
   <tile/>
   <tile/>
   <tile/>
   <tile/>
   <tile/>
   <tile/>
   <tile/>
   <tile gid="49"/>
   <tile/>
   <tile/>
   <tile/>
   <tile/>
   <tile/>
   <tile/>
   <tile/>
   <tile/>
   <tile/>
   <tile/>
   <tile/>
   <tile/>
   <tile/>
   <tile/>
   <tile/>
   <tile/>
   <tile/>
   <tile/>
   <tile gid="49"/>
   <tile/>
   <tile/>
   <tile/>
   <tile/>
   <tile/>
   <tile/>
   <tile/>
   <tile/>
   <tile/>
   <tile/>
   <tile/>
   <tile/>
   <tile/>
   <tile/>
   <tile/>
   <tile/>
   <tile/>
   <tile/>
   <tile/>
   <tile/>
   <tile/>
   <tile/>
   <tile/>
   <tile/>
   <tile gid="49"/>
   <tile/>
   <tile gid="49"/>
   <tile/>
   <tile/>
   <tile/>
   <tile/>
   <tile/>
   <tile/>
   <tile/>
   <tile/>
   <tile/>
   <tile/>
   <tile/>
   <tile/>
   <tile/>
   <tile/>
   <tile/>
   <tile/>
   <tile/>
   <tile/>
   <tile/>
   <tile/>
   <tile/>
   <tile/>
   <tile/>
   <tile/>
   <tile/>
   <tile/>
   <tile/>
   <tile/>
   <tile/>
   <tile/>
   <tile/>
   <tile/>
   <tile/>
   <tile/>
   <tile/>
   <tile/>
   <tile/>
   <tile/>
   <tile/>
   <tile/>
   <tile/>
   <tile/>
   <tile/>
   <tile/>
   <tile/>
   <tile/>
   <tile/>
   <tile/>
   <tile/>
   <tile/>
   <tile gid="49"/>
   <tile/>
   <tile/>
   <tile/>
   <tile/>
   <tile gid="49"/>
   <tile/>
   <tile/>
   <tile/>
   <tile/>
   <tile/>
   <tile/>
   <tile/>
   <tile/>
   <tile/>
   <tile/>
   <tile/>
   <tile/>
   <tile/>
   <tile/>
   <tile/>
   <tile/>
   <tile/>
   <tile/>
   <tile/>
   <tile/>
   <tile/>
   <tile/>
   <tile/>
   <tile/>
   <tile/>
   <tile/>
   <tile/>
   <tile/>
   <tile/>
   <tile/>
   <tile gid="49"/>
   <tile/>
   <tile gid="49"/>
   <tile/>
   <tile/>
   <tile/>
   <tile/>
   <tile/>
   <tile/>
   <tile/>
   <tile/>
   <tile/>
   <tile/>
   <tile/>
   <tile/>
   <tile/>
   <tile/>
   <tile gid="49"/>
   <tile/>
   <tile/>
   <tile/>
   <tile/>
   <tile/>
   <tile/>
   <tile/>
   <tile/>
   <tile/>
   <tile/>
   <tile/>
   <tile/>
   <tile/>
   <tile/>
   <tile/>
   <tile/>
   <tile/>
   <tile/>
   <tile gid="49"/>
   <tile/>
   <tile/>
   <tile/>
   <tile/>
   <tile/>
   <tile/>
   <tile/>
   <tile/>
   <tile/>
   <tile/>
   <tile/>
   <tile/>
   <tile/>
   <tile/>
   <tile/>
   <tile/>
   <tile/>
   <tile/>
   <tile/>
   <tile/>
   <tile/>
   <tile/>
   <tile/>
   <tile/>
   <tile gid="49"/>
   <tile/>
   <tile gid="49"/>
   <tile/>
   <tile/>
   <tile/>
   <tile/>
   <tile/>
   <tile/>
   <tile/>
   <tile/>
   <tile/>
   <tile/>
   <tile/>
   <tile/>
   <tile/>
   <tile/>
   <tile/>
   <tile/>
   <tile/>
   <tile/>
   <tile/>
   <tile/>
   <tile/>
   <tile/>
   <tile/>
   <tile/>
   <tile/>
   <tile/>
   <tile/>
   <tile/>
   <tile/>
   <tile/>
   <tile/>
   <tile/>
   <tile/>
   <tile/>
   <tile/>
   <tile/>
   <tile/>
   <tile/>
   <tile/>
   <tile/>
   <tile/>
   <tile/>
   <tile/>
   <tile/>
   <tile/>
   <tile/>
   <tile/>
   <tile/>
   <tile/>
   <tile/>
   <tile gid="49"/>
   <tile/>
   <tile/>
   <tile/>
   <tile/>
   <tile gid="49"/>
   <tile/>
   <tile/>
   <tile/>
   <tile/>
   <tile/>
   <tile/>
   <tile/>
   <tile/>
   <tile/>
   <tile/>
   <tile/>
   <tile/>
   <tile/>
   <tile/>
   <tile/>
   <tile/>
   <tile/>
   <tile/>
   <tile/>
   <tile/>
   <tile/>
   <tile/>
   <tile/>
   <tile/>
   <tile/>
   <tile/>
   <tile/>
   <tile/>
   <tile/>
   <tile/>
   <tile gid="49"/>
   <tile/>
   <tile gid="49"/>
   <tile/>
   <tile/>
   <tile/>
   <tile/>
   <tile/>
   <tile/>
   <tile/>
   <tile/>
   <tile/>
   <tile/>
   <tile/>
   <tile/>
   <tile/>
   <tile/>
   <tile gid="49"/>
   <tile/>
   <tile/>
   <tile/>
   <tile/>
   <tile/>
   <tile/>
   <tile/>
   <tile/>
   <tile/>
   <tile/>
   <tile/>
   <tile/>
   <tile/>
   <tile/>
   <tile/>
   <tile/>
   <tile/>
   <tile/>
   <tile gid="49"/>
   <tile/>
   <tile/>
   <tile/>
   <tile/>
   <tile/>
   <tile/>
   <tile/>
   <tile/>
   <tile/>
   <tile/>
   <tile/>
   <tile/>
   <tile/>
   <tile/>
   <tile/>
   <tile/>
   <tile/>
   <tile/>
   <tile/>
   <tile/>
   <tile/>
   <tile/>
   <tile/>
   <tile/>
   <tile gid="49"/>
   <tile/>
   <tile gid="49"/>
   <tile/>
   <tile/>
   <tile/>
   <tile/>
   <tile/>
   <tile/>
   <tile/>
   <tile/>
   <tile/>
   <tile/>
   <tile/>
   <tile/>
   <tile/>
   <tile/>
   <tile/>
   <tile/>
   <tile/>
   <tile/>
   <tile/>
   <tile/>
   <tile/>
   <tile/>
   <tile/>
   <tile/>
   <tile/>
   <tile/>
   <tile/>
   <tile/>
   <tile/>
   <tile/>
   <tile/>
   <tile/>
   <tile/>
   <tile/>
   <tile/>
   <tile/>
   <tile/>
   <tile/>
   <tile/>
   <tile/>
   <tile/>
   <tile/>
   <tile/>
   <tile/>
   <tile/>
   <tile/>
   <tile/>
   <tile/>
   <tile/>
   <tile/>
   <tile gid="49"/>
   <tile/>
   <tile/>
   <tile/>
   <tile/>
   <tile gid="49"/>
   <tile/>
   <tile/>
   <tile/>
   <tile/>
   <tile/>
   <tile/>
   <tile/>
   <tile/>
   <tile/>
   <tile/>
   <tile/>
   <tile/>
   <tile/>
   <tile/>
   <tile/>
   <tile/>
   <tile/>
   <tile/>
   <tile/>
   <tile/>
   <tile/>
   <tile/>
   <tile/>
   <tile/>
   <tile/>
   <tile/>
   <tile/>
   <tile/>
   <tile/>
   <tile/>
   <tile gid="49"/>
   <tile/>
   <tile gid="49"/>
   <tile/>
   <tile/>
   <tile/>
   <tile/>
   <tile/>
   <tile/>
   <tile/>
   <tile/>
   <tile/>
   <tile/>
   <tile/>
   <tile/>
   <tile/>
   <tile/>
   <tile gid="49"/>
   <tile/>
   <tile/>
   <tile/>
   <tile/>
   <tile/>
   <tile/>
   <tile/>
   <tile/>
   <tile/>
   <tile/>
   <tile/>
   <tile/>
   <tile/>
   <tile/>
   <tile/>
   <tile/>
   <tile/>
   <tile/>
   <tile gid="49"/>
   <tile/>
   <tile/>
   <tile/>
   <tile/>
   <tile/>
   <tile/>
   <tile/>
   <tile/>
   <tile/>
   <tile/>
   <tile/>
   <tile/>
   <tile/>
   <tile/>
   <tile/>
   <tile/>
   <tile/>
   <tile/>
   <tile/>
   <tile/>
   <tile/>
   <tile/>
   <tile/>
   <tile/>
   <tile gid="49"/>
   <tile/>
   <tile gid="49"/>
   <tile/>
   <tile/>
   <tile/>
   <tile/>
   <tile/>
   <tile/>
   <tile/>
   <tile/>
   <tile/>
   <tile/>
   <tile/>
   <tile/>
   <tile/>
   <tile/>
   <tile/>
   <tile/>
   <tile/>
   <tile/>
   <tile/>
   <tile/>
   <tile/>
   <tile/>
   <tile/>
   <tile/>
   <tile/>
   <tile/>
   <tile/>
   <tile/>
   <tile/>
   <tile/>
   <tile/>
   <tile/>
   <tile/>
   <tile/>
   <tile/>
   <tile/>
   <tile/>
   <tile/>
   <tile/>
   <tile/>
   <tile/>
   <tile/>
   <tile/>
   <tile/>
   <tile/>
   <tile/>
   <tile/>
   <tile/>
   <tile/>
   <tile/>
   <tile gid="49"/>
   <tile/>
   <tile/>
   <tile/>
   <tile/>
   <tile gid="49"/>
   <tile gid="49"/>
   <tile gid="49"/>
   <tile gid="49"/>
   <tile gid="49"/>
   <tile/>
   <tile/>
   <tile/>
   <tile/>
   <tile gid="49"/>
   <tile gid="49"/>
   <tile gid="49"/>
   <tile gid="49"/>
   <tile gid="49"/>
   <tile gid="49"/>
   <tile gid="49"/>
   <tile gid="49"/>
   <tile gid="49"/>
   <tile gid="49"/>
   <tile gid="49"/>
   <tile gid="49"/>
   <tile gid="49"/>
   <tile gid="49"/>
   <tile gid="49"/>
   <tile gid="49"/>
   <tile gid="49"/>
   <tile gid="49"/>
   <tile gid="49"/>
   <tile gid="49"/>
   <tile gid="49"/>
   <tile gid="49"/>
   <tile gid="49"/>
   <tile/>
   <tile gid="49"/>
   <tile gid="49"/>
   <tile gid="49"/>
   <tile gid="49"/>
   <tile gid="49"/>
   <tile gid="49"/>
   <tile gid="49"/>
   <tile gid="49"/>
   <tile gid="49"/>
   <tile gid="49"/>
   <tile gid="49"/>
   <tile gid="49"/>
   <tile gid="49"/>
   <tile gid="49"/>
   <tile gid="49"/>
   <tile gid="49"/>
   <tile/>
   <tile/>
   <tile/>
   <tile/>
   <tile/>
   <tile/>
   <tile/>
   <tile/>
   <tile/>
   <tile/>
   <tile/>
   <tile/>
   <tile/>
   <tile/>
   <tile/>
   <tile/>
   <tile/>
   <tile/>
   <tile gid="49"/>
   <tile gid="49"/>
   <tile gid="49"/>
   <tile gid="49"/>
   <tile gid="49"/>
   <tile gid="49"/>
   <tile gid="49"/>
   <tile gid="49"/>
   <tile gid="49"/>
   <tile gid="49"/>
   <tile gid="49"/>
   <tile gid="49"/>
   <tile gid="49"/>
   <tile gid="49"/>
   <tile gid="49"/>
   <tile gid="49"/>
   <tile gid="49"/>
   <tile gid="49"/>
   <tile/>
   <tile/>
   <tile/>
   <tile gid="49"/>
   <tile gid="49"/>
   <tile gid="49"/>
   <tile gid="49"/>
   <tile gid="49"/>
   <tile/>
   <tile gid="49"/>
   <tile gid="49"/>
   <tile gid="49"/>
   <tile gid="49"/>
   <tile gid="49"/>
   <tile gid="49"/>
   <tile gid="49"/>
   <tile gid="49"/>
   <tile gid="49"/>
   <tile gid="49"/>
   <tile gid="49"/>
   <tile gid="49"/>
   <tile gid="49"/>
   <tile gid="49"/>
   <tile gid="49"/>
   <tile gid="49"/>
   <tile gid="49"/>
   <tile gid="49"/>
   <tile gid="49"/>
   <tile gid="49"/>
   <tile gid="49"/>
   <tile gid="49"/>
   <tile gid="49"/>
   <tile gid="49"/>
   <tile gid="49"/>
   <tile gid="49"/>
   <tile gid="49"/>
   <tile gid="49"/>
   <tile gid="49"/>
   <tile gid="49"/>
   <tile gid="49"/>
   <tile gid="49"/>
   <tile gid="49"/>
   <tile gid="49"/>
   <tile gid="49"/>
   <tile gid="49"/>
   <tile gid="49"/>
   <tile gid="49"/>
   <tile/>
   <tile/>
   <tile/>
   <tile gid="49"/>
   <tile gid="49"/>
   <tile gid="49"/>
   <tile gid="49"/>
   <tile gid="49"/>
   <tile gid="49"/>
   <tile gid="49"/>
   <tile gid="49"/>
   <tile gid="49"/>
   <tile gid="49"/>
   <tile gid="49"/>
   <tile/>
   <tile/>
   <tile/>
   <tile/>
   <tile/>
   <tile/>
   <tile/>
   <tile/>
   <tile gid="49"/>
   <tile/>
   <tile/>
   <tile/>
   <tile/>
   <tile gid="49"/>
   <tile/>
   <tile/>
   <tile/>
   <tile/>
   <tile/>
   <tile/>
   <tile/>
   <tile/>
   <tile/>
   <tile/>
   <tile/>
   <tile/>
   <tile/>
   <tile/>
   <tile/>
   <tile/>
   <tile/>
   <tile/>
   <tile/>
   <tile/>
   <tile/>
   <tile/>
   <tile/>
   <tile/>
   <tile/>
   <tile/>
   <tile/>
   <tile/>
   <tile/>
   <tile/>
   <tile/>
   <tile/>
   <tile/>
   <tile/>
   <tile/>
   <tile/>
   <tile/>
   <tile/>
   <tile/>
   <tile/>
   <tile/>
   <tile/>
   <tile/>
   <tile/>
   <tile/>
   <tile/>
   <tile/>
   <tile/>
   <tile/>
   <tile/>
   <tile/>
   <tile/>
   <tile/>
   <tile/>
   <tile/>
   <tile/>
   <tile/>
   <tile/>
   <tile/>
   <tile/>
   <tile/>
   <tile/>
   <tile/>
   <tile/>
   <tile/>
   <tile/>
   <tile/>
   <tile/>
   <tile/>
   <tile/>
   <tile/>
   <tile/>
   <tile/>
   <tile/>
   <tile gid="49"/>
   <tile/>
   <tile/>
   <tile/>
   <tile gid="49"/>
   <tile/>
   <tile/>
   <tile/>
   <tile/>
   <tile/>
   <tile gid="49"/>
   <tile gid="49"/>
   <tile/>
   <tile/>
   <tile/>
   <tile/>
   <tile/>
   <tile/>
   <tile/>
   <tile/>
   <tile/>
   <tile/>
   <tile/>
   <tile/>
   <tile/>
   <tile/>
   <tile/>
   <tile/>
   <tile/>
   <tile/>
   <tile/>
   <tile/>
   <tile/>
   <tile/>
   <tile/>
   <tile/>
   <tile/>
   <tile/>
   <tile/>
   <tile/>
   <tile/>
   <tile/>
   <tile/>
   <tile/>
   <tile/>
   <tile/>
   <tile/>
   <tile gid="49"/>
   <tile/>
   <tile/>
   <tile/>
   <tile gid="49"/>
   <tile/>
   <tile/>
   <tile/>
   <tile/>
   <tile/>
   <tile/>
   <tile/>
   <tile/>
   <tile/>
   <tile gid="49"/>
   <tile/>
   <tile/>
   <tile/>
   <tile/>
   <tile gid="49"/>
   <tile gid="49"/>
   <tile gid="49"/>
   <tile gid="49"/>
   <tile gid="49"/>
   <tile/>
   <tile/>
   <tile/>
   <tile/>
   <tile gid="49"/>
   <tile gid="49"/>
   <tile gid="49"/>
   <tile gid="49"/>
   <tile gid="49"/>
   <tile gid="49"/>
   <tile gid="49"/>
   <tile gid="49"/>
   <tile gid="49"/>
   <tile gid="49"/>
   <tile gid="49"/>
   <tile gid="49"/>
   <tile gid="49"/>
   <tile gid="49"/>
   <tile gid="49"/>
   <tile gid="49"/>
   <tile gid="49"/>
   <tile gid="49"/>
   <tile gid="49"/>
   <tile gid="49"/>
   <tile gid="49"/>
   <tile gid="49"/>
   <tile gid="49"/>
   <tile gid="49"/>
   <tile gid="49"/>
   <tile gid="49"/>
   <tile gid="49"/>
   <tile/>
   <tile/>
   <tile/>
   <tile/>
   <tile/>
   <tile/>
   <tile/>
   <tile/>
   <tile/>
   <tile/>
   <tile/>
   <tile/>
   <tile/>
   <tile/>
   <tile/>
   <tile/>
   <tile/>
   <tile/>
   <tile/>
   <tile/>
   <tile/>
   <tile/>
   <tile/>
   <tile/>
   <tile/>
   <tile/>
   <tile/>
   <tile/>
   <tile/>
   <tile/>
   <tile/>
   <tile/>
   <tile/>
   <tile/>
   <tile/>
   <tile/>
   <tile/>
   <tile/>
   <tile/>
   <tile/>
   <tile/>
   <tile/>
   <tile/>
   <tile/>
   <tile gid="49"/>
   <tile gid="49"/>
   <tile gid="49"/>
   <tile gid="49"/>
   <tile gid="49"/>
   <tile/>
   <tile/>
   <tile/>
   <tile gid="49"/>
   <tile gid="49"/>
   <tile gid="49"/>
   <tile gid="49"/>
   <tile gid="49"/>
   <tile/>
   <tile gid="49"/>
   <tile gid="49"/>
   <tile gid="49"/>
   <tile gid="49"/>
   <tile gid="49"/>
   <tile gid="49"/>
   <tile gid="49"/>
   <tile gid="49"/>
   <tile gid="49"/>
   <tile gid="49"/>
   <tile gid="49"/>
   <tile gid="49"/>
   <tile gid="49"/>
   <tile gid="49"/>
   <tile gid="49"/>
   <tile gid="49"/>
   <tile gid="49"/>
   <tile gid="49"/>
   <tile gid="49"/>
   <tile gid="49"/>
   <tile gid="49"/>
   <tile gid="49"/>
   <tile gid="49"/>
   <tile gid="49"/>
   <tile gid="49"/>
   <tile gid="49"/>
   <tile gid="49"/>
   <tile gid="49"/>
   <tile gid="49"/>
   <tile gid="49"/>
   <tile gid="49"/>
   <tile gid="49"/>
   <tile gid="49"/>
   <tile gid="49"/>
   <tile gid="49"/>
   <tile gid="49"/>
   <tile gid="49"/>
   <tile gid="49"/>
   <tile/>
   <tile/>
   <tile/>
   <tile gid="49"/>
   <tile gid="49"/>
   <tile gid="49"/>
   <tile gid="49"/>
   <tile gid="49"/>
   <tile gid="49"/>
   <tile gid="49"/>
   <tile gid="49"/>
   <tile gid="49"/>
   <tile gid="49"/>
   <tile gid="49"/>
   <tile/>
   <tile/>
   <tile/>
   <tile/>
   <tile gid="49"/>
   <tile/>
   <tile/>
   <tile/>
   <tile/>
   <tile/>
   <tile/>
   <tile/>
   <tile/>
   <tile/>
   <tile/>
   <tile/>
   <tile/>
   <tile/>
   <tile/>
   <tile/>
   <tile/>
   <tile/>
   <tile/>
   <tile/>
   <tile/>
   <tile/>
   <tile/>
   <tile/>
   <tile/>
   <tile/>
   <tile/>
   <tile/>
   <tile/>
   <tile/>
   <tile/>
   <tile/>
   <tile/>
   <tile/>
   <tile/>
   <tile gid="49"/>
   <tile/>
   <tile/>
   <tile/>
   <tile/>
   <tile/>
   <tile/>
   <tile/>
   <tile/>
   <tile/>
   <tile/>
   <tile/>
   <tile/>
   <tile/>
   <tile/>
   <tile/>
   <tile/>
   <tile/>
   <tile/>
   <tile/>
   <tile/>
   <tile/>
   <tile/>
   <tile/>
   <tile/>
   <tile/>
   <tile/>
   <tile/>
   <tile/>
   <tile/>
   <tile/>
   <tile/>
   <tile/>
   <tile/>
   <tile/>
   <tile/>
   <tile/>
   <tile/>
   <tile/>
   <tile/>
   <tile/>
   <tile/>
   <tile/>
   <tile/>
   <tile/>
   <tile gid="49"/>
   <tile/>
   <tile/>
   <tile/>
   <tile/>
   <tile/>
   <tile/>
   <tile/>
   <tile/>
   <tile/>
   <tile/>
   <tile/>
   <tile gid="49"/>
   <tile/>
   <tile gid="49"/>
   <tile/>
   <tile/>
   <tile/>
   <tile/>
   <tile/>
   <tile/>
   <tile/>
   <tile/>
   <tile/>
   <tile/>
   <tile/>
   <tile/>
   <tile/>
   <tile/>
   <tile/>
   <tile/>
   <tile/>
   <tile/>
   <tile/>
   <tile/>
   <tile/>
   <tile/>
   <tile/>
   <tile/>
   <tile/>
   <tile/>
   <tile/>
   <tile/>
   <tile/>
   <tile/>
   <tile/>
   <tile/>
   <tile/>
   <tile/>
   <tile/>
   <tile/>
   <tile/>
   <tile/>
   <tile/>
   <tile/>
   <tile/>
   <tile/>
   <tile/>
   <tile/>
   <tile/>
   <tile/>
   <tile/>
   <tile/>
   <tile/>
   <tile/>
   <tile gid="49"/>
   <tile/>
   <tile/>
   <tile/>
   <tile/>
   <tile gid="49"/>
   <tile/>
   <tile/>
   <tile/>
   <tile/>
   <tile/>
   <tile/>
   <tile/>
   <tile/>
   <tile/>
   <tile/>
   <tile/>
   <tile/>
   <tile/>
   <tile/>
   <tile/>
   <tile/>
   <tile/>
   <tile/>
   <tile/>
   <tile/>
   <tile/>
   <tile/>
   <tile/>
   <tile/>
   <tile/>
   <tile/>
   <tile/>
   <tile/>
   <tile/>
   <tile/>
   <tile/>
   <tile/>
   <tile/>
   <tile/>
   <tile gid="49"/>
   <tile/>
   <tile/>
   <tile/>
   <tile/>
   <tile/>
   <tile/>
   <tile/>
   <tile/>
   <tile/>
   <tile/>
   <tile/>
   <tile/>
   <tile/>
   <tile/>
   <tile/>
   <tile/>
   <tile/>
   <tile/>
   <tile/>
   <tile/>
   <tile/>
   <tile/>
   <tile/>
   <tile/>
   <tile/>
   <tile/>
   <tile/>
   <tile/>
   <tile/>
   <tile/>
   <tile/>
   <tile/>
   <tile/>
   <tile/>
   <tile/>
   <tile/>
   <tile/>
   <tile/>
   <tile/>
   <tile/>
   <tile/>
   <tile/>
   <tile/>
   <tile/>
   <tile gid="49"/>
   <tile/>
   <tile/>
   <tile/>
   <tile/>
   <tile/>
   <tile/>
   <tile/>
   <tile/>
   <tile/>
   <tile/>
   <tile/>
   <tile gid="49"/>
   <tile/>
   <tile gid="49"/>
   <tile/>
   <tile/>
   <tile/>
   <tile/>
   <tile/>
   <tile/>
   <tile/>
   <tile/>
   <tile/>
   <tile/>
   <tile/>
   <tile/>
   <tile/>
   <tile/>
   <tile/>
   <tile/>
   <tile/>
   <tile/>
   <tile/>
   <tile/>
   <tile/>
   <tile/>
   <tile/>
   <tile/>
   <tile/>
   <tile/>
   <tile/>
   <tile/>
   <tile/>
   <tile/>
   <tile/>
   <tile/>
   <tile/>
   <tile/>
   <tile/>
   <tile/>
   <tile/>
   <tile/>
   <tile/>
   <tile/>
   <tile/>
   <tile/>
   <tile/>
   <tile/>
   <tile/>
   <tile/>
   <tile/>
   <tile/>
   <tile/>
   <tile/>
   <tile gid="49"/>
   <tile/>
   <tile/>
   <tile/>
   <tile/>
   <tile gid="49"/>
   <tile/>
   <tile/>
   <tile/>
   <tile/>
   <tile/>
   <tile/>
   <tile/>
   <tile/>
   <tile/>
   <tile/>
   <tile/>
   <tile/>
   <tile/>
   <tile/>
   <tile/>
   <tile/>
   <tile/>
   <tile/>
   <tile/>
   <tile/>
   <tile/>
   <tile/>
   <tile/>
   <tile/>
   <tile/>
   <tile/>
   <tile/>
   <tile/>
   <tile/>
   <tile/>
   <tile/>
   <tile/>
   <tile/>
   <tile/>
   <tile gid="49"/>
   <tile/>
   <tile/>
   <tile/>
   <tile/>
   <tile/>
   <tile/>
   <tile/>
   <tile/>
   <tile/>
   <tile/>
   <tile/>
   <tile/>
   <tile/>
   <tile/>
   <tile/>
   <tile/>
   <tile/>
   <tile/>
   <tile/>
   <tile/>
   <tile/>
   <tile/>
   <tile/>
   <tile/>
   <tile/>
   <tile/>
   <tile/>
   <tile/>
   <tile/>
   <tile/>
   <tile/>
   <tile/>
   <tile/>
   <tile/>
   <tile/>
   <tile/>
   <tile/>
   <tile/>
   <tile/>
   <tile/>
   <tile/>
   <tile/>
   <tile/>
   <tile/>
   <tile gid="49"/>
   <tile/>
   <tile/>
   <tile/>
   <tile/>
   <tile/>
   <tile/>
   <tile/>
   <tile/>
   <tile/>
   <tile/>
   <tile/>
   <tile gid="49"/>
   <tile/>
   <tile gid="49"/>
   <tile/>
   <tile/>
   <tile/>
   <tile/>
   <tile/>
   <tile/>
   <tile/>
   <tile/>
   <tile/>
   <tile/>
   <tile/>
   <tile/>
   <tile/>
   <tile/>
   <tile/>
   <tile/>
   <tile/>
   <tile/>
   <tile/>
   <tile/>
   <tile/>
   <tile/>
   <tile/>
   <tile/>
   <tile/>
   <tile/>
   <tile/>
   <tile/>
   <tile/>
   <tile/>
   <tile/>
   <tile/>
   <tile/>
   <tile/>
   <tile/>
   <tile/>
   <tile/>
   <tile/>
   <tile/>
   <tile/>
   <tile/>
   <tile/>
   <tile/>
   <tile/>
   <tile/>
   <tile/>
   <tile/>
   <tile/>
   <tile/>
   <tile/>
   <tile gid="49"/>
   <tile/>
   <tile/>
   <tile/>
   <tile/>
   <tile gid="49"/>
   <tile/>
   <tile/>
   <tile/>
   <tile/>
   <tile/>
   <tile/>
   <tile/>
   <tile/>
   <tile/>
   <tile/>
   <tile/>
   <tile/>
   <tile/>
   <tile/>
   <tile/>
   <tile/>
   <tile/>
   <tile/>
   <tile/>
   <tile/>
   <tile/>
   <tile/>
   <tile/>
   <tile/>
   <tile/>
   <tile/>
   <tile/>
   <tile/>
   <tile/>
   <tile/>
   <tile/>
   <tile/>
   <tile/>
   <tile/>
   <tile gid="49"/>
   <tile/>
   <tile/>
   <tile/>
   <tile/>
   <tile/>
   <tile/>
   <tile/>
   <tile/>
   <tile/>
   <tile/>
   <tile/>
   <tile/>
   <tile/>
   <tile/>
   <tile/>
   <tile/>
   <tile/>
   <tile/>
   <tile/>
   <tile/>
   <tile/>
   <tile/>
   <tile/>
   <tile/>
   <tile/>
   <tile/>
   <tile/>
   <tile/>
   <tile/>
   <tile/>
   <tile/>
   <tile/>
   <tile/>
   <tile/>
   <tile/>
   <tile/>
   <tile/>
   <tile/>
   <tile/>
   <tile/>
   <tile/>
   <tile/>
   <tile/>
   <tile/>
   <tile gid="49"/>
   <tile/>
   <tile/>
   <tile/>
   <tile/>
   <tile/>
   <tile/>
   <tile/>
   <tile/>
   <tile/>
   <tile/>
   <tile/>
   <tile gid="49"/>
   <tile/>
   <tile gid="49"/>
   <tile/>
   <tile/>
   <tile/>
   <tile/>
   <tile/>
   <tile/>
   <tile/>
   <tile/>
   <tile/>
   <tile/>
   <tile/>
   <tile/>
   <tile/>
   <tile/>
   <tile/>
   <tile/>
   <tile/>
   <tile/>
   <tile/>
   <tile/>
   <tile/>
   <tile/>
   <tile/>
   <tile/>
   <tile/>
   <tile/>
   <tile/>
   <tile/>
   <tile/>
   <tile/>
   <tile/>
   <tile/>
   <tile/>
   <tile/>
   <tile/>
   <tile/>
   <tile/>
   <tile/>
   <tile/>
   <tile/>
   <tile/>
   <tile/>
   <tile/>
   <tile/>
   <tile/>
   <tile/>
   <tile/>
   <tile/>
   <tile/>
   <tile/>
   <tile gid="49"/>
   <tile/>
   <tile/>
   <tile/>
   <tile/>
   <tile gid="49"/>
   <tile/>
   <tile/>
   <tile/>
   <tile/>
   <tile/>
   <tile/>
   <tile/>
   <tile/>
   <tile/>
   <tile/>
   <tile/>
   <tile/>
   <tile/>
   <tile/>
   <tile/>
   <tile/>
   <tile/>
   <tile/>
   <tile/>
   <tile/>
   <tile/>
   <tile/>
   <tile/>
   <tile/>
   <tile/>
   <tile/>
   <tile/>
   <tile/>
   <tile/>
   <tile/>
   <tile/>
   <tile/>
   <tile/>
   <tile/>
   <tile gid="49"/>
   <tile/>
   <tile/>
   <tile/>
   <tile/>
   <tile/>
   <tile/>
   <tile/>
   <tile/>
   <tile/>
   <tile/>
   <tile/>
   <tile/>
   <tile/>
   <tile/>
   <tile/>
   <tile/>
   <tile/>
   <tile/>
   <tile/>
   <tile/>
   <tile/>
   <tile/>
   <tile/>
   <tile/>
   <tile/>
   <tile/>
   <tile/>
   <tile/>
   <tile/>
   <tile/>
   <tile/>
   <tile/>
   <tile/>
   <tile/>
   <tile/>
   <tile/>
   <tile/>
   <tile/>
   <tile/>
   <tile/>
   <tile/>
   <tile/>
   <tile/>
   <tile/>
   <tile gid="49"/>
   <tile/>
   <tile/>
   <tile/>
   <tile/>
   <tile/>
   <tile/>
   <tile/>
   <tile/>
   <tile/>
   <tile/>
   <tile/>
   <tile gid="49"/>
   <tile/>
   <tile gid="49"/>
   <tile/>
   <tile/>
   <tile/>
   <tile/>
   <tile/>
   <tile/>
   <tile/>
   <tile/>
   <tile/>
   <tile/>
   <tile/>
   <tile/>
   <tile/>
   <tile/>
   <tile/>
   <tile/>
   <tile/>
   <tile/>
   <tile/>
   <tile/>
   <tile/>
   <tile/>
   <tile/>
   <tile/>
   <tile/>
   <tile/>
   <tile/>
   <tile/>
   <tile/>
   <tile/>
   <tile/>
   <tile/>
   <tile/>
   <tile/>
   <tile/>
   <tile/>
   <tile/>
   <tile/>
   <tile/>
   <tile/>
   <tile/>
   <tile/>
   <tile/>
   <tile/>
   <tile/>
   <tile/>
   <tile/>
   <tile/>
   <tile/>
   <tile/>
   <tile gid="49"/>
   <tile/>
   <tile/>
   <tile/>
   <tile/>
   <tile gid="49"/>
   <tile/>
   <tile/>
   <tile/>
   <tile/>
   <tile/>
   <tile/>
   <tile/>
   <tile/>
   <tile/>
   <tile/>
   <tile/>
   <tile/>
   <tile/>
   <tile/>
   <tile/>
   <tile/>
   <tile/>
   <tile/>
   <tile/>
   <tile/>
   <tile/>
   <tile/>
   <tile/>
   <tile/>
   <tile/>
   <tile/>
   <tile/>
   <tile/>
   <tile/>
   <tile/>
   <tile/>
   <tile/>
   <tile/>
   <tile/>
   <tile gid="49"/>
   <tile/>
   <tile/>
   <tile/>
   <tile/>
   <tile/>
   <tile/>
   <tile/>
   <tile/>
   <tile/>
   <tile/>
   <tile/>
   <tile/>
   <tile/>
   <tile/>
   <tile/>
   <tile/>
   <tile/>
   <tile/>
   <tile/>
   <tile/>
   <tile/>
   <tile/>
   <tile/>
   <tile/>
   <tile/>
   <tile/>
   <tile/>
   <tile/>
   <tile/>
   <tile/>
   <tile/>
   <tile/>
   <tile/>
   <tile/>
   <tile/>
   <tile/>
   <tile/>
   <tile/>
   <tile/>
   <tile/>
   <tile/>
   <tile/>
   <tile/>
   <tile/>
   <tile gid="49"/>
   <tile/>
   <tile/>
   <tile/>
   <tile/>
   <tile/>
   <tile/>
   <tile/>
   <tile/>
   <tile/>
   <tile/>
   <tile/>
   <tile gid="49"/>
   <tile/>
   <tile gid="49"/>
   <tile/>
   <tile/>
   <tile/>
   <tile/>
   <tile/>
   <tile/>
   <tile/>
   <tile/>
   <tile/>
   <tile/>
   <tile/>
   <tile/>
   <tile/>
   <tile/>
   <tile/>
   <tile/>
   <tile/>
   <tile/>
   <tile/>
   <tile/>
   <tile/>
   <tile/>
   <tile/>
   <tile/>
   <tile/>
   <tile/>
   <tile/>
   <tile/>
   <tile/>
   <tile/>
   <tile/>
   <tile/>
   <tile/>
   <tile/>
   <tile/>
   <tile/>
   <tile/>
   <tile/>
   <tile/>
   <tile/>
   <tile/>
   <tile/>
   <tile/>
   <tile/>
   <tile/>
   <tile/>
   <tile/>
   <tile/>
   <tile/>
   <tile/>
   <tile gid="49"/>
   <tile/>
   <tile/>
   <tile/>
   <tile/>
   <tile gid="49"/>
   <tile/>
   <tile/>
   <tile/>
   <tile/>
   <tile/>
   <tile/>
   <tile/>
   <tile/>
   <tile/>
   <tile/>
   <tile/>
   <tile/>
   <tile/>
   <tile/>
   <tile/>
   <tile/>
   <tile/>
   <tile/>
   <tile/>
   <tile/>
   <tile/>
   <tile/>
   <tile/>
   <tile/>
   <tile/>
   <tile/>
   <tile/>
   <tile/>
   <tile/>
   <tile/>
   <tile/>
   <tile/>
   <tile/>
   <tile/>
   <tile gid="49"/>
   <tile/>
   <tile/>
   <tile/>
   <tile/>
   <tile/>
   <tile/>
   <tile/>
   <tile/>
   <tile/>
   <tile/>
   <tile/>
   <tile/>
   <tile/>
   <tile/>
   <tile/>
   <tile/>
   <tile/>
   <tile/>
   <tile/>
   <tile/>
   <tile/>
   <tile/>
   <tile/>
   <tile/>
   <tile/>
   <tile/>
   <tile/>
   <tile/>
   <tile/>
   <tile/>
   <tile/>
   <tile/>
   <tile/>
   <tile/>
   <tile/>
   <tile/>
   <tile/>
   <tile/>
   <tile/>
   <tile/>
   <tile/>
   <tile/>
   <tile/>
   <tile/>
   <tile gid="49"/>
   <tile/>
   <tile/>
   <tile/>
   <tile/>
   <tile/>
   <tile/>
   <tile/>
   <tile/>
   <tile/>
   <tile/>
   <tile/>
   <tile gid="49"/>
   <tile/>
   <tile gid="49"/>
   <tile/>
   <tile/>
   <tile/>
   <tile/>
   <tile/>
   <tile/>
   <tile/>
   <tile/>
   <tile/>
   <tile/>
   <tile/>
   <tile/>
   <tile/>
   <tile/>
   <tile/>
   <tile/>
   <tile/>
   <tile/>
   <tile/>
   <tile/>
   <tile/>
   <tile/>
   <tile/>
   <tile/>
   <tile/>
   <tile/>
   <tile/>
   <tile/>
   <tile/>
   <tile/>
   <tile/>
   <tile/>
   <tile/>
   <tile/>
   <tile/>
   <tile/>
   <tile/>
   <tile/>
   <tile/>
   <tile/>
   <tile/>
   <tile/>
   <tile/>
   <tile/>
   <tile/>
   <tile/>
   <tile/>
   <tile/>
   <tile/>
   <tile/>
   <tile gid="49"/>
   <tile/>
   <tile/>
   <tile/>
   <tile/>
   <tile gid="49"/>
   <tile/>
   <tile/>
   <tile/>
   <tile/>
   <tile/>
   <tile/>
   <tile/>
   <tile/>
   <tile/>
   <tile/>
   <tile/>
   <tile/>
   <tile/>
   <tile/>
   <tile/>
   <tile/>
   <tile/>
   <tile/>
   <tile/>
   <tile/>
   <tile/>
   <tile/>
   <tile/>
   <tile/>
   <tile/>
   <tile/>
   <tile/>
   <tile/>
   <tile/>
   <tile/>
   <tile/>
   <tile/>
   <tile/>
   <tile/>
   <tile gid="49"/>
   <tile/>
   <tile/>
   <tile/>
   <tile/>
   <tile/>
   <tile/>
   <tile/>
   <tile/>
   <tile/>
   <tile/>
   <tile/>
   <tile/>
   <tile/>
   <tile/>
   <tile/>
   <tile/>
   <tile/>
   <tile/>
   <tile/>
   <tile/>
   <tile/>
   <tile/>
   <tile/>
   <tile/>
   <tile/>
   <tile/>
   <tile/>
   <tile/>
   <tile/>
   <tile/>
   <tile/>
   <tile/>
   <tile/>
   <tile/>
   <tile/>
   <tile/>
   <tile/>
   <tile/>
   <tile/>
   <tile/>
   <tile/>
   <tile/>
   <tile/>
   <tile/>
   <tile gid="49"/>
   <tile/>
   <tile/>
   <tile/>
   <tile/>
   <tile/>
   <tile/>
   <tile/>
   <tile/>
   <tile/>
   <tile/>
   <tile/>
   <tile gid="49"/>
   <tile/>
   <tile gid="49"/>
   <tile/>
   <tile/>
   <tile/>
   <tile/>
   <tile/>
   <tile/>
   <tile/>
   <tile/>
   <tile/>
   <tile/>
   <tile/>
   <tile/>
   <tile/>
   <tile/>
   <tile/>
   <tile/>
   <tile/>
   <tile/>
   <tile/>
   <tile/>
   <tile/>
   <tile/>
   <tile/>
   <tile/>
   <tile/>
   <tile/>
   <tile/>
   <tile/>
   <tile/>
   <tile/>
   <tile/>
   <tile/>
   <tile/>
   <tile/>
   <tile/>
   <tile/>
   <tile/>
   <tile/>
   <tile/>
   <tile/>
   <tile/>
   <tile/>
   <tile/>
   <tile/>
   <tile/>
   <tile/>
   <tile/>
   <tile/>
   <tile/>
   <tile/>
   <tile gid="49"/>
   <tile/>
   <tile/>
   <tile/>
   <tile/>
   <tile gid="49"/>
   <tile/>
   <tile/>
   <tile/>
   <tile/>
   <tile/>
   <tile/>
   <tile/>
   <tile/>
   <tile/>
   <tile/>
   <tile/>
   <tile/>
   <tile/>
   <tile/>
   <tile/>
   <tile/>
   <tile/>
   <tile/>
   <tile/>
   <tile/>
   <tile/>
   <tile/>
   <tile/>
   <tile/>
   <tile/>
   <tile/>
   <tile/>
   <tile/>
   <tile/>
   <tile/>
   <tile/>
   <tile/>
   <tile/>
   <tile/>
   <tile gid="49"/>
   <tile/>
   <tile/>
   <tile/>
   <tile/>
   <tile/>
   <tile/>
   <tile/>
   <tile/>
   <tile/>
   <tile/>
   <tile/>
   <tile/>
   <tile/>
   <tile/>
   <tile/>
   <tile/>
   <tile/>
   <tile/>
   <tile/>
   <tile/>
   <tile/>
   <tile/>
   <tile/>
   <tile/>
   <tile/>
   <tile/>
   <tile/>
   <tile/>
   <tile/>
   <tile/>
   <tile/>
   <tile/>
   <tile/>
   <tile/>
   <tile/>
   <tile/>
   <tile/>
   <tile/>
   <tile/>
   <tile/>
   <tile/>
   <tile/>
   <tile/>
   <tile/>
   <tile gid="49"/>
   <tile/>
   <tile/>
   <tile/>
   <tile/>
   <tile/>
   <tile/>
   <tile/>
   <tile/>
   <tile/>
   <tile/>
   <tile/>
   <tile gid="49"/>
   <tile/>
   <tile gid="49"/>
   <tile/>
   <tile/>
   <tile/>
   <tile/>
   <tile/>
   <tile/>
   <tile/>
   <tile/>
   <tile/>
   <tile/>
   <tile/>
   <tile/>
   <tile/>
   <tile/>
   <tile/>
   <tile/>
   <tile/>
   <tile/>
   <tile/>
   <tile/>
   <tile/>
   <tile/>
   <tile/>
   <tile/>
   <tile/>
   <tile/>
   <tile/>
   <tile/>
   <tile/>
   <tile/>
   <tile/>
   <tile/>
   <tile/>
   <tile/>
   <tile/>
   <tile/>
   <tile/>
   <tile/>
   <tile/>
   <tile/>
   <tile/>
   <tile/>
   <tile/>
   <tile/>
   <tile/>
   <tile/>
   <tile/>
   <tile/>
   <tile/>
   <tile/>
   <tile gid="49"/>
   <tile/>
   <tile/>
   <tile/>
   <tile/>
   <tile gid="49"/>
   <tile/>
   <tile/>
   <tile/>
   <tile/>
   <tile/>
   <tile/>
   <tile/>
   <tile/>
   <tile/>
   <tile/>
   <tile/>
   <tile/>
   <tile/>
   <tile/>
   <tile/>
   <tile/>
   <tile/>
   <tile/>
   <tile/>
   <tile/>
   <tile/>
   <tile/>
   <tile/>
   <tile/>
   <tile/>
   <tile/>
   <tile/>
   <tile/>
   <tile/>
   <tile/>
   <tile/>
   <tile/>
   <tile/>
   <tile/>
   <tile gid="49"/>
   <tile/>
   <tile/>
   <tile/>
   <tile/>
   <tile/>
   <tile/>
   <tile/>
   <tile/>
   <tile/>
   <tile/>
   <tile/>
   <tile/>
   <tile/>
   <tile/>
   <tile/>
   <tile/>
   <tile/>
   <tile/>
   <tile/>
   <tile/>
   <tile/>
   <tile/>
   <tile/>
   <tile/>
   <tile/>
   <tile/>
   <tile/>
   <tile/>
   <tile/>
   <tile/>
   <tile/>
   <tile/>
   <tile/>
   <tile/>
   <tile/>
   <tile/>
   <tile/>
   <tile/>
   <tile/>
   <tile/>
   <tile/>
   <tile/>
   <tile/>
   <tile/>
   <tile gid="49"/>
   <tile/>
   <tile/>
   <tile/>
   <tile/>
   <tile/>
   <tile/>
   <tile/>
   <tile/>
   <tile/>
   <tile/>
   <tile/>
   <tile gid="49"/>
   <tile/>
   <tile gid="49"/>
   <tile/>
   <tile/>
   <tile/>
   <tile/>
   <tile/>
   <tile/>
   <tile/>
   <tile/>
   <tile/>
   <tile/>
   <tile/>
   <tile/>
   <tile/>
   <tile/>
   <tile/>
   <tile/>
   <tile/>
   <tile/>
   <tile/>
   <tile/>
   <tile/>
   <tile/>
   <tile/>
   <tile/>
   <tile/>
   <tile/>
   <tile/>
   <tile/>
   <tile/>
   <tile/>
   <tile/>
   <tile/>
   <tile/>
   <tile/>
   <tile/>
   <tile/>
   <tile/>
   <tile/>
   <tile/>
   <tile/>
   <tile/>
   <tile/>
   <tile/>
   <tile/>
   <tile/>
   <tile/>
   <tile/>
   <tile/>
   <tile/>
   <tile/>
   <tile gid="49"/>
   <tile/>
   <tile/>
   <tile/>
   <tile/>
   <tile gid="49"/>
   <tile/>
   <tile/>
   <tile/>
   <tile/>
   <tile/>
   <tile/>
   <tile/>
   <tile/>
   <tile/>
   <tile/>
   <tile/>
   <tile/>
   <tile/>
   <tile/>
   <tile/>
   <tile/>
   <tile/>
   <tile/>
   <tile/>
   <tile/>
   <tile/>
   <tile/>
   <tile/>
   <tile/>
   <tile/>
   <tile/>
   <tile/>
   <tile/>
   <tile/>
   <tile/>
   <tile/>
   <tile/>
   <tile/>
   <tile/>
   <tile gid="49"/>
   <tile/>
   <tile/>
   <tile/>
   <tile/>
   <tile/>
   <tile/>
   <tile/>
   <tile/>
   <tile/>
   <tile/>
   <tile/>
   <tile/>
   <tile/>
   <tile/>
   <tile/>
   <tile/>
   <tile/>
   <tile/>
   <tile/>
   <tile/>
   <tile/>
   <tile/>
   <tile/>
   <tile/>
   <tile/>
   <tile/>
   <tile/>
   <tile/>
   <tile/>
   <tile/>
   <tile/>
   <tile/>
   <tile/>
   <tile/>
   <tile/>
   <tile/>
   <tile/>
   <tile/>
   <tile/>
   <tile/>
   <tile/>
   <tile/>
   <tile/>
   <tile/>
   <tile gid="49"/>
   <tile/>
   <tile/>
   <tile/>
   <tile/>
   <tile/>
   <tile/>
   <tile/>
   <tile/>
   <tile/>
   <tile/>
   <tile/>
   <tile gid="49"/>
   <tile/>
   <tile gid="49"/>
   <tile/>
   <tile/>
   <tile/>
   <tile/>
   <tile/>
   <tile/>
   <tile/>
   <tile/>
   <tile/>
   <tile/>
   <tile/>
   <tile/>
   <tile/>
   <tile/>
   <tile/>
   <tile/>
   <tile/>
   <tile/>
   <tile/>
   <tile/>
   <tile/>
   <tile/>
   <tile/>
   <tile/>
   <tile/>
   <tile gid="49"/>
   <tile gid="49"/>
   <tile gid="49"/>
   <tile gid="49"/>
   <tile gid="49"/>
   <tile gid="49"/>
   <tile gid="49"/>
   <tile gid="49"/>
   <tile gid="49"/>
   <tile gid="49"/>
   <tile gid="49"/>
   <tile gid="49"/>
   <tile gid="49"/>
   <tile gid="49"/>
   <tile/>
   <tile/>
   <tile/>
   <tile gid="49"/>
   <tile gid="49"/>
   <tile gid="49"/>
   <tile gid="49"/>
   <tile gid="49"/>
   <tile gid="49"/>
   <tile gid="49"/>
   <tile gid="49"/>
   <tile gid="49"/>
   <tile/>
   <tile/>
   <tile/>
   <tile/>
   <tile gid="49"/>
   <tile/>
   <tile/>
   <tile/>
   <tile/>
   <tile/>
   <tile/>
   <tile/>
   <tile/>
   <tile/>
   <tile/>
   <tile/>
   <tile/>
   <tile/>
   <tile/>
   <tile/>
   <tile/>
   <tile/>
   <tile/>
   <tile/>
   <tile/>
   <tile/>
   <tile/>
   <tile/>
   <tile/>
   <tile/>
   <tile/>
   <tile/>
   <tile/>
   <tile/>
   <tile/>
   <tile/>
   <tile/>
   <tile/>
   <tile/>
   <tile gid="49"/>
   <tile/>
   <tile/>
   <tile/>
   <tile/>
   <tile/>
   <tile/>
   <tile/>
   <tile/>
   <tile/>
   <tile/>
   <tile/>
   <tile/>
   <tile/>
   <tile/>
   <tile/>
   <tile/>
   <tile/>
   <tile/>
   <tile/>
   <tile/>
   <tile/>
   <tile/>
   <tile/>
   <tile/>
   <tile/>
   <tile/>
   <tile/>
   <tile/>
   <tile/>
   <tile/>
   <tile/>
   <tile/>
   <tile/>
   <tile/>
   <tile/>
   <tile/>
   <tile/>
   <tile/>
   <tile/>
   <tile/>
   <tile/>
   <tile/>
   <tile/>
   <tile/>
   <tile gid="49"/>
   <tile/>
   <tile/>
   <tile/>
   <tile/>
   <tile/>
   <tile/>
   <tile/>
   <tile/>
   <tile/>
   <tile/>
   <tile/>
   <tile gid="49"/>
   <tile/>
   <tile gid="49"/>
   <tile/>
   <tile/>
   <tile/>
   <tile/>
   <tile/>
   <tile/>
   <tile/>
   <tile/>
   <tile/>
   <tile/>
   <tile/>
   <tile/>
   <tile/>
   <tile/>
   <tile/>
   <tile/>
   <tile/>
   <tile/>
   <tile/>
   <tile/>
   <tile/>
   <tile/>
   <tile/>
   <tile/>
   <tile/>
   <tile gid="49"/>
   <tile/>
   <tile/>
   <tile/>
   <tile/>
   <tile/>
   <tile/>
   <tile/>
   <tile/>
   <tile/>
   <tile/>
   <tile/>
   <tile/>
   <tile gid="49"/>
   <tile/>
   <tile/>
   <tile/>
   <tile gid="49"/>
   <tile/>
   <tile/>
   <tile/>
   <tile/>
   <tile/>
   <tile/>
   <tile/>
   <tile gid="49"/>
   <tile/>
   <tile/>
   <tile/>
   <tile/>
   <tile gid="49"/>
   <tile/>
   <tile/>
   <tile/>
   <tile/>
   <tile/>
   <tile/>
   <tile/>
   <tile/>
   <tile/>
   <tile/>
   <tile/>
   <tile/>
   <tile/>
   <tile/>
   <tile/>
   <tile/>
   <tile/>
   <tile/>
   <tile/>
   <tile/>
   <tile/>
   <tile/>
   <tile/>
   <tile/>
   <tile/>
   <tile/>
   <tile/>
   <tile/>
   <tile/>
   <tile/>
   <tile/>
   <tile/>
   <tile/>
   <tile/>
   <tile gid="49"/>
   <tile/>
   <tile/>
   <tile/>
   <tile/>
   <tile/>
   <tile/>
   <tile/>
   <tile/>
   <tile/>
   <tile/>
   <tile/>
   <tile/>
   <tile/>
   <tile/>
   <tile/>
   <tile/>
   <tile/>
   <tile/>
   <tile/>
   <tile/>
   <tile/>
   <tile/>
   <tile/>
   <tile/>
   <tile/>
   <tile/>
   <tile/>
   <tile/>
   <tile/>
   <tile/>
   <tile/>
   <tile/>
   <tile/>
   <tile/>
   <tile/>
   <tile/>
   <tile/>
   <tile/>
   <tile/>
   <tile/>
   <tile/>
   <tile/>
   <tile/>
   <tile/>
   <tile gid="49"/>
   <tile/>
   <tile/>
   <tile/>
   <tile/>
   <tile/>
   <tile/>
   <tile/>
   <tile/>
   <tile/>
   <tile/>
   <tile/>
   <tile gid="49"/>
   <tile/>
   <tile gid="49"/>
   <tile/>
   <tile/>
   <tile/>
   <tile/>
   <tile/>
   <tile/>
   <tile/>
   <tile/>
   <tile/>
   <tile/>
   <tile/>
   <tile/>
   <tile/>
   <tile/>
   <tile/>
   <tile/>
   <tile/>
   <tile/>
   <tile/>
   <tile/>
   <tile/>
   <tile/>
   <tile/>
   <tile/>
   <tile/>
   <tile gid="49"/>
   <tile/>
   <tile gid="49"/>
   <tile gid="49"/>
   <tile gid="49"/>
   <tile gid="49"/>
   <tile gid="49"/>
   <tile gid="49"/>
   <tile gid="49"/>
   <tile gid="49"/>
   <tile gid="49"/>
   <tile gid="49"/>
   <tile gid="49"/>
   <tile gid="49"/>
   <tile/>
   <tile/>
   <tile/>
   <tile gid="49"/>
   <tile gid="49"/>
   <tile gid="49"/>
   <tile gid="49"/>
   <tile gid="49"/>
   <tile gid="49"/>
   <tile gid="49"/>
   <tile gid="49"/>
   <tile gid="49"/>
   <tile/>
   <tile/>
   <tile/>
   <tile/>
   <tile gid="49"/>
   <tile/>
   <tile/>
   <tile/>
   <tile/>
   <tile/>
   <tile/>
   <tile/>
   <tile/>
   <tile/>
   <tile/>
   <tile/>
   <tile/>
   <tile/>
   <tile/>
   <tile/>
   <tile/>
   <tile/>
   <tile/>
   <tile/>
   <tile/>
   <tile/>
   <tile/>
   <tile/>
   <tile/>
   <tile/>
   <tile/>
   <tile/>
   <tile/>
   <tile/>
   <tile/>
   <tile/>
   <tile/>
   <tile/>
   <tile/>
   <tile gid="49"/>
   <tile/>
   <tile/>
   <tile/>
   <tile/>
   <tile/>
   <tile/>
   <tile/>
   <tile/>
   <tile/>
   <tile/>
   <tile/>
   <tile/>
   <tile/>
   <tile/>
   <tile/>
   <tile/>
   <tile/>
   <tile/>
   <tile/>
   <tile/>
   <tile/>
   <tile/>
   <tile/>
   <tile/>
   <tile/>
   <tile/>
   <tile/>
   <tile/>
   <tile/>
   <tile/>
   <tile/>
   <tile/>
   <tile/>
   <tile/>
   <tile/>
   <tile/>
   <tile/>
   <tile/>
   <tile/>
   <tile/>
   <tile/>
   <tile/>
   <tile/>
   <tile/>
   <tile gid="49"/>
   <tile/>
   <tile/>
   <tile/>
   <tile/>
   <tile/>
   <tile/>
   <tile/>
   <tile/>
   <tile/>
   <tile/>
   <tile/>
   <tile gid="49"/>
   <tile/>
   <tile gid="49"/>
   <tile/>
   <tile/>
   <tile/>
   <tile/>
   <tile/>
   <tile/>
   <tile/>
   <tile/>
   <tile/>
   <tile/>
   <tile/>
   <tile/>
   <tile/>
   <tile/>
   <tile/>
   <tile/>
   <tile/>
   <tile/>
   <tile/>
   <tile/>
   <tile/>
   <tile/>
   <tile/>
   <tile/>
   <tile/>
   <tile gid="49"/>
   <tile/>
   <tile gid="49"/>
   <tile/>
   <tile/>
   <tile/>
   <tile/>
   <tile/>
   <tile/>
   <tile/>
   <tile/>
   <tile/>
   <tile/>
   <tile/>
   <tile/>
   <tile/>
   <tile/>
   <tile/>
   <tile/>
   <tile/>
   <tile/>
   <tile/>
   <tile/>
   <tile/>
   <tile/>
   <tile gid="49"/>
   <tile/>
   <tile/>
   <tile/>
   <tile/>
   <tile gid="49"/>
   <tile/>
   <tile/>
   <tile/>
   <tile/>
   <tile/>
   <tile/>
   <tile/>
   <tile/>
   <tile/>
   <tile/>
   <tile/>
   <tile/>
   <tile/>
   <tile/>
   <tile/>
   <tile/>
   <tile/>
   <tile/>
   <tile/>
   <tile/>
   <tile/>
   <tile/>
   <tile/>
   <tile/>
   <tile/>
   <tile/>
   <tile/>
   <tile/>
   <tile/>
   <tile/>
   <tile/>
   <tile/>
   <tile/>
   <tile/>
   <tile gid="49"/>
   <tile/>
   <tile/>
   <tile/>
   <tile/>
   <tile/>
   <tile/>
   <tile/>
   <tile/>
   <tile/>
   <tile/>
   <tile/>
   <tile/>
   <tile/>
   <tile/>
   <tile/>
   <tile/>
   <tile/>
   <tile/>
   <tile/>
   <tile/>
   <tile/>
   <tile/>
   <tile/>
   <tile/>
   <tile/>
   <tile/>
   <tile/>
   <tile/>
   <tile/>
   <tile/>
   <tile/>
   <tile/>
   <tile/>
   <tile/>
   <tile/>
   <tile/>
   <tile/>
   <tile/>
   <tile/>
   <tile/>
   <tile/>
   <tile/>
   <tile/>
   <tile/>
   <tile gid="49"/>
   <tile/>
   <tile/>
   <tile/>
   <tile/>
   <tile/>
   <tile/>
   <tile/>
   <tile/>
   <tile/>
   <tile/>
   <tile/>
   <tile gid="49"/>
   <tile/>
   <tile gid="49"/>
   <tile/>
   <tile/>
   <tile/>
   <tile/>
   <tile/>
   <tile/>
   <tile/>
   <tile/>
   <tile/>
   <tile/>
   <tile/>
   <tile/>
   <tile/>
   <tile/>
   <tile/>
   <tile/>
   <tile/>
   <tile/>
   <tile/>
   <tile/>
   <tile/>
   <tile/>
   <tile/>
   <tile/>
   <tile/>
   <tile gid="49"/>
   <tile/>
   <tile gid="49"/>
   <tile/>
   <tile/>
   <tile/>
   <tile/>
   <tile/>
   <tile/>
   <tile/>
   <tile/>
   <tile/>
   <tile/>
   <tile/>
   <tile/>
   <tile/>
   <tile/>
   <tile/>
   <tile/>
   <tile/>
   <tile/>
   <tile/>
   <tile/>
   <tile/>
   <tile/>
   <tile gid="49"/>
   <tile/>
   <tile/>
   <tile/>
   <tile/>
   <tile gid="49"/>
   <tile/>
   <tile/>
   <tile/>
   <tile/>
   <tile/>
   <tile/>
   <tile/>
   <tile/>
   <tile/>
   <tile/>
   <tile/>
   <tile/>
   <tile/>
   <tile/>
   <tile/>
   <tile/>
   <tile/>
   <tile/>
   <tile/>
   <tile/>
   <tile/>
   <tile/>
   <tile/>
   <tile/>
   <tile/>
   <tile/>
   <tile/>
   <tile/>
   <tile/>
   <tile/>
   <tile/>
   <tile/>
   <tile/>
   <tile/>
   <tile gid="49"/>
   <tile/>
   <tile/>
   <tile/>
   <tile/>
   <tile/>
   <tile/>
   <tile/>
   <tile/>
   <tile/>
   <tile/>
   <tile/>
   <tile/>
   <tile/>
   <tile/>
   <tile/>
   <tile/>
   <tile/>
   <tile/>
   <tile/>
   <tile/>
   <tile/>
   <tile/>
   <tile/>
   <tile/>
   <tile/>
   <tile/>
   <tile/>
   <tile/>
   <tile/>
   <tile/>
   <tile/>
   <tile/>
   <tile/>
   <tile/>
   <tile/>
   <tile/>
   <tile/>
   <tile/>
   <tile/>
   <tile/>
   <tile/>
   <tile/>
   <tile/>
   <tile/>
   <tile gid="49"/>
   <tile/>
   <tile/>
   <tile/>
   <tile/>
   <tile/>
   <tile/>
   <tile/>
   <tile/>
   <tile/>
   <tile/>
   <tile/>
   <tile gid="49"/>
   <tile/>
   <tile gid="49"/>
   <tile/>
   <tile/>
   <tile/>
   <tile/>
   <tile/>
   <tile/>
   <tile/>
   <tile/>
   <tile/>
   <tile/>
   <tile/>
   <tile/>
   <tile/>
   <tile/>
   <tile/>
   <tile/>
   <tile/>
   <tile/>
   <tile/>
   <tile/>
   <tile/>
   <tile/>
   <tile/>
   <tile/>
   <tile/>
   <tile gid="49"/>
   <tile/>
   <tile gid="49"/>
   <tile/>
   <tile/>
   <tile/>
   <tile/>
   <tile/>
   <tile/>
   <tile/>
   <tile/>
   <tile/>
   <tile/>
   <tile/>
   <tile/>
   <tile/>
   <tile/>
   <tile/>
   <tile/>
   <tile/>
   <tile/>
   <tile/>
   <tile/>
   <tile/>
   <tile/>
   <tile gid="49"/>
   <tile/>
   <tile/>
   <tile/>
   <tile/>
   <tile gid="49"/>
   <tile/>
   <tile/>
   <tile/>
   <tile/>
   <tile/>
   <tile/>
   <tile/>
   <tile/>
   <tile/>
   <tile/>
   <tile/>
   <tile/>
   <tile/>
   <tile/>
   <tile/>
   <tile/>
   <tile/>
   <tile/>
   <tile/>
   <tile/>
   <tile/>
   <tile/>
   <tile/>
   <tile/>
   <tile/>
   <tile/>
   <tile/>
   <tile/>
   <tile/>
   <tile/>
   <tile/>
   <tile/>
   <tile/>
   <tile/>
   <tile gid="49"/>
   <tile/>
   <tile/>
   <tile/>
   <tile/>
   <tile/>
   <tile/>
   <tile/>
   <tile/>
   <tile/>
   <tile/>
   <tile/>
   <tile/>
   <tile/>
   <tile/>
   <tile/>
   <tile/>
   <tile/>
   <tile/>
   <tile/>
   <tile/>
   <tile/>
   <tile/>
   <tile/>
   <tile/>
   <tile/>
   <tile/>
   <tile/>
   <tile/>
   <tile/>
   <tile/>
   <tile/>
   <tile/>
   <tile/>
   <tile/>
   <tile/>
   <tile/>
   <tile/>
   <tile/>
   <tile/>
   <tile/>
   <tile/>
   <tile/>
   <tile/>
   <tile/>
   <tile gid="49"/>
   <tile/>
   <tile/>
   <tile/>
   <tile/>
   <tile/>
   <tile/>
   <tile/>
   <tile/>
   <tile/>
   <tile/>
   <tile/>
   <tile gid="49"/>
   <tile/>
   <tile gid="49"/>
   <tile/>
   <tile/>
   <tile/>
   <tile/>
   <tile/>
   <tile/>
   <tile/>
   <tile/>
   <tile/>
   <tile/>
   <tile/>
   <tile/>
   <tile/>
   <tile/>
   <tile/>
   <tile/>
   <tile/>
   <tile/>
   <tile/>
   <tile/>
   <tile/>
   <tile/>
   <tile/>
   <tile/>
   <tile/>
   <tile gid="49"/>
   <tile/>
   <tile gid="49"/>
   <tile/>
   <tile/>
   <tile/>
   <tile/>
   <tile/>
   <tile/>
   <tile/>
   <tile/>
   <tile/>
   <tile/>
   <tile/>
   <tile/>
   <tile/>
   <tile/>
   <tile/>
   <tile/>
   <tile/>
   <tile/>
   <tile/>
   <tile/>
   <tile/>
   <tile/>
   <tile gid="49"/>
   <tile/>
   <tile/>
   <tile/>
   <tile/>
   <tile gid="49"/>
   <tile/>
   <tile/>
   <tile/>
   <tile/>
   <tile/>
   <tile/>
   <tile/>
   <tile/>
   <tile/>
   <tile/>
   <tile/>
   <tile/>
   <tile/>
   <tile/>
   <tile/>
   <tile/>
   <tile/>
   <tile/>
   <tile/>
   <tile/>
   <tile/>
   <tile/>
   <tile/>
   <tile/>
   <tile/>
   <tile/>
   <tile/>
   <tile/>
   <tile/>
   <tile/>
   <tile/>
   <tile/>
   <tile/>
   <tile/>
   <tile gid="49"/>
   <tile/>
   <tile/>
   <tile/>
   <tile/>
   <tile/>
   <tile/>
   <tile/>
   <tile/>
   <tile/>
   <tile/>
   <tile/>
   <tile/>
   <tile/>
   <tile/>
   <tile/>
   <tile/>
   <tile/>
   <tile/>
   <tile/>
   <tile/>
   <tile/>
   <tile/>
   <tile/>
   <tile/>
   <tile/>
   <tile/>
   <tile/>
   <tile/>
   <tile/>
   <tile/>
   <tile/>
   <tile/>
   <tile/>
   <tile/>
   <tile/>
   <tile/>
   <tile/>
   <tile/>
   <tile/>
   <tile/>
   <tile/>
   <tile/>
   <tile/>
   <tile/>
   <tile gid="49"/>
   <tile/>
   <tile/>
   <tile/>
   <tile/>
   <tile/>
   <tile/>
   <tile/>
   <tile/>
   <tile/>
   <tile/>
   <tile/>
   <tile gid="49"/>
   <tile/>
   <tile gid="49"/>
   <tile/>
   <tile/>
   <tile/>
   <tile/>
   <tile/>
   <tile/>
   <tile/>
   <tile/>
   <tile/>
   <tile/>
   <tile/>
   <tile/>
   <tile/>
   <tile/>
   <tile/>
   <tile/>
   <tile/>
   <tile/>
   <tile/>
   <tile/>
   <tile/>
   <tile/>
   <tile/>
   <tile/>
   <tile/>
   <tile gid="49"/>
   <tile/>
   <tile gid="49"/>
   <tile/>
   <tile/>
   <tile/>
   <tile/>
   <tile/>
   <tile/>
   <tile/>
   <tile/>
   <tile/>
   <tile/>
   <tile/>
   <tile/>
   <tile/>
   <tile/>
   <tile/>
   <tile/>
   <tile/>
   <tile/>
   <tile/>
   <tile/>
   <tile/>
   <tile/>
   <tile gid="49"/>
   <tile/>
   <tile/>
   <tile/>
   <tile/>
   <tile gid="49"/>
   <tile/>
   <tile/>
   <tile/>
   <tile/>
   <tile/>
   <tile/>
   <tile/>
   <tile/>
   <tile/>
   <tile/>
   <tile/>
   <tile/>
   <tile/>
   <tile/>
   <tile/>
   <tile/>
   <tile/>
   <tile/>
   <tile/>
   <tile/>
   <tile/>
   <tile/>
   <tile/>
   <tile/>
   <tile/>
   <tile/>
   <tile/>
   <tile/>
   <tile/>
   <tile/>
   <tile/>
   <tile/>
   <tile/>
   <tile/>
   <tile gid="49"/>
   <tile/>
   <tile/>
   <tile/>
   <tile/>
   <tile/>
   <tile/>
   <tile/>
   <tile/>
   <tile/>
   <tile/>
   <tile/>
   <tile/>
   <tile/>
   <tile/>
   <tile/>
   <tile/>
   <tile/>
   <tile/>
   <tile/>
   <tile/>
   <tile/>
   <tile/>
   <tile/>
   <tile/>
   <tile/>
   <tile/>
   <tile/>
   <tile/>
   <tile/>
   <tile/>
   <tile/>
   <tile/>
   <tile/>
   <tile/>
   <tile/>
   <tile/>
   <tile/>
   <tile/>
   <tile/>
   <tile/>
   <tile/>
   <tile/>
   <tile/>
   <tile/>
   <tile gid="49"/>
   <tile/>
   <tile/>
   <tile/>
   <tile/>
   <tile/>
   <tile/>
   <tile/>
   <tile/>
   <tile/>
   <tile/>
   <tile/>
   <tile gid="49"/>
   <tile/>
   <tile gid="49"/>
   <tile/>
   <tile/>
   <tile/>
   <tile/>
   <tile/>
   <tile/>
   <tile/>
   <tile/>
   <tile/>
   <tile/>
   <tile/>
   <tile/>
   <tile/>
   <tile/>
   <tile/>
   <tile/>
   <tile/>
   <tile/>
   <tile/>
   <tile/>
   <tile/>
   <tile/>
   <tile/>
   <tile/>
   <tile/>
   <tile gid="49"/>
   <tile/>
   <tile gid="49"/>
   <tile/>
   <tile/>
   <tile/>
   <tile/>
   <tile/>
   <tile/>
   <tile/>
   <tile/>
   <tile/>
   <tile/>
   <tile/>
   <tile/>
   <tile/>
   <tile/>
   <tile/>
   <tile/>
   <tile/>
   <tile/>
   <tile/>
   <tile/>
   <tile/>
   <tile/>
   <tile gid="49"/>
   <tile/>
   <tile/>
   <tile/>
   <tile/>
   <tile gid="49"/>
   <tile/>
   <tile/>
   <tile/>
   <tile/>
   <tile/>
   <tile/>
   <tile/>
   <tile/>
   <tile/>
   <tile/>
   <tile/>
   <tile/>
   <tile/>
   <tile/>
   <tile/>
   <tile/>
   <tile/>
   <tile/>
   <tile/>
   <tile/>
   <tile/>
   <tile/>
   <tile/>
   <tile/>
   <tile/>
   <tile/>
   <tile/>
   <tile/>
   <tile/>
   <tile/>
   <tile/>
   <tile/>
   <tile/>
   <tile/>
   <tile gid="49"/>
   <tile/>
   <tile/>
   <tile/>
   <tile/>
   <tile/>
   <tile/>
   <tile/>
   <tile/>
   <tile/>
   <tile/>
   <tile/>
   <tile/>
   <tile/>
   <tile/>
   <tile/>
   <tile/>
   <tile/>
   <tile/>
   <tile/>
   <tile/>
   <tile/>
   <tile/>
   <tile/>
   <tile/>
   <tile/>
   <tile/>
   <tile/>
   <tile/>
   <tile/>
   <tile/>
   <tile/>
   <tile/>
   <tile/>
   <tile/>
   <tile/>
   <tile/>
   <tile/>
   <tile/>
   <tile/>
   <tile/>
   <tile/>
   <tile/>
   <tile/>
   <tile/>
   <tile gid="49"/>
   <tile/>
   <tile/>
   <tile/>
   <tile/>
   <tile/>
   <tile/>
   <tile/>
   <tile/>
   <tile/>
   <tile/>
   <tile/>
   <tile gid="49"/>
   <tile/>
   <tile gid="49"/>
   <tile/>
   <tile/>
   <tile/>
   <tile/>
   <tile/>
   <tile/>
   <tile/>
   <tile/>
   <tile/>
   <tile/>
   <tile/>
   <tile/>
   <tile/>
   <tile/>
   <tile/>
   <tile/>
   <tile/>
   <tile/>
   <tile/>
   <tile/>
   <tile/>
   <tile/>
   <tile/>
   <tile/>
   <tile/>
   <tile gid="49"/>
   <tile/>
   <tile gid="49"/>
   <tile/>
   <tile/>
   <tile/>
   <tile/>
   <tile/>
   <tile/>
   <tile/>
   <tile/>
   <tile/>
   <tile/>
   <tile/>
   <tile/>
   <tile/>
   <tile/>
   <tile/>
   <tile/>
   <tile/>
   <tile/>
   <tile/>
   <tile/>
   <tile/>
   <tile/>
   <tile gid="49"/>
   <tile/>
   <tile/>
   <tile/>
   <tile/>
   <tile gid="49"/>
   <tile gid="49"/>
   <tile gid="49"/>
   <tile gid="49"/>
   <tile gid="49"/>
   <tile gid="49"/>
   <tile gid="49"/>
   <tile gid="49"/>
   <tile gid="49"/>
   <tile/>
   <tile/>
   <tile/>
   <tile gid="49"/>
   <tile gid="49"/>
   <tile gid="49"/>
   <tile gid="49"/>
   <tile gid="49"/>
   <tile gid="49"/>
   <tile gid="49"/>
   <tile gid="49"/>
   <tile gid="49"/>
   <tile gid="49"/>
   <tile gid="49"/>
   <tile gid="49"/>
   <tile gid="49"/>
   <tile gid="49"/>
   <tile gid="49"/>
   <tile gid="49"/>
   <tile gid="49"/>
   <tile gid="49"/>
   <tile gid="49"/>
   <tile gid="49"/>
   <tile gid="49"/>
   <tile gid="49"/>
   <tile gid="49"/>
   <tile gid="49"/>
   <tile/>
   <tile/>
   <tile/>
   <tile/>
   <tile/>
   <tile/>
   <tile/>
   <tile/>
   <tile/>
   <tile/>
   <tile/>
   <tile/>
   <tile/>
   <tile/>
   <tile/>
   <tile/>
   <tile/>
   <tile/>
   <tile/>
   <tile/>
   <tile/>
   <tile/>
   <tile/>
   <tile/>
   <tile/>
   <tile/>
   <tile/>
   <tile/>
   <tile/>
   <tile/>
   <tile/>
   <tile/>
   <tile/>
   <tile/>
   <tile/>
   <tile/>
   <tile/>
   <tile/>
   <tile/>
   <tile/>
   <tile/>
   <tile/>
   <tile/>
   <tile/>
   <tile gid="49"/>
   <tile gid="49"/>
   <tile gid="49"/>
   <tile gid="49"/>
   <tile gid="49"/>
   <tile gid="49"/>
   <tile gid="49"/>
   <tile gid="49"/>
   <tile gid="49"/>
   <tile gid="49"/>
   <tile gid="49"/>
   <tile gid="49"/>
   <tile gid="49"/>
   <tile/>
   <tile gid="49"/>
   <tile gid="49"/>
   <tile gid="49"/>
   <tile gid="49"/>
   <tile gid="49"/>
   <tile gid="49"/>
   <tile gid="49"/>
   <tile gid="49"/>
   <tile gid="49"/>
   <tile gid="49"/>
   <tile gid="49"/>
   <tile gid="49"/>
   <tile gid="49"/>
   <tile gid="49"/>
   <tile gid="49"/>
   <tile gid="49"/>
   <tile gid="49"/>
   <tile gid="49"/>
   <tile gid="49"/>
   <tile gid="49"/>
   <tile gid="49"/>
   <tile gid="49"/>
   <tile gid="49"/>
   <tile gid="49"/>
   <tile gid="49"/>
   <tile gid="49"/>
   <tile gid="49"/>
   <tile/>
   <tile gid="49"/>
   <tile/>
   <tile/>
   <tile/>
   <tile/>
   <tile/>
   <tile/>
   <tile/>
   <tile/>
   <tile/>
   <tile/>
   <tile/>
   <tile/>
   <tile/>
   <tile/>
   <tile/>
   <tile/>
   <tile/>
   <tile/>
   <tile/>
   <tile/>
   <tile/>
   <tile/>
   <tile gid="49"/>
   <tile/>
   <tile/>
   <tile/>
   <tile/>
   <tile/>
   <tile/>
   <tile/>
   <tile/>
   <tile/>
   <tile/>
   <tile/>
   <tile/>
   <tile gid="49"/>
   <tile/>
   <tile/>
   <tile/>
   <tile gid="49"/>
   <tile/>
   <tile/>
   <tile/>
   <tile/>
   <tile/>
   <tile/>
   <tile/>
   <tile/>
   <tile/>
   <tile/>
   <tile/>
   <tile/>
   <tile/>
   <tile/>
   <tile/>
   <tile/>
   <tile/>
   <tile/>
   <tile/>
   <tile/>
   <tile/>
   <tile/>
   <tile/>
   <tile/>
   <tile/>
   <tile/>
   <tile/>
   <tile/>
   <tile/>
   <tile/>
   <tile/>
   <tile/>
   <tile/>
   <tile/>
   <tile/>
   <tile/>
   <tile/>
   <tile/>
   <tile/>
   <tile/>
   <tile/>
   <tile/>
   <tile/>
   <tile/>
   <tile/>
   <tile/>
   <tile/>
   <tile/>
   <tile/>
   <tile/>
   <tile/>
   <tile/>
   <tile/>
   <tile/>
   <tile/>
   <tile/>
   <tile/>
   <tile/>
   <tile/>
   <tile/>
   <tile/>
   <tile/>
   <tile/>
   <tile/>
   <tile/>
   <tile/>
   <tile/>
   <tile/>
   <tile/>
   <tile/>
   <tile/>
   <tile/>
   <tile/>
   <tile/>
   <tile/>
   <tile/>
   <tile/>
   <tile/>
   <tile/>
   <tile/>
   <tile/>
   <tile/>
   <tile/>
   <tile/>
   <tile/>
   <tile/>
   <tile/>
   <tile/>
   <tile/>
   <tile/>
   <tile/>
   <tile/>
   <tile/>
   <tile/>
   <tile/>
   <tile/>
   <tile/>
   <tile/>
   <tile/>
   <tile/>
   <tile/>
   <tile/>
   <tile/>
   <tile/>
   <tile/>
   <tile/>
   <tile/>
   <tile/>
   <tile/>
   <tile gid="49"/>
   <tile/>
   <tile/>
   <tile/>
   <tile/>
   <tile/>
   <tile/>
   <tile/>
   <tile/>
   <tile/>
   <tile/>
   <tile/>
   <tile/>
   <tile/>
   <tile/>
   <tile/>
   <tile/>
   <tile/>
   <tile/>
   <tile/>
   <tile/>
   <tile/>
   <tile/>
   <tile gid="49"/>
   <tile/>
   <tile/>
   <tile/>
   <tile/>
   <tile gid="49"/>
   <tile gid="49"/>
   <tile gid="49"/>
   <tile gid="49"/>
   <tile gid="49"/>
   <tile gid="49"/>
   <tile gid="49"/>
   <tile gid="49"/>
   <tile gid="49"/>
   <tile/>
   <tile/>
   <tile/>
   <tile gid="49"/>
   <tile gid="49"/>
   <tile gid="49"/>
   <tile gid="49"/>
   <tile gid="49"/>
   <tile gid="49"/>
   <tile gid="49"/>
   <tile gid="49"/>
   <tile gid="49"/>
   <tile gid="49"/>
   <tile gid="49"/>
   <tile gid="49"/>
   <tile/>
   <tile gid="49"/>
   <tile gid="49"/>
   <tile gid="49"/>
   <tile gid="49"/>
   <tile gid="49"/>
   <tile gid="49"/>
   <tile gid="49"/>
   <tile gid="49"/>
   <tile gid="49"/>
   <tile gid="49"/>
   <tile gid="49"/>
   <tile gid="49"/>
   <tile gid="49"/>
   <tile gid="49"/>
   <tile gid="49"/>
   <tile gid="49"/>
   <tile gid="49"/>
   <tile gid="49"/>
   <tile gid="49"/>
   <tile gid="49"/>
   <tile gid="49"/>
   <tile gid="49"/>
   <tile gid="49"/>
   <tile gid="49"/>
   <tile gid="49"/>
   <tile gid="49"/>
   <tile gid="49"/>
   <tile gid="49"/>
   <tile gid="49"/>
   <tile gid="49"/>
   <tile gid="49"/>
   <tile gid="49"/>
   <tile gid="49"/>
   <tile gid="49"/>
   <tile gid="49"/>
   <tile gid="49"/>
   <tile gid="49"/>
   <tile gid="49"/>
   <tile gid="49"/>
   <tile gid="49"/>
   <tile/>
   <tile gid="49"/>
   <tile gid="49"/>
   <tile gid="49"/>
   <tile gid="49"/>
   <tile gid="49"/>
   <tile gid="49"/>
   <tile gid="49"/>
   <tile gid="49"/>
   <tile gid="49"/>
   <tile gid="49"/>
   <tile gid="49"/>
   <tile gid="49"/>
   <tile gid="49"/>
   <tile gid="49"/>
   <tile gid="49"/>
   <tile gid="49"/>
   <tile gid="49"/>
   <tile gid="49"/>
   <tile gid="49"/>
   <tile gid="49"/>
   <tile gid="49"/>
   <tile gid="49"/>
   <tile gid="49"/>
   <tile gid="49"/>
   <tile gid="49"/>
   <tile gid="49"/>
   <tile gid="49"/>
   <tile/>
   <tile gid="49"/>
   <tile gid="49"/>
   <tile gid="49"/>
   <tile gid="49"/>
   <tile gid="49"/>
   <tile gid="49"/>
   <tile gid="49"/>
   <tile gid="49"/>
   <tile gid="49"/>
   <tile gid="49"/>
   <tile gid="49"/>
   <tile gid="49"/>
   <tile gid="49"/>
   <tile gid="49"/>
   <tile gid="49"/>
   <tile gid="49"/>
   <tile gid="49"/>
   <tile gid="49"/>
   <tile gid="49"/>
   <tile gid="49"/>
   <tile gid="49"/>
   <tile gid="49"/>
   <tile gid="49"/>
   <tile gid="49"/>
   <tile gid="49"/>
   <tile gid="49"/>
   <tile gid="49"/>
   <tile/>
   <tile gid="49"/>
   <tile/>
   <tile/>
   <tile/>
   <tile/>
   <tile/>
   <tile/>
   <tile/>
   <tile/>
   <tile/>
   <tile/>
   <tile/>
   <tile/>
   <tile/>
   <tile/>
   <tile/>
   <tile/>
   <tile/>
   <tile/>
   <tile/>
   <tile/>
   <tile/>
   <tile/>
   <tile gid="49"/>
   <tile/>
   <tile/>
   <tile/>
   <tile/>
   <tile gid="49"/>
   <tile/>
   <tile/>
   <tile/>
   <tile/>
   <tile/>
   <tile/>
   <tile/>
   <tile/>
   <tile/>
   <tile/>
   <tile/>
   <tile/>
   <tile/>
   <tile/>
   <tile/>
   <tile/>
   <tile/>
   <tile/>
   <tile/>
   <tile/>
   <tile/>
   <tile/>
   <tile gid="49"/>
   <tile/>
   <tile gid="49"/>
   <tile/>
   <tile/>
   <tile/>
   <tile/>
   <tile/>
   <tile/>
   <tile/>
   <tile/>
   <tile/>
   <tile/>
   <tile/>
   <tile/>
   <tile/>
   <tile/>
   <tile/>
   <tile/>
   <tile/>
   <tile/>
   <tile/>
   <tile/>
   <tile/>
   <tile/>
   <tile/>
   <tile/>
   <tile/>
   <tile/>
   <tile/>
   <tile/>
   <tile/>
   <tile/>
   <tile/>
   <tile/>
   <tile/>
   <tile/>
   <tile/>
   <tile/>
   <tile/>
   <tile/>
   <tile gid="49"/>
   <tile/>
   <tile gid="49"/>
   <tile/>
   <tile/>
   <tile/>
   <tile/>
   <tile/>
   <tile/>
   <tile/>
   <tile/>
   <tile/>
   <tile/>
   <tile/>
   <tile/>
   <tile/>
   <tile/>
   <tile/>
   <tile/>
   <tile/>
   <tile/>
   <tile/>
   <tile/>
   <tile/>
   <tile/>
   <tile/>
   <tile/>
   <tile/>
   <tile gid="49"/>
   <tile/>
   <tile gid="49"/>
   <tile/>
   <tile/>
   <tile/>
   <tile/>
   <tile/>
   <tile/>
   <tile/>
   <tile/>
   <tile/>
   <tile/>
   <tile/>
   <tile/>
   <tile/>
   <tile/>
   <tile/>
   <tile/>
   <tile/>
   <tile/>
   <tile/>
   <tile/>
   <tile/>
   <tile/>
   <tile/>
   <tile/>
   <tile/>
   <tile gid="49"/>
   <tile/>
   <tile gid="49"/>
   <tile/>
   <tile/>
   <tile/>
   <tile/>
   <tile/>
   <tile/>
   <tile/>
   <tile/>
   <tile/>
   <tile/>
   <tile/>
   <tile/>
   <tile/>
   <tile/>
   <tile/>
   <tile/>
   <tile/>
   <tile/>
   <tile/>
   <tile/>
   <tile/>
   <tile/>
   <tile gid="49"/>
   <tile/>
   <tile/>
   <tile/>
   <tile/>
   <tile gid="49"/>
   <tile/>
   <tile/>
   <tile/>
   <tile/>
   <tile/>
   <tile/>
   <tile/>
   <tile/>
   <tile/>
   <tile/>
   <tile/>
   <tile/>
   <tile/>
   <tile/>
   <tile/>
   <tile/>
   <tile/>
   <tile/>
   <tile/>
   <tile/>
   <tile/>
   <tile/>
   <tile gid="49"/>
   <tile/>
   <tile gid="49"/>
   <tile/>
   <tile/>
   <tile/>
   <tile/>
   <tile/>
   <tile/>
   <tile/>
   <tile/>
   <tile/>
   <tile/>
   <tile/>
   <tile/>
   <tile/>
   <tile/>
   <tile/>
   <tile/>
   <tile/>
   <tile/>
   <tile/>
   <tile/>
   <tile/>
   <tile/>
   <tile/>
   <tile/>
   <tile/>
   <tile/>
   <tile/>
   <tile/>
   <tile/>
   <tile/>
   <tile/>
   <tile/>
   <tile/>
   <tile/>
   <tile/>
   <tile/>
   <tile/>
   <tile/>
   <tile gid="49"/>
   <tile/>
   <tile gid="49"/>
   <tile/>
   <tile/>
   <tile/>
   <tile/>
   <tile/>
   <tile/>
   <tile/>
   <tile/>
   <tile/>
   <tile/>
   <tile/>
   <tile/>
   <tile/>
   <tile/>
   <tile/>
   <tile/>
   <tile/>
   <tile/>
   <tile/>
   <tile/>
   <tile/>
   <tile/>
   <tile/>
   <tile/>
   <tile/>
   <tile gid="49"/>
   <tile/>
   <tile gid="49"/>
   <tile/>
   <tile/>
   <tile/>
   <tile/>
   <tile/>
   <tile/>
   <tile/>
   <tile/>
   <tile/>
   <tile/>
   <tile/>
   <tile/>
   <tile/>
   <tile/>
   <tile/>
   <tile/>
   <tile/>
   <tile/>
   <tile/>
   <tile/>
   <tile/>
   <tile/>
   <tile/>
   <tile/>
   <tile/>
   <tile gid="49"/>
   <tile/>
   <tile gid="49"/>
   <tile/>
   <tile/>
   <tile/>
   <tile/>
   <tile/>
   <tile/>
   <tile/>
   <tile/>
   <tile/>
   <tile/>
   <tile/>
   <tile/>
   <tile/>
   <tile/>
   <tile/>
   <tile/>
   <tile/>
   <tile/>
   <tile/>
   <tile/>
   <tile/>
   <tile/>
   <tile gid="49"/>
   <tile/>
   <tile/>
   <tile/>
   <tile/>
   <tile gid="49"/>
   <tile/>
   <tile/>
   <tile/>
   <tile/>
   <tile/>
   <tile/>
   <tile/>
   <tile/>
   <tile/>
   <tile/>
   <tile/>
   <tile/>
   <tile/>
   <tile/>
   <tile/>
   <tile/>
   <tile/>
   <tile/>
   <tile/>
   <tile/>
   <tile/>
   <tile/>
   <tile gid="49"/>
   <tile/>
   <tile gid="49"/>
   <tile/>
   <tile/>
   <tile/>
   <tile/>
   <tile/>
   <tile/>
   <tile/>
   <tile/>
   <tile/>
   <tile/>
   <tile/>
   <tile/>
   <tile/>
   <tile/>
   <tile/>
   <tile/>
   <tile/>
   <tile/>
   <tile/>
   <tile/>
   <tile/>
   <tile/>
   <tile/>
   <tile/>
   <tile/>
   <tile/>
   <tile/>
   <tile/>
   <tile/>
   <tile/>
   <tile/>
   <tile/>
   <tile/>
   <tile/>
   <tile/>
   <tile/>
   <tile/>
   <tile/>
   <tile gid="49"/>
   <tile/>
   <tile gid="49"/>
   <tile/>
   <tile/>
   <tile/>
   <tile/>
   <tile/>
   <tile/>
   <tile/>
   <tile/>
   <tile/>
   <tile/>
   <tile/>
   <tile/>
   <tile/>
   <tile/>
   <tile/>
   <tile/>
   <tile/>
   <tile/>
   <tile/>
   <tile/>
   <tile/>
   <tile/>
   <tile/>
   <tile/>
   <tile/>
   <tile gid="49"/>
   <tile/>
   <tile gid="49"/>
   <tile/>
   <tile/>
   <tile/>
   <tile/>
   <tile/>
   <tile/>
   <tile/>
   <tile/>
   <tile/>
   <tile/>
   <tile/>
   <tile/>
   <tile/>
   <tile/>
   <tile/>
   <tile/>
   <tile/>
   <tile/>
   <tile/>
   <tile/>
   <tile/>
   <tile/>
   <tile/>
   <tile/>
   <tile/>
   <tile gid="49"/>
   <tile/>
   <tile gid="49"/>
   <tile/>
   <tile/>
   <tile/>
   <tile/>
   <tile/>
   <tile/>
   <tile/>
   <tile/>
   <tile/>
   <tile/>
   <tile/>
   <tile/>
   <tile/>
   <tile/>
   <tile/>
   <tile/>
   <tile/>
   <tile/>
   <tile/>
   <tile/>
   <tile/>
   <tile/>
   <tile gid="49"/>
   <tile/>
   <tile/>
   <tile/>
   <tile/>
   <tile gid="49"/>
   <tile/>
   <tile/>
   <tile/>
   <tile/>
   <tile/>
   <tile/>
   <tile/>
   <tile/>
   <tile/>
   <tile/>
   <tile/>
   <tile/>
   <tile/>
   <tile/>
   <tile/>
   <tile/>
   <tile/>
   <tile/>
   <tile/>
   <tile/>
   <tile/>
   <tile/>
   <tile gid="49"/>
   <tile/>
   <tile gid="49"/>
   <tile/>
   <tile/>
   <tile/>
   <tile/>
   <tile/>
   <tile/>
   <tile/>
   <tile/>
   <tile/>
   <tile/>
   <tile/>
   <tile/>
   <tile/>
   <tile/>
   <tile/>
   <tile/>
   <tile/>
   <tile/>
   <tile/>
   <tile/>
   <tile/>
   <tile/>
   <tile/>
   <tile/>
   <tile/>
   <tile/>
   <tile/>
   <tile/>
   <tile/>
   <tile/>
   <tile/>
   <tile/>
   <tile/>
   <tile/>
   <tile/>
   <tile/>
   <tile/>
   <tile/>
   <tile gid="49"/>
   <tile/>
   <tile gid="49"/>
   <tile/>
   <tile/>
   <tile/>
   <tile/>
   <tile/>
   <tile/>
   <tile/>
   <tile/>
   <tile/>
   <tile/>
   <tile/>
   <tile/>
   <tile/>
   <tile/>
   <tile/>
   <tile/>
   <tile/>
   <tile/>
   <tile/>
   <tile/>
   <tile/>
   <tile/>
   <tile/>
   <tile/>
   <tile/>
   <tile gid="49"/>
   <tile/>
   <tile gid="49"/>
   <tile/>
   <tile/>
   <tile/>
   <tile/>
   <tile/>
   <tile/>
   <tile/>
   <tile/>
   <tile/>
   <tile/>
   <tile/>
   <tile/>
   <tile/>
   <tile/>
   <tile/>
   <tile/>
   <tile/>
   <tile/>
   <tile/>
   <tile/>
   <tile/>
   <tile/>
   <tile/>
   <tile/>
   <tile/>
   <tile gid="49"/>
   <tile/>
   <tile gid="49"/>
   <tile/>
   <tile/>
   <tile/>
   <tile/>
   <tile/>
   <tile/>
   <tile/>
   <tile/>
   <tile/>
   <tile/>
   <tile/>
   <tile/>
   <tile/>
   <tile/>
   <tile/>
   <tile/>
   <tile/>
   <tile/>
   <tile/>
   <tile/>
   <tile/>
   <tile/>
   <tile gid="49"/>
   <tile/>
   <tile/>
   <tile/>
   <tile/>
   <tile gid="49"/>
   <tile/>
   <tile/>
   <tile/>
   <tile/>
   <tile/>
   <tile/>
   <tile/>
   <tile/>
   <tile/>
   <tile/>
   <tile/>
   <tile/>
   <tile/>
   <tile/>
   <tile/>
   <tile/>
   <tile/>
   <tile/>
   <tile/>
   <tile/>
   <tile/>
   <tile/>
   <tile gid="49"/>
   <tile/>
   <tile gid="49"/>
   <tile/>
   <tile/>
   <tile/>
   <tile/>
   <tile/>
   <tile/>
   <tile/>
   <tile/>
   <tile/>
   <tile/>
   <tile/>
   <tile/>
   <tile/>
   <tile/>
   <tile/>
   <tile/>
   <tile/>
   <tile/>
   <tile/>
   <tile/>
   <tile/>
   <tile/>
   <tile/>
   <tile/>
   <tile/>
   <tile/>
   <tile/>
   <tile/>
   <tile/>
   <tile/>
   <tile/>
   <tile/>
   <tile/>
   <tile/>
   <tile/>
   <tile/>
   <tile/>
   <tile/>
   <tile gid="49"/>
   <tile/>
   <tile gid="49"/>
   <tile/>
   <tile/>
   <tile/>
   <tile/>
   <tile/>
   <tile/>
   <tile/>
   <tile/>
   <tile/>
   <tile/>
   <tile/>
   <tile/>
   <tile/>
   <tile/>
   <tile/>
   <tile/>
   <tile/>
   <tile/>
   <tile/>
   <tile/>
   <tile/>
   <tile/>
   <tile/>
   <tile/>
   <tile/>
   <tile gid="49"/>
   <tile/>
   <tile gid="49"/>
   <tile/>
   <tile/>
   <tile/>
   <tile/>
   <tile/>
   <tile/>
   <tile/>
   <tile/>
   <tile/>
   <tile/>
   <tile/>
   <tile/>
   <tile/>
   <tile/>
   <tile/>
   <tile/>
   <tile/>
   <tile/>
   <tile/>
   <tile/>
   <tile/>
   <tile/>
   <tile/>
   <tile/>
   <tile/>
   <tile gid="49"/>
   <tile/>
   <tile gid="49"/>
   <tile/>
   <tile/>
   <tile/>
   <tile/>
   <tile/>
   <tile/>
   <tile/>
   <tile/>
   <tile/>
   <tile/>
   <tile/>
   <tile/>
   <tile/>
   <tile/>
   <tile/>
   <tile/>
   <tile/>
   <tile/>
   <tile/>
   <tile/>
   <tile/>
   <tile/>
   <tile gid="49"/>
   <tile/>
   <tile/>
   <tile/>
   <tile/>
   <tile gid="49"/>
   <tile/>
   <tile/>
   <tile/>
   <tile/>
   <tile/>
   <tile/>
   <tile/>
   <tile/>
   <tile/>
   <tile/>
   <tile/>
   <tile/>
   <tile/>
   <tile/>
   <tile/>
   <tile/>
   <tile/>
   <tile/>
   <tile/>
   <tile/>
   <tile/>
   <tile/>
   <tile gid="49"/>
   <tile/>
   <tile gid="49"/>
   <tile/>
   <tile/>
   <tile/>
   <tile/>
   <tile/>
   <tile/>
   <tile/>
   <tile/>
   <tile/>
   <tile/>
   <tile/>
   <tile/>
   <tile/>
   <tile/>
   <tile/>
   <tile/>
   <tile/>
   <tile/>
   <tile/>
   <tile/>
   <tile/>
   <tile/>
   <tile/>
   <tile/>
   <tile/>
   <tile/>
   <tile/>
   <tile/>
   <tile/>
   <tile/>
   <tile/>
   <tile/>
   <tile/>
   <tile/>
   <tile/>
   <tile/>
   <tile/>
   <tile/>
   <tile gid="49"/>
   <tile/>
   <tile gid="49"/>
   <tile/>
   <tile/>
   <tile/>
   <tile/>
   <tile/>
   <tile/>
   <tile/>
   <tile/>
   <tile/>
   <tile/>
   <tile/>
   <tile/>
   <tile/>
   <tile/>
   <tile/>
   <tile/>
   <tile/>
   <tile/>
   <tile/>
   <tile/>
   <tile/>
   <tile/>
   <tile/>
   <tile/>
   <tile/>
   <tile gid="49"/>
   <tile/>
   <tile gid="49"/>
   <tile/>
   <tile/>
   <tile/>
   <tile/>
   <tile/>
   <tile/>
   <tile/>
   <tile/>
   <tile/>
   <tile/>
   <tile/>
   <tile/>
   <tile/>
   <tile/>
   <tile/>
   <tile/>
   <tile/>
   <tile/>
   <tile/>
   <tile/>
   <tile/>
   <tile/>
   <tile/>
   <tile/>
   <tile/>
   <tile gid="49"/>
   <tile/>
   <tile gid="49"/>
   <tile/>
   <tile/>
   <tile/>
   <tile/>
   <tile/>
   <tile/>
   <tile/>
   <tile/>
   <tile/>
   <tile/>
   <tile/>
   <tile/>
   <tile/>
   <tile/>
   <tile/>
   <tile/>
   <tile/>
   <tile/>
   <tile/>
   <tile/>
   <tile/>
   <tile/>
   <tile gid="49"/>
   <tile/>
   <tile/>
   <tile/>
   <tile/>
   <tile gid="49"/>
   <tile/>
   <tile/>
   <tile/>
   <tile/>
   <tile/>
   <tile/>
   <tile/>
   <tile/>
   <tile/>
   <tile/>
   <tile/>
   <tile/>
   <tile/>
   <tile/>
   <tile/>
   <tile/>
   <tile/>
   <tile/>
   <tile/>
   <tile/>
   <tile/>
   <tile/>
   <tile gid="49"/>
   <tile/>
   <tile gid="49"/>
   <tile/>
   <tile/>
   <tile/>
   <tile/>
   <tile/>
   <tile/>
   <tile/>
   <tile/>
   <tile/>
   <tile/>
   <tile/>
   <tile/>
   <tile/>
   <tile/>
   <tile/>
   <tile/>
   <tile/>
   <tile/>
   <tile/>
   <tile/>
   <tile/>
   <tile/>
   <tile/>
   <tile/>
   <tile/>
   <tile/>
   <tile/>
   <tile/>
   <tile/>
   <tile/>
   <tile/>
   <tile/>
   <tile/>
   <tile/>
   <tile/>
   <tile/>
   <tile/>
   <tile/>
   <tile gid="49"/>
   <tile/>
   <tile gid="49"/>
   <tile/>
   <tile/>
   <tile/>
   <tile/>
   <tile/>
   <tile/>
   <tile/>
   <tile/>
   <tile/>
   <tile/>
   <tile/>
   <tile/>
   <tile/>
   <tile/>
   <tile/>
   <tile/>
   <tile/>
   <tile/>
   <tile/>
   <tile/>
   <tile/>
   <tile/>
   <tile/>
   <tile/>
   <tile/>
   <tile gid="49"/>
   <tile gid="49"/>
   <tile gid="49"/>
   <tile/>
   <tile/>
   <tile/>
   <tile/>
   <tile/>
   <tile/>
   <tile/>
   <tile/>
   <tile/>
   <tile/>
   <tile/>
   <tile/>
   <tile/>
   <tile/>
   <tile/>
   <tile/>
   <tile/>
   <tile/>
   <tile/>
   <tile/>
   <tile/>
   <tile/>
   <tile/>
   <tile/>
   <tile/>
   <tile gid="49"/>
   <tile/>
   <tile gid="49"/>
   <tile/>
   <tile/>
   <tile/>
   <tile/>
   <tile/>
   <tile/>
   <tile/>
   <tile/>
   <tile/>
   <tile/>
   <tile/>
   <tile/>
   <tile/>
   <tile/>
   <tile/>
   <tile/>
   <tile/>
   <tile/>
   <tile/>
   <tile/>
   <tile/>
   <tile/>
   <tile gid="49"/>
   <tile/>
   <tile/>
   <tile/>
   <tile/>
   <tile gid="49"/>
   <tile/>
   <tile/>
   <tile/>
   <tile/>
   <tile/>
   <tile/>
   <tile/>
   <tile/>
   <tile/>
   <tile/>
   <tile/>
   <tile/>
   <tile/>
   <tile/>
   <tile/>
   <tile/>
   <tile/>
   <tile/>
   <tile/>
   <tile/>
   <tile/>
   <tile/>
   <tile gid="49"/>
   <tile/>
   <tile gid="49"/>
   <tile/>
   <tile/>
   <tile/>
   <tile/>
   <tile/>
   <tile/>
   <tile/>
   <tile/>
   <tile/>
   <tile/>
   <tile/>
   <tile/>
   <tile/>
   <tile/>
   <tile/>
   <tile/>
   <tile/>
   <tile/>
   <tile/>
   <tile/>
   <tile/>
   <tile/>
   <tile/>
   <tile/>
   <tile/>
   <tile/>
   <tile/>
   <tile/>
   <tile/>
   <tile/>
   <tile/>
   <tile/>
   <tile/>
   <tile/>
   <tile/>
   <tile/>
   <tile/>
   <tile/>
   <tile gid="49"/>
   <tile gid="49"/>
   <tile gid="49"/>
   <tile/>
   <tile/>
   <tile/>
   <tile/>
   <tile/>
   <tile/>
   <tile/>
   <tile/>
   <tile/>
   <tile/>
   <tile/>
   <tile/>
   <tile/>
   <tile/>
   <tile/>
   <tile/>
   <tile/>
   <tile/>
   <tile/>
   <tile/>
   <tile/>
   <tile/>
   <tile/>
   <tile/>
   <tile/>
   <tile/>
   <tile/>
   <tile/>
   <tile/>
   <tile/>
   <tile/>
   <tile/>
   <tile/>
   <tile/>
   <tile/>
   <tile/>
   <tile/>
   <tile/>
   <tile/>
   <tile/>
   <tile/>
   <tile/>
   <tile/>
   <tile/>
   <tile/>
   <tile/>
   <tile/>
   <tile/>
   <tile/>
   <tile/>
   <tile/>
   <tile/>
   <tile/>
   <tile gid="49"/>
   <tile/>
   <tile gid="49"/>
   <tile/>
   <tile/>
   <tile/>
   <tile/>
   <tile/>
   <tile/>
   <tile/>
   <tile/>
   <tile/>
   <tile/>
   <tile/>
   <tile/>
   <tile/>
   <tile/>
   <tile/>
   <tile/>
   <tile/>
   <tile/>
   <tile/>
   <tile/>
   <tile/>
   <tile/>
   <tile gid="49"/>
   <tile/>
   <tile/>
   <tile/>
   <tile/>
   <tile gid="49"/>
   <tile/>
   <tile/>
   <tile/>
   <tile/>
   <tile/>
   <tile/>
   <tile/>
   <tile/>
   <tile/>
   <tile/>
   <tile/>
   <tile/>
   <tile/>
   <tile/>
   <tile/>
   <tile/>
   <tile/>
   <tile/>
   <tile/>
   <tile/>
   <tile/>
   <tile/>
   <tile gid="49"/>
   <tile/>
   <tile gid="49"/>
   <tile/>
   <tile/>
   <tile/>
   <tile/>
   <tile/>
   <tile/>
   <tile/>
   <tile/>
   <tile/>
   <tile/>
   <tile/>
   <tile/>
   <tile/>
   <tile/>
   <tile/>
   <tile/>
   <tile/>
   <tile/>
   <tile/>
   <tile/>
   <tile/>
   <tile/>
   <tile/>
   <tile/>
   <tile/>
   <tile/>
   <tile/>
   <tile/>
   <tile/>
   <tile/>
   <tile/>
   <tile/>
   <tile/>
   <tile/>
   <tile/>
   <tile/>
   <tile/>
   <tile/>
   <tile/>
   <tile/>
   <tile/>
   <tile/>
   <tile/>
   <tile/>
   <tile/>
   <tile/>
   <tile/>
   <tile/>
   <tile/>
   <tile/>
   <tile/>
   <tile/>
   <tile/>
   <tile/>
   <tile/>
   <tile/>
   <tile/>
   <tile/>
   <tile/>
   <tile/>
   <tile/>
   <tile/>
   <tile/>
   <tile/>
   <tile/>
   <tile/>
   <tile/>
   <tile/>
   <tile/>
   <tile/>
   <tile/>
   <tile/>
   <tile/>
   <tile/>
   <tile/>
   <tile/>
   <tile/>
   <tile/>
   <tile/>
   <tile/>
   <tile/>
   <tile/>
   <tile/>
   <tile/>
   <tile/>
   <tile/>
   <tile/>
   <tile/>
   <tile/>
   <tile/>
   <tile/>
   <tile/>
   <tile/>
   <tile/>
   <tile gid="49"/>
   <tile/>
   <tile gid="49"/>
   <tile/>
   <tile/>
   <tile/>
   <tile/>
   <tile/>
   <tile/>
   <tile/>
   <tile/>
   <tile/>
   <tile/>
   <tile/>
   <tile/>
   <tile/>
   <tile/>
   <tile/>
   <tile/>
   <tile/>
   <tile/>
   <tile/>
   <tile/>
   <tile/>
   <tile/>
   <tile gid="49"/>
   <tile/>
   <tile/>
   <tile/>
   <tile/>
   <tile gid="49"/>
   <tile/>
   <tile/>
   <tile/>
   <tile/>
   <tile/>
   <tile/>
   <tile/>
   <tile/>
   <tile/>
   <tile/>
   <tile/>
   <tile/>
   <tile/>
   <tile/>
   <tile/>
   <tile/>
   <tile/>
   <tile/>
   <tile/>
   <tile/>
   <tile/>
   <tile/>
   <tile gid="49"/>
   <tile/>
   <tile gid="49"/>
   <tile/>
   <tile/>
   <tile/>
   <tile/>
   <tile/>
   <tile/>
   <tile/>
   <tile/>
   <tile/>
   <tile/>
   <tile/>
   <tile/>
   <tile/>
   <tile/>
   <tile/>
   <tile/>
   <tile/>
   <tile/>
   <tile/>
   <tile/>
   <tile/>
   <tile/>
   <tile/>
   <tile/>
   <tile/>
   <tile/>
   <tile/>
   <tile/>
   <tile/>
   <tile/>
   <tile/>
   <tile/>
   <tile/>
   <tile/>
   <tile/>
   <tile/>
   <tile/>
   <tile/>
   <tile/>
   <tile/>
   <tile/>
   <tile/>
   <tile/>
   <tile/>
   <tile/>
   <tile/>
   <tile/>
   <tile/>
   <tile/>
   <tile/>
   <tile/>
   <tile/>
   <tile/>
   <tile/>
   <tile/>
   <tile/>
   <tile/>
   <tile/>
   <tile/>
   <tile/>
   <tile/>
   <tile/>
   <tile/>
   <tile/>
   <tile/>
   <tile/>
   <tile/>
   <tile/>
   <tile/>
   <tile/>
   <tile/>
   <tile/>
   <tile/>
   <tile/>
   <tile/>
   <tile/>
   <tile/>
   <tile/>
   <tile/>
   <tile/>
   <tile/>
   <tile/>
   <tile/>
   <tile/>
   <tile/>
   <tile/>
   <tile/>
   <tile/>
   <tile/>
   <tile/>
   <tile/>
   <tile/>
   <tile/>
   <tile/>
   <tile gid="49"/>
   <tile/>
   <tile gid="49"/>
   <tile/>
   <tile/>
   <tile/>
   <tile/>
   <tile/>
   <tile/>
   <tile/>
   <tile/>
   <tile/>
   <tile/>
   <tile/>
   <tile/>
   <tile/>
   <tile/>
   <tile/>
   <tile/>
   <tile/>
   <tile/>
   <tile/>
   <tile/>
   <tile/>
   <tile/>
   <tile gid="49"/>
   <tile/>
   <tile/>
   <tile/>
   <tile/>
   <tile gid="49"/>
   <tile/>
   <tile/>
   <tile/>
   <tile/>
   <tile/>
   <tile/>
   <tile/>
   <tile/>
   <tile/>
   <tile/>
   <tile/>
   <tile/>
   <tile/>
   <tile/>
   <tile/>
   <tile/>
   <tile/>
   <tile/>
   <tile/>
   <tile/>
   <tile/>
   <tile/>
   <tile gid="49"/>
   <tile/>
   <tile gid="49"/>
   <tile/>
   <tile/>
   <tile/>
   <tile/>
   <tile/>
   <tile/>
   <tile/>
   <tile/>
   <tile/>
   <tile/>
   <tile/>
   <tile/>
   <tile/>
   <tile/>
   <tile/>
   <tile/>
   <tile/>
   <tile/>
   <tile/>
   <tile/>
   <tile/>
   <tile/>
   <tile/>
   <tile/>
   <tile/>
   <tile/>
   <tile/>
   <tile/>
   <tile/>
   <tile/>
   <tile/>
   <tile/>
   <tile/>
   <tile/>
   <tile/>
   <tile/>
   <tile/>
   <tile/>
   <tile/>
   <tile/>
   <tile/>
   <tile/>
   <tile/>
   <tile/>
   <tile/>
   <tile/>
   <tile/>
   <tile/>
   <tile/>
   <tile/>
   <tile/>
   <tile/>
   <tile/>
   <tile/>
   <tile/>
   <tile/>
   <tile/>
   <tile/>
   <tile/>
   <tile/>
   <tile/>
   <tile/>
   <tile/>
   <tile/>
   <tile/>
   <tile/>
   <tile/>
   <tile/>
   <tile/>
   <tile/>
   <tile/>
   <tile/>
   <tile/>
   <tile/>
   <tile/>
   <tile/>
   <tile/>
   <tile/>
   <tile/>
   <tile/>
   <tile/>
   <tile/>
   <tile/>
   <tile/>
   <tile/>
   <tile/>
   <tile/>
   <tile/>
   <tile/>
   <tile/>
   <tile/>
   <tile/>
   <tile/>
   <tile/>
   <tile gid="49"/>
   <tile/>
   <tile gid="49"/>
   <tile/>
   <tile/>
   <tile/>
   <tile/>
   <tile/>
   <tile/>
   <tile/>
   <tile/>
   <tile/>
   <tile/>
   <tile/>
   <tile/>
   <tile/>
   <tile/>
   <tile/>
   <tile/>
   <tile/>
   <tile/>
   <tile/>
   <tile/>
   <tile/>
   <tile/>
   <tile gid="49"/>
   <tile/>
   <tile/>
   <tile/>
   <tile/>
   <tile gid="49"/>
   <tile/>
   <tile/>
   <tile/>
   <tile/>
   <tile/>
   <tile/>
   <tile/>
   <tile/>
   <tile/>
   <tile/>
   <tile/>
   <tile/>
   <tile/>
   <tile/>
   <tile/>
   <tile/>
   <tile/>
   <tile/>
   <tile/>
   <tile/>
   <tile/>
   <tile/>
   <tile gid="49"/>
   <tile/>
   <tile gid="49"/>
   <tile/>
   <tile/>
   <tile/>
   <tile/>
   <tile/>
   <tile/>
   <tile/>
   <tile/>
   <tile/>
   <tile/>
   <tile/>
   <tile/>
   <tile/>
   <tile/>
   <tile/>
   <tile/>
   <tile/>
   <tile/>
   <tile/>
   <tile/>
   <tile/>
   <tile/>
   <tile/>
   <tile/>
   <tile/>
   <tile/>
   <tile/>
   <tile/>
   <tile/>
   <tile/>
   <tile/>
   <tile/>
   <tile/>
   <tile/>
   <tile/>
   <tile/>
   <tile/>
   <tile/>
   <tile gid="49"/>
   <tile gid="49"/>
   <tile gid="49"/>
   <tile/>
   <tile/>
   <tile/>
   <tile/>
   <tile/>
   <tile/>
   <tile/>
   <tile/>
   <tile/>
   <tile/>
   <tile/>
   <tile/>
   <tile/>
   <tile/>
   <tile/>
   <tile/>
   <tile/>
   <tile/>
   <tile/>
   <tile/>
   <tile/>
   <tile/>
   <tile/>
   <tile/>
   <tile/>
   <tile gid="49"/>
   <tile gid="49"/>
   <tile gid="49"/>
   <tile/>
   <tile/>
   <tile/>
   <tile/>
   <tile/>
   <tile/>
   <tile/>
   <tile/>
   <tile/>
   <tile/>
   <tile/>
   <tile/>
   <tile/>
   <tile/>
   <tile/>
   <tile/>
   <tile/>
   <tile/>
   <tile/>
   <tile/>
   <tile/>
   <tile/>
   <tile/>
   <tile/>
   <tile/>
   <tile gid="49"/>
   <tile gid="49"/>
   <tile gid="49"/>
   <tile/>
   <tile/>
   <tile/>
   <tile/>
   <tile/>
   <tile/>
   <tile/>
   <tile/>
   <tile/>
   <tile/>
   <tile/>
   <tile/>
   <tile/>
   <tile/>
   <tile/>
   <tile/>
   <tile/>
   <tile/>
   <tile/>
   <tile/>
   <tile/>
   <tile/>
   <tile gid="49"/>
   <tile/>
   <tile/>
   <tile/>
   <tile/>
   <tile gid="49"/>
   <tile/>
   <tile/>
   <tile/>
   <tile/>
   <tile/>
   <tile/>
   <tile/>
   <tile/>
   <tile/>
   <tile/>
   <tile/>
   <tile/>
   <tile/>
   <tile/>
   <tile/>
   <tile/>
   <tile/>
   <tile/>
   <tile/>
   <tile/>
   <tile/>
   <tile/>
   <tile gid="49"/>
   <tile/>
   <tile gid="49"/>
   <tile/>
   <tile/>
   <tile/>
   <tile/>
   <tile/>
   <tile/>
   <tile/>
   <tile/>
   <tile/>
   <tile/>
   <tile/>
   <tile/>
   <tile/>
   <tile/>
   <tile/>
   <tile/>
   <tile/>
   <tile/>
   <tile/>
   <tile/>
   <tile/>
   <tile/>
   <tile/>
   <tile/>
   <tile/>
   <tile/>
   <tile/>
   <tile/>
   <tile/>
   <tile/>
   <tile/>
   <tile/>
   <tile/>
   <tile/>
   <tile/>
   <tile/>
   <tile/>
   <tile/>
   <tile gid="49"/>
   <tile/>
   <tile gid="49"/>
   <tile/>
   <tile/>
   <tile/>
   <tile/>
   <tile/>
   <tile/>
   <tile/>
   <tile/>
   <tile/>
   <tile/>
   <tile/>
   <tile/>
   <tile/>
   <tile/>
   <tile/>
   <tile/>
   <tile/>
   <tile/>
   <tile/>
   <tile/>
   <tile/>
   <tile/>
   <tile/>
   <tile/>
   <tile/>
   <tile gid="49"/>
   <tile/>
   <tile gid="49"/>
   <tile/>
   <tile/>
   <tile/>
   <tile/>
   <tile/>
   <tile/>
   <tile/>
   <tile/>
   <tile/>
   <tile/>
   <tile/>
   <tile/>
   <tile/>
   <tile/>
   <tile/>
   <tile/>
   <tile/>
   <tile/>
   <tile/>
   <tile/>
   <tile/>
   <tile/>
   <tile/>
   <tile/>
   <tile/>
   <tile/>
   <tile/>
   <tile/>
   <tile/>
   <tile/>
   <tile/>
   <tile/>
   <tile/>
   <tile/>
   <tile/>
   <tile/>
   <tile/>
   <tile/>
   <tile/>
   <tile/>
   <tile/>
   <tile/>
   <tile/>
   <tile/>
   <tile/>
   <tile/>
   <tile/>
   <tile/>
   <tile/>
   <tile/>
   <tile gid="49"/>
   <tile/>
   <tile/>
   <tile/>
   <tile/>
   <tile gid="49"/>
   <tile/>
   <tile/>
   <tile/>
   <tile/>
   <tile/>
   <tile/>
   <tile/>
   <tile/>
   <tile/>
   <tile/>
   <tile/>
   <tile/>
   <tile/>
   <tile/>
   <tile/>
   <tile/>
   <tile/>
   <tile/>
   <tile/>
   <tile/>
   <tile/>
   <tile/>
   <tile gid="49"/>
   <tile/>
   <tile gid="49"/>
   <tile/>
   <tile/>
   <tile/>
   <tile/>
   <tile/>
   <tile/>
   <tile/>
   <tile/>
   <tile/>
   <tile/>
   <tile/>
   <tile/>
   <tile/>
   <tile/>
   <tile/>
   <tile/>
   <tile/>
   <tile/>
   <tile/>
   <tile/>
   <tile/>
   <tile/>
   <tile/>
   <tile/>
   <tile/>
   <tile/>
   <tile/>
   <tile/>
   <tile/>
   <tile/>
   <tile/>
   <tile/>
   <tile/>
   <tile/>
   <tile/>
   <tile/>
   <tile/>
   <tile/>
   <tile gid="49"/>
   <tile/>
   <tile gid="49"/>
   <tile/>
   <tile/>
   <tile/>
   <tile/>
   <tile/>
   <tile/>
   <tile/>
   <tile/>
   <tile/>
   <tile/>
   <tile/>
   <tile/>
   <tile/>
   <tile/>
   <tile/>
   <tile/>
   <tile/>
   <tile/>
   <tile/>
   <tile/>
   <tile/>
   <tile/>
   <tile/>
   <tile/>
   <tile/>
   <tile gid="49"/>
   <tile/>
   <tile gid="49"/>
   <tile/>
   <tile/>
   <tile/>
   <tile/>
   <tile/>
   <tile/>
   <tile/>
   <tile/>
   <tile/>
   <tile/>
   <tile/>
   <tile/>
   <tile/>
   <tile/>
   <tile/>
   <tile/>
   <tile/>
   <tile/>
   <tile/>
   <tile/>
   <tile/>
   <tile/>
   <tile/>
   <tile/>
   <tile/>
   <tile/>
   <tile/>
   <tile/>
   <tile/>
   <tile/>
   <tile/>
   <tile/>
   <tile/>
   <tile/>
   <tile/>
   <tile/>
   <tile/>
   <tile/>
   <tile/>
   <tile/>
   <tile/>
   <tile/>
   <tile/>
   <tile/>
   <tile/>
   <tile/>
   <tile/>
   <tile/>
   <tile/>
   <tile/>
   <tile gid="49"/>
   <tile/>
   <tile/>
   <tile/>
   <tile/>
   <tile gid="49"/>
   <tile/>
   <tile/>
   <tile/>
   <tile/>
   <tile/>
   <tile/>
   <tile/>
   <tile/>
   <tile/>
   <tile/>
   <tile/>
   <tile/>
   <tile/>
   <tile/>
   <tile/>
   <tile/>
   <tile/>
   <tile/>
   <tile/>
   <tile/>
   <tile/>
   <tile/>
   <tile gid="49"/>
   <tile/>
   <tile gid="49"/>
   <tile/>
   <tile/>
   <tile/>
   <tile/>
   <tile/>
   <tile/>
   <tile/>
   <tile/>
   <tile/>
   <tile/>
   <tile/>
   <tile/>
   <tile/>
   <tile/>
   <tile/>
   <tile/>
   <tile/>
   <tile/>
   <tile/>
   <tile/>
   <tile/>
   <tile/>
   <tile/>
   <tile/>
   <tile/>
   <tile/>
   <tile/>
   <tile/>
   <tile/>
   <tile/>
   <tile/>
   <tile/>
   <tile/>
   <tile/>
   <tile/>
   <tile/>
   <tile/>
   <tile/>
   <tile gid="49"/>
   <tile/>
   <tile gid="49"/>
   <tile/>
   <tile/>
   <tile/>
   <tile/>
   <tile/>
   <tile/>
   <tile/>
   <tile/>
   <tile/>
   <tile/>
   <tile/>
   <tile/>
   <tile/>
   <tile/>
   <tile/>
   <tile/>
   <tile/>
   <tile/>
   <tile/>
   <tile/>
   <tile/>
   <tile/>
   <tile/>
   <tile/>
   <tile/>
   <tile gid="49"/>
   <tile/>
   <tile gid="49"/>
   <tile/>
   <tile/>
   <tile/>
   <tile/>
   <tile/>
   <tile/>
   <tile/>
   <tile/>
   <tile/>
   <tile/>
   <tile/>
   <tile/>
   <tile/>
   <tile/>
   <tile/>
   <tile/>
   <tile/>
   <tile/>
   <tile/>
   <tile/>
   <tile/>
   <tile/>
   <tile/>
   <tile/>
   <tile/>
   <tile/>
   <tile/>
   <tile/>
   <tile/>
   <tile/>
   <tile/>
   <tile/>
   <tile/>
   <tile/>
   <tile/>
   <tile/>
   <tile/>
   <tile/>
   <tile/>
   <tile/>
   <tile/>
   <tile/>
   <tile/>
   <tile/>
   <tile/>
   <tile/>
   <tile/>
   <tile/>
   <tile/>
   <tile/>
   <tile gid="49"/>
   <tile/>
   <tile/>
   <tile/>
   <tile/>
   <tile gid="49"/>
   <tile/>
   <tile/>
   <tile/>
   <tile/>
   <tile/>
   <tile/>
   <tile/>
   <tile/>
   <tile/>
   <tile/>
   <tile/>
   <tile/>
   <tile/>
   <tile/>
   <tile/>
   <tile/>
   <tile/>
   <tile/>
   <tile/>
   <tile/>
   <tile/>
   <tile/>
   <tile gid="49"/>
   <tile/>
   <tile gid="49"/>
   <tile/>
   <tile/>
   <tile/>
   <tile/>
   <tile/>
   <tile/>
   <tile/>
   <tile/>
   <tile/>
   <tile/>
   <tile/>
   <tile/>
   <tile/>
   <tile/>
   <tile/>
   <tile/>
   <tile/>
   <tile/>
   <tile/>
   <tile/>
   <tile/>
   <tile/>
   <tile/>
   <tile/>
   <tile/>
   <tile/>
   <tile/>
   <tile/>
   <tile/>
   <tile/>
   <tile/>
   <tile/>
   <tile/>
   <tile/>
   <tile/>
   <tile/>
   <tile/>
   <tile/>
   <tile gid="49"/>
   <tile/>
   <tile gid="49"/>
   <tile/>
   <tile/>
   <tile/>
   <tile/>
   <tile/>
   <tile/>
   <tile/>
   <tile/>
   <tile/>
   <tile/>
   <tile/>
   <tile/>
   <tile/>
   <tile/>
   <tile/>
   <tile/>
   <tile/>
   <tile/>
   <tile/>
   <tile/>
   <tile/>
   <tile/>
   <tile/>
   <tile/>
   <tile/>
   <tile gid="49"/>
   <tile/>
   <tile gid="49"/>
   <tile/>
   <tile/>
   <tile/>
   <tile/>
   <tile/>
   <tile/>
   <tile/>
   <tile/>
   <tile/>
   <tile/>
   <tile/>
   <tile/>
   <tile/>
   <tile/>
   <tile/>
   <tile/>
   <tile/>
   <tile/>
   <tile/>
   <tile/>
   <tile/>
   <tile/>
   <tile/>
   <tile/>
   <tile/>
   <tile gid="49"/>
   <tile gid="49"/>
   <tile gid="49"/>
   <tile/>
   <tile/>
   <tile/>
   <tile/>
   <tile/>
   <tile/>
   <tile/>
   <tile/>
   <tile/>
   <tile/>
   <tile/>
   <tile/>
   <tile/>
   <tile/>
   <tile/>
   <tile/>
   <tile/>
   <tile/>
   <tile/>
   <tile/>
   <tile/>
   <tile/>
   <tile gid="49"/>
   <tile/>
   <tile/>
   <tile/>
   <tile/>
   <tile gid="49"/>
   <tile/>
   <tile/>
   <tile/>
   <tile/>
   <tile/>
   <tile/>
   <tile/>
   <tile/>
   <tile/>
   <tile/>
   <tile/>
   <tile/>
   <tile/>
   <tile/>
   <tile/>
   <tile/>
   <tile/>
   <tile/>
   <tile/>
   <tile/>
   <tile/>
   <tile/>
   <tile gid="49"/>
   <tile/>
   <tile gid="49"/>
   <tile/>
   <tile/>
   <tile/>
   <tile/>
   <tile/>
   <tile/>
   <tile/>
   <tile/>
   <tile/>
   <tile/>
   <tile/>
   <tile/>
   <tile/>
   <tile/>
   <tile/>
   <tile/>
   <tile/>
   <tile/>
   <tile/>
   <tile/>
   <tile/>
   <tile/>
   <tile/>
   <tile/>
   <tile/>
   <tile/>
   <tile/>
   <tile/>
   <tile/>
   <tile/>
   <tile/>
   <tile/>
   <tile/>
   <tile/>
   <tile/>
   <tile/>
   <tile/>
   <tile/>
   <tile gid="49"/>
   <tile/>
   <tile gid="49"/>
   <tile/>
   <tile/>
   <tile/>
   <tile/>
   <tile/>
   <tile/>
   <tile/>
   <tile/>
   <tile/>
   <tile/>
   <tile/>
   <tile/>
   <tile/>
   <tile/>
   <tile/>
   <tile/>
   <tile/>
   <tile/>
   <tile/>
   <tile/>
   <tile/>
   <tile/>
   <tile/>
   <tile/>
   <tile/>
   <tile gid="49"/>
   <tile/>
   <tile gid="49"/>
   <tile/>
   <tile/>
   <tile/>
   <tile/>
   <tile/>
   <tile/>
   <tile/>
   <tile/>
   <tile/>
   <tile/>
   <tile/>
   <tile/>
   <tile/>
   <tile/>
   <tile/>
   <tile/>
   <tile/>
   <tile/>
   <tile/>
   <tile/>
   <tile/>
   <tile/>
   <tile/>
   <tile/>
   <tile/>
   <tile gid="49"/>
   <tile/>
   <tile gid="49"/>
   <tile/>
   <tile/>
   <tile/>
   <tile/>
   <tile/>
   <tile/>
   <tile/>
   <tile/>
   <tile/>
   <tile/>
   <tile/>
   <tile/>
   <tile/>
   <tile/>
   <tile/>
   <tile/>
   <tile/>
   <tile/>
   <tile/>
   <tile/>
   <tile/>
   <tile/>
   <tile gid="49"/>
   <tile/>
   <tile/>
   <tile/>
   <tile/>
   <tile gid="49"/>
   <tile/>
   <tile/>
   <tile/>
   <tile/>
   <tile/>
   <tile/>
   <tile/>
   <tile/>
   <tile/>
   <tile/>
   <tile/>
   <tile/>
   <tile/>
   <tile/>
   <tile/>
   <tile/>
   <tile/>
   <tile/>
   <tile/>
   <tile/>
   <tile/>
   <tile/>
   <tile gid="49"/>
   <tile/>
   <tile gid="49"/>
   <tile/>
   <tile/>
   <tile/>
   <tile/>
   <tile/>
   <tile/>
   <tile/>
   <tile/>
   <tile/>
   <tile/>
   <tile/>
   <tile/>
   <tile/>
   <tile/>
   <tile/>
   <tile/>
   <tile/>
   <tile/>
   <tile/>
   <tile/>
   <tile/>
   <tile/>
   <tile/>
   <tile/>
   <tile/>
   <tile/>
   <tile/>
   <tile/>
   <tile/>
   <tile/>
   <tile/>
   <tile/>
   <tile/>
   <tile/>
   <tile/>
   <tile/>
   <tile/>
   <tile/>
   <tile gid="49"/>
   <tile/>
   <tile gid="49"/>
   <tile/>
   <tile/>
   <tile/>
   <tile/>
   <tile/>
   <tile/>
   <tile/>
   <tile/>
   <tile/>
   <tile/>
   <tile/>
   <tile/>
   <tile/>
   <tile/>
   <tile/>
   <tile/>
   <tile/>
   <tile/>
   <tile/>
   <tile/>
   <tile/>
   <tile/>
   <tile/>
   <tile/>
   <tile/>
   <tile gid="49"/>
   <tile/>
   <tile gid="49"/>
   <tile/>
   <tile/>
   <tile/>
   <tile/>
   <tile/>
   <tile/>
   <tile/>
   <tile/>
   <tile/>
   <tile/>
   <tile/>
   <tile/>
   <tile/>
   <tile/>
   <tile/>
   <tile/>
   <tile/>
   <tile/>
   <tile/>
   <tile/>
   <tile/>
   <tile/>
   <tile/>
   <tile/>
   <tile/>
   <tile gid="49"/>
   <tile/>
   <tile gid="49"/>
   <tile/>
   <tile/>
   <tile/>
   <tile/>
   <tile/>
   <tile/>
   <tile/>
   <tile/>
   <tile/>
   <tile/>
   <tile/>
   <tile/>
   <tile/>
   <tile/>
   <tile/>
   <tile/>
   <tile/>
   <tile/>
   <tile/>
   <tile/>
   <tile/>
   <tile/>
   <tile gid="49"/>
   <tile/>
   <tile/>
   <tile/>
   <tile/>
   <tile gid="49"/>
   <tile/>
   <tile/>
   <tile/>
   <tile/>
   <tile/>
   <tile/>
   <tile/>
   <tile/>
   <tile/>
   <tile/>
   <tile/>
   <tile/>
   <tile/>
   <tile/>
   <tile/>
   <tile/>
   <tile/>
   <tile/>
   <tile/>
   <tile/>
   <tile/>
   <tile/>
   <tile gid="49"/>
   <tile/>
   <tile gid="49"/>
   <tile/>
   <tile/>
   <tile/>
   <tile/>
   <tile/>
   <tile/>
   <tile/>
   <tile/>
   <tile/>
   <tile/>
   <tile/>
   <tile/>
   <tile/>
   <tile/>
   <tile/>
   <tile/>
   <tile/>
   <tile/>
   <tile/>
   <tile/>
   <tile/>
   <tile/>
   <tile/>
   <tile/>
   <tile/>
   <tile/>
   <tile/>
   <tile/>
   <tile/>
   <tile/>
   <tile/>
   <tile/>
   <tile/>
   <tile/>
   <tile/>
   <tile/>
   <tile/>
   <tile/>
   <tile gid="49"/>
   <tile/>
   <tile gid="49"/>
   <tile/>
   <tile/>
   <tile/>
   <tile/>
   <tile/>
   <tile/>
   <tile/>
   <tile/>
   <tile/>
   <tile/>
   <tile/>
   <tile/>
   <tile/>
   <tile/>
   <tile/>
   <tile/>
   <tile/>
   <tile/>
   <tile/>
   <tile/>
   <tile/>
   <tile/>
   <tile/>
   <tile/>
   <tile/>
   <tile gid="49"/>
   <tile/>
   <tile gid="49"/>
   <tile/>
   <tile/>
   <tile/>
   <tile/>
   <tile/>
   <tile/>
   <tile/>
   <tile/>
   <tile/>
   <tile/>
   <tile/>
   <tile/>
   <tile/>
   <tile/>
   <tile/>
   <tile/>
   <tile/>
   <tile/>
   <tile/>
   <tile/>
   <tile/>
   <tile/>
   <tile/>
   <tile/>
   <tile/>
   <tile gid="49"/>
   <tile/>
   <tile gid="49"/>
   <tile/>
   <tile/>
   <tile/>
   <tile/>
   <tile/>
   <tile/>
   <tile/>
   <tile/>
   <tile/>
   <tile/>
   <tile/>
   <tile/>
   <tile/>
   <tile/>
   <tile/>
   <tile/>
   <tile/>
   <tile/>
   <tile/>
   <tile/>
   <tile/>
   <tile/>
   <tile gid="49"/>
   <tile/>
   <tile/>
   <tile/>
   <tile/>
   <tile gid="49"/>
   <tile/>
   <tile/>
   <tile/>
   <tile/>
   <tile/>
   <tile/>
   <tile/>
   <tile/>
   <tile/>
   <tile/>
   <tile/>
   <tile/>
   <tile/>
   <tile/>
   <tile/>
   <tile/>
   <tile/>
   <tile/>
   <tile/>
   <tile/>
   <tile/>
   <tile/>
   <tile gid="49"/>
   <tile/>
   <tile gid="49"/>
   <tile/>
   <tile/>
   <tile/>
   <tile/>
   <tile/>
   <tile/>
   <tile/>
   <tile/>
   <tile/>
   <tile/>
   <tile/>
   <tile/>
   <tile/>
   <tile/>
   <tile/>
   <tile/>
   <tile/>
   <tile/>
   <tile/>
   <tile/>
   <tile/>
   <tile/>
   <tile/>
   <tile/>
   <tile/>
   <tile/>
   <tile/>
   <tile/>
   <tile/>
   <tile/>
   <tile/>
   <tile/>
   <tile/>
   <tile/>
   <tile/>
   <tile/>
   <tile/>
   <tile/>
   <tile gid="49"/>
   <tile/>
   <tile gid="49"/>
   <tile/>
   <tile/>
   <tile/>
   <tile/>
   <tile/>
   <tile/>
   <tile/>
   <tile/>
   <tile/>
   <tile/>
   <tile/>
   <tile/>
   <tile/>
   <tile/>
   <tile/>
   <tile/>
   <tile/>
   <tile/>
   <tile/>
   <tile/>
   <tile/>
   <tile/>
   <tile/>
   <tile/>
   <tile/>
   <tile gid="49"/>
   <tile/>
   <tile gid="49"/>
   <tile/>
   <tile/>
   <tile/>
   <tile/>
   <tile/>
   <tile/>
   <tile/>
   <tile/>
   <tile/>
   <tile/>
   <tile/>
   <tile/>
   <tile/>
   <tile/>
   <tile/>
   <tile/>
   <tile/>
   <tile/>
   <tile/>
   <tile/>
   <tile/>
   <tile/>
   <tile/>
   <tile/>
   <tile/>
   <tile gid="49"/>
   <tile/>
   <tile gid="49"/>
   <tile/>
   <tile/>
   <tile/>
   <tile/>
   <tile/>
   <tile/>
   <tile/>
   <tile/>
   <tile/>
   <tile/>
   <tile/>
   <tile/>
   <tile/>
   <tile/>
   <tile/>
   <tile/>
   <tile/>
   <tile/>
   <tile/>
   <tile/>
   <tile/>
   <tile/>
   <tile gid="49"/>
   <tile/>
   <tile/>
   <tile/>
   <tile/>
   <tile gid="49"/>
   <tile/>
   <tile/>
   <tile/>
   <tile/>
   <tile/>
   <tile/>
   <tile/>
   <tile/>
   <tile/>
   <tile/>
   <tile/>
   <tile/>
   <tile/>
   <tile/>
   <tile/>
   <tile/>
   <tile/>
   <tile/>
   <tile/>
   <tile/>
   <tile/>
   <tile/>
   <tile gid="49"/>
   <tile/>
   <tile gid="49"/>
   <tile/>
   <tile/>
   <tile/>
   <tile/>
   <tile/>
   <tile/>
   <tile/>
   <tile/>
   <tile/>
   <tile/>
   <tile/>
   <tile/>
   <tile/>
   <tile/>
   <tile/>
   <tile/>
   <tile/>
   <tile/>
   <tile/>
   <tile/>
   <tile/>
   <tile/>
   <tile/>
   <tile/>
   <tile/>
   <tile/>
   <tile/>
   <tile/>
   <tile/>
   <tile/>
   <tile/>
   <tile/>
   <tile/>
   <tile/>
   <tile/>
   <tile/>
   <tile/>
   <tile/>
   <tile gid="49"/>
   <tile/>
   <tile gid="49"/>
   <tile/>
   <tile/>
   <tile/>
   <tile/>
   <tile/>
   <tile/>
   <tile/>
   <tile/>
   <tile/>
   <tile/>
   <tile/>
   <tile/>
   <tile/>
   <tile/>
   <tile/>
   <tile/>
   <tile/>
   <tile/>
   <tile/>
   <tile/>
   <tile/>
   <tile/>
   <tile/>
   <tile/>
   <tile/>
   <tile gid="49"/>
   <tile/>
   <tile gid="49"/>
   <tile/>
   <tile/>
   <tile/>
   <tile/>
   <tile/>
   <tile/>
   <tile/>
   <tile/>
   <tile/>
   <tile/>
   <tile/>
   <tile/>
   <tile/>
   <tile/>
   <tile/>
   <tile/>
   <tile/>
   <tile/>
   <tile/>
   <tile/>
   <tile/>
   <tile/>
   <tile/>
   <tile/>
   <tile/>
   <tile gid="49"/>
   <tile/>
   <tile gid="49"/>
   <tile/>
   <tile/>
   <tile/>
   <tile/>
   <tile/>
   <tile/>
   <tile/>
   <tile/>
   <tile/>
   <tile/>
   <tile/>
   <tile/>
   <tile/>
   <tile/>
   <tile/>
   <tile/>
   <tile/>
   <tile/>
   <tile/>
   <tile/>
   <tile/>
   <tile/>
   <tile gid="49"/>
   <tile/>
   <tile/>
   <tile/>
   <tile/>
   <tile gid="49"/>
   <tile/>
   <tile/>
   <tile/>
   <tile/>
   <tile/>
   <tile/>
   <tile/>
   <tile/>
   <tile/>
   <tile/>
   <tile/>
   <tile/>
   <tile/>
   <tile/>
   <tile/>
   <tile/>
   <tile/>
   <tile/>
   <tile/>
   <tile/>
   <tile/>
   <tile/>
   <tile gid="49"/>
   <tile/>
   <tile gid="49"/>
   <tile/>
   <tile/>
   <tile/>
   <tile/>
   <tile/>
   <tile/>
   <tile/>
   <tile/>
   <tile/>
   <tile/>
   <tile/>
   <tile/>
   <tile/>
   <tile/>
   <tile/>
   <tile/>
   <tile/>
   <tile/>
   <tile/>
   <tile/>
   <tile/>
   <tile/>
   <tile/>
   <tile/>
   <tile/>
   <tile/>
   <tile/>
   <tile/>
   <tile/>
   <tile/>
   <tile/>
   <tile/>
   <tile/>
   <tile/>
   <tile/>
   <tile/>
   <tile/>
   <tile/>
   <tile gid="49"/>
   <tile/>
   <tile gid="49"/>
   <tile/>
   <tile/>
   <tile/>
   <tile/>
   <tile/>
   <tile/>
   <tile/>
   <tile/>
   <tile/>
   <tile/>
   <tile/>
   <tile/>
   <tile/>
   <tile/>
   <tile/>
   <tile/>
   <tile/>
   <tile/>
   <tile/>
   <tile/>
   <tile/>
   <tile/>
   <tile/>
   <tile/>
   <tile/>
   <tile gid="49"/>
   <tile/>
   <tile gid="49"/>
   <tile/>
   <tile/>
   <tile/>
   <tile/>
   <tile/>
   <tile/>
   <tile/>
   <tile/>
   <tile/>
   <tile/>
   <tile/>
   <tile/>
   <tile/>
   <tile/>
   <tile/>
   <tile/>
   <tile/>
   <tile/>
   <tile/>
   <tile/>
   <tile/>
   <tile/>
   <tile/>
   <tile/>
   <tile/>
   <tile gid="49"/>
   <tile/>
   <tile gid="49"/>
   <tile/>
   <tile/>
   <tile/>
   <tile/>
   <tile/>
   <tile/>
   <tile/>
   <tile/>
   <tile/>
   <tile/>
   <tile/>
   <tile/>
   <tile/>
   <tile/>
   <tile/>
   <tile/>
   <tile/>
   <tile/>
   <tile/>
   <tile/>
   <tile/>
   <tile/>
   <tile gid="49"/>
   <tile/>
   <tile/>
   <tile/>
   <tile/>
   <tile gid="49"/>
   <tile/>
   <tile/>
   <tile/>
   <tile/>
   <tile/>
   <tile/>
   <tile/>
   <tile/>
   <tile/>
   <tile/>
   <tile/>
   <tile/>
   <tile/>
   <tile/>
   <tile/>
   <tile/>
   <tile/>
   <tile/>
   <tile/>
   <tile/>
   <tile/>
   <tile/>
   <tile gid="49"/>
   <tile/>
   <tile gid="49"/>
   <tile/>
   <tile/>
   <tile/>
   <tile/>
   <tile/>
   <tile/>
   <tile/>
   <tile/>
   <tile/>
   <tile/>
   <tile/>
   <tile/>
   <tile/>
   <tile/>
   <tile/>
   <tile/>
   <tile/>
   <tile/>
   <tile/>
   <tile/>
   <tile/>
   <tile/>
   <tile/>
   <tile/>
   <tile/>
   <tile/>
   <tile/>
   <tile/>
   <tile/>
   <tile/>
   <tile/>
   <tile/>
   <tile/>
   <tile/>
   <tile/>
   <tile/>
   <tile/>
   <tile/>
   <tile gid="49"/>
   <tile/>
   <tile gid="49"/>
   <tile/>
   <tile/>
   <tile/>
   <tile/>
   <tile/>
   <tile/>
   <tile/>
   <tile/>
   <tile/>
   <tile/>
   <tile/>
   <tile/>
   <tile/>
   <tile/>
   <tile/>
   <tile/>
   <tile/>
   <tile/>
   <tile/>
   <tile/>
   <tile/>
   <tile/>
   <tile/>
   <tile/>
   <tile/>
   <tile gid="49"/>
   <tile/>
   <tile gid="49"/>
   <tile/>
   <tile/>
   <tile/>
   <tile/>
   <tile/>
   <tile/>
   <tile/>
   <tile/>
   <tile/>
   <tile/>
   <tile/>
   <tile/>
   <tile/>
   <tile/>
   <tile/>
   <tile/>
   <tile/>
   <tile/>
   <tile/>
   <tile/>
   <tile/>
   <tile/>
   <tile/>
   <tile/>
   <tile/>
   <tile gid="49"/>
   <tile/>
   <tile gid="49"/>
   <tile/>
   <tile/>
   <tile/>
   <tile/>
   <tile/>
   <tile/>
   <tile/>
   <tile/>
   <tile/>
   <tile/>
   <tile/>
   <tile/>
   <tile/>
   <tile/>
   <tile/>
   <tile/>
   <tile/>
   <tile/>
   <tile/>
   <tile/>
   <tile/>
   <tile/>
   <tile gid="49"/>
   <tile/>
   <tile/>
   <tile/>
   <tile/>
   <tile gid="49"/>
   <tile/>
   <tile/>
   <tile/>
   <tile/>
   <tile/>
   <tile/>
   <tile/>
   <tile/>
   <tile/>
   <tile/>
   <tile/>
   <tile/>
   <tile/>
   <tile/>
   <tile/>
   <tile/>
   <tile/>
   <tile/>
   <tile/>
   <tile/>
   <tile/>
   <tile/>
   <tile gid="49"/>
   <tile/>
   <tile gid="49"/>
   <tile/>
   <tile/>
   <tile/>
   <tile/>
   <tile/>
   <tile/>
   <tile/>
   <tile/>
   <tile/>
   <tile/>
   <tile/>
   <tile/>
   <tile/>
   <tile/>
   <tile/>
   <tile/>
   <tile/>
   <tile/>
   <tile/>
   <tile/>
   <tile/>
   <tile/>
   <tile/>
   <tile/>
   <tile/>
   <tile/>
   <tile/>
   <tile/>
   <tile/>
   <tile/>
   <tile/>
   <tile/>
   <tile/>
   <tile/>
   <tile/>
   <tile/>
   <tile/>
   <tile/>
   <tile gid="49"/>
   <tile/>
   <tile gid="49"/>
   <tile/>
   <tile/>
   <tile/>
   <tile/>
   <tile/>
   <tile/>
   <tile/>
   <tile/>
   <tile/>
   <tile/>
   <tile/>
   <tile/>
   <tile/>
   <tile/>
   <tile/>
   <tile/>
   <tile/>
   <tile/>
   <tile/>
   <tile/>
   <tile/>
   <tile/>
   <tile/>
   <tile/>
   <tile/>
   <tile gid="49"/>
   <tile/>
   <tile gid="49"/>
   <tile/>
   <tile/>
   <tile/>
   <tile/>
   <tile/>
   <tile/>
   <tile/>
   <tile/>
   <tile/>
   <tile/>
   <tile/>
   <tile/>
   <tile/>
   <tile/>
   <tile/>
   <tile/>
   <tile/>
   <tile/>
   <tile/>
   <tile/>
   <tile/>
   <tile/>
   <tile/>
   <tile/>
   <tile/>
   <tile gid="49"/>
   <tile/>
   <tile gid="49"/>
   <tile/>
   <tile/>
   <tile/>
   <tile/>
   <tile/>
   <tile/>
   <tile/>
   <tile/>
   <tile/>
   <tile/>
   <tile/>
   <tile/>
   <tile/>
   <tile/>
   <tile/>
   <tile/>
   <tile/>
   <tile/>
   <tile/>
   <tile/>
   <tile/>
   <tile/>
   <tile gid="49"/>
   <tile/>
   <tile/>
   <tile/>
   <tile/>
   <tile gid="49"/>
   <tile/>
   <tile/>
   <tile/>
   <tile/>
   <tile/>
   <tile/>
   <tile/>
   <tile/>
   <tile/>
   <tile/>
   <tile/>
   <tile/>
   <tile/>
   <tile/>
   <tile/>
   <tile/>
   <tile/>
   <tile/>
   <tile/>
   <tile/>
   <tile/>
   <tile/>
   <tile gid="49"/>
   <tile/>
   <tile gid="49"/>
   <tile/>
   <tile/>
   <tile/>
   <tile/>
   <tile/>
   <tile/>
   <tile/>
   <tile/>
   <tile/>
   <tile/>
   <tile/>
   <tile/>
   <tile/>
   <tile/>
   <tile/>
   <tile/>
   <tile/>
   <tile/>
   <tile/>
   <tile/>
   <tile/>
   <tile/>
   <tile/>
   <tile/>
   <tile/>
   <tile/>
   <tile/>
   <tile/>
   <tile/>
   <tile/>
   <tile/>
   <tile/>
   <tile/>
   <tile/>
   <tile/>
   <tile/>
   <tile/>
   <tile/>
   <tile gid="49"/>
   <tile/>
   <tile gid="49"/>
   <tile/>
   <tile/>
   <tile/>
   <tile/>
   <tile/>
   <tile/>
   <tile/>
   <tile/>
   <tile/>
   <tile/>
   <tile/>
   <tile/>
   <tile/>
   <tile/>
   <tile/>
   <tile/>
   <tile/>
   <tile/>
   <tile/>
   <tile/>
   <tile/>
   <tile/>
   <tile/>
   <tile/>
   <tile/>
   <tile gid="49"/>
   <tile/>
   <tile gid="49"/>
   <tile/>
   <tile/>
   <tile/>
   <tile/>
   <tile/>
   <tile/>
   <tile/>
   <tile/>
   <tile/>
   <tile/>
   <tile/>
   <tile/>
   <tile/>
   <tile/>
   <tile/>
   <tile/>
   <tile/>
   <tile/>
   <tile/>
   <tile/>
   <tile/>
   <tile/>
   <tile/>
   <tile/>
   <tile/>
   <tile gid="49"/>
   <tile/>
   <tile gid="49"/>
   <tile/>
   <tile/>
   <tile/>
   <tile/>
   <tile/>
   <tile/>
   <tile/>
   <tile/>
   <tile/>
   <tile/>
   <tile/>
   <tile/>
   <tile/>
   <tile/>
   <tile/>
   <tile/>
   <tile/>
   <tile/>
   <tile/>
   <tile/>
   <tile/>
   <tile/>
   <tile gid="49"/>
   <tile/>
   <tile/>
   <tile/>
   <tile/>
   <tile gid="49"/>
   <tile/>
   <tile/>
   <tile/>
   <tile/>
   <tile/>
   <tile/>
   <tile/>
   <tile/>
   <tile/>
   <tile/>
   <tile/>
   <tile/>
   <tile/>
   <tile/>
   <tile/>
   <tile/>
   <tile/>
   <tile/>
   <tile/>
   <tile/>
   <tile/>
   <tile/>
   <tile gid="49"/>
   <tile/>
   <tile gid="49"/>
   <tile/>
   <tile/>
   <tile/>
   <tile/>
   <tile/>
   <tile/>
   <tile/>
   <tile/>
   <tile/>
   <tile/>
   <tile/>
   <tile/>
   <tile/>
   <tile/>
   <tile/>
   <tile/>
   <tile/>
   <tile/>
   <tile/>
   <tile/>
   <tile/>
   <tile/>
   <tile/>
   <tile/>
   <tile/>
   <tile/>
   <tile/>
   <tile/>
   <tile/>
   <tile/>
   <tile/>
   <tile/>
   <tile/>
   <tile/>
   <tile/>
   <tile/>
   <tile/>
   <tile/>
   <tile gid="49"/>
   <tile/>
   <tile gid="49"/>
   <tile/>
   <tile/>
   <tile/>
   <tile/>
   <tile/>
   <tile/>
   <tile/>
   <tile/>
   <tile/>
   <tile/>
   <tile/>
   <tile/>
   <tile/>
   <tile/>
   <tile/>
   <tile/>
   <tile/>
   <tile/>
   <tile/>
   <tile/>
   <tile/>
   <tile/>
   <tile/>
   <tile/>
   <tile/>
   <tile gid="49"/>
   <tile/>
   <tile gid="49"/>
   <tile/>
   <tile/>
   <tile/>
   <tile/>
   <tile/>
   <tile/>
   <tile/>
   <tile/>
   <tile/>
   <tile/>
   <tile/>
   <tile/>
   <tile/>
   <tile/>
   <tile/>
   <tile/>
   <tile/>
   <tile/>
   <tile/>
   <tile/>
   <tile/>
   <tile/>
   <tile/>
   <tile/>
   <tile/>
   <tile gid="49"/>
   <tile/>
   <tile gid="49"/>
   <tile/>
   <tile/>
   <tile/>
   <tile/>
   <tile/>
   <tile/>
   <tile/>
   <tile/>
   <tile/>
   <tile/>
   <tile/>
   <tile/>
   <tile/>
   <tile/>
   <tile/>
   <tile/>
   <tile/>
   <tile/>
   <tile/>
   <tile/>
   <tile/>
   <tile/>
   <tile gid="49"/>
   <tile/>
   <tile/>
   <tile/>
   <tile/>
   <tile gid="49"/>
   <tile/>
   <tile/>
   <tile/>
   <tile/>
   <tile/>
   <tile/>
   <tile/>
   <tile/>
   <tile/>
   <tile/>
   <tile/>
   <tile/>
   <tile/>
   <tile/>
   <tile/>
   <tile/>
   <tile/>
   <tile/>
   <tile/>
   <tile/>
   <tile/>
   <tile/>
   <tile gid="49"/>
   <tile/>
   <tile gid="49"/>
   <tile/>
   <tile/>
   <tile/>
   <tile/>
   <tile/>
   <tile/>
   <tile/>
   <tile/>
   <tile/>
   <tile/>
   <tile/>
   <tile/>
   <tile/>
   <tile/>
   <tile/>
   <tile/>
   <tile/>
   <tile/>
   <tile/>
   <tile/>
   <tile/>
   <tile/>
   <tile/>
   <tile/>
   <tile/>
   <tile/>
   <tile/>
   <tile/>
   <tile/>
   <tile/>
   <tile/>
   <tile/>
   <tile/>
   <tile/>
   <tile/>
   <tile/>
   <tile/>
   <tile/>
   <tile gid="49"/>
   <tile/>
   <tile gid="49"/>
   <tile/>
   <tile/>
   <tile/>
   <tile/>
   <tile/>
   <tile/>
   <tile/>
   <tile/>
   <tile/>
   <tile/>
   <tile/>
   <tile/>
   <tile/>
   <tile/>
   <tile/>
   <tile/>
   <tile/>
   <tile/>
   <tile/>
   <tile/>
   <tile/>
   <tile/>
   <tile/>
   <tile/>
   <tile/>
   <tile gid="49"/>
   <tile/>
   <tile gid="49"/>
   <tile/>
   <tile/>
   <tile/>
   <tile/>
   <tile/>
   <tile/>
   <tile/>
   <tile/>
   <tile/>
   <tile/>
   <tile/>
   <tile/>
   <tile/>
   <tile/>
   <tile/>
   <tile/>
   <tile/>
   <tile/>
   <tile/>
   <tile/>
   <tile/>
   <tile/>
   <tile/>
   <tile/>
   <tile/>
   <tile gid="49"/>
   <tile/>
   <tile gid="49"/>
   <tile/>
   <tile/>
   <tile/>
   <tile/>
   <tile/>
   <tile/>
   <tile/>
   <tile/>
   <tile/>
   <tile/>
   <tile/>
   <tile/>
   <tile/>
   <tile/>
   <tile/>
   <tile/>
   <tile/>
   <tile/>
   <tile/>
   <tile/>
   <tile/>
   <tile/>
   <tile gid="49"/>
   <tile/>
   <tile/>
   <tile/>
   <tile/>
   <tile gid="49"/>
   <tile/>
   <tile/>
   <tile/>
   <tile/>
   <tile/>
   <tile/>
   <tile/>
   <tile/>
   <tile/>
   <tile/>
   <tile/>
   <tile/>
   <tile/>
   <tile/>
   <tile/>
   <tile/>
   <tile/>
   <tile/>
   <tile/>
   <tile/>
   <tile/>
   <tile/>
   <tile gid="49"/>
   <tile/>
   <tile gid="49"/>
   <tile gid="49"/>
   <tile gid="49"/>
   <tile gid="49"/>
   <tile gid="49"/>
   <tile gid="49"/>
   <tile gid="49"/>
   <tile gid="49"/>
   <tile/>
   <tile/>
   <tile/>
   <tile/>
   <tile gid="49"/>
   <tile gid="49"/>
   <tile gid="49"/>
   <tile gid="49"/>
   <tile gid="49"/>
   <tile gid="49"/>
   <tile gid="49"/>
   <tile gid="49"/>
   <tile gid="49"/>
   <tile gid="49"/>
   <tile gid="49"/>
   <tile gid="49"/>
   <tile gid="49"/>
   <tile gid="49"/>
   <tile gid="49"/>
   <tile gid="49"/>
   <tile gid="49"/>
   <tile gid="49"/>
   <tile gid="49"/>
   <tile/>
   <tile/>
   <tile/>
   <tile gid="49"/>
   <tile gid="49"/>
   <tile gid="49"/>
   <tile gid="49"/>
   <tile gid="49"/>
   <tile gid="49"/>
   <tile/>
   <tile gid="49"/>
   <tile/>
   <tile/>
   <tile/>
   <tile/>
   <tile/>
   <tile/>
   <tile/>
   <tile/>
   <tile/>
   <tile/>
   <tile/>
   <tile/>
   <tile/>
   <tile/>
   <tile/>
   <tile/>
   <tile/>
   <tile/>
   <tile/>
   <tile/>
   <tile/>
   <tile/>
   <tile/>
   <tile/>
   <tile/>
   <tile gid="49"/>
   <tile/>
   <tile gid="49"/>
   <tile/>
   <tile/>
   <tile/>
   <tile/>
   <tile/>
   <tile/>
   <tile/>
   <tile/>
   <tile/>
   <tile/>
   <tile/>
   <tile/>
   <tile/>
   <tile/>
   <tile/>
   <tile/>
   <tile/>
   <tile/>
   <tile/>
   <tile/>
   <tile/>
   <tile/>
   <tile/>
   <tile/>
   <tile/>
   <tile gid="49"/>
   <tile/>
   <tile gid="49"/>
   <tile/>
   <tile/>
   <tile/>
   <tile/>
   <tile/>
   <tile/>
   <tile/>
   <tile/>
   <tile/>
   <tile/>
   <tile/>
   <tile/>
   <tile/>
   <tile/>
   <tile/>
   <tile/>
   <tile/>
   <tile/>
   <tile/>
   <tile/>
   <tile/>
   <tile/>
   <tile gid="49"/>
   <tile/>
   <tile/>
   <tile/>
   <tile/>
   <tile gid="49"/>
   <tile/>
   <tile/>
   <tile/>
   <tile/>
   <tile/>
   <tile/>
   <tile/>
   <tile/>
   <tile/>
   <tile/>
   <tile/>
   <tile/>
   <tile/>
   <tile/>
   <tile/>
   <tile/>
   <tile/>
   <tile/>
   <tile/>
   <tile/>
   <tile/>
   <tile/>
   <tile gid="49"/>
   <tile/>
   <tile/>
   <tile/>
   <tile/>
   <tile/>
   <tile/>
   <tile/>
   <tile/>
   <tile gid="49"/>
   <tile/>
   <tile/>
   <tile/>
   <tile/>
   <tile gid="49"/>
   <tile/>
   <tile/>
   <tile/>
   <tile/>
   <tile/>
   <tile/>
   <tile/>
   <tile/>
   <tile/>
   <tile/>
   <tile/>
   <tile/>
   <tile/>
   <tile/>
   <tile/>
   <tile/>
   <tile/>
   <tile gid="49"/>
   <tile/>
   <tile/>
   <tile/>
   <tile gid="49"/>
   <tile/>
   <tile/>
   <tile/>
   <tile/>
   <tile/>
   <tile/>
   <tile gid="49"/>
   <tile/>
   <tile/>
   <tile/>
   <tile/>
   <tile/>
   <tile/>
   <tile/>
   <tile/>
   <tile/>
   <tile/>
   <tile/>
   <tile/>
   <tile/>
   <tile/>
   <tile/>
   <tile/>
   <tile/>
   <tile/>
   <tile/>
   <tile/>
   <tile/>
   <tile/>
   <tile/>
   <tile/>
   <tile/>
   <tile gid="49"/>
   <tile/>
   <tile gid="49"/>
   <tile/>
   <tile/>
   <tile/>
   <tile/>
   <tile/>
   <tile/>
   <tile/>
   <tile/>
   <tile/>
   <tile/>
   <tile/>
   <tile/>
   <tile/>
   <tile/>
   <tile/>
   <tile/>
   <tile/>
   <tile/>
   <tile/>
   <tile/>
   <tile/>
   <tile/>
   <tile/>
   <tile/>
   <tile/>
   <tile gid="49"/>
   <tile/>
   <tile gid="49"/>
   <tile/>
   <tile/>
   <tile/>
   <tile/>
   <tile/>
   <tile/>
   <tile/>
   <tile/>
   <tile/>
   <tile/>
   <tile/>
   <tile/>
   <tile/>
   <tile/>
   <tile/>
   <tile/>
   <tile/>
   <tile/>
   <tile/>
   <tile/>
   <tile/>
   <tile/>
   <tile gid="49"/>
   <tile/>
   <tile/>
   <tile/>
   <tile/>
   <tile gid="49"/>
   <tile/>
   <tile/>
   <tile/>
   <tile/>
   <tile/>
   <tile/>
   <tile/>
   <tile/>
   <tile/>
   <tile/>
   <tile/>
   <tile/>
   <tile/>
   <tile/>
   <tile/>
   <tile/>
   <tile/>
   <tile/>
   <tile/>
   <tile/>
   <tile/>
   <tile/>
   <tile gid="49"/>
   <tile gid="49"/>
   <tile gid="49"/>
   <tile gid="49"/>
   <tile gid="49"/>
   <tile gid="49"/>
   <tile gid="49"/>
   <tile gid="49"/>
   <tile gid="49"/>
   <tile gid="49"/>
   <tile/>
   <tile/>
   <tile/>
   <tile/>
   <tile gid="49"/>
   <tile gid="49"/>
   <tile gid="49"/>
   <tile gid="49"/>
   <tile gid="49"/>
   <tile gid="49"/>
   <tile gid="49"/>
   <tile gid="49"/>
   <tile gid="49"/>
   <tile gid="49"/>
   <tile/>
   <tile gid="49"/>
   <tile gid="49"/>
   <tile gid="49"/>
   <tile gid="49"/>
   <tile gid="49"/>
   <tile gid="49"/>
   <tile gid="49"/>
   <tile gid="49"/>
   <tile/>
   <tile/>
   <tile/>
   <tile gid="49"/>
   <tile gid="49"/>
   <tile gid="49"/>
   <tile gid="49"/>
   <tile gid="49"/>
   <tile gid="49"/>
   <tile/>
   <tile gid="49"/>
   <tile/>
   <tile/>
   <tile/>
   <tile/>
   <tile/>
   <tile/>
   <tile/>
   <tile/>
   <tile/>
   <tile/>
   <tile/>
   <tile/>
   <tile/>
   <tile/>
   <tile/>
   <tile/>
   <tile/>
   <tile/>
   <tile/>
   <tile/>
   <tile/>
   <tile/>
   <tile/>
   <tile/>
   <tile/>
   <tile gid="49"/>
   <tile/>
   <tile gid="49"/>
   <tile/>
   <tile/>
   <tile/>
   <tile/>
   <tile/>
   <tile/>
   <tile/>
   <tile/>
   <tile/>
   <tile/>
   <tile/>
   <tile/>
   <tile/>
   <tile/>
   <tile/>
   <tile/>
   <tile/>
   <tile/>
   <tile/>
   <tile/>
   <tile/>
   <tile/>
   <tile/>
   <tile/>
   <tile/>
   <tile gid="49"/>
   <tile/>
   <tile gid="49"/>
   <tile/>
   <tile/>
   <tile/>
   <tile/>
   <tile/>
   <tile/>
   <tile/>
   <tile/>
   <tile/>
   <tile/>
   <tile/>
   <tile/>
   <tile/>
   <tile/>
   <tile/>
   <tile/>
   <tile/>
   <tile/>
   <tile/>
   <tile/>
   <tile/>
   <tile/>
   <tile gid="49"/>
   <tile/>
   <tile/>
   <tile/>
   <tile/>
   <tile gid="49"/>
   <tile/>
   <tile/>
   <tile/>
   <tile/>
   <tile/>
   <tile/>
   <tile/>
   <tile/>
   <tile/>
   <tile/>
   <tile/>
   <tile/>
   <tile/>
   <tile/>
   <tile/>
   <tile/>
   <tile/>
   <tile/>
   <tile/>
   <tile/>
   <tile/>
   <tile/>
   <tile/>
   <tile/>
   <tile/>
   <tile/>
   <tile/>
   <tile/>
   <tile/>
   <tile/>
   <tile/>
   <tile/>
   <tile/>
   <tile/>
   <tile/>
   <tile/>
   <tile/>
   <tile/>
   <tile/>
   <tile/>
   <tile/>
   <tile/>
   <tile/>
   <tile/>
   <tile/>
   <tile gid="49"/>
   <tile/>
   <tile gid="49"/>
   <tile/>
   <tile/>
   <tile/>
   <tile/>
   <tile/>
   <tile/>
   <tile/>
   <tile/>
   <tile/>
   <tile/>
   <tile/>
   <tile/>
   <tile/>
   <tile/>
   <tile/>
   <tile gid="49"/>
   <tile/>
   <tile gid="49"/>
   <tile/>
   <tile/>
   <tile/>
   <tile/>
   <tile/>
   <tile/>
   <tile/>
   <tile/>
   <tile/>
   <tile/>
   <tile/>
   <tile/>
   <tile/>
   <tile/>
   <tile/>
   <tile/>
   <tile/>
   <tile/>
   <tile/>
   <tile/>
   <tile/>
   <tile/>
   <tile/>
   <tile/>
   <tile/>
   <tile gid="49"/>
   <tile/>
   <tile gid="49"/>
   <tile/>
   <tile/>
   <tile/>
   <tile/>
   <tile/>
   <tile/>
   <tile/>
   <tile/>
   <tile/>
   <tile/>
   <tile/>
   <tile/>
   <tile/>
   <tile/>
   <tile/>
   <tile/>
   <tile/>
   <tile/>
   <tile/>
   <tile/>
   <tile/>
   <tile/>
   <tile/>
   <tile/>
   <tile/>
   <tile gid="49"/>
   <tile/>
   <tile gid="49"/>
   <tile/>
   <tile/>
   <tile/>
   <tile/>
   <tile/>
   <tile/>
   <tile/>
   <tile/>
   <tile/>
   <tile/>
   <tile/>
   <tile/>
   <tile/>
   <tile/>
   <tile/>
   <tile/>
   <tile/>
   <tile/>
   <tile/>
   <tile/>
   <tile/>
   <tile/>
   <tile gid="49"/>
   <tile/>
   <tile/>
   <tile/>
   <tile/>
   <tile gid="49"/>
   <tile/>
   <tile/>
   <tile/>
   <tile/>
   <tile/>
   <tile/>
   <tile/>
   <tile/>
   <tile/>
   <tile/>
   <tile/>
   <tile/>
   <tile/>
   <tile/>
   <tile/>
   <tile/>
   <tile/>
   <tile/>
   <tile/>
   <tile/>
   <tile/>
   <tile/>
   <tile/>
   <tile/>
   <tile/>
   <tile/>
   <tile/>
   <tile/>
   <tile/>
   <tile/>
   <tile/>
   <tile/>
   <tile/>
   <tile/>
   <tile/>
   <tile/>
   <tile/>
   <tile/>
   <tile/>
   <tile/>
   <tile/>
   <tile/>
   <tile/>
   <tile/>
   <tile/>
   <tile gid="49"/>
   <tile/>
   <tile gid="49"/>
   <tile/>
   <tile/>
   <tile/>
   <tile/>
   <tile/>
   <tile/>
   <tile/>
   <tile/>
   <tile/>
   <tile/>
   <tile/>
   <tile/>
   <tile/>
   <tile/>
   <tile/>
   <tile gid="49"/>
   <tile/>
   <tile gid="49"/>
   <tile/>
   <tile/>
   <tile/>
   <tile/>
   <tile/>
   <tile/>
   <tile/>
   <tile/>
   <tile/>
   <tile/>
   <tile/>
   <tile/>
   <tile/>
   <tile/>
   <tile/>
   <tile/>
   <tile/>
   <tile/>
   <tile/>
   <tile/>
   <tile/>
   <tile/>
   <tile/>
   <tile/>
   <tile/>
   <tile gid="49"/>
   <tile/>
   <tile gid="49"/>
   <tile/>
   <tile/>
   <tile/>
   <tile/>
   <tile/>
   <tile/>
   <tile/>
   <tile/>
   <tile/>
   <tile/>
   <tile/>
   <tile/>
   <tile/>
   <tile/>
   <tile/>
   <tile/>
   <tile/>
   <tile/>
   <tile/>
   <tile/>
   <tile/>
   <tile/>
   <tile/>
   <tile/>
   <tile/>
   <tile gid="49"/>
   <tile/>
   <tile gid="49"/>
   <tile/>
   <tile/>
   <tile/>
   <tile/>
   <tile/>
   <tile/>
   <tile/>
   <tile/>
   <tile/>
   <tile/>
   <tile/>
   <tile/>
   <tile/>
   <tile/>
   <tile/>
   <tile/>
   <tile/>
   <tile/>
   <tile/>
   <tile/>
   <tile/>
   <tile/>
   <tile gid="49"/>
   <tile/>
   <tile/>
   <tile/>
   <tile/>
   <tile gid="49"/>
   <tile/>
   <tile/>
   <tile/>
   <tile/>
   <tile/>
   <tile/>
   <tile/>
   <tile/>
   <tile/>
   <tile/>
   <tile/>
   <tile/>
   <tile/>
   <tile/>
   <tile/>
   <tile/>
   <tile/>
   <tile/>
   <tile/>
   <tile/>
   <tile/>
   <tile/>
   <tile/>
   <tile/>
   <tile/>
   <tile/>
   <tile/>
   <tile/>
   <tile/>
   <tile/>
   <tile/>
   <tile/>
   <tile/>
   <tile/>
   <tile/>
   <tile/>
   <tile/>
   <tile/>
   <tile/>
   <tile/>
   <tile/>
   <tile/>
   <tile/>
   <tile/>
   <tile/>
   <tile gid="49"/>
   <tile/>
   <tile gid="49"/>
   <tile/>
   <tile/>
   <tile/>
   <tile/>
   <tile/>
   <tile/>
   <tile/>
   <tile/>
   <tile/>
   <tile/>
   <tile/>
   <tile/>
   <tile/>
   <tile/>
   <tile/>
   <tile gid="49"/>
   <tile/>
   <tile gid="49"/>
   <tile/>
   <tile/>
   <tile/>
   <tile/>
   <tile/>
   <tile/>
   <tile/>
   <tile/>
   <tile/>
   <tile/>
   <tile/>
   <tile/>
   <tile/>
   <tile/>
   <tile/>
   <tile/>
   <tile/>
   <tile/>
   <tile/>
   <tile/>
   <tile/>
   <tile/>
   <tile/>
   <tile/>
   <tile/>
   <tile gid="49"/>
   <tile/>
   <tile gid="49"/>
   <tile/>
   <tile/>
   <tile/>
   <tile/>
   <tile/>
   <tile/>
   <tile/>
   <tile/>
   <tile/>
   <tile/>
   <tile/>
   <tile/>
   <tile/>
   <tile/>
   <tile/>
   <tile/>
   <tile/>
   <tile/>
   <tile/>
   <tile/>
   <tile/>
   <tile/>
   <tile/>
   <tile/>
   <tile/>
   <tile gid="49"/>
   <tile/>
   <tile gid="49"/>
   <tile/>
   <tile/>
   <tile/>
   <tile/>
   <tile/>
   <tile/>
   <tile/>
   <tile/>
   <tile/>
   <tile/>
   <tile/>
   <tile/>
   <tile/>
   <tile/>
   <tile/>
   <tile/>
   <tile/>
   <tile/>
   <tile/>
   <tile/>
   <tile/>
   <tile/>
   <tile gid="49"/>
   <tile/>
   <tile/>
   <tile/>
   <tile/>
   <tile gid="49"/>
   <tile/>
   <tile/>
   <tile/>
   <tile/>
   <tile/>
   <tile/>
   <tile/>
   <tile/>
   <tile/>
   <tile/>
   <tile/>
   <tile/>
   <tile/>
   <tile/>
   <tile/>
   <tile/>
   <tile/>
   <tile/>
   <tile/>
   <tile/>
   <tile/>
   <tile/>
   <tile/>
   <tile/>
   <tile/>
   <tile/>
   <tile/>
   <tile/>
   <tile/>
   <tile/>
   <tile/>
   <tile/>
   <tile/>
   <tile/>
   <tile/>
   <tile/>
   <tile/>
   <tile/>
   <tile/>
   <tile/>
   <tile/>
   <tile/>
   <tile/>
   <tile/>
   <tile/>
   <tile gid="49"/>
   <tile/>
   <tile gid="49"/>
   <tile/>
   <tile/>
   <tile/>
   <tile/>
   <tile/>
   <tile/>
   <tile/>
   <tile/>
   <tile/>
   <tile/>
   <tile/>
   <tile/>
   <tile/>
   <tile/>
   <tile/>
   <tile gid="49"/>
   <tile/>
   <tile gid="49"/>
   <tile/>
   <tile/>
   <tile/>
   <tile/>
   <tile/>
   <tile/>
   <tile/>
   <tile/>
   <tile/>
   <tile/>
   <tile/>
   <tile/>
   <tile/>
   <tile/>
   <tile/>
   <tile/>
   <tile/>
   <tile/>
   <tile/>
   <tile/>
   <tile/>
   <tile/>
   <tile/>
   <tile/>
   <tile/>
   <tile gid="49"/>
   <tile/>
   <tile gid="49"/>
   <tile/>
   <tile/>
   <tile/>
   <tile/>
   <tile/>
   <tile/>
   <tile/>
   <tile/>
   <tile/>
   <tile/>
   <tile/>
   <tile/>
   <tile/>
   <tile/>
   <tile/>
   <tile/>
   <tile/>
   <tile/>
   <tile/>
   <tile/>
   <tile/>
   <tile/>
   <tile/>
   <tile/>
   <tile/>
   <tile gid="49"/>
   <tile/>
   <tile gid="49"/>
   <tile/>
   <tile/>
   <tile/>
   <tile/>
   <tile/>
   <tile/>
   <tile/>
   <tile/>
   <tile/>
   <tile/>
   <tile/>
   <tile/>
   <tile/>
   <tile/>
   <tile/>
   <tile/>
   <tile/>
   <tile/>
   <tile/>
   <tile/>
   <tile/>
   <tile/>
   <tile gid="49"/>
   <tile/>
   <tile/>
   <tile/>
   <tile/>
   <tile gid="49"/>
   <tile/>
   <tile/>
   <tile/>
   <tile/>
   <tile/>
   <tile/>
   <tile/>
   <tile/>
   <tile/>
   <tile/>
   <tile/>
   <tile/>
   <tile/>
   <tile/>
   <tile/>
   <tile/>
   <tile/>
   <tile/>
   <tile/>
   <tile/>
   <tile/>
   <tile/>
   <tile/>
   <tile/>
   <tile/>
   <tile/>
   <tile/>
   <tile/>
   <tile/>
   <tile/>
   <tile/>
   <tile/>
   <tile/>
   <tile/>
   <tile/>
   <tile/>
   <tile/>
   <tile/>
   <tile/>
   <tile/>
   <tile/>
   <tile/>
   <tile/>
   <tile/>
   <tile/>
   <tile gid="49"/>
   <tile/>
   <tile gid="49"/>
   <tile/>
   <tile/>
   <tile/>
   <tile/>
   <tile/>
   <tile/>
   <tile/>
   <tile/>
   <tile/>
   <tile/>
   <tile/>
   <tile/>
   <tile/>
   <tile/>
   <tile/>
   <tile gid="49"/>
   <tile/>
   <tile gid="49"/>
   <tile/>
   <tile/>
   <tile/>
   <tile/>
   <tile/>
   <tile/>
   <tile/>
   <tile/>
   <tile/>
   <tile/>
   <tile/>
   <tile/>
   <tile/>
   <tile/>
   <tile/>
   <tile/>
   <tile/>
   <tile/>
   <tile/>
   <tile/>
   <tile/>
   <tile/>
   <tile/>
   <tile/>
   <tile/>
   <tile gid="49"/>
   <tile/>
   <tile gid="49"/>
   <tile/>
   <tile/>
   <tile/>
   <tile/>
   <tile/>
   <tile/>
   <tile/>
   <tile/>
   <tile/>
   <tile/>
   <tile/>
   <tile/>
   <tile/>
   <tile/>
   <tile/>
   <tile/>
   <tile/>
   <tile/>
   <tile/>
   <tile/>
   <tile/>
   <tile/>
   <tile/>
   <tile/>
   <tile/>
   <tile gid="49"/>
   <tile/>
   <tile gid="49"/>
   <tile/>
   <tile/>
   <tile/>
   <tile/>
   <tile/>
   <tile/>
   <tile/>
   <tile/>
   <tile/>
   <tile/>
   <tile/>
   <tile/>
   <tile/>
   <tile/>
   <tile/>
   <tile/>
   <tile/>
   <tile/>
   <tile/>
   <tile/>
   <tile/>
   <tile/>
   <tile gid="49"/>
   <tile/>
   <tile/>
   <tile/>
   <tile/>
   <tile gid="49"/>
   <tile/>
   <tile/>
   <tile/>
   <tile/>
   <tile/>
   <tile/>
   <tile/>
   <tile/>
   <tile/>
   <tile/>
   <tile/>
   <tile/>
   <tile/>
   <tile/>
   <tile/>
   <tile/>
   <tile/>
   <tile/>
   <tile/>
   <tile/>
   <tile/>
   <tile/>
   <tile/>
   <tile/>
   <tile/>
   <tile/>
   <tile/>
   <tile/>
   <tile/>
   <tile/>
   <tile/>
   <tile/>
   <tile/>
   <tile/>
   <tile/>
   <tile/>
   <tile/>
   <tile/>
   <tile/>
   <tile/>
   <tile/>
   <tile/>
   <tile/>
   <tile/>
   <tile/>
   <tile gid="49"/>
   <tile/>
   <tile gid="49"/>
   <tile/>
   <tile/>
   <tile/>
   <tile/>
   <tile/>
   <tile/>
   <tile/>
   <tile/>
   <tile/>
   <tile/>
   <tile/>
   <tile/>
   <tile/>
   <tile/>
   <tile/>
   <tile gid="49"/>
   <tile/>
   <tile gid="49"/>
   <tile/>
   <tile/>
   <tile/>
   <tile/>
   <tile/>
   <tile/>
   <tile/>
   <tile/>
   <tile/>
   <tile/>
   <tile/>
   <tile/>
   <tile/>
   <tile/>
   <tile/>
   <tile/>
   <tile/>
   <tile/>
   <tile/>
   <tile/>
   <tile/>
   <tile/>
   <tile/>
   <tile/>
   <tile/>
   <tile gid="49"/>
   <tile/>
   <tile gid="49"/>
   <tile gid="49"/>
   <tile gid="49"/>
   <tile gid="49"/>
   <tile gid="49"/>
   <tile gid="49"/>
   <tile gid="49"/>
   <tile gid="49"/>
   <tile gid="49"/>
   <tile gid="49"/>
   <tile gid="49"/>
   <tile gid="49"/>
   <tile gid="49"/>
   <tile/>
   <tile/>
   <tile/>
   <tile gid="49"/>
   <tile gid="49"/>
   <tile gid="49"/>
   <tile gid="49"/>
   <tile gid="49"/>
   <tile gid="49"/>
   <tile gid="49"/>
   <tile gid="49"/>
   <tile gid="49"/>
   <tile gid="49"/>
   <tile gid="49"/>
   <tile/>
   <tile gid="49"/>
   <tile/>
   <tile/>
   <tile/>
   <tile/>
   <tile/>
   <tile/>
   <tile/>
   <tile/>
   <tile/>
   <tile/>
   <tile/>
   <tile/>
   <tile/>
   <tile/>
   <tile/>
   <tile/>
   <tile/>
   <tile/>
   <tile/>
   <tile/>
   <tile/>
   <tile/>
   <tile gid="49"/>
   <tile/>
   <tile/>
   <tile/>
   <tile/>
   <tile gid="49"/>
   <tile/>
   <tile/>
   <tile/>
   <tile/>
   <tile/>
   <tile/>
   <tile/>
   <tile/>
   <tile/>
   <tile/>
   <tile/>
   <tile/>
   <tile/>
   <tile/>
   <tile/>
   <tile/>
   <tile/>
   <tile/>
   <tile/>
   <tile/>
   <tile/>
   <tile/>
   <tile/>
   <tile/>
   <tile/>
   <tile/>
   <tile/>
   <tile/>
   <tile/>
   <tile/>
   <tile/>
   <tile/>
   <tile/>
   <tile/>
   <tile/>
   <tile/>
   <tile/>
   <tile/>
   <tile/>
   <tile/>
   <tile/>
   <tile/>
   <tile/>
   <tile/>
   <tile/>
   <tile gid="49"/>
   <tile/>
   <tile gid="49"/>
   <tile/>
   <tile/>
   <tile/>
   <tile/>
   <tile/>
   <tile/>
   <tile/>
   <tile/>
   <tile/>
   <tile/>
   <tile/>
   <tile/>
   <tile/>
   <tile/>
   <tile/>
   <tile gid="49"/>
   <tile/>
   <tile gid="49"/>
   <tile/>
   <tile/>
   <tile/>
   <tile/>
   <tile/>
   <tile/>
   <tile/>
   <tile/>
   <tile/>
   <tile/>
   <tile/>
   <tile/>
   <tile/>
   <tile/>
   <tile/>
   <tile/>
   <tile/>
   <tile/>
   <tile/>
   <tile/>
   <tile/>
   <tile/>
   <tile/>
   <tile/>
   <tile/>
   <tile gid="49"/>
   <tile/>
   <tile/>
   <tile/>
   <tile/>
   <tile/>
   <tile/>
   <tile/>
   <tile/>
   <tile/>
   <tile/>
   <tile/>
   <tile/>
   <tile/>
   <tile gid="49"/>
   <tile/>
   <tile/>
   <tile/>
   <tile gid="49"/>
   <tile/>
   <tile/>
   <tile/>
   <tile/>
   <tile/>
   <tile/>
   <tile/>
   <tile/>
   <tile/>
   <tile/>
   <tile/>
   <tile gid="49"/>
   <tile/>
   <tile/>
   <tile/>
   <tile/>
   <tile/>
   <tile/>
   <tile/>
   <tile/>
   <tile/>
   <tile/>
   <tile/>
   <tile/>
   <tile/>
   <tile/>
   <tile/>
   <tile/>
   <tile/>
   <tile/>
   <tile/>
   <tile/>
   <tile/>
   <tile/>
   <tile gid="49"/>
   <tile/>
   <tile/>
   <tile/>
   <tile/>
   <tile gid="49"/>
   <tile/>
   <tile/>
   <tile/>
   <tile/>
   <tile/>
   <tile/>
   <tile/>
   <tile/>
   <tile/>
   <tile/>
   <tile/>
   <tile/>
   <tile/>
   <tile/>
   <tile/>
   <tile/>
   <tile/>
   <tile/>
   <tile/>
   <tile/>
   <tile/>
   <tile/>
   <tile/>
   <tile/>
   <tile/>
   <tile/>
   <tile/>
   <tile/>
   <tile/>
   <tile/>
   <tile/>
   <tile/>
   <tile/>
   <tile/>
   <tile/>
   <tile/>
   <tile/>
   <tile/>
   <tile/>
   <tile/>
   <tile/>
   <tile/>
   <tile/>
   <tile/>
   <tile/>
   <tile gid="49"/>
   <tile/>
   <tile gid="49"/>
   <tile/>
   <tile/>
   <tile/>
   <tile/>
   <tile/>
   <tile/>
   <tile/>
   <tile/>
   <tile/>
   <tile/>
   <tile/>
   <tile/>
   <tile/>
   <tile/>
   <tile/>
   <tile gid="49"/>
   <tile/>
   <tile gid="49"/>
   <tile/>
   <tile/>
   <tile/>
   <tile/>
   <tile/>
   <tile/>
   <tile/>
   <tile/>
   <tile/>
   <tile/>
   <tile/>
   <tile/>
   <tile/>
   <tile/>
   <tile/>
   <tile/>
   <tile/>
   <tile/>
   <tile/>
   <tile/>
   <tile/>
   <tile/>
   <tile/>
   <tile/>
   <tile/>
   <tile gid="49"/>
   <tile/>
   <tile gid="49"/>
   <tile gid="49"/>
   <tile gid="49"/>
   <tile gid="49"/>
   <tile gid="49"/>
   <tile gid="49"/>
   <tile gid="49"/>
   <tile gid="49"/>
   <tile gid="49"/>
   <tile gid="49"/>
   <tile gid="49"/>
   <tile gid="49"/>
   <tile gid="49"/>
   <tile/>
   <tile/>
   <tile/>
   <tile gid="49"/>
   <tile gid="49"/>
   <tile gid="49"/>
   <tile gid="49"/>
   <tile gid="49"/>
   <tile gid="49"/>
   <tile gid="49"/>
   <tile gid="49"/>
   <tile gid="49"/>
   <tile gid="49"/>
   <tile gid="49"/>
   <tile/>
   <tile gid="49"/>
   <tile/>
   <tile/>
   <tile/>
   <tile/>
   <tile/>
   <tile/>
   <tile/>
   <tile/>
   <tile/>
   <tile/>
   <tile/>
   <tile/>
   <tile/>
   <tile/>
   <tile/>
   <tile/>
   <tile/>
   <tile/>
   <tile/>
   <tile/>
   <tile/>
   <tile/>
   <tile gid="49"/>
   <tile/>
   <tile/>
   <tile/>
   <tile/>
   <tile gid="49"/>
   <tile/>
   <tile/>
   <tile/>
   <tile/>
   <tile/>
   <tile/>
   <tile/>
   <tile/>
   <tile/>
   <tile/>
   <tile/>
   <tile/>
   <tile/>
   <tile/>
   <tile/>
   <tile/>
   <tile/>
   <tile/>
   <tile/>
   <tile/>
   <tile/>
   <tile/>
   <tile/>
   <tile/>
   <tile/>
   <tile/>
   <tile/>
   <tile/>
   <tile/>
   <tile/>
   <tile/>
   <tile/>
   <tile/>
   <tile/>
   <tile/>
   <tile/>
   <tile/>
   <tile/>
   <tile/>
   <tile/>
   <tile/>
   <tile/>
   <tile/>
   <tile/>
   <tile/>
   <tile gid="49"/>
   <tile/>
   <tile gid="49"/>
   <tile/>
   <tile/>
   <tile/>
   <tile/>
   <tile/>
   <tile/>
   <tile/>
   <tile/>
   <tile/>
   <tile/>
   <tile/>
   <tile/>
   <tile/>
   <tile/>
   <tile/>
   <tile gid="49"/>
   <tile/>
   <tile gid="49"/>
   <tile/>
   <tile/>
   <tile/>
   <tile/>
   <tile/>
   <tile/>
   <tile/>
   <tile/>
   <tile/>
   <tile/>
   <tile/>
   <tile/>
   <tile/>
   <tile/>
   <tile/>
   <tile/>
   <tile/>
   <tile/>
   <tile/>
   <tile/>
   <tile/>
   <tile/>
   <tile/>
   <tile/>
   <tile/>
   <tile gid="49"/>
   <tile/>
   <tile gid="49"/>
   <tile/>
   <tile/>
   <tile/>
   <tile/>
   <tile/>
   <tile/>
   <tile/>
   <tile/>
   <tile/>
   <tile/>
   <tile/>
   <tile/>
   <tile/>
   <tile/>
   <tile/>
   <tile/>
   <tile/>
   <tile/>
   <tile/>
   <tile/>
   <tile/>
   <tile/>
   <tile/>
   <tile/>
   <tile/>
   <tile gid="49"/>
   <tile/>
   <tile gid="49"/>
   <tile/>
   <tile/>
   <tile/>
   <tile/>
   <tile/>
   <tile/>
   <tile/>
   <tile/>
   <tile/>
   <tile/>
   <tile/>
   <tile/>
   <tile/>
   <tile/>
   <tile/>
   <tile/>
   <tile/>
   <tile/>
   <tile/>
   <tile/>
   <tile/>
   <tile/>
   <tile gid="49"/>
   <tile/>
   <tile/>
  </data>
 </layer>
 <objectgroup id="2" name="Collision">
  <properties>
   <property name="Collision" type="bool" value="true"/>
   <property name="Draw" type="bool" value="false"/>
  </properties>
  <object id="1" x="0" y="0" width="4800" height="96"/>
  <object id="2" x="4704" y="96" width="96" height="2530"/>
  <object id="4" x="0" y="96" width="96" height="2524"/>
  <object id="5" x="96" y="1280" width="256" height="96"/>
  <object id="6" x="96" y="544" width="128" height="96"/>
  <object id="7" x="352" y="544" width="2088.33" height="96"/>
  <object id="8" x="1184" y="640" width="96" height="187"/>
  <object id="9" x="448" y="1280" width="3456" height="125.333"/>
  <object id="10" x="3904" y="960" width="96" height="800"/>
  <object id="11" x="4000" y="960" width="352" height="122.667"/>
  <object id="12" x="4448" y="960" width="256" height="121.333"/>
  <object id="13" x="4384" y="544" width="320" height="96"/>
  <object id="14" x="2880" y="544" width="1408" height="129.333"/>
  <object id="15" x="3008" y="384" width="96" height="160"/>
  <object id="17" x="3008" y="96" width="96" height="160"/>
  <object id="18" x="3008" y="640" width="96" height="640"/>
  <object id="19" x="3008" y="1376" width="96" height="224"/>
  <object id="20" x="3008" y="1728" width="96" height="891.152"/>
  <object id="21" x="46.1212" y="2531.33" width="2975.55" height="96"/>
  <object id="22" x="3101.33" y="2530.67" width="1658" height="96"/>
  <object id="24" x="3904" y="1856" width="96" height="770.667"/>
  <object id="25" x="2112" y="1376" width="96" height="256"/>
  <object id="26" x="1248" y="2240" width="608" height="96"/>
  <object id="27" x="1952" y="2240" width="160" height="96"/>
  <object id="28" x="1536" y="2336" width="96" height="290"/>
  <object id="29" x="2112" y="1728" width="96" height="900"/>
  <object id="30" x="800" y="2240" width="320" height="96"/>
  <object id="31" x="800" y="1376" width="96" height="864"/>
  <object id="32" x="1056" y="352" width="96" height="192"/>
  <object id="33" x="1056" y="96" width="96" height="128"/>
  <object id="34" x="1600" y="96" width="96" height="448"/>
  <object id="35" x="2144" y="96" width="96" height="448"/>
  <object id="36" x="2432" y="544" width="352" height="122.667"/>
  <object id="37" x="2560" y="640" width="96" height="352"/>
  <object id="38" x="2560" y="1088" width="96" height="192"/>
  <object id="41" x="2528" y="960" width="32" height="160"/>
  <object id="96" x="1185" y="961.5" width="96" height="328"/>
  <object id="97" x="1282" y="794.5" width="96" height="187"/>
 </objectgroup>
 <objectgroup id="5" name="Teleport">
  <object id="76" x="2560" y="992" width="64" height="96">
   <properties>
    <property name="targetMap" value="ClothesLobby.tmx"/>
   </properties>
  </object>
  <object id="99" x="1216" y="832" width="64" height="128">
   <properties>
    <property name="targetMap" value="FrontRoom.tmx"/>
   </properties>
  </object>
 </objectgroup>
 <objectgroup id="6" name="Checkpoints">
  <object id="85" x="4352" y="960" width="96" height="96"/>
  <object id="86" x="3008" y="1600" width="96" height="128"/>
  <object id="88" x="1120" y="2240" width="128" height="96"/>
  <object id="89" x="352" y="1280" width="96" height="96"/>
  <object id="90" x="224" y="544" width="128" height="96"/>
  <object id="100" x="1184" y="832" width="32" height="128"/>
  <object id="101" x="2624" y="992" width="32" height="96"/>
 </objectgroup>
 <objectgroup id="3" name="Entities">
  <object id="65" name="NPC8" type="NPC" x="1239.64" y="233.817">
   <properties>
    <property name="NPC_ID" value="8"/>
    <property name="active" type="bool" value="false"/>
    <property name="anim_tsxpath" value="Assets/Textures/Characters/NPC1.tsx"/>
    <property name="currentDialogueTree" type="int" value="0"/>
    <property name="texturePath" value="Assets/Textures/Characters/NPC1.png"/>
   </properties>
   <point/>
  </object>
  <object id="66" name="NPC11" type="NPC" x="1515.39" y="230.787">
   <properties>
    <property name="NPC_ID" value="11"/>
    <property name="active" type="bool" value="false"/>
    <property name="anim_tsxpath" value="Assets/Textures/Characters/NPC2.tsx"/>
    <property name="currentDialogueTree" type="int" value="0"/>
    <property name="texturePath" value="Assets/Textures/Characters/NPC2.png"/>
   </properties>
   <point/>
  </object>
  <object id="67" name="NPC9" type="NPC" x="1248.73" y="512.605">
   <properties>
    <property name="NPC_ID" value="9"/>
    <property name="active" type="bool" value="false"/>
    <property name="anim_tsxpath" value="Assets/Textures/Characters/NPC3.tsx"/>
    <property name="currentDialogueTree" type="int" value="0"/>
    <property name="texturePath" value="Assets/Textures/Characters/NPC3.png"/>
   </properties>
   <point/>
  </object>
  <object id="68" name="NPC10" type="NPC" x="1498.06" y="513.938">
   <properties>
    <property name="NPC_ID" value="10"/>
    <property name="active" type="bool" value="false"/>
    <property name="anim_tsxpath" value="Assets/Textures/Characters/NPC1.tsx"/>
    <property name="currentDialogueTree" type="int" value="0"/>
    <property name="texturePath" value="Assets/Textures/Characters/NPC1.png"/>
   </properties>
   <point/>
  </object>
  <object id="69" name="NPC7" type="NPC" x="179.029" y="236.847">
   <properties>
    <property name="NPC_ID" value="7"/>
    <property name="active" type="bool" value="true"/>
    <property name="anim_tsxpath" value="Assets/Textures/Characters/NPC1.tsx"/>
    <property name="currentDialogueTree" type="int" value="0"/>
    <property name="texturePath" value="Assets/Textures/Characters/NPC1.png"/>
   </properties>
   <point/>
  </object>
  <object id="70" name="Enemy61" type="Enemy" x="3854.79" y="455.029">
   <properties>
    <property name="Enemy_ID" type="int" value="61"/>
    <property name="active" type="bool" value="true"/>
    <property name="anim_tsxpath" value="Assets/Textures/Enemies/Langostin.tsx"/>
    <property name="fight_ID" type="int" value="28"/>
    <property name="texturePath" value="Assets/Textures/Enemies/Langostin.png"/>
   </properties>
   <point/>
  </object>
  <object id="71" name="Enemy62" type="Enemy" x="3966.91" y="915.635">
   <properties>
    <property name="Enemy_ID" type="int" value="62"/>
    <property name="active" type="bool" value="true"/>
    <property name="anim_tsxpath" value="Assets/Textures/Enemies/Milk.tsx"/>
    <property name="fight_ID" type="int" value="29"/>
    <property name="texturePath" value="Assets/Textures/Enemies/Milk.png"/>
   </properties>
   <point/>
  </object>
  <object id="72" name="Enemy63" type="Enemy" x="4311.88" y="1756.85">
   <properties>
    <property name="Enemy_ID" type="int" value="63"/>
    <property name="active" type="bool" value="true"/>
    <property name="anim_tsxpath" value="Assets/Textures/Enemies/Slime_morado.tsx"/>
    <property name="fight_ID" type="int" value="30"/>
    <property name="texturePath" value="Assets/Textures/Enemies/Slime_morado.png"/>
   </properties>
   <point/>
  </object>
  <object id="73" name="Enemy64" type="Enemy" x="3370.67" y="1741.82">
   <properties>
    <property name="Enemy_ID" type="int" value="64"/>
    <property name="active" type="bool" value="true"/>
    <property name="anim_tsxpath" value="Assets/Textures/Enemies/Slime_verde.tsx"/>
    <property name="fight_ID" type="int" value="31"/>
    <property name="texturePath" value="Assets/Textures/Enemies/Slime_verde.png"/>
   </properties>
   <point/>
  </object>
  <object id="74" name="Enemy65" type="Enemy" x="1211.51" y="2182.54">
   <properties>
    <property name="Enemy_ID" type="int" value="65"/>
    <property name="active" type="bool" value="true"/>
    <property name="anim_tsxpath" value="Assets/Textures/Enemies/Tomatona.tsx"/>
    <property name="fight_ID" type="int" value="32"/>
    <property name="texturePath" value="Assets/Textures/Enemies/Tomatona.png"/>
   </properties>
   <point/>
  </object>
  <object id="75" name="Enemy66" type="Enemy" x="396" y="1688">
   <properties>
    <property name="Enemy_ID" type="int" value="66"/>
    <property name="active" type="bool" value="true"/>
    <property name="anim_tsxpath" value="Assets/Textures/Enemies/Zapatico.tsx"/>
    <property name="fight_ID" type="int" value="33"/>
    <property name="texturePath" value="Assets/Textures/Enemies/Zapatico.png"/>
   </properties>
   <point/>
  </object>
  <object id="81" name="Player" type="Player" x="2706" y="1046">
   <properties>
    <property name="CorneliusJoined" type="bool" value="false"/>
    <property name="WizardJoined" type="bool" value="false"/>
    <property name="magicPoints" type="int" value="50"/>
   </properties>
   <point/>
  </object>
  <object id="82" name="BOSS3" type="Enemy" x="1140" y="926.667">
   <properties>
    <property name="Enemy_ID" type="int" value="103"/>
    <property name="active" type="bool" value="true"/>
    <property name="anim_tsxpath" value="Assets/Textures/Enemies/Boss_Cape.tsx"/>
    <property name="fight_ID" type="int" value="103"/>
    <property name="texturePath" value="Assets/Textures/Combat/Boss_Cape.png"/>
   </properties>
   <point/>
  </object>
  <object id="83" name="Button5" type="Event" x="2214.55" y="2440" width="64" height="64">
   <properties>
    <property name="Event_ID" type="int" value="13"/>
    <property name="activated" type="bool" value="false"/>
    <property name="active" type="bool" value="true"/>
    <property name="event_Name" value="Button5"/>
    <property name="texturePath" value="Assets/Textures/exclamation.png"/>
   </properties>
  </object>
  <object id="84" name="Door4" type="Event" x="352" y="1376" width="32" height="96" rotation="-90">
   <properties>
    <property name="Event_ID" type="int" value="14"/>
    <property name="activated" type="bool" value="false"/>
    <property name="active" type="bool" value="true"/>
    <property name="event_Name" value="Door4"/>
    <property name="texturePath" value="Assets/Maps/Decorations/Front_Door_Closed.png"/>
   </properties>
  </object>
  <object id="92" name="Door5" type="Event" x="4352" y="992" width="32" height="96" rotation="-90">
   <properties>
    <property name="Event_ID" type="int" value="15"/>
    <property name="activated" type="bool" value="false"/>
    <property name="active" type="bool" value="true"/>
    <property name="event_Name" value="Door5"/>
    <property name="texturePath" value="Assets/Maps/Decorations/Front_Door_Closed.png"/>
   </properties>
  </object>
  <object id="93" name="Button6" type="Event" x="2784" y="1216" width="64" height="64">
   <properties>
    <property name="Event_ID" type="int" value="16"/>
    <property name="activated" type="bool" value="false"/>
    <property name="active" type="bool" value="true"/>
    <property name="event_Name" value="Button6"/>
    <property name="texturePath" value="Assets/Textures/exclamation.png"/>
   </properties>
  </object>
  <object id="94" name="Wizard" type="Companion" x="2880" y="320">
   <properties>
    <property name="Companion_ID" type="int" value="1"/>
    <property name="Dialogue_ID" type="int" value="101"/>
    <property name="active" type="bool" value="true"/>
    <property name="anim_tsxpath" value="Assets/Textures/Characters/Maga.tsx"/>
    <property name="texturePath" value="Assets/Textures/Characters/Maga.png"/>
   </properties>
   <point/>
  </object>
 </objectgroup>
 <objectgroup id="4" name="Events"/>
 <layer id="9" name="foreground" width="150" height="82">
  <properties>
   <property name="Draw" type="bool" value="true"/>
  </properties>
  <data>
   <tile/>
   <tile/>
   <tile/>
   <tile/>
   <tile/>
   <tile/>
   <tile/>
   <tile/>
   <tile/>
   <tile/>
   <tile/>
   <tile/>
   <tile/>
   <tile/>
   <tile/>
   <tile/>
   <tile/>
   <tile/>
   <tile/>
   <tile/>
   <tile/>
   <tile/>
   <tile/>
   <tile/>
   <tile/>
   <tile/>
   <tile/>
   <tile/>
   <tile/>
   <tile/>
   <tile/>
   <tile/>
   <tile/>
   <tile/>
   <tile/>
   <tile/>
   <tile/>
   <tile/>
   <tile/>
   <tile/>
   <tile/>
   <tile/>
   <tile/>
   <tile/>
   <tile/>
   <tile/>
   <tile/>
   <tile/>
   <tile/>
   <tile/>
   <tile/>
   <tile/>
   <tile/>
   <tile/>
   <tile/>
   <tile/>
   <tile/>
   <tile/>
   <tile/>
   <tile/>
   <tile/>
   <tile/>
   <tile/>
   <tile/>
   <tile/>
   <tile/>
   <tile/>
   <tile/>
   <tile/>
   <tile/>
   <tile/>
   <tile/>
   <tile/>
   <tile/>
   <tile/>
   <tile/>
   <tile/>
   <tile/>
   <tile/>
   <tile/>
   <tile/>
   <tile/>
   <tile/>
   <tile/>
   <tile/>
   <tile/>
   <tile/>
   <tile/>
   <tile/>
   <tile/>
   <tile/>
   <tile/>
   <tile/>
   <tile/>
   <tile/>
   <tile/>
   <tile/>
   <tile/>
   <tile/>
   <tile/>
   <tile/>
   <tile/>
   <tile/>
   <tile/>
   <tile/>
   <tile/>
   <tile/>
   <tile/>
   <tile/>
   <tile/>
   <tile/>
   <tile/>
   <tile/>
   <tile/>
   <tile/>
   <tile/>
   <tile/>
   <tile/>
   <tile/>
   <tile/>
   <tile/>
   <tile/>
   <tile/>
   <tile/>
   <tile/>
   <tile/>
   <tile/>
   <tile/>
   <tile/>
   <tile/>
   <tile/>
   <tile/>
   <tile/>
   <tile/>
   <tile/>
   <tile/>
   <tile/>
   <tile/>
   <tile/>
   <tile/>
   <tile/>
   <tile/>
   <tile/>
   <tile/>
   <tile/>
   <tile/>
   <tile/>
   <tile/>
   <tile/>
   <tile/>
   <tile/>
   <tile/>
   <tile/>
   <tile/>
   <tile/>
   <tile/>
   <tile/>
   <tile/>
   <tile/>
   <tile/>
   <tile/>
   <tile/>
   <tile/>
   <tile/>
   <tile/>
   <tile/>
   <tile/>
   <tile/>
   <tile/>
   <tile/>
   <tile/>
   <tile/>
   <tile/>
   <tile/>
   <tile/>
   <tile/>
   <tile/>
   <tile/>
   <tile/>
   <tile/>
   <tile/>
   <tile/>
   <tile/>
   <tile/>
   <tile/>
   <tile/>
   <tile/>
   <tile/>
   <tile/>
   <tile/>
   <tile/>
   <tile/>
   <tile/>
   <tile/>
   <tile/>
   <tile/>
   <tile/>
   <tile/>
   <tile/>
   <tile/>
   <tile/>
   <tile/>
   <tile/>
   <tile/>
   <tile/>
   <tile/>
   <tile/>
   <tile/>
   <tile/>
   <tile/>
   <tile/>
   <tile/>
   <tile/>
   <tile/>
   <tile/>
   <tile/>
   <tile/>
   <tile/>
   <tile/>
   <tile/>
   <tile/>
   <tile/>
   <tile/>
   <tile/>
   <tile/>
   <tile/>
   <tile/>
   <tile/>
   <tile/>
   <tile/>
   <tile/>
   <tile/>
   <tile/>
   <tile/>
   <tile/>
   <tile/>
   <tile/>
   <tile/>
   <tile/>
   <tile/>
   <tile/>
   <tile/>
   <tile/>
   <tile/>
   <tile/>
   <tile/>
   <tile/>
   <tile/>
   <tile/>
   <tile/>
   <tile/>
   <tile/>
   <tile/>
   <tile/>
   <tile/>
   <tile/>
   <tile/>
   <tile/>
   <tile/>
   <tile/>
   <tile/>
   <tile/>
   <tile/>
   <tile/>
   <tile/>
   <tile/>
   <tile/>
   <tile/>
   <tile/>
   <tile/>
   <tile/>
   <tile/>
   <tile/>
   <tile/>
   <tile/>
   <tile/>
   <tile/>
   <tile/>
   <tile/>
   <tile/>
   <tile/>
   <tile/>
   <tile/>
   <tile/>
   <tile/>
   <tile/>
   <tile/>
   <tile/>
   <tile/>
   <tile/>
   <tile/>
   <tile/>
   <tile/>
   <tile/>
   <tile/>
   <tile/>
   <tile/>
   <tile/>
   <tile/>
   <tile/>
   <tile/>
   <tile/>
   <tile/>
   <tile/>
   <tile/>
   <tile/>
   <tile/>
   <tile/>
   <tile/>
   <tile/>
   <tile/>
   <tile/>
   <tile/>
   <tile/>
   <tile/>
   <tile/>
   <tile/>
   <tile/>
   <tile/>
   <tile/>
   <tile/>
   <tile/>
   <tile/>
   <tile/>
   <tile/>
   <tile/>
   <tile/>
   <tile/>
   <tile/>
   <tile/>
   <tile/>
   <tile/>
   <tile/>
   <tile/>
   <tile/>
   <tile/>
   <tile/>
   <tile/>
   <tile/>
   <tile/>
   <tile/>
   <tile/>
   <tile/>
   <tile/>
   <tile/>
   <tile/>
   <tile/>
   <tile/>
   <tile/>
   <tile/>
   <tile/>
   <tile/>
   <tile/>
   <tile/>
   <tile/>
   <tile/>
   <tile/>
   <tile/>
   <tile/>
   <tile/>
   <tile/>
   <tile/>
   <tile/>
   <tile/>
   <tile/>
   <tile/>
   <tile/>
   <tile/>
   <tile/>
   <tile/>
   <tile/>
   <tile/>
   <tile/>
   <tile/>
   <tile/>
   <tile/>
   <tile/>
   <tile/>
   <tile/>
   <tile/>
   <tile/>
   <tile/>
   <tile/>
   <tile/>
   <tile/>
   <tile/>
   <tile/>
   <tile/>
   <tile/>
   <tile/>
   <tile/>
   <tile/>
   <tile/>
   <tile/>
   <tile/>
   <tile/>
   <tile/>
   <tile/>
   <tile/>
   <tile/>
   <tile/>
   <tile/>
   <tile/>
   <tile/>
   <tile/>
   <tile/>
   <tile/>
   <tile/>
   <tile/>
   <tile/>
   <tile/>
   <tile/>
   <tile/>
   <tile/>
   <tile/>
   <tile/>
   <tile/>
   <tile/>
   <tile/>
   <tile/>
   <tile/>
   <tile/>
   <tile/>
   <tile/>
   <tile/>
   <tile/>
   <tile/>
   <tile/>
   <tile/>
   <tile/>
   <tile/>
   <tile/>
   <tile/>
   <tile/>
   <tile/>
   <tile/>
   <tile/>
   <tile/>
   <tile/>
   <tile/>
   <tile/>
   <tile/>
   <tile/>
   <tile/>
   <tile/>
   <tile/>
   <tile/>
   <tile/>
   <tile/>
   <tile/>
   <tile/>
   <tile/>
   <tile/>
   <tile/>
   <tile/>
   <tile/>
   <tile/>
   <tile/>
   <tile/>
   <tile/>
   <tile/>
   <tile/>
   <tile/>
   <tile/>
   <tile/>
   <tile/>
   <tile/>
   <tile/>
   <tile/>
   <tile/>
   <tile/>
   <tile/>
   <tile/>
   <tile/>
   <tile/>
   <tile/>
   <tile/>
   <tile/>
   <tile/>
   <tile/>
   <tile/>
   <tile/>
   <tile/>
   <tile/>
   <tile/>
   <tile/>
   <tile/>
   <tile/>
   <tile/>
   <tile/>
   <tile/>
   <tile/>
   <tile/>
   <tile/>
   <tile/>
   <tile/>
   <tile/>
   <tile/>
   <tile/>
   <tile/>
   <tile/>
   <tile/>
   <tile/>
   <tile/>
   <tile/>
   <tile/>
   <tile/>
   <tile/>
   <tile/>
   <tile/>
   <tile/>
   <tile/>
   <tile/>
   <tile/>
   <tile/>
   <tile/>
   <tile/>
   <tile/>
   <tile/>
   <tile/>
   <tile/>
   <tile/>
   <tile/>
   <tile/>
   <tile/>
   <tile/>
   <tile/>
   <tile/>
   <tile/>
   <tile/>
   <tile/>
   <tile/>
   <tile/>
   <tile/>
   <tile/>
   <tile/>
   <tile/>
   <tile/>
   <tile/>
   <tile/>
   <tile/>
   <tile/>
   <tile/>
   <tile/>
   <tile/>
   <tile/>
   <tile/>
   <tile/>
   <tile/>
   <tile/>
   <tile/>
   <tile/>
   <tile/>
   <tile/>
   <tile/>
   <tile/>
   <tile/>
   <tile/>
   <tile/>
   <tile/>
   <tile/>
   <tile/>
   <tile/>
   <tile/>
   <tile/>
   <tile/>
   <tile/>
   <tile/>
   <tile/>
   <tile/>
   <tile/>
   <tile/>
   <tile/>
   <tile/>
   <tile/>
   <tile/>
   <tile/>
   <tile/>
   <tile/>
   <tile/>
   <tile/>
   <tile/>
   <tile/>
   <tile/>
   <tile/>
   <tile/>
   <tile/>
   <tile/>
   <tile/>
   <tile/>
   <tile/>
   <tile/>
   <tile/>
   <tile/>
   <tile/>
   <tile/>
   <tile/>
   <tile/>
   <tile/>
   <tile/>
   <tile/>
   <tile/>
   <tile/>
   <tile/>
   <tile/>
   <tile/>
   <tile/>
   <tile/>
   <tile/>
   <tile/>
   <tile/>
   <tile/>
   <tile/>
   <tile/>
   <tile/>
   <tile/>
   <tile/>
   <tile/>
   <tile/>
   <tile/>
   <tile/>
   <tile/>
   <tile/>
   <tile/>
   <tile/>
   <tile/>
   <tile/>
   <tile/>
   <tile/>
   <tile/>
   <tile/>
   <tile/>
   <tile/>
   <tile/>
   <tile/>
   <tile/>
   <tile/>
   <tile/>
   <tile/>
   <tile/>
   <tile/>
   <tile/>
   <tile/>
   <tile/>
   <tile/>
   <tile/>
   <tile/>
   <tile/>
   <tile/>
   <tile/>
   <tile/>
   <tile/>
   <tile/>
   <tile/>
   <tile/>
   <tile/>
   <tile/>
   <tile/>
   <tile/>
   <tile/>
   <tile/>
   <tile/>
   <tile/>
   <tile/>
   <tile/>
   <tile/>
   <tile/>
   <tile/>
   <tile/>
   <tile/>
   <tile/>
   <tile/>
   <tile/>
   <tile/>
   <tile/>
   <tile/>
   <tile/>
   <tile/>
   <tile/>
   <tile/>
   <tile/>
   <tile/>
   <tile/>
   <tile/>
   <tile/>
   <tile/>
   <tile/>
   <tile/>
   <tile/>
   <tile/>
   <tile/>
   <tile/>
   <tile/>
   <tile/>
   <tile/>
   <tile/>
   <tile/>
   <tile/>
   <tile/>
   <tile/>
   <tile/>
   <tile/>
   <tile/>
   <tile/>
   <tile/>
   <tile/>
   <tile/>
   <tile/>
   <tile/>
   <tile/>
   <tile/>
   <tile/>
   <tile/>
   <tile/>
   <tile/>
   <tile/>
   <tile/>
   <tile/>
   <tile/>
   <tile/>
   <tile/>
   <tile/>
   <tile/>
   <tile/>
   <tile/>
   <tile/>
   <tile/>
   <tile/>
   <tile/>
   <tile/>
   <tile/>
   <tile/>
   <tile/>
   <tile/>
   <tile/>
   <tile/>
   <tile/>
   <tile/>
   <tile/>
   <tile/>
   <tile/>
   <tile/>
   <tile/>
   <tile/>
   <tile/>
   <tile/>
   <tile/>
   <tile/>
   <tile/>
   <tile/>
   <tile/>
   <tile/>
   <tile/>
   <tile/>
   <tile/>
   <tile/>
   <tile/>
   <tile/>
   <tile/>
   <tile/>
   <tile/>
   <tile/>
   <tile/>
   <tile/>
   <tile/>
   <tile/>
   <tile/>
   <tile/>
   <tile/>
   <tile/>
   <tile/>
   <tile/>
   <tile/>
   <tile/>
   <tile/>
   <tile/>
   <tile/>
   <tile/>
   <tile/>
   <tile/>
   <tile/>
   <tile/>
   <tile/>
   <tile/>
   <tile/>
   <tile/>
   <tile/>
   <tile/>
   <tile/>
   <tile/>
   <tile/>
   <tile/>
   <tile/>
   <tile/>
   <tile/>
   <tile/>
   <tile/>
   <tile/>
   <tile/>
   <tile/>
   <tile/>
   <tile/>
   <tile/>
   <tile/>
   <tile/>
   <tile/>
   <tile/>
   <tile/>
   <tile/>
   <tile/>
   <tile/>
   <tile/>
   <tile/>
   <tile/>
   <tile/>
   <tile/>
   <tile/>
   <tile/>
   <tile/>
   <tile/>
   <tile/>
   <tile/>
   <tile/>
   <tile/>
   <tile/>
   <tile/>
   <tile/>
   <tile/>
   <tile/>
   <tile/>
   <tile/>
   <tile/>
   <tile/>
   <tile/>
   <tile/>
   <tile/>
   <tile/>
   <tile/>
   <tile/>
   <tile/>
   <tile/>
   <tile/>
   <tile/>
   <tile/>
   <tile/>
   <tile/>
   <tile/>
   <tile/>
   <tile/>
   <tile/>
   <tile/>
   <tile/>
   <tile/>
   <tile/>
   <tile/>
   <tile/>
   <tile/>
   <tile/>
   <tile/>
   <tile/>
   <tile/>
   <tile/>
   <tile/>
   <tile/>
   <tile/>
   <tile/>
   <tile/>
   <tile/>
   <tile/>
   <tile/>
   <tile/>
   <tile/>
   <tile/>
   <tile/>
   <tile/>
   <tile/>
   <tile/>
   <tile/>
   <tile/>
   <tile/>
   <tile/>
   <tile/>
   <tile/>
   <tile/>
   <tile/>
   <tile/>
   <tile/>
   <tile/>
   <tile/>
   <tile/>
   <tile/>
   <tile/>
   <tile/>
   <tile/>
   <tile/>
   <tile/>
   <tile/>
   <tile/>
   <tile/>
   <tile/>
   <tile/>
   <tile/>
   <tile/>
   <tile/>
   <tile/>
   <tile/>
   <tile/>
   <tile/>
   <tile/>
   <tile/>
   <tile/>
   <tile/>
   <tile/>
   <tile/>
   <tile/>
   <tile/>
   <tile/>
   <tile/>
   <tile/>
   <tile/>
   <tile/>
   <tile/>
   <tile/>
   <tile/>
   <tile/>
   <tile/>
   <tile/>
   <tile/>
   <tile/>
   <tile/>
   <tile/>
   <tile/>
   <tile/>
   <tile/>
   <tile/>
   <tile/>
   <tile/>
   <tile/>
   <tile/>
   <tile/>
   <tile/>
   <tile/>
   <tile/>
   <tile/>
   <tile/>
   <tile/>
   <tile/>
   <tile/>
   <tile/>
   <tile/>
   <tile/>
   <tile/>
   <tile/>
   <tile/>
   <tile/>
   <tile/>
   <tile/>
   <tile/>
   <tile/>
   <tile/>
   <tile/>
   <tile/>
   <tile/>
   <tile/>
   <tile/>
   <tile/>
   <tile/>
   <tile/>
   <tile/>
   <tile/>
   <tile/>
   <tile/>
   <tile/>
   <tile/>
   <tile/>
   <tile/>
   <tile/>
   <tile/>
   <tile/>
   <tile/>
   <tile/>
   <tile/>
   <tile/>
   <tile/>
   <tile/>
   <tile/>
   <tile/>
   <tile/>
   <tile/>
   <tile/>
   <tile/>
   <tile/>
   <tile/>
   <tile/>
   <tile/>
   <tile/>
   <tile/>
   <tile/>
   <tile/>
   <tile/>
   <tile/>
   <tile/>
   <tile/>
   <tile/>
   <tile/>
   <tile/>
   <tile/>
   <tile/>
   <tile/>
   <tile/>
   <tile/>
   <tile/>
   <tile/>
   <tile/>
   <tile/>
   <tile/>
   <tile/>
   <tile/>
   <tile/>
   <tile/>
   <tile/>
   <tile/>
   <tile/>
   <tile/>
   <tile/>
   <tile/>
   <tile/>
   <tile/>
   <tile/>
   <tile/>
   <tile/>
   <tile/>
   <tile/>
   <tile/>
   <tile/>
   <tile/>
   <tile/>
   <tile/>
   <tile/>
   <tile/>
   <tile/>
   <tile/>
   <tile/>
   <tile/>
   <tile/>
   <tile/>
   <tile/>
   <tile/>
   <tile/>
   <tile/>
   <tile/>
   <tile/>
   <tile/>
   <tile/>
   <tile/>
   <tile/>
   <tile/>
   <tile/>
   <tile/>
   <tile/>
   <tile/>
   <tile/>
   <tile/>
   <tile/>
   <tile/>
   <tile/>
   <tile/>
   <tile/>
   <tile/>
   <tile/>
   <tile/>
   <tile/>
   <tile/>
   <tile/>
   <tile/>
   <tile/>
   <tile/>
   <tile/>
   <tile/>
   <tile/>
   <tile/>
   <tile/>
   <tile/>
   <tile/>
   <tile/>
   <tile/>
   <tile/>
   <tile/>
   <tile/>
   <tile/>
   <tile/>
   <tile/>
   <tile/>
   <tile/>
   <tile/>
   <tile/>
   <tile/>
   <tile/>
   <tile/>
   <tile/>
   <tile/>
   <tile/>
   <tile/>
   <tile/>
   <tile/>
   <tile/>
   <tile/>
   <tile/>
   <tile/>
   <tile/>
   <tile/>
   <tile/>
   <tile/>
   <tile/>
   <tile/>
   <tile/>
   <tile/>
   <tile/>
   <tile/>
   <tile/>
   <tile/>
   <tile/>
   <tile/>
   <tile/>
   <tile/>
   <tile/>
   <tile/>
   <tile/>
   <tile/>
   <tile/>
   <tile/>
   <tile/>
   <tile/>
   <tile/>
   <tile/>
   <tile/>
   <tile/>
   <tile/>
   <tile/>
   <tile/>
   <tile/>
   <tile/>
   <tile/>
   <tile/>
   <tile/>
   <tile/>
   <tile/>
   <tile/>
   <tile/>
   <tile/>
   <tile/>
   <tile/>
   <tile/>
   <tile/>
   <tile/>
   <tile/>
   <tile/>
   <tile/>
   <tile/>
   <tile/>
   <tile/>
   <tile/>
   <tile/>
   <tile/>
   <tile/>
   <tile/>
   <tile/>
   <tile/>
   <tile/>
   <tile/>
   <tile/>
   <tile/>
   <tile/>
   <tile/>
   <tile/>
   <tile/>
   <tile/>
   <tile/>
   <tile/>
   <tile/>
   <tile/>
   <tile/>
   <tile/>
   <tile/>
   <tile/>
   <tile/>
   <tile/>
   <tile/>
   <tile/>
   <tile/>
   <tile/>
   <tile/>
   <tile/>
   <tile/>
   <tile/>
   <tile/>
   <tile/>
   <tile/>
   <tile/>
   <tile/>
   <tile/>
   <tile/>
   <tile/>
   <tile/>
   <tile/>
   <tile/>
   <tile/>
   <tile/>
   <tile/>
   <tile/>
   <tile/>
   <tile/>
   <tile/>
   <tile/>
   <tile/>
   <tile/>
   <tile/>
   <tile/>
   <tile/>
   <tile/>
   <tile/>
   <tile/>
   <tile/>
   <tile/>
   <tile/>
   <tile/>
   <tile/>
   <tile/>
   <tile/>
   <tile/>
   <tile/>
   <tile/>
   <tile/>
   <tile/>
   <tile/>
   <tile/>
   <tile/>
   <tile/>
   <tile/>
   <tile/>
   <tile/>
   <tile/>
   <tile/>
   <tile/>
   <tile/>
   <tile/>
   <tile/>
   <tile/>
   <tile/>
   <tile/>
   <tile/>
   <tile/>
   <tile/>
   <tile/>
   <tile/>
   <tile/>
   <tile/>
   <tile/>
   <tile/>
   <tile/>
   <tile/>
   <tile/>
   <tile/>
   <tile/>
   <tile/>
   <tile/>
   <tile/>
   <tile/>
   <tile/>
   <tile/>
   <tile/>
   <tile/>
   <tile/>
   <tile/>
   <tile/>
   <tile/>
   <tile/>
   <tile/>
   <tile/>
   <tile/>
   <tile/>
   <tile/>
   <tile/>
   <tile/>
   <tile/>
   <tile/>
   <tile/>
   <tile/>
   <tile/>
   <tile/>
   <tile/>
   <tile/>
   <tile/>
   <tile/>
   <tile/>
   <tile/>
   <tile/>
   <tile/>
   <tile/>
   <tile/>
   <tile/>
   <tile/>
   <tile/>
   <tile/>
   <tile/>
   <tile/>
   <tile/>
   <tile/>
   <tile/>
   <tile/>
   <tile/>
   <tile/>
   <tile/>
   <tile/>
   <tile/>
   <tile/>
   <tile/>
   <tile/>
   <tile/>
   <tile/>
   <tile/>
   <tile/>
   <tile/>
   <tile/>
   <tile/>
   <tile/>
   <tile/>
   <tile/>
   <tile/>
   <tile/>
   <tile/>
   <tile/>
   <tile/>
   <tile/>
   <tile/>
   <tile/>
   <tile/>
   <tile/>
   <tile/>
   <tile/>
   <tile/>
   <tile/>
   <tile/>
   <tile/>
   <tile/>
   <tile/>
   <tile/>
   <tile/>
   <tile/>
   <tile/>
   <tile/>
   <tile/>
   <tile/>
   <tile/>
   <tile/>
   <tile/>
   <tile/>
   <tile/>
   <tile/>
   <tile/>
   <tile/>
   <tile/>
   <tile/>
   <tile/>
   <tile/>
   <tile/>
   <tile/>
   <tile/>
   <tile/>
   <tile/>
   <tile/>
   <tile/>
   <tile/>
   <tile/>
   <tile/>
   <tile/>
   <tile/>
   <tile/>
   <tile/>
   <tile/>
   <tile/>
   <tile/>
   <tile/>
   <tile/>
   <tile/>
   <tile/>
   <tile/>
   <tile/>
   <tile/>
   <tile/>
   <tile/>
   <tile/>
   <tile/>
   <tile/>
   <tile/>
   <tile/>
   <tile/>
   <tile/>
   <tile/>
   <tile/>
   <tile/>
   <tile/>
   <tile/>
   <tile/>
   <tile/>
   <tile/>
   <tile/>
   <tile/>
   <tile/>
   <tile/>
   <tile/>
   <tile/>
   <tile/>
   <tile/>
   <tile/>
   <tile/>
   <tile/>
   <tile/>
   <tile/>
   <tile/>
   <tile/>
   <tile/>
   <tile/>
   <tile/>
   <tile/>
   <tile/>
   <tile/>
   <tile/>
   <tile/>
   <tile/>
   <tile/>
   <tile/>
   <tile/>
   <tile/>
   <tile/>
   <tile/>
   <tile/>
   <tile/>
   <tile/>
   <tile/>
   <tile/>
   <tile/>
   <tile/>
   <tile/>
   <tile/>
   <tile/>
   <tile/>
   <tile/>
   <tile/>
   <tile/>
   <tile/>
   <tile/>
   <tile/>
   <tile/>
   <tile/>
   <tile/>
   <tile/>
   <tile/>
   <tile/>
   <tile/>
   <tile/>
   <tile/>
   <tile/>
   <tile/>
   <tile/>
   <tile/>
   <tile/>
   <tile/>
   <tile/>
   <tile/>
   <tile/>
   <tile/>
   <tile/>
   <tile/>
   <tile/>
   <tile/>
   <tile/>
   <tile/>
   <tile/>
   <tile/>
   <tile/>
   <tile/>
   <tile/>
   <tile/>
   <tile/>
   <tile/>
   <tile/>
   <tile/>
   <tile/>
   <tile/>
   <tile/>
   <tile/>
   <tile/>
   <tile/>
   <tile/>
   <tile/>
   <tile/>
   <tile/>
   <tile/>
   <tile/>
   <tile/>
   <tile/>
   <tile/>
   <tile/>
   <tile/>
   <tile/>
   <tile/>
   <tile/>
   <tile/>
   <tile/>
   <tile/>
   <tile/>
   <tile/>
   <tile/>
   <tile/>
   <tile/>
   <tile/>
   <tile/>
   <tile/>
   <tile/>
   <tile/>
   <tile/>
   <tile/>
   <tile/>
   <tile/>
   <tile/>
   <tile/>
   <tile/>
   <tile/>
   <tile/>
   <tile/>
   <tile/>
   <tile/>
   <tile gid="185"/>
   <tile gid="185"/>
   <tile gid="185"/>
   <tile/>
   <tile/>
   <tile/>
   <tile/>
   <tile/>
   <tile/>
   <tile/>
   <tile/>
   <tile/>
   <tile/>
   <tile/>
   <tile/>
   <tile/>
   <tile/>
   <tile/>
   <tile/>
   <tile/>
   <tile/>
   <tile/>
   <tile/>
   <tile/>
   <tile/>
   <tile/>
   <tile/>
   <tile/>
   <tile/>
   <tile/>
   <tile/>
   <tile/>
   <tile/>
   <tile/>
   <tile/>
   <tile/>
   <tile/>
   <tile/>
   <tile/>
   <tile/>
   <tile/>
   <tile/>
   <tile/>
   <tile/>
   <tile/>
   <tile/>
   <tile/>
   <tile/>
   <tile/>
   <tile/>
   <tile/>
   <tile/>
   <tile/>
   <tile/>
   <tile/>
   <tile/>
   <tile/>
   <tile/>
   <tile/>
   <tile/>
   <tile/>
   <tile/>
   <tile/>
   <tile/>
   <tile/>
   <tile/>
   <tile/>
   <tile/>
   <tile/>
   <tile/>
   <tile/>
   <tile/>
   <tile/>
   <tile/>
   <tile/>
   <tile/>
   <tile/>
   <tile/>
   <tile/>
   <tile/>
   <tile/>
   <tile/>
   <tile/>
   <tile/>
   <tile/>
   <tile/>
   <tile/>
   <tile/>
   <tile/>
   <tile/>
   <tile/>
   <tile/>
   <tile/>
   <tile/>
   <tile/>
   <tile/>
   <tile/>
   <tile/>
   <tile/>
   <tile/>
   <tile/>
   <tile/>
   <tile/>
   <tile/>
   <tile/>
   <tile/>
   <tile/>
   <tile/>
   <tile/>
   <tile/>
   <tile/>
   <tile/>
   <tile/>
   <tile/>
   <tile/>
   <tile/>
   <tile/>
   <tile/>
   <tile/>
   <tile/>
   <tile/>
   <tile/>
   <tile/>
   <tile/>
   <tile/>
   <tile/>
   <tile/>
   <tile/>
   <tile/>
   <tile/>
   <tile/>
   <tile/>
   <tile/>
   <tile/>
   <tile/>
   <tile/>
   <tile/>
   <tile/>
   <tile/>
   <tile/>
   <tile/>
   <tile/>
   <tile/>
   <tile/>
   <tile/>
   <tile/>
   <tile/>
   <tile/>
   <tile/>
   <tile/>
   <tile/>
   <tile/>
   <tile/>
   <tile/>
   <tile/>
   <tile/>
   <tile/>
   <tile/>
   <tile/>
   <tile/>
   <tile/>
   <tile/>
   <tile/>
   <tile/>
   <tile/>
   <tile/>
   <tile/>
   <tile/>
   <tile/>
   <tile/>
   <tile/>
   <tile/>
   <tile/>
   <tile/>
   <tile/>
   <tile/>
   <tile/>
   <tile/>
   <tile/>
   <tile/>
   <tile/>
   <tile/>
   <tile/>
   <tile/>
   <tile/>
   <tile/>
   <tile/>
   <tile/>
   <tile/>
   <tile/>
   <tile/>
   <tile/>
   <tile/>
   <tile/>
   <tile/>
   <tile/>
   <tile/>
   <tile/>
   <tile/>
   <tile/>
   <tile/>
   <tile/>
   <tile/>
   <tile/>
   <tile/>
   <tile/>
   <tile/>
   <tile/>
   <tile/>
   <tile/>
   <tile/>
   <tile gid="185"/>
   <tile gid="185"/>
   <tile gid="185"/>
   <tile/>
   <tile/>
   <tile/>
   <tile/>
   <tile/>
   <tile/>
   <tile/>
   <tile/>
   <tile/>
   <tile/>
   <tile/>
   <tile/>
   <tile/>
   <tile/>
   <tile/>
   <tile/>
   <tile/>
   <tile/>
   <tile/>
   <tile/>
   <tile/>
   <tile/>
   <tile/>
   <tile/>
   <tile/>
   <tile/>
   <tile/>
   <tile/>
   <tile/>
   <tile/>
   <tile/>
   <tile/>
   <tile/>
   <tile/>
   <tile/>
   <tile/>
   <tile/>
   <tile/>
   <tile/>
   <tile/>
   <tile/>
   <tile/>
   <tile/>
   <tile/>
   <tile/>
   <tile/>
   <tile/>
   <tile/>
   <tile/>
   <tile/>
   <tile/>
   <tile/>
   <tile/>
   <tile/>
   <tile/>
   <tile/>
   <tile/>
   <tile/>
   <tile/>
   <tile/>
   <tile/>
   <tile/>
   <tile/>
   <tile/>
   <tile/>
   <tile/>
   <tile/>
   <tile/>
   <tile/>
   <tile/>
   <tile/>
   <tile/>
   <tile/>
   <tile/>
   <tile/>
   <tile/>
   <tile/>
   <tile/>
   <tile/>
   <tile/>
   <tile/>
   <tile/>
   <tile/>
   <tile/>
   <tile/>
   <tile/>
   <tile/>
   <tile/>
   <tile/>
   <tile/>
   <tile/>
   <tile/>
   <tile/>
   <tile/>
   <tile/>
   <tile/>
   <tile/>
   <tile/>
   <tile/>
   <tile/>
   <tile/>
   <tile/>
   <tile/>
   <tile/>
   <tile/>
   <tile/>
   <tile/>
   <tile/>
   <tile/>
   <tile/>
   <tile/>
   <tile/>
   <tile/>
   <tile/>
   <tile/>
   <tile/>
   <tile/>
   <tile/>
   <tile/>
   <tile/>
   <tile/>
   <tile/>
   <tile/>
   <tile/>
   <tile/>
   <tile/>
   <tile/>
   <tile/>
   <tile/>
   <tile/>
   <tile/>
   <tile/>
   <tile/>
   <tile/>
   <tile/>
   <tile/>
   <tile/>
   <tile/>
   <tile/>
   <tile/>
   <tile/>
   <tile/>
   <tile/>
   <tile/>
   <tile/>
   <tile/>
   <tile/>
   <tile/>
   <tile/>
   <tile/>
   <tile/>
   <tile/>
   <tile/>
   <tile/>
   <tile/>
   <tile/>
   <tile/>
   <tile/>
   <tile/>
   <tile/>
   <tile/>
   <tile/>
   <tile/>
   <tile/>
   <tile/>
   <tile/>
   <tile/>
   <tile/>
   <tile/>
   <tile/>
   <tile/>
   <tile/>
   <tile/>
   <tile/>
   <tile/>
   <tile/>
   <tile/>
   <tile/>
   <tile/>
   <tile/>
   <tile/>
   <tile/>
   <tile/>
   <tile/>
   <tile/>
   <tile/>
   <tile/>
   <tile/>
   <tile/>
   <tile/>
   <tile/>
   <tile/>
   <tile/>
   <tile/>
   <tile/>
   <tile/>
   <tile/>
   <tile/>
   <tile/>
   <tile/>
   <tile/>
   <tile/>
   <tile/>
   <tile/>
   <tile/>
   <tile/>
   <tile/>
   <tile/>
   <tile/>
   <tile/>
   <tile/>
   <tile/>
   <tile/>
   <tile/>
   <tile/>
   <tile/>
   <tile/>
   <tile/>
   <tile/>
   <tile/>
   <tile/>
   <tile/>
   <tile/>
   <tile/>
   <tile/>
   <tile/>
   <tile/>
   <tile/>
   <tile/>
   <tile/>
   <tile/>
   <tile/>
   <tile/>
   <tile/>
   <tile/>
   <tile/>
   <tile/>
   <tile/>
   <tile/>
   <tile/>
   <tile/>
   <tile/>
   <tile/>
   <tile/>
   <tile/>
   <tile/>
   <tile/>
   <tile/>
   <tile/>
   <tile/>
   <tile/>
   <tile/>
   <tile/>
   <tile/>
   <tile/>
   <tile/>
   <tile/>
   <tile/>
   <tile/>
   <tile/>
   <tile/>
   <tile/>
   <tile/>
   <tile/>
   <tile/>
   <tile/>
   <tile/>
   <tile/>
   <tile/>
   <tile/>
   <tile/>
   <tile/>
   <tile/>
   <tile/>
   <tile/>
   <tile/>
   <tile/>
   <tile/>
   <tile/>
   <tile/>
   <tile/>
   <tile/>
   <tile/>
   <tile/>
   <tile/>
   <tile/>
   <tile/>
   <tile/>
   <tile/>
   <tile/>
   <tile/>
   <tile/>
   <tile/>
   <tile/>
   <tile/>
   <tile/>
   <tile/>
   <tile/>
   <tile/>
   <tile/>
   <tile/>
   <tile/>
   <tile/>
   <tile/>
   <tile/>
   <tile/>
   <tile/>
   <tile/>
   <tile/>
   <tile/>
   <tile/>
   <tile/>
   <tile/>
   <tile/>
   <tile/>
   <tile/>
   <tile/>
   <tile/>
   <tile/>
   <tile/>
   <tile/>
   <tile/>
   <tile/>
   <tile/>
   <tile/>
   <tile/>
   <tile/>
   <tile/>
   <tile/>
   <tile/>
   <tile/>
   <tile/>
   <tile/>
   <tile/>
   <tile/>
   <tile/>
   <tile/>
   <tile/>
   <tile/>
   <tile/>
   <tile/>
   <tile/>
   <tile/>
   <tile/>
   <tile/>
   <tile/>
   <tile/>
   <tile/>
   <tile/>
   <tile/>
   <tile/>
   <tile/>
   <tile/>
   <tile/>
   <tile/>
   <tile/>
   <tile/>
   <tile/>
   <tile/>
   <tile/>
   <tile/>
   <tile/>
   <tile/>
   <tile/>
   <tile/>
   <tile/>
   <tile/>
   <tile/>
   <tile/>
   <tile/>
   <tile/>
   <tile/>
   <tile/>
   <tile/>
   <tile/>
   <tile/>
   <tile/>
   <tile/>
   <tile/>
   <tile/>
   <tile/>
   <tile/>
   <tile/>
   <tile/>
   <tile/>
   <tile/>
   <tile/>
   <tile/>
   <tile/>
   <tile/>
   <tile/>
   <tile/>
   <tile/>
   <tile/>
   <tile/>
   <tile/>
   <tile/>
   <tile/>
   <tile/>
   <tile/>
   <tile/>
   <tile/>
   <tile/>
   <tile/>
   <tile/>
   <tile/>
   <tile/>
   <tile/>
   <tile/>
   <tile/>
   <tile/>
   <tile/>
   <tile/>
   <tile/>
   <tile/>
   <tile/>
   <tile/>
   <tile/>
   <tile/>
   <tile/>
   <tile/>
   <tile/>
   <tile/>
   <tile/>
   <tile/>
   <tile/>
   <tile/>
   <tile/>
   <tile/>
   <tile/>
   <tile/>
   <tile/>
   <tile/>
   <tile/>
   <tile/>
   <tile/>
   <tile/>
   <tile/>
   <tile/>
   <tile/>
   <tile/>
   <tile/>
   <tile/>
   <tile/>
   <tile/>
   <tile/>
   <tile/>
   <tile/>
   <tile/>
   <tile/>
   <tile/>
   <tile/>
   <tile/>
   <tile/>
   <tile/>
   <tile/>
   <tile/>
   <tile/>
   <tile/>
   <tile/>
   <tile/>
   <tile/>
   <tile/>
   <tile/>
   <tile/>
   <tile/>
   <tile/>
   <tile/>
   <tile/>
   <tile/>
   <tile/>
   <tile/>
   <tile/>
   <tile/>
   <tile/>
   <tile/>
   <tile/>
   <tile/>
   <tile/>
   <tile/>
   <tile/>
   <tile/>
   <tile/>
   <tile/>
   <tile/>
   <tile/>
   <tile/>
   <tile/>
   <tile/>
   <tile/>
   <tile/>
   <tile/>
   <tile/>
   <tile/>
   <tile/>
   <tile/>
   <tile/>
   <tile/>
   <tile/>
   <tile/>
   <tile/>
   <tile/>
   <tile/>
   <tile/>
   <tile/>
   <tile/>
   <tile/>
   <tile/>
   <tile/>
   <tile/>
   <tile/>
   <tile/>
   <tile/>
   <tile/>
   <tile/>
   <tile/>
   <tile/>
   <tile/>
   <tile/>
   <tile/>
   <tile/>
   <tile/>
   <tile/>
   <tile/>
   <tile/>
   <tile/>
   <tile/>
   <tile/>
   <tile/>
   <tile/>
   <tile/>
   <tile/>
   <tile/>
   <tile/>
   <tile/>
   <tile/>
   <tile/>
   <tile/>
   <tile/>
   <tile/>
   <tile/>
   <tile/>
   <tile/>
   <tile/>
   <tile/>
   <tile/>
   <tile/>
   <tile/>
   <tile/>
   <tile/>
   <tile/>
   <tile/>
   <tile/>
   <tile/>
   <tile/>
   <tile/>
   <tile/>
   <tile/>
   <tile/>
   <tile/>
   <tile/>
   <tile/>
   <tile/>
   <tile/>
   <tile/>
   <tile/>
   <tile/>
   <tile/>
   <tile/>
   <tile/>
   <tile/>
   <tile/>
   <tile/>
   <tile/>
   <tile/>
   <tile/>
   <tile/>
   <tile/>
   <tile/>
   <tile/>
   <tile/>
   <tile/>
   <tile/>
   <tile/>
   <tile/>
   <tile/>
   <tile/>
   <tile/>
   <tile/>
   <tile/>
   <tile/>
   <tile/>
   <tile/>
   <tile/>
   <tile/>
   <tile/>
   <tile/>
   <tile/>
   <tile/>
   <tile/>
   <tile/>
   <tile/>
   <tile/>
   <tile/>
   <tile/>
   <tile/>
   <tile/>
   <tile/>
   <tile/>
   <tile/>
   <tile/>
   <tile/>
   <tile/>
   <tile/>
   <tile/>
   <tile/>
   <tile/>
   <tile/>
   <tile/>
   <tile/>
   <tile/>
   <tile/>
   <tile/>
   <tile/>
   <tile/>
   <tile/>
   <tile/>
   <tile/>
   <tile/>
   <tile/>
   <tile/>
   <tile/>
   <tile/>
   <tile/>
   <tile/>
   <tile/>
   <tile/>
   <tile/>
   <tile/>
   <tile/>
   <tile/>
   <tile/>
   <tile/>
   <tile/>
   <tile/>
   <tile/>
   <tile/>
   <tile/>
   <tile/>
   <tile/>
   <tile/>
   <tile/>
   <tile/>
   <tile/>
   <tile/>
   <tile/>
   <tile gid="185"/>
   <tile gid="185"/>
   <tile gid="185"/>
   <tile gid="185"/>
   <tile/>
   <tile/>
   <tile/>
   <tile/>
   <tile gid="185"/>
   <tile gid="185"/>
   <tile gid="185"/>
   <tile gid="185"/>
   <tile gid="185"/>
   <tile gid="185"/>
   <tile gid="185"/>
   <tile gid="185"/>
   <tile gid="185"/>
   <tile gid="185"/>
   <tile gid="185"/>
   <tile gid="185"/>
   <tile gid="185"/>
   <tile gid="185"/>
   <tile gid="185"/>
   <tile gid="185"/>
   <tile gid="185"/>
   <tile gid="185"/>
   <tile gid="185"/>
   <tile gid="185"/>
   <tile gid="185"/>
   <tile gid="185"/>
   <tile/>
   <tile/>
   <tile/>
   <tile gid="185"/>
   <tile gid="185"/>
   <tile gid="185"/>
   <tile gid="185"/>
   <tile gid="185"/>
   <tile gid="185"/>
   <tile gid="185"/>
   <tile gid="185"/>
   <tile gid="185"/>
   <tile gid="185"/>
   <tile gid="185"/>
   <tile gid="185"/>
   <tile gid="185"/>
   <tile gid="185"/>
   <tile/>
   <tile/>
   <tile/>
   <tile/>
   <tile/>
   <tile/>
   <tile/>
   <tile/>
   <tile/>
   <tile/>
   <tile/>
   <tile/>
   <tile/>
   <tile/>
   <tile/>
   <tile/>
   <tile/>
   <tile/>
   <tile/>
   <tile/>
   <tile gid="185"/>
   <tile gid="185"/>
   <tile gid="185"/>
   <tile gid="185"/>
   <tile gid="185"/>
   <tile gid="185"/>
   <tile gid="185"/>
   <tile gid="185"/>
   <tile gid="185"/>
   <tile gid="185"/>
   <tile gid="185"/>
   <tile gid="185"/>
   <tile gid="185"/>
   <tile gid="185"/>
   <tile gid="185"/>
   <tile gid="185"/>
   <tile gid="185"/>
   <tile/>
   <tile/>
   <tile/>
   <tile gid="185"/>
   <tile gid="185"/>
   <tile gid="185"/>
   <tile gid="185"/>
   <tile/>
   <tile/>
   <tile/>
   <tile gid="185"/>
   <tile gid="185"/>
   <tile gid="185"/>
   <tile gid="185"/>
   <tile gid="185"/>
   <tile gid="185"/>
   <tile gid="185"/>
   <tile gid="185"/>
   <tile gid="185"/>
   <tile gid="185"/>
   <tile gid="185"/>
   <tile gid="185"/>
   <tile gid="185"/>
   <tile gid="185"/>
   <tile gid="185"/>
   <tile gid="185"/>
   <tile gid="185"/>
   <tile gid="185"/>
   <tile gid="185"/>
   <tile gid="185"/>
   <tile gid="185"/>
   <tile gid="185"/>
   <tile gid="185"/>
   <tile gid="185"/>
   <tile gid="185"/>
   <tile gid="185"/>
   <tile gid="185"/>
   <tile gid="185"/>
   <tile gid="185"/>
   <tile gid="185"/>
   <tile gid="185"/>
   <tile gid="185"/>
   <tile gid="185"/>
   <tile gid="185"/>
   <tile gid="185"/>
   <tile gid="185"/>
   <tile gid="185"/>
   <tile/>
   <tile/>
   <tile/>
   <tile gid="185"/>
   <tile gid="185"/>
   <tile gid="185"/>
   <tile gid="185"/>
   <tile gid="185"/>
   <tile gid="185"/>
   <tile gid="185"/>
   <tile gid="185"/>
   <tile gid="185"/>
   <tile gid="185"/>
   <tile gid="185"/>
   <tile/>
   <tile/>
   <tile/>
   <tile/>
   <tile/>
   <tile/>
   <tile/>
   <tile/>
   <tile/>
   <tile/>
   <tile/>
   <tile/>
   <tile/>
   <tile/>
   <tile/>
   <tile/>
   <tile/>
   <tile/>
   <tile/>
   <tile/>
   <tile/>
   <tile/>
   <tile/>
   <tile/>
   <tile/>
   <tile/>
   <tile/>
   <tile/>
   <tile/>
   <tile/>
   <tile/>
   <tile/>
   <tile/>
   <tile/>
   <tile/>
   <tile/>
   <tile/>
   <tile/>
   <tile/>
   <tile/>
   <tile/>
   <tile/>
   <tile/>
   <tile/>
   <tile/>
   <tile/>
   <tile/>
   <tile/>
   <tile/>
   <tile/>
   <tile/>
   <tile/>
   <tile/>
   <tile/>
   <tile/>
   <tile/>
   <tile/>
   <tile/>
   <tile/>
   <tile/>
   <tile/>
   <tile/>
   <tile/>
   <tile/>
   <tile/>
   <tile/>
   <tile/>
   <tile/>
   <tile/>
   <tile/>
   <tile/>
   <tile/>
   <tile/>
   <tile/>
   <tile/>
   <tile/>
   <tile/>
   <tile/>
   <tile/>
   <tile/>
   <tile/>
   <tile/>
   <tile/>
   <tile/>
   <tile/>
   <tile/>
   <tile/>
   <tile/>
   <tile/>
   <tile/>
   <tile/>
   <tile/>
   <tile/>
   <tile/>
   <tile/>
   <tile/>
   <tile/>
   <tile/>
   <tile/>
   <tile/>
   <tile/>
   <tile/>
   <tile/>
   <tile/>
   <tile/>
   <tile/>
   <tile/>
   <tile/>
   <tile/>
   <tile/>
   <tile/>
   <tile/>
   <tile/>
   <tile/>
   <tile/>
   <tile/>
   <tile/>
   <tile/>
   <tile/>
   <tile/>
   <tile/>
   <tile/>
   <tile/>
   <tile/>
   <tile/>
   <tile/>
   <tile/>
   <tile/>
   <tile/>
   <tile/>
   <tile/>
   <tile/>
   <tile/>
   <tile/>
   <tile/>
   <tile/>
   <tile/>
   <tile/>
   <tile/>
   <tile/>
   <tile/>
   <tile/>
   <tile/>
   <tile/>
   <tile/>
   <tile/>
   <tile/>
   <tile/>
   <tile/>
   <tile/>
   <tile/>
   <tile/>
   <tile/>
   <tile/>
   <tile/>
   <tile/>
   <tile/>
   <tile/>
   <tile/>
   <tile/>
   <tile/>
   <tile/>
   <tile/>
   <tile/>
   <tile/>
   <tile/>
   <tile/>
   <tile/>
   <tile/>
   <tile/>
   <tile/>
   <tile/>
   <tile/>
   <tile/>
   <tile/>
   <tile/>
   <tile/>
   <tile/>
   <tile/>
   <tile/>
   <tile/>
   <tile/>
   <tile/>
   <tile/>
   <tile/>
   <tile/>
   <tile/>
   <tile/>
   <tile/>
   <tile/>
   <tile/>
   <tile/>
   <tile/>
   <tile/>
   <tile/>
   <tile/>
   <tile/>
   <tile/>
   <tile/>
   <tile/>
   <tile/>
   <tile/>
   <tile/>
   <tile/>
   <tile/>
   <tile/>
   <tile/>
   <tile/>
   <tile/>
   <tile/>
   <tile/>
   <tile/>
   <tile/>
   <tile/>
   <tile/>
   <tile/>
   <tile/>
   <tile/>
   <tile/>
   <tile/>
   <tile/>
   <tile/>
   <tile/>
   <tile/>
   <tile/>
   <tile/>
   <tile/>
   <tile/>
   <tile/>
   <tile/>
   <tile/>
   <tile/>
   <tile/>
   <tile/>
   <tile/>
   <tile/>
   <tile/>
   <tile/>
   <tile/>
   <tile/>
   <tile/>
   <tile/>
   <tile/>
   <tile/>
   <tile/>
   <tile/>
   <tile/>
   <tile/>
   <tile/>
   <tile/>
   <tile/>
   <tile/>
   <tile/>
   <tile/>
   <tile/>
   <tile/>
   <tile/>
   <tile/>
   <tile/>
   <tile/>
   <tile/>
   <tile/>
   <tile/>
   <tile/>
   <tile/>
   <tile/>
   <tile/>
   <tile/>
   <tile/>
   <tile/>
   <tile/>
   <tile/>
   <tile/>
   <tile/>
   <tile/>
   <tile/>
   <tile/>
   <tile/>
   <tile/>
   <tile/>
   <tile/>
   <tile/>
   <tile/>
   <tile/>
   <tile/>
   <tile/>
   <tile/>
   <tile/>
   <tile/>
   <tile/>
   <tile/>
   <tile/>
   <tile/>
   <tile/>
   <tile/>
   <tile/>
   <tile/>
   <tile/>
   <tile/>
   <tile/>
   <tile/>
   <tile/>
   <tile/>
   <tile/>
   <tile/>
   <tile/>
   <tile/>
   <tile/>
   <tile/>
   <tile/>
   <tile/>
   <tile/>
   <tile/>
   <tile/>
   <tile/>
   <tile/>
   <tile/>
   <tile/>
   <tile/>
   <tile/>
   <tile/>
   <tile/>
   <tile/>
   <tile/>
   <tile/>
   <tile/>
   <tile/>
   <tile/>
   <tile/>
   <tile/>
   <tile/>
   <tile/>
   <tile/>
   <tile/>
   <tile/>
   <tile/>
   <tile/>
   <tile/>
   <tile/>
   <tile/>
   <tile/>
   <tile/>
   <tile/>
   <tile/>
   <tile/>
   <tile/>
   <tile/>
   <tile/>
   <tile/>
   <tile/>
   <tile/>
   <tile/>
   <tile/>
   <tile/>
   <tile/>
   <tile/>
   <tile/>
   <tile/>
   <tile/>
   <tile/>
   <tile/>
   <tile/>
   <tile/>
   <tile/>
   <tile/>
   <tile/>
   <tile/>
   <tile/>
   <tile/>
   <tile/>
   <tile/>
   <tile/>
   <tile/>
   <tile/>
   <tile/>
   <tile/>
   <tile/>
   <tile/>
   <tile/>
   <tile/>
   <tile/>
   <tile/>
   <tile/>
   <tile/>
   <tile/>
   <tile/>
   <tile/>
   <tile/>
   <tile/>
   <tile/>
   <tile/>
   <tile/>
   <tile/>
   <tile/>
   <tile/>
   <tile/>
   <tile/>
   <tile/>
   <tile/>
   <tile/>
   <tile/>
   <tile/>
   <tile/>
   <tile/>
   <tile/>
   <tile/>
   <tile/>
   <tile/>
   <tile/>
   <tile/>
   <tile/>
   <tile/>
   <tile/>
   <tile/>
   <tile/>
   <tile/>
   <tile/>
   <tile/>
   <tile/>
   <tile/>
   <tile/>
   <tile/>
   <tile/>
   <tile/>
   <tile/>
   <tile/>
   <tile/>
   <tile/>
   <tile/>
   <tile/>
   <tile/>
   <tile/>
   <tile/>
   <tile/>
   <tile/>
   <tile/>
   <tile/>
   <tile/>
   <tile/>
   <tile/>
   <tile/>
   <tile/>
   <tile/>
   <tile/>
   <tile/>
   <tile/>
   <tile/>
   <tile/>
   <tile/>
   <tile/>
   <tile/>
   <tile/>
   <tile/>
   <tile/>
   <tile/>
   <tile/>
   <tile/>
   <tile/>
   <tile/>
   <tile/>
   <tile/>
   <tile/>
   <tile/>
   <tile/>
   <tile/>
   <tile/>
   <tile/>
   <tile/>
   <tile/>
   <tile/>
   <tile/>
   <tile/>
   <tile/>
   <tile/>
   <tile/>
   <tile/>
   <tile/>
   <tile/>
   <tile/>
   <tile/>
   <tile/>
   <tile/>
   <tile/>
   <tile/>
   <tile/>
   <tile/>
   <tile/>
   <tile/>
   <tile/>
   <tile/>
   <tile/>
   <tile/>
   <tile/>
   <tile/>
   <tile/>
   <tile/>
   <tile/>
   <tile/>
   <tile/>
   <tile/>
   <tile/>
   <tile/>
   <tile/>
   <tile/>
   <tile/>
   <tile/>
   <tile/>
   <tile/>
   <tile/>
   <tile/>
   <tile/>
   <tile/>
   <tile/>
   <tile/>
   <tile/>
   <tile/>
   <tile/>
   <tile/>
   <tile/>
   <tile/>
   <tile/>
   <tile/>
   <tile/>
   <tile/>
   <tile/>
   <tile/>
   <tile/>
   <tile/>
   <tile/>
   <tile/>
   <tile/>
   <tile/>
   <tile/>
   <tile/>
   <tile/>
   <tile/>
   <tile/>
   <tile/>
   <tile/>
   <tile/>
   <tile/>
   <tile/>
   <tile/>
   <tile/>
   <tile/>
   <tile/>
   <tile/>
   <tile/>
   <tile/>
   <tile/>
   <tile/>
   <tile/>
   <tile/>
   <tile/>
   <tile/>
   <tile/>
   <tile/>
   <tile/>
   <tile/>
   <tile/>
   <tile/>
   <tile/>
   <tile/>
   <tile/>
   <tile/>
   <tile/>
   <tile/>
   <tile/>
   <tile/>
   <tile/>
   <tile/>
   <tile/>
   <tile/>
   <tile/>
   <tile/>
   <tile/>
   <tile/>
   <tile/>
   <tile/>
   <tile/>
   <tile/>
   <tile/>
   <tile/>
   <tile/>
   <tile/>
   <tile/>
   <tile/>
   <tile/>
   <tile/>
   <tile/>
   <tile/>
   <tile/>
   <tile/>
   <tile/>
   <tile/>
   <tile/>
   <tile/>
   <tile/>
   <tile/>
   <tile/>
   <tile/>
   <tile/>
   <tile/>
   <tile/>
   <tile/>
   <tile/>
   <tile/>
   <tile/>
   <tile/>
   <tile/>
   <tile/>
   <tile/>
   <tile/>
   <tile/>
   <tile/>
   <tile/>
   <tile/>
   <tile/>
   <tile/>
   <tile/>
   <tile/>
   <tile/>
   <tile/>
   <tile/>
   <tile/>
   <tile/>
   <tile/>
   <tile/>
   <tile/>
   <tile/>
   <tile/>
   <tile/>
   <tile/>
   <tile/>
   <tile/>
   <tile/>
   <tile/>
   <tile/>
   <tile/>
   <tile/>
   <tile/>
   <tile/>
   <tile/>
   <tile/>
   <tile/>
   <tile/>
   <tile/>
   <tile/>
   <tile/>
   <tile/>
   <tile/>
   <tile/>
   <tile/>
   <tile/>
   <tile/>
   <tile/>
   <tile/>
   <tile/>
   <tile/>
   <tile/>
   <tile/>
   <tile/>
   <tile/>
   <tile/>
   <tile/>
   <tile/>
   <tile/>
   <tile/>
   <tile/>
   <tile/>
   <tile/>
   <tile/>
   <tile/>
   <tile/>
   <tile/>
   <tile/>
   <tile/>
   <tile/>
   <tile/>
   <tile/>
   <tile/>
   <tile/>
   <tile/>
   <tile/>
   <tile/>
   <tile/>
   <tile/>
   <tile/>
   <tile/>
   <tile/>
   <tile/>
   <tile/>
   <tile/>
   <tile/>
   <tile/>
   <tile/>
   <tile/>
   <tile/>
   <tile/>
   <tile/>
   <tile/>
   <tile/>
   <tile/>
   <tile/>
   <tile/>
   <tile/>
   <tile/>
   <tile/>
   <tile/>
   <tile/>
   <tile/>
   <tile/>
   <tile/>
   <tile/>
   <tile/>
   <tile/>
   <tile/>
   <tile/>
   <tile/>
   <tile/>
   <tile/>
   <tile/>
   <tile/>
   <tile/>
   <tile/>
   <tile/>
   <tile/>
   <tile/>
   <tile/>
   <tile/>
   <tile/>
   <tile/>
   <tile/>
   <tile/>
   <tile/>
   <tile/>
   <tile/>
   <tile/>
   <tile/>
   <tile/>
   <tile/>
   <tile/>
   <tile/>
   <tile/>
   <tile/>
   <tile/>
   <tile/>
   <tile/>
   <tile/>
   <tile/>
   <tile/>
   <tile/>
   <tile/>
   <tile/>
   <tile/>
   <tile/>
   <tile/>
   <tile/>
   <tile/>
   <tile/>
   <tile/>
   <tile/>
   <tile/>
   <tile/>
   <tile/>
   <tile/>
   <tile/>
   <tile/>
   <tile/>
   <tile/>
   <tile/>
   <tile/>
   <tile/>
   <tile/>
   <tile/>
   <tile/>
   <tile/>
   <tile/>
   <tile/>
   <tile/>
   <tile/>
   <tile/>
   <tile/>
   <tile/>
   <tile/>
   <tile/>
   <tile/>
   <tile/>
   <tile/>
   <tile/>
   <tile/>
   <tile/>
   <tile/>
   <tile/>
   <tile/>
   <tile/>
   <tile/>
   <tile/>
   <tile/>
   <tile/>
   <tile/>
   <tile/>
   <tile/>
   <tile/>
   <tile/>
   <tile/>
   <tile/>
   <tile/>
   <tile/>
   <tile/>
   <tile/>
   <tile/>
   <tile/>
   <tile/>
   <tile/>
   <tile/>
   <tile/>
   <tile/>
   <tile/>
   <tile/>
   <tile/>
   <tile/>
   <tile/>
   <tile/>
   <tile/>
   <tile/>
   <tile/>
   <tile/>
   <tile/>
   <tile/>
   <tile/>
   <tile/>
   <tile/>
   <tile/>
   <tile/>
   <tile/>
   <tile/>
   <tile/>
   <tile/>
   <tile/>
   <tile/>
   <tile/>
   <tile/>
   <tile/>
   <tile/>
   <tile/>
   <tile/>
   <tile/>
   <tile/>
   <tile/>
   <tile/>
   <tile/>
   <tile/>
   <tile/>
   <tile/>
   <tile/>
   <tile/>
   <tile/>
   <tile/>
   <tile/>
   <tile/>
   <tile/>
   <tile/>
   <tile/>
   <tile/>
   <tile/>
   <tile/>
   <tile/>
   <tile/>
   <tile/>
   <tile/>
   <tile/>
   <tile/>
   <tile/>
   <tile/>
   <tile/>
   <tile/>
   <tile/>
   <tile/>
   <tile/>
   <tile/>
   <tile/>
   <tile/>
   <tile/>
   <tile/>
   <tile/>
   <tile/>
   <tile/>
   <tile/>
   <tile/>
   <tile/>
   <tile/>
   <tile/>
   <tile/>
   <tile/>
   <tile/>
   <tile/>
   <tile/>
   <tile/>
   <tile/>
   <tile/>
   <tile/>
   <tile/>
   <tile/>
   <tile/>
   <tile/>
   <tile/>
   <tile/>
   <tile/>
   <tile/>
   <tile/>
   <tile/>
   <tile/>
   <tile/>
   <tile/>
   <tile/>
   <tile/>
   <tile/>
   <tile/>
   <tile/>
   <tile/>
   <tile/>
   <tile/>
   <tile/>
   <tile/>
   <tile/>
   <tile/>
   <tile/>
   <tile/>
   <tile/>
   <tile/>
   <tile/>
   <tile/>
   <tile/>
   <tile/>
   <tile/>
   <tile/>
   <tile/>
   <tile/>
   <tile/>
   <tile/>
   <tile/>
   <tile/>
   <tile/>
   <tile/>
   <tile/>
   <tile/>
   <tile/>
   <tile/>
   <tile/>
   <tile/>
   <tile/>
   <tile/>
   <tile/>
   <tile/>
   <tile/>
   <tile/>
   <tile/>
   <tile/>
   <tile/>
   <tile/>
   <tile/>
   <tile/>
   <tile/>
   <tile/>
   <tile/>
   <tile/>
   <tile/>
   <tile/>
   <tile/>
   <tile/>
   <tile/>
   <tile/>
   <tile/>
   <tile/>
   <tile/>
   <tile/>
   <tile/>
   <tile/>
   <tile/>
   <tile/>
   <tile/>
   <tile/>
   <tile/>
   <tile/>
   <tile/>
   <tile/>
   <tile/>
   <tile/>
   <tile/>
   <tile/>
   <tile/>
   <tile/>
   <tile/>
   <tile/>
   <tile/>
   <tile/>
   <tile/>
   <tile/>
   <tile/>
   <tile/>
   <tile/>
   <tile/>
   <tile/>
   <tile/>
   <tile/>
   <tile/>
   <tile/>
   <tile/>
   <tile/>
   <tile/>
   <tile/>
   <tile/>
   <tile/>
   <tile/>
   <tile/>
   <tile/>
   <tile/>
   <tile/>
   <tile/>
   <tile/>
   <tile/>
   <tile/>
   <tile/>
   <tile/>
   <tile/>
   <tile/>
   <tile/>
   <tile/>
   <tile/>
   <tile/>
   <tile/>
   <tile/>
   <tile/>
   <tile/>
   <tile/>
   <tile/>
   <tile/>
   <tile/>
   <tile/>
   <tile/>
   <tile/>
   <tile/>
   <tile/>
   <tile/>
   <tile/>
   <tile/>
   <tile/>
   <tile/>
   <tile/>
   <tile/>
   <tile/>
   <tile/>
   <tile/>
   <tile/>
   <tile/>
   <tile/>
   <tile/>
   <tile/>
   <tile/>
   <tile/>
   <tile/>
   <tile/>
   <tile/>
   <tile/>
   <tile/>
   <tile/>
   <tile/>
   <tile/>
   <tile/>
   <tile/>
   <tile/>
   <tile/>
   <tile/>
   <tile/>
   <tile/>
   <tile/>
   <tile/>
   <tile/>
   <tile/>
   <tile/>
   <tile/>
   <tile/>
   <tile/>
   <tile/>
   <tile/>
   <tile/>
   <tile/>
   <tile/>
   <tile/>
   <tile/>
   <tile/>
   <tile/>
   <tile/>
   <tile/>
   <tile/>
   <tile/>
   <tile/>
   <tile/>
   <tile/>
   <tile/>
   <tile/>
   <tile/>
   <tile/>
   <tile/>
   <tile/>
   <tile/>
   <tile/>
   <tile/>
   <tile/>
   <tile/>
   <tile/>
   <tile/>
   <tile/>
   <tile/>
   <tile/>
   <tile/>
   <tile/>
   <tile/>
   <tile/>
   <tile/>
   <tile/>
   <tile/>
   <tile/>
   <tile/>
   <tile/>
   <tile/>
   <tile/>
   <tile/>
   <tile/>
   <tile/>
   <tile/>
   <tile/>
   <tile/>
   <tile/>
   <tile/>
   <tile/>
   <tile/>
   <tile/>
   <tile/>
   <tile/>
   <tile/>
   <tile/>
   <tile/>
   <tile/>
   <tile/>
   <tile/>
   <tile/>
   <tile/>
   <tile/>
   <tile/>
   <tile/>
   <tile/>
   <tile/>
   <tile/>
   <tile/>
   <tile/>
   <tile/>
   <tile/>
   <tile/>
   <tile/>
   <tile/>
   <tile/>
   <tile/>
   <tile/>
   <tile/>
   <tile/>
   <tile/>
   <tile/>
   <tile/>
   <tile/>
   <tile/>
   <tile/>
   <tile/>
   <tile/>
   <tile/>
   <tile/>
   <tile/>
   <tile/>
   <tile/>
   <tile/>
   <tile/>
   <tile/>
   <tile/>
   <tile/>
   <tile/>
   <tile/>
   <tile/>
   <tile/>
   <tile/>
   <tile/>
   <tile/>
   <tile/>
   <tile/>
   <tile/>
   <tile/>
   <tile/>
   <tile/>
   <tile/>
   <tile/>
   <tile/>
   <tile/>
   <tile/>
   <tile/>
   <tile/>
   <tile/>
   <tile/>
   <tile/>
   <tile/>
   <tile/>
   <tile/>
   <tile/>
   <tile/>
   <tile/>
   <tile/>
   <tile/>
   <tile/>
   <tile/>
   <tile/>
   <tile/>
   <tile/>
   <tile/>
   <tile/>
   <tile/>
   <tile/>
   <tile/>
   <tile/>
   <tile/>
   <tile/>
   <tile/>
   <tile/>
   <tile/>
   <tile/>
   <tile/>
   <tile/>
   <tile/>
   <tile/>
   <tile/>
   <tile/>
   <tile/>
   <tile/>
   <tile/>
   <tile/>
   <tile/>
   <tile/>
   <tile/>
   <tile/>
   <tile/>
   <tile/>
   <tile/>
   <tile/>
   <tile/>
   <tile/>
   <tile/>
   <tile/>
   <tile/>
   <tile/>
   <tile/>
   <tile/>
   <tile/>
   <tile/>
   <tile/>
   <tile/>
   <tile/>
   <tile/>
   <tile/>
   <tile/>
   <tile/>
   <tile/>
   <tile/>
   <tile/>
   <tile/>
   <tile/>
   <tile/>
   <tile/>
   <tile/>
   <tile/>
   <tile/>
   <tile/>
   <tile/>
   <tile/>
   <tile/>
   <tile/>
   <tile/>
   <tile/>
   <tile/>
   <tile/>
   <tile/>
   <tile/>
   <tile/>
   <tile/>
   <tile/>
   <tile/>
   <tile/>
   <tile/>
   <tile/>
   <tile/>
   <tile/>
   <tile/>
   <tile/>
   <tile/>
   <tile/>
   <tile/>
   <tile/>
   <tile/>
   <tile/>
   <tile/>
   <tile/>
   <tile/>
   <tile/>
   <tile/>
   <tile/>
   <tile/>
   <tile/>
   <tile/>
   <tile/>
   <tile/>
   <tile/>
   <tile/>
   <tile/>
   <tile/>
   <tile/>
   <tile/>
   <tile/>
   <tile/>
   <tile/>
   <tile/>
   <tile/>
   <tile/>
   <tile/>
   <tile/>
   <tile/>
   <tile/>
   <tile/>
   <tile/>
   <tile/>
   <tile/>
   <tile/>
   <tile/>
   <tile/>
   <tile/>
   <tile/>
   <tile/>
   <tile/>
   <tile/>
   <tile/>
   <tile/>
   <tile/>
   <tile/>
   <tile/>
   <tile/>
   <tile/>
   <tile/>
   <tile/>
   <tile/>
   <tile/>
   <tile/>
   <tile/>
   <tile/>
   <tile/>
   <tile/>
   <tile/>
   <tile/>
   <tile/>
   <tile/>
   <tile/>
   <tile/>
   <tile/>
   <tile/>
   <tile/>
   <tile/>
   <tile/>
   <tile/>
   <tile/>
   <tile/>
   <tile/>
   <tile/>
   <tile/>
   <tile/>
   <tile/>
   <tile/>
   <tile/>
   <tile/>
   <tile/>
   <tile/>
   <tile/>
   <tile/>
   <tile/>
   <tile/>
   <tile/>
   <tile/>
   <tile/>
   <tile/>
   <tile/>
   <tile/>
   <tile/>
   <tile/>
   <tile/>
   <tile/>
   <tile/>
   <tile/>
   <tile/>
   <tile/>
   <tile/>
   <tile/>
   <tile/>
   <tile/>
   <tile/>
   <tile/>
   <tile/>
   <tile/>
   <tile/>
   <tile/>
   <tile/>
   <tile/>
   <tile/>
   <tile/>
   <tile/>
   <tile/>
   <tile/>
   <tile/>
   <tile/>
   <tile/>
   <tile/>
   <tile/>
   <tile/>
   <tile/>
   <tile/>
   <tile/>
   <tile/>
   <tile/>
   <tile/>
   <tile/>
   <tile/>
   <tile/>
   <tile/>
   <tile/>
   <tile/>
   <tile/>
   <tile/>
   <tile/>
   <tile/>
   <tile/>
   <tile/>
   <tile/>
   <tile/>
   <tile/>
   <tile/>
   <tile/>
   <tile/>
   <tile/>
   <tile/>
   <tile/>
   <tile/>
   <tile/>
   <tile/>
   <tile/>
   <tile/>
   <tile/>
   <tile/>
   <tile/>
   <tile/>
   <tile/>
   <tile/>
   <tile/>
   <tile/>
   <tile/>
   <tile/>
   <tile/>
   <tile/>
   <tile/>
   <tile/>
   <tile/>
   <tile/>
   <tile/>
   <tile/>
   <tile/>
   <tile/>
   <tile/>
   <tile/>
   <tile/>
   <tile/>
   <tile/>
   <tile/>
   <tile/>
   <tile/>
   <tile/>
   <tile/>
   <tile/>
   <tile/>
   <tile/>
   <tile/>
   <tile/>
   <tile/>
   <tile/>
   <tile/>
   <tile/>
   <tile/>
   <tile/>
   <tile/>
   <tile/>
   <tile/>
   <tile/>
   <tile/>
   <tile/>
   <tile/>
   <tile/>
   <tile/>
   <tile/>
   <tile/>
   <tile/>
   <tile/>
   <tile/>
   <tile/>
   <tile/>
   <tile/>
   <tile/>
   <tile/>
   <tile/>
   <tile/>
   <tile/>
   <tile/>
   <tile/>
   <tile/>
   <tile/>
   <tile/>
   <tile/>
   <tile/>
   <tile/>
   <tile/>
   <tile/>
   <tile/>
   <tile/>
   <tile/>
   <tile/>
   <tile/>
   <tile/>
   <tile/>
   <tile/>
   <tile/>
   <tile/>
   <tile/>
   <tile/>
   <tile/>
   <tile/>
   <tile/>
   <tile/>
   <tile/>
   <tile/>
   <tile/>
   <tile/>
   <tile/>
   <tile/>
   <tile/>
   <tile/>
   <tile/>
   <tile/>
   <tile/>
   <tile/>
   <tile/>
   <tile/>
   <tile/>
   <tile/>
   <tile/>
   <tile/>
   <tile/>
   <tile/>
   <tile/>
   <tile/>
   <tile/>
   <tile/>
   <tile/>
   <tile/>
   <tile/>
   <tile/>
   <tile/>
   <tile/>
   <tile/>
   <tile/>
   <tile/>
   <tile/>
   <tile/>
   <tile/>
   <tile/>
   <tile/>
   <tile/>
   <tile/>
   <tile/>
   <tile/>
   <tile/>
   <tile/>
   <tile/>
   <tile/>
   <tile/>
   <tile/>
   <tile/>
   <tile/>
   <tile/>
   <tile/>
   <tile/>
   <tile/>
   <tile/>
   <tile/>
   <tile/>
   <tile/>
   <tile/>
   <tile/>
   <tile/>
   <tile/>
   <tile/>
   <tile/>
   <tile/>
   <tile/>
   <tile/>
   <tile/>
   <tile/>
   <tile/>
   <tile/>
   <tile/>
   <tile/>
   <tile/>
   <tile/>
   <tile/>
   <tile/>
   <tile/>
   <tile/>
   <tile/>
   <tile/>
   <tile/>
   <tile/>
   <tile/>
   <tile/>
   <tile/>
   <tile/>
   <tile/>
   <tile/>
   <tile/>
   <tile/>
   <tile/>
   <tile/>
   <tile/>
   <tile/>
   <tile/>
   <tile/>
   <tile/>
   <tile/>
   <tile/>
   <tile/>
   <tile/>
   <tile/>
   <tile/>
   <tile/>
   <tile/>
   <tile/>
   <tile/>
   <tile/>
   <tile/>
   <tile/>
   <tile/>
   <tile/>
   <tile/>
   <tile/>
   <tile/>
   <tile/>
   <tile/>
   <tile/>
   <tile/>
   <tile/>
   <tile/>
   <tile/>
   <tile/>
   <tile/>
   <tile/>
   <tile/>
   <tile/>
   <tile/>
   <tile/>
   <tile/>
   <tile/>
   <tile/>
   <tile/>
   <tile/>
   <tile/>
   <tile/>
   <tile/>
   <tile/>
   <tile/>
   <tile/>
   <tile/>
   <tile/>
   <tile/>
   <tile/>
   <tile/>
   <tile/>
   <tile/>
   <tile/>
   <tile/>
   <tile/>
   <tile/>
   <tile/>
   <tile/>
   <tile/>
   <tile/>
   <tile/>
   <tile/>
   <tile/>
   <tile/>
   <tile/>
   <tile/>
   <tile/>
   <tile/>
   <tile/>
   <tile/>
   <tile/>
   <tile/>
   <tile/>
   <tile/>
   <tile/>
   <tile/>
   <tile/>
   <tile/>
   <tile/>
   <tile/>
   <tile/>
   <tile/>
   <tile/>
   <tile/>
   <tile/>
   <tile/>
   <tile/>
   <tile/>
   <tile/>
   <tile/>
   <tile/>
   <tile/>
   <tile/>
   <tile/>
   <tile/>
   <tile/>
   <tile/>
   <tile/>
   <tile/>
   <tile/>
   <tile/>
   <tile/>
   <tile/>
   <tile/>
   <tile/>
   <tile/>
   <tile/>
   <tile/>
   <tile/>
   <tile/>
   <tile/>
   <tile/>
   <tile/>
   <tile/>
   <tile/>
   <tile/>
   <tile/>
   <tile/>
   <tile/>
   <tile/>
   <tile/>
   <tile/>
   <tile/>
   <tile/>
   <tile/>
   <tile/>
   <tile/>
   <tile/>
   <tile/>
   <tile/>
   <tile/>
   <tile/>
   <tile/>
   <tile/>
   <tile/>
   <tile/>
   <tile/>
   <tile/>
   <tile/>
   <tile/>
   <tile/>
   <tile/>
   <tile/>
   <tile/>
   <tile/>
   <tile/>
   <tile/>
   <tile/>
   <tile/>
   <tile/>
   <tile/>
   <tile/>
   <tile/>
   <tile/>
   <tile/>
   <tile/>
   <tile/>
   <tile/>
   <tile/>
   <tile/>
   <tile/>
   <tile/>
   <tile/>
   <tile/>
   <tile/>
   <tile/>
   <tile/>
   <tile/>
   <tile/>
   <tile/>
   <tile/>
   <tile/>
   <tile/>
   <tile/>
   <tile/>
   <tile/>
   <tile/>
   <tile/>
   <tile/>
   <tile/>
   <tile/>
   <tile/>
   <tile/>
   <tile/>
   <tile/>
   <tile/>
   <tile/>
   <tile/>
   <tile/>
   <tile/>
   <tile/>
   <tile/>
   <tile/>
   <tile/>
   <tile/>
   <tile/>
   <tile gid="185"/>
   <tile gid="185"/>
   <tile gid="185"/>
   <tile/>
   <tile/>
   <tile/>
   <tile/>
   <tile/>
   <tile/>
   <tile/>
   <tile/>
   <tile/>
   <tile/>
   <tile/>
   <tile/>
   <tile/>
   <tile/>
   <tile/>
   <tile/>
   <tile/>
   <tile/>
   <tile/>
   <tile/>
   <tile/>
   <tile/>
   <tile/>
   <tile/>
   <tile/>
   <tile/>
   <tile/>
   <tile/>
   <tile/>
   <tile/>
   <tile/>
   <tile/>
   <tile/>
   <tile/>
   <tile/>
   <tile/>
   <tile/>
   <tile/>
   <tile/>
   <tile/>
   <tile/>
   <tile/>
   <tile/>
   <tile/>
   <tile/>
   <tile/>
   <tile/>
   <tile/>
   <tile/>
   <tile/>
   <tile/>
   <tile/>
   <tile/>
   <tile/>
   <tile/>
   <tile/>
   <tile/>
   <tile/>
   <tile/>
   <tile/>
   <tile/>
   <tile/>
   <tile/>
   <tile/>
   <tile/>
   <tile/>
   <tile/>
   <tile/>
   <tile/>
   <tile/>
   <tile/>
   <tile/>
   <tile/>
   <tile/>
   <tile/>
   <tile/>
   <tile/>
   <tile/>
   <tile/>
   <tile/>
   <tile/>
   <tile/>
   <tile gid="185"/>
   <tile gid="185"/>
   <tile gid="185"/>
   <tile gid="185"/>
   <tile gid="185"/>
   <tile gid="185"/>
   <tile gid="185"/>
   <tile gid="185"/>
   <tile gid="185"/>
   <tile gid="185"/>
   <tile gid="185"/>
   <tile gid="185"/>
   <tile gid="185"/>
   <tile gid="185"/>
   <tile/>
   <tile/>
   <tile/>
   <tile gid="185"/>
   <tile gid="185"/>
   <tile gid="185"/>
   <tile gid="185"/>
   <tile gid="185"/>
   <tile gid="185"/>
   <tile gid="185"/>
   <tile gid="185"/>
   <tile/>
   <tile/>
   <tile/>
   <tile/>
   <tile/>
   <tile/>
   <tile/>
   <tile/>
   <tile/>
   <tile/>
   <tile/>
   <tile/>
   <tile/>
   <tile/>
   <tile/>
   <tile/>
   <tile/>
   <tile/>
   <tile/>
   <tile/>
   <tile/>
   <tile/>
   <tile/>
   <tile/>
   <tile/>
   <tile/>
   <tile/>
   <tile/>
   <tile/>
   <tile/>
   <tile/>
   <tile/>
   <tile/>
   <tile/>
   <tile/>
   <tile/>
   <tile/>
   <tile/>
   <tile/>
   <tile/>
   <tile/>
   <tile/>
   <tile/>
   <tile/>
   <tile/>
   <tile/>
   <tile/>
   <tile/>
   <tile/>
   <tile/>
   <tile/>
   <tile/>
   <tile/>
   <tile/>
   <tile/>
   <tile/>
   <tile/>
   <tile/>
   <tile/>
   <tile/>
   <tile/>
   <tile/>
   <tile/>
   <tile/>
   <tile/>
   <tile/>
   <tile/>
   <tile/>
   <tile/>
   <tile/>
   <tile/>
   <tile/>
   <tile/>
   <tile/>
   <tile/>
   <tile/>
   <tile/>
   <tile/>
   <tile/>
   <tile/>
   <tile/>
   <tile/>
   <tile/>
   <tile/>
   <tile/>
   <tile/>
   <tile/>
   <tile/>
   <tile/>
   <tile/>
   <tile/>
   <tile/>
   <tile/>
   <tile/>
   <tile/>
   <tile/>
   <tile/>
   <tile/>
   <tile/>
   <tile/>
   <tile/>
   <tile/>
   <tile/>
   <tile/>
   <tile/>
   <tile/>
   <tile/>
   <tile/>
   <tile/>
   <tile/>
   <tile/>
   <tile/>
   <tile/>
   <tile/>
   <tile/>
   <tile/>
   <tile/>
   <tile/>
   <tile/>
   <tile/>
   <tile/>
   <tile/>
   <tile/>
   <tile/>
   <tile/>
   <tile/>
   <tile/>
   <tile/>
   <tile/>
   <tile/>
   <tile/>
   <tile/>
   <tile/>
   <tile/>
   <tile/>
   <tile/>
   <tile/>
   <tile/>
   <tile/>
   <tile/>
   <tile/>
   <tile/>
   <tile/>
   <tile/>
   <tile/>
   <tile/>
   <tile/>
   <tile/>
   <tile/>
   <tile/>
   <tile/>
   <tile/>
   <tile/>
   <tile/>
   <tile/>
   <tile/>
   <tile/>
   <tile/>
   <tile/>
   <tile/>
   <tile/>
   <tile/>
   <tile/>
   <tile/>
   <tile/>
   <tile/>
   <tile/>
   <tile/>
   <tile/>
   <tile/>
   <tile/>
   <tile/>
   <tile/>
   <tile/>
   <tile/>
   <tile/>
   <tile/>
   <tile/>
   <tile/>
   <tile/>
   <tile/>
   <tile/>
   <tile/>
   <tile/>
   <tile/>
   <tile/>
   <tile/>
   <tile/>
   <tile/>
   <tile/>
   <tile/>
   <tile/>
   <tile/>
   <tile/>
   <tile/>
   <tile/>
   <tile/>
   <tile/>
   <tile/>
   <tile/>
   <tile/>
   <tile/>
   <tile/>
   <tile/>
   <tile/>
   <tile/>
   <tile/>
   <tile/>
   <tile/>
   <tile/>
   <tile/>
   <tile/>
   <tile/>
   <tile/>
   <tile/>
   <tile/>
   <tile/>
   <tile/>
   <tile/>
   <tile/>
   <tile/>
   <tile/>
   <tile/>
   <tile/>
   <tile/>
   <tile/>
   <tile/>
   <tile/>
   <tile/>
   <tile/>
   <tile/>
   <tile/>
   <tile/>
   <tile/>
   <tile/>
   <tile/>
   <tile/>
   <tile/>
   <tile/>
   <tile/>
   <tile/>
   <tile/>
   <tile/>
   <tile/>
   <tile/>
   <tile/>
   <tile/>
   <tile/>
   <tile/>
   <tile/>
   <tile/>
   <tile/>
   <tile/>
   <tile/>
   <tile/>
   <tile/>
   <tile/>
   <tile/>
   <tile/>
   <tile/>
   <tile/>
   <tile/>
   <tile/>
   <tile/>
   <tile/>
   <tile/>
   <tile/>
   <tile/>
   <tile/>
   <tile/>
   <tile/>
   <tile/>
   <tile/>
   <tile/>
   <tile/>
   <tile/>
   <tile/>
   <tile/>
   <tile/>
   <tile/>
   <tile/>
   <tile/>
   <tile/>
   <tile/>
   <tile/>
   <tile/>
   <tile/>
   <tile/>
   <tile/>
   <tile/>
   <tile/>
   <tile/>
   <tile/>
   <tile/>
   <tile/>
   <tile/>
   <tile/>
   <tile/>
   <tile/>
   <tile/>
   <tile/>
   <tile/>
   <tile/>
   <tile/>
   <tile/>
   <tile/>
   <tile/>
   <tile/>
   <tile/>
   <tile/>
   <tile/>
   <tile/>
   <tile/>
   <tile/>
   <tile/>
   <tile/>
   <tile/>
   <tile/>
   <tile/>
   <tile/>
   <tile/>
   <tile/>
   <tile/>
   <tile/>
   <tile/>
   <tile/>
   <tile/>
   <tile/>
   <tile/>
   <tile/>
   <tile/>
   <tile/>
   <tile/>
   <tile/>
   <tile/>
   <tile/>
   <tile/>
   <tile/>
   <tile/>
   <tile/>
   <tile/>
   <tile/>
   <tile/>
   <tile/>
   <tile/>
   <tile/>
   <tile/>
   <tile/>
   <tile/>
   <tile/>
   <tile/>
   <tile/>
   <tile/>
   <tile/>
   <tile/>
   <tile/>
   <tile/>
   <tile/>
   <tile/>
   <tile/>
   <tile/>
   <tile/>
   <tile/>
   <tile/>
   <tile/>
   <tile/>
   <tile/>
   <tile/>
   <tile/>
   <tile/>
   <tile/>
   <tile/>
   <tile/>
   <tile/>
   <tile/>
   <tile/>
   <tile/>
   <tile/>
   <tile/>
   <tile/>
   <tile/>
   <tile/>
   <tile/>
   <tile/>
   <tile/>
   <tile/>
   <tile/>
   <tile/>
   <tile/>
   <tile/>
   <tile/>
   <tile/>
   <tile/>
   <tile/>
   <tile/>
   <tile/>
   <tile/>
   <tile/>
   <tile/>
   <tile/>
   <tile/>
   <tile/>
   <tile/>
   <tile/>
   <tile/>
   <tile/>
   <tile/>
   <tile/>
   <tile/>
   <tile/>
   <tile/>
   <tile/>
   <tile/>
   <tile/>
   <tile/>
   <tile/>
   <tile/>
   <tile/>
   <tile/>
   <tile/>
   <tile/>
   <tile/>
   <tile/>
   <tile/>
   <tile/>
   <tile/>
   <tile/>
   <tile/>
   <tile/>
   <tile/>
   <tile/>
   <tile/>
   <tile/>
   <tile/>
   <tile/>
   <tile/>
   <tile/>
   <tile/>
   <tile/>
   <tile/>
   <tile/>
   <tile/>
   <tile/>
   <tile/>
   <tile/>
   <tile/>
   <tile/>
   <tile/>
   <tile/>
   <tile/>
   <tile/>
   <tile/>
   <tile/>
   <tile/>
   <tile/>
   <tile/>
   <tile/>
   <tile/>
   <tile/>
   <tile/>
   <tile/>
   <tile/>
   <tile/>
   <tile/>
   <tile/>
   <tile/>
   <tile/>
   <tile/>
   <tile/>
   <tile/>
   <tile/>
   <tile/>
   <tile/>
   <tile/>
   <tile/>
   <tile/>
   <tile/>
   <tile/>
   <tile/>
   <tile/>
   <tile/>
   <tile/>
   <tile/>
   <tile/>
   <tile/>
   <tile/>
   <tile/>
   <tile/>
   <tile/>
   <tile/>
   <tile/>
   <tile/>
   <tile/>
   <tile/>
   <tile/>
   <tile/>
   <tile/>
   <tile/>
   <tile/>
   <tile/>
   <tile/>
   <tile/>
   <tile/>
   <tile/>
   <tile/>
   <tile/>
   <tile/>
   <tile/>
   <tile/>
   <tile/>
   <tile/>
   <tile/>
   <tile/>
   <tile/>
   <tile/>
   <tile/>
   <tile/>
   <tile/>
   <tile/>
   <tile/>
   <tile/>
   <tile/>
   <tile/>
   <tile/>
   <tile/>
   <tile/>
   <tile/>
   <tile/>
   <tile/>
   <tile/>
   <tile/>
   <tile/>
   <tile/>
   <tile gid="185"/>
   <tile gid="185"/>
   <tile gid="185"/>
   <tile/>
   <tile/>
   <tile/>
   <tile/>
   <tile/>
   <tile/>
   <tile/>
   <tile/>
   <tile/>
   <tile/>
   <tile/>
   <tile/>
   <tile/>
   <tile/>
   <tile/>
   <tile/>
   <tile/>
   <tile/>
   <tile/>
   <tile/>
   <tile/>
   <tile/>
   <tile/>
   <tile/>
   <tile/>
   <tile/>
   <tile/>
   <tile/>
   <tile/>
   <tile/>
   <tile/>
   <tile/>
   <tile/>
   <tile/>
   <tile/>
   <tile/>
   <tile/>
   <tile/>
   <tile/>
   <tile/>
   <tile/>
   <tile/>
   <tile/>
   <tile/>
   <tile/>
   <tile/>
   <tile/>
   <tile/>
   <tile/>
   <tile/>
   <tile/>
   <tile/>
   <tile/>
   <tile/>
   <tile/>
   <tile/>
   <tile/>
   <tile/>
   <tile/>
   <tile/>
   <tile/>
   <tile/>
   <tile/>
   <tile/>
   <tile/>
   <tile/>
   <tile/>
   <tile/>
   <tile/>
   <tile/>
   <tile/>
   <tile/>
   <tile/>
   <tile/>
   <tile/>
   <tile/>
   <tile/>
   <tile/>
   <tile/>
   <tile/>
   <tile/>
   <tile/>
   <tile/>
   <tile/>
   <tile/>
   <tile/>
   <tile/>
   <tile/>
   <tile/>
   <tile/>
   <tile/>
   <tile/>
   <tile/>
   <tile/>
   <tile/>
   <tile/>
   <tile/>
   <tile/>
   <tile/>
   <tile/>
   <tile/>
   <tile/>
   <tile/>
   <tile/>
   <tile/>
   <tile/>
   <tile/>
   <tile/>
   <tile/>
   <tile/>
   <tile/>
   <tile/>
   <tile/>
   <tile/>
   <tile/>
   <tile/>
   <tile/>
   <tile/>
   <tile/>
   <tile/>
   <tile/>
   <tile/>
   <tile/>
   <tile/>
   <tile/>
   <tile/>
   <tile/>
   <tile/>
   <tile/>
   <tile/>
   <tile/>
   <tile/>
   <tile/>
   <tile/>
   <tile/>
   <tile/>
   <tile/>
   <tile/>
   <tile/>
   <tile/>
   <tile/>
   <tile/>
   <tile/>
   <tile/>
   <tile/>
   <tile/>
   <tile/>
   <tile/>
   <tile/>
   <tile/>
   <tile/>
   <tile/>
   <tile/>
   <tile/>
   <tile/>
   <tile/>
   <tile/>
   <tile/>
   <tile/>
   <tile/>
   <tile/>
   <tile/>
   <tile/>
   <tile/>
   <tile/>
   <tile/>
   <tile/>
   <tile/>
   <tile/>
   <tile/>
   <tile/>
   <tile/>
   <tile/>
   <tile/>
   <tile/>
   <tile/>
   <tile/>
   <tile/>
   <tile/>
   <tile/>
   <tile/>
   <tile/>
   <tile/>
   <tile/>
   <tile/>
   <tile/>
   <tile/>
   <tile/>
   <tile/>
   <tile/>
   <tile/>
   <tile/>
   <tile/>
   <tile/>
   <tile/>
   <tile/>
   <tile/>
   <tile/>
   <tile/>
   <tile/>
   <tile/>
   <tile/>
   <tile/>
   <tile/>
   <tile/>
   <tile/>
   <tile/>
   <tile/>
   <tile/>
   <tile/>
   <tile/>
   <tile/>
   <tile/>
   <tile/>
   <tile/>
   <tile/>
   <tile/>
   <tile/>
   <tile/>
   <tile/>
   <tile/>
   <tile/>
   <tile/>
   <tile/>
   <tile/>
   <tile/>
   <tile/>
   <tile/>
   <tile/>
   <tile/>
   <tile/>
   <tile/>
   <tile/>
   <tile/>
   <tile/>
   <tile/>
   <tile/>
   <tile/>
   <tile/>
   <tile/>
   <tile/>
   <tile/>
   <tile/>
   <tile/>
   <tile/>
   <tile/>
   <tile/>
   <tile/>
   <tile/>
   <tile/>
   <tile/>
   <tile/>
   <tile/>
   <tile/>
   <tile/>
   <tile/>
   <tile/>
   <tile/>
   <tile/>
   <tile/>
   <tile/>
   <tile/>
   <tile/>
   <tile/>
   <tile/>
   <tile/>
   <tile/>
   <tile/>
   <tile/>
   <tile/>
   <tile/>
   <tile/>
   <tile/>
   <tile/>
   <tile/>
   <tile/>
   <tile/>
   <tile/>
   <tile/>
   <tile/>
   <tile/>
   <tile/>
   <tile/>
   <tile/>
   <tile/>
   <tile/>
   <tile/>
   <tile/>
   <tile/>
   <tile/>
   <tile/>
   <tile/>
   <tile/>
   <tile/>
   <tile/>
   <tile/>
   <tile/>
   <tile/>
   <tile/>
   <tile/>
   <tile/>
   <tile/>
   <tile/>
   <tile/>
   <tile/>
   <tile/>
   <tile/>
   <tile/>
   <tile/>
   <tile/>
   <tile/>
   <tile/>
   <tile/>
   <tile/>
   <tile/>
   <tile/>
   <tile/>
   <tile/>
   <tile/>
   <tile/>
   <tile/>
   <tile/>
   <tile/>
   <tile/>
   <tile/>
   <tile/>
   <tile/>
   <tile/>
   <tile/>
   <tile/>
   <tile/>
   <tile/>
   <tile/>
   <tile/>
   <tile/>
   <tile/>
   <tile/>
   <tile/>
   <tile/>
   <tile/>
   <tile/>
   <tile/>
   <tile/>
   <tile/>
   <tile/>
   <tile/>
   <tile/>
   <tile/>
   <tile/>
   <tile/>
   <tile/>
   <tile/>
   <tile/>
   <tile/>
   <tile/>
   <tile/>
   <tile/>
   <tile/>
   <tile/>
   <tile/>
   <tile/>
   <tile/>
   <tile/>
   <tile/>
   <tile/>
   <tile/>
   <tile/>
   <tile/>
   <tile/>
   <tile/>
   <tile/>
   <tile/>
   <tile/>
   <tile/>
   <tile/>
   <tile/>
   <tile/>
   <tile/>
   <tile/>
   <tile/>
   <tile/>
   <tile/>
   <tile/>
   <tile/>
   <tile/>
   <tile/>
   <tile/>
   <tile/>
   <tile/>
   <tile/>
   <tile/>
   <tile/>
   <tile/>
   <tile/>
   <tile/>
   <tile/>
   <tile/>
   <tile/>
   <tile/>
   <tile/>
   <tile/>
   <tile/>
   <tile/>
   <tile/>
   <tile/>
   <tile/>
   <tile/>
   <tile/>
   <tile/>
   <tile/>
   <tile/>
   <tile/>
   <tile/>
   <tile/>
   <tile/>
   <tile/>
   <tile/>
   <tile/>
   <tile/>
   <tile/>
   <tile/>
   <tile/>
   <tile/>
   <tile/>
   <tile/>
   <tile/>
   <tile/>
   <tile/>
   <tile/>
   <tile/>
   <tile/>
   <tile/>
   <tile/>
   <tile/>
   <tile/>
   <tile/>
   <tile/>
   <tile/>
   <tile/>
   <tile/>
   <tile/>
   <tile/>
   <tile/>
   <tile/>
   <tile/>
   <tile/>
   <tile/>
   <tile/>
   <tile/>
   <tile/>
   <tile/>
   <tile/>
   <tile/>
   <tile/>
   <tile/>
   <tile/>
   <tile/>
   <tile/>
   <tile/>
   <tile/>
   <tile/>
   <tile/>
   <tile/>
   <tile/>
   <tile/>
   <tile/>
   <tile/>
   <tile/>
   <tile/>
   <tile/>
   <tile/>
   <tile/>
   <tile/>
   <tile/>
   <tile/>
   <tile/>
   <tile/>
   <tile/>
   <tile/>
   <tile/>
   <tile/>
   <tile/>
   <tile/>
   <tile/>
   <tile/>
   <tile/>
   <tile/>
   <tile/>
   <tile/>
   <tile/>
   <tile/>
   <tile/>
   <tile/>
   <tile/>
   <tile/>
   <tile/>
   <tile/>
   <tile/>
   <tile/>
   <tile/>
   <tile/>
   <tile/>
   <tile/>
   <tile/>
   <tile/>
   <tile/>
   <tile/>
   <tile/>
   <tile/>
   <tile/>
   <tile/>
   <tile/>
   <tile/>
   <tile/>
   <tile/>
   <tile/>
   <tile/>
   <tile/>
   <tile/>
   <tile/>
   <tile/>
   <tile/>
   <tile/>
   <tile/>
   <tile/>
   <tile/>
   <tile/>
   <tile/>
   <tile/>
   <tile/>
   <tile/>
   <tile/>
   <tile/>
   <tile/>
   <tile/>
   <tile/>
   <tile/>
   <tile/>
   <tile/>
   <tile/>
   <tile/>
   <tile/>
   <tile/>
   <tile/>
   <tile/>
   <tile/>
   <tile/>
   <tile/>
   <tile/>
   <tile/>
   <tile/>
   <tile/>
   <tile/>
   <tile/>
   <tile/>
   <tile/>
   <tile/>
   <tile/>
   <tile/>
   <tile/>
   <tile/>
   <tile/>
   <tile/>
   <tile/>
   <tile/>
   <tile/>
   <tile/>
   <tile/>
   <tile/>
   <tile/>
   <tile/>
   <tile/>
   <tile/>
   <tile/>
   <tile/>
   <tile/>
   <tile/>
   <tile/>
   <tile/>
   <tile/>
   <tile/>
   <tile/>
   <tile/>
   <tile/>
   <tile/>
   <tile/>
   <tile/>
   <tile/>
   <tile/>
   <tile/>
   <tile/>
   <tile/>
   <tile/>
   <tile/>
   <tile/>
   <tile/>
   <tile/>
   <tile/>
   <tile/>
   <tile/>
   <tile/>
   <tile/>
   <tile/>
   <tile/>
   <tile/>
   <tile/>
   <tile/>
   <tile/>
   <tile/>
   <tile/>
   <tile/>
   <tile/>
   <tile/>
   <tile/>
   <tile/>
   <tile/>
   <tile/>
   <tile/>
   <tile/>
   <tile/>
   <tile/>
   <tile/>
   <tile/>
   <tile/>
   <tile/>
   <tile/>
   <tile/>
   <tile/>
   <tile/>
   <tile/>
   <tile/>
   <tile/>
   <tile/>
   <tile/>
   <tile/>
   <tile/>
   <tile/>
   <tile/>
   <tile/>
   <tile/>
   <tile/>
   <tile/>
   <tile/>
   <tile/>
   <tile/>
   <tile/>
   <tile/>
   <tile/>
   <tile/>
   <tile/>
   <tile/>
   <tile/>
   <tile/>
   <tile/>
   <tile/>
   <tile/>
   <tile/>
   <tile/>
   <tile/>
   <tile/>
   <tile/>
   <tile/>
   <tile/>
   <tile/>
   <tile/>
   <tile/>
   <tile/>
   <tile/>
   <tile/>
   <tile/>
   <tile/>
   <tile/>
   <tile/>
   <tile/>
   <tile/>
   <tile/>
   <tile/>
   <tile/>
   <tile/>
   <tile/>
   <tile/>
   <tile/>
   <tile/>
   <tile/>
   <tile/>
   <tile/>
   <tile/>
   <tile/>
   <tile/>
   <tile/>
   <tile/>
   <tile/>
   <tile/>
   <tile/>
   <tile/>
   <tile/>
   <tile/>
   <tile/>
   <tile/>
   <tile/>
   <tile/>
   <tile/>
   <tile/>
   <tile/>
   <tile/>
   <tile/>
   <tile/>
   <tile/>
   <tile/>
   <tile/>
   <tile/>
   <tile/>
   <tile/>
   <tile/>
   <tile/>
   <tile/>
   <tile/>
   <tile/>
   <tile/>
   <tile/>
   <tile/>
   <tile/>
   <tile/>
   <tile/>
   <tile/>
   <tile/>
   <tile/>
   <tile/>
   <tile/>
   <tile/>
   <tile/>
   <tile/>
   <tile/>
   <tile/>
   <tile/>
   <tile/>
   <tile/>
   <tile/>
   <tile/>
   <tile/>
   <tile/>
   <tile/>
   <tile/>
   <tile/>
   <tile/>
   <tile/>
   <tile/>
   <tile/>
   <tile/>
   <tile/>
   <tile/>
   <tile/>
   <tile/>
   <tile/>
   <tile/>
   <tile/>
   <tile/>
   <tile/>
   <tile/>
   <tile/>
   <tile/>
   <tile/>
   <tile/>
   <tile/>
   <tile/>
   <tile/>
   <tile/>
   <tile/>
   <tile/>
   <tile/>
   <tile/>
   <tile/>
   <tile/>
   <tile/>
   <tile/>
   <tile/>
   <tile/>
   <tile/>
   <tile/>
   <tile/>
   <tile/>
   <tile/>
   <tile/>
   <tile/>
   <tile/>
   <tile/>
   <tile/>
   <tile/>
   <tile/>
   <tile/>
   <tile/>
   <tile/>
   <tile/>
   <tile/>
   <tile/>
   <tile/>
   <tile/>
   <tile/>
   <tile/>
   <tile/>
   <tile/>
   <tile/>
   <tile/>
   <tile/>
   <tile/>
   <tile/>
   <tile/>
   <tile/>
   <tile/>
   <tile/>
   <tile/>
   <tile/>
   <tile/>
   <tile/>
   <tile/>
   <tile/>
   <tile/>
   <tile/>
   <tile/>
   <tile/>
   <tile gid="185"/>
   <tile gid="185"/>
   <tile gid="185"/>
   <tile gid="185"/>
   <tile gid="185"/>
   <tile gid="185"/>
   <tile gid="185"/>
   <tile gid="185"/>
   <tile/>
   <tile/>
   <tile/>
   <tile gid="185"/>
   <tile gid="185"/>
   <tile gid="185"/>
   <tile gid="185"/>
   <tile gid="185"/>
   <tile gid="185"/>
   <tile gid="185"/>
   <tile gid="185"/>
   <tile gid="185"/>
   <tile gid="185"/>
   <tile gid="185"/>
   <tile gid="185"/>
   <tile gid="185"/>
   <tile gid="185"/>
   <tile gid="185"/>
   <tile gid="185"/>
   <tile gid="185"/>
   <tile gid="185"/>
   <tile gid="185"/>
   <tile gid="185"/>
   <tile gid="185"/>
   <tile gid="185"/>
   <tile gid="185"/>
   <tile/>
   <tile/>
   <tile/>
   <tile/>
   <tile/>
   <tile/>
   <tile/>
   <tile/>
   <tile/>
   <tile/>
   <tile/>
   <tile/>
   <tile/>
   <tile/>
   <tile/>
   <tile/>
   <tile/>
   <tile/>
   <tile/>
   <tile/>
   <tile/>
   <tile/>
   <tile/>
   <tile/>
   <tile/>
   <tile/>
   <tile/>
   <tile/>
   <tile/>
   <tile/>
   <tile/>
   <tile/>
   <tile/>
   <tile/>
   <tile/>
   <tile/>
   <tile/>
   <tile/>
   <tile/>
   <tile/>
   <tile/>
   <tile/>
   <tile/>
   <tile/>
   <tile/>
   <tile/>
   <tile gid="185"/>
   <tile gid="185"/>
   <tile gid="185"/>
   <tile gid="185"/>
   <tile gid="185"/>
   <tile gid="185"/>
   <tile gid="185"/>
   <tile gid="185"/>
   <tile gid="185"/>
   <tile gid="185"/>
   <tile gid="185"/>
   <tile/>
   <tile/>
   <tile/>
   <tile gid="185"/>
   <tile gid="185"/>
   <tile gid="185"/>
   <tile gid="185"/>
   <tile gid="185"/>
   <tile gid="185"/>
   <tile gid="185"/>
   <tile gid="185"/>
   <tile gid="185"/>
   <tile gid="185"/>
   <tile gid="185"/>
   <tile gid="185"/>
   <tile gid="185"/>
   <tile gid="185"/>
   <tile gid="185"/>
   <tile gid="185"/>
   <tile gid="185"/>
   <tile gid="185"/>
   <tile gid="185"/>
   <tile gid="185"/>
   <tile gid="185"/>
   <tile gid="185"/>
   <tile gid="185"/>
   <tile gid="185"/>
   <tile gid="185"/>
   <tile/>
   <tile/>
   <tile/>
   <tile/>
   <tile/>
   <tile/>
   <tile/>
   <tile/>
   <tile/>
   <tile/>
   <tile/>
   <tile/>
   <tile/>
   <tile/>
   <tile/>
   <tile/>
   <tile/>
   <tile/>
   <tile/>
   <tile/>
   <tile/>
   <tile/>
   <tile/>
   <tile/>
   <tile/>
   <tile/>
   <tile/>
   <tile/>
   <tile/>
   <tile/>
   <tile/>
   <tile/>
   <tile/>
   <tile/>
   <tile/>
   <tile/>
   <tile/>
   <tile/>
   <tile/>
   <tile/>
   <tile/>
   <tile/>
   <tile/>
   <tile/>
   <tile/>
   <tile/>
   <tile/>
   <tile/>
   <tile/>
   <tile/>
   <tile/>
   <tile/>
   <tile/>
   <tile/>
   <tile/>
   <tile/>
   <tile/>
   <tile/>
   <tile/>
   <tile/>
   <tile/>
   <tile/>
   <tile/>
   <tile/>
   <tile/>
   <tile/>
   <tile/>
   <tile/>
   <tile/>
   <tile/>
   <tile/>
   <tile/>
   <tile/>
   <tile/>
   <tile/>
   <tile/>
   <tile/>
   <tile/>
   <tile/>
   <tile/>
   <tile/>
   <tile/>
   <tile/>
   <tile/>
   <tile/>
   <tile/>
   <tile/>
   <tile/>
   <tile/>
   <tile/>
   <tile/>
   <tile/>
   <tile/>
   <tile/>
   <tile/>
   <tile/>
   <tile/>
   <tile/>
   <tile/>
   <tile/>
   <tile/>
   <tile/>
   <tile/>
   <tile/>
   <tile/>
   <tile/>
   <tile/>
   <tile/>
   <tile/>
   <tile/>
   <tile/>
   <tile/>
   <tile/>
   <tile/>
   <tile/>
   <tile/>
   <tile/>
   <tile/>
   <tile/>
   <tile/>
   <tile/>
   <tile/>
   <tile/>
   <tile/>
   <tile/>
   <tile/>
   <tile/>
   <tile/>
   <tile/>
   <tile/>
   <tile/>
   <tile/>
   <tile/>
   <tile/>
   <tile/>
   <tile/>
   <tile/>
   <tile/>
   <tile/>
   <tile/>
   <tile/>
   <tile/>
   <tile/>
   <tile/>
   <tile/>
   <tile/>
   <tile/>
   <tile/>
   <tile/>
   <tile/>
   <tile/>
   <tile/>
   <tile/>
   <tile/>
   <tile/>
   <tile/>
   <tile/>
   <tile/>
   <tile/>
   <tile/>
   <tile/>
   <tile/>
   <tile/>
   <tile/>
   <tile/>
   <tile/>
   <tile/>
   <tile/>
   <tile/>
   <tile/>
   <tile/>
   <tile/>
   <tile/>
   <tile/>
   <tile/>
   <tile/>
   <tile/>
   <tile/>
   <tile/>
   <tile/>
   <tile/>
   <tile/>
   <tile/>
   <tile/>
   <tile/>
   <tile/>
   <tile/>
   <tile/>
   <tile/>
   <tile/>
   <tile/>
   <tile/>
   <tile/>
   <tile/>
   <tile/>
   <tile/>
   <tile/>
   <tile/>
   <tile/>
   <tile/>
   <tile/>
   <tile/>
   <tile/>
   <tile/>
   <tile/>
   <tile/>
   <tile/>
   <tile/>
   <tile/>
   <tile/>
   <tile/>
   <tile/>
   <tile/>
   <tile/>
   <tile/>
   <tile/>
   <tile/>
   <tile/>
   <tile/>
   <tile/>
   <tile/>
   <tile/>
   <tile/>
   <tile/>
   <tile/>
   <tile/>
   <tile/>
   <tile/>
   <tile/>
   <tile/>
   <tile/>
   <tile/>
   <tile/>
   <tile/>
   <tile/>
   <tile/>
   <tile/>
   <tile/>
   <tile/>
   <tile/>
   <tile/>
   <tile/>
   <tile/>
   <tile/>
   <tile/>
   <tile/>
   <tile/>
   <tile/>
   <tile/>
   <tile/>
   <tile/>
   <tile/>
   <tile/>
   <tile/>
   <tile/>
   <tile/>
   <tile/>
   <tile/>
   <tile/>
   <tile/>
   <tile/>
   <tile/>
   <tile/>
   <tile/>
   <tile/>
   <tile/>
   <tile/>
   <tile/>
   <tile/>
   <tile/>
   <tile/>
   <tile/>
   <tile/>
   <tile/>
   <tile/>
   <tile/>
   <tile/>
   <tile/>
   <tile/>
   <tile/>
   <tile/>
   <tile/>
   <tile/>
   <tile/>
   <tile/>
   <tile/>
   <tile/>
   <tile/>
   <tile/>
   <tile/>
   <tile/>
   <tile/>
   <tile/>
   <tile/>
   <tile/>
   <tile/>
   <tile/>
   <tile/>
   <tile/>
   <tile/>
   <tile/>
   <tile/>
   <tile/>
   <tile/>
   <tile/>
   <tile/>
   <tile/>
   <tile/>
   <tile/>
   <tile/>
   <tile/>
   <tile/>
   <tile/>
   <tile/>
   <tile/>
   <tile/>
   <tile/>
   <tile/>
   <tile/>
   <tile/>
   <tile/>
   <tile/>
   <tile/>
   <tile/>
   <tile/>
   <tile/>
   <tile/>
   <tile/>
   <tile/>
   <tile/>
   <tile/>
   <tile/>
   <tile/>
   <tile/>
   <tile/>
   <tile/>
   <tile/>
   <tile/>
   <tile/>
   <tile/>
   <tile/>
   <tile/>
   <tile/>
   <tile/>
   <tile/>
   <tile/>
   <tile/>
   <tile/>
   <tile/>
   <tile/>
   <tile/>
   <tile/>
   <tile/>
   <tile/>
   <tile/>
   <tile/>
   <tile/>
   <tile/>
   <tile/>
   <tile/>
   <tile/>
   <tile/>
   <tile/>
   <tile/>
   <tile/>
   <tile/>
   <tile/>
   <tile/>
   <tile/>
   <tile/>
   <tile/>
   <tile/>
   <tile/>
   <tile/>
   <tile/>
   <tile/>
   <tile/>
   <tile/>
   <tile/>
   <tile/>
   <tile/>
   <tile/>
   <tile/>
   <tile/>
   <tile/>
   <tile/>
   <tile/>
   <tile/>
   <tile/>
   <tile/>
   <tile/>
   <tile/>
   <tile/>
   <tile/>
   <tile/>
   <tile/>
   <tile/>
   <tile/>
   <tile/>
   <tile/>
   <tile/>
   <tile/>
   <tile/>
   <tile/>
   <tile/>
   <tile/>
   <tile/>
   <tile/>
   <tile/>
   <tile/>
   <tile/>
   <tile/>
   <tile/>
   <tile/>
   <tile/>
   <tile/>
   <tile/>
   <tile/>
   <tile/>
   <tile/>
   <tile/>
   <tile/>
   <tile/>
   <tile/>
   <tile/>
   <tile/>
   <tile/>
   <tile/>
   <tile/>
   <tile/>
   <tile/>
   <tile/>
   <tile/>
   <tile/>
   <tile/>
   <tile/>
   <tile/>
   <tile/>
   <tile/>
   <tile/>
   <tile/>
   <tile/>
   <tile/>
   <tile/>
   <tile/>
   <tile/>
   <tile/>
   <tile/>
   <tile/>
   <tile/>
   <tile/>
   <tile/>
   <tile/>
   <tile/>
   <tile/>
   <tile/>
   <tile/>
   <tile/>
   <tile/>
   <tile/>
   <tile/>
   <tile/>
   <tile/>
   <tile/>
   <tile/>
   <tile/>
   <tile/>
   <tile/>
   <tile/>
   <tile/>
   <tile/>
   <tile/>
   <tile/>
   <tile/>
   <tile/>
   <tile/>
   <tile/>
   <tile/>
   <tile/>
   <tile/>
   <tile/>
   <tile/>
   <tile/>
   <tile/>
   <tile/>
   <tile/>
   <tile/>
   <tile/>
   <tile/>
   <tile/>
   <tile/>
   <tile/>
   <tile/>
   <tile/>
   <tile/>
   <tile/>
   <tile/>
   <tile/>
   <tile/>
   <tile/>
   <tile/>
   <tile/>
   <tile/>
   <tile/>
   <tile/>
   <tile/>
   <tile/>
   <tile/>
   <tile/>
   <tile/>
   <tile/>
   <tile/>
   <tile/>
   <tile/>
   <tile/>
   <tile/>
   <tile/>
   <tile/>
   <tile/>
   <tile/>
   <tile/>
   <tile/>
   <tile/>
   <tile/>
   <tile/>
   <tile/>
   <tile/>
   <tile/>
   <tile/>
   <tile/>
   <tile/>
   <tile/>
   <tile/>
   <tile/>
   <tile/>
   <tile/>
   <tile/>
   <tile/>
   <tile/>
   <tile/>
   <tile/>
   <tile/>
   <tile/>
   <tile/>
   <tile/>
   <tile/>
   <tile/>
   <tile/>
   <tile/>
   <tile/>
   <tile/>
   <tile/>
   <tile/>
   <tile/>
   <tile/>
   <tile/>
   <tile/>
   <tile/>
   <tile/>
   <tile/>
   <tile/>
   <tile/>
   <tile/>
   <tile/>
   <tile/>
   <tile/>
   <tile/>
   <tile/>
   <tile/>
   <tile/>
   <tile/>
   <tile/>
   <tile/>
   <tile/>
   <tile/>
   <tile/>
   <tile/>
   <tile/>
   <tile/>
   <tile/>
   <tile/>
   <tile/>
   <tile/>
   <tile/>
   <tile/>
   <tile/>
   <tile/>
   <tile/>
   <tile/>
   <tile/>
   <tile/>
   <tile/>
   <tile/>
   <tile/>
   <tile/>
   <tile/>
   <tile/>
   <tile/>
   <tile/>
   <tile/>
   <tile/>
   <tile/>
   <tile/>
   <tile/>
   <tile/>
   <tile/>
   <tile/>
   <tile/>
   <tile/>
   <tile/>
   <tile/>
   <tile/>
   <tile/>
   <tile/>
   <tile/>
   <tile/>
   <tile/>
   <tile/>
   <tile/>
   <tile/>
   <tile/>
   <tile/>
   <tile/>
   <tile/>
   <tile/>
   <tile/>
   <tile/>
   <tile/>
   <tile/>
   <tile/>
   <tile/>
   <tile/>
   <tile/>
   <tile/>
   <tile/>
   <tile/>
   <tile/>
   <tile/>
   <tile/>
   <tile/>
   <tile/>
   <tile/>
   <tile/>
   <tile/>
   <tile/>
   <tile/>
   <tile/>
   <tile/>
   <tile/>
   <tile/>
   <tile/>
   <tile/>
   <tile/>
   <tile/>
   <tile/>
   <tile/>
   <tile/>
   <tile/>
   <tile/>
   <tile/>
   <tile/>
   <tile/>
   <tile/>
   <tile/>
   <tile/>
   <tile/>
   <tile/>
   <tile/>
   <tile/>
   <tile/>
   <tile/>
   <tile/>
   <tile/>
   <tile/>
   <tile/>
   <tile/>
   <tile/>
   <tile/>
   <tile/>
   <tile/>
   <tile/>
   <tile/>
   <tile/>
   <tile/>
   <tile/>
   <tile/>
   <tile/>
   <tile/>
   <tile/>
   <tile/>
   <tile/>
   <tile/>
   <tile/>
   <tile/>
   <tile/>
   <tile/>
   <tile/>
   <tile/>
   <tile/>
   <tile/>
   <tile/>
   <tile/>
   <tile/>
   <tile/>
   <tile/>
   <tile/>
   <tile/>
   <tile/>
   <tile/>
   <tile/>
   <tile/>
   <tile/>
   <tile/>
   <tile/>
   <tile/>
   <tile/>
   <tile/>
   <tile/>
   <tile/>
   <tile/>
   <tile/>
   <tile/>
   <tile/>
   <tile/>
   <tile/>
   <tile/>
   <tile/>
   <tile/>
   <tile/>
   <tile/>
   <tile/>
   <tile/>
   <tile/>
   <tile/>
   <tile/>
   <tile/>
   <tile/>
   <tile/>
   <tile/>
   <tile/>
   <tile/>
   <tile/>
   <tile/>
   <tile/>
   <tile/>
   <tile/>
   <tile/>
   <tile/>
   <tile/>
   <tile/>
   <tile/>
   <tile/>
   <tile/>
   <tile/>
   <tile/>
   <tile/>
   <tile/>
   <tile/>
   <tile/>
   <tile/>
   <tile/>
   <tile/>
   <tile/>
   <tile/>
   <tile/>
   <tile/>
   <tile/>
   <tile/>
   <tile/>
   <tile/>
   <tile/>
   <tile/>
   <tile/>
   <tile/>
   <tile/>
   <tile/>
   <tile/>
   <tile/>
   <tile/>
   <tile/>
   <tile/>
   <tile/>
   <tile/>
   <tile/>
   <tile/>
   <tile/>
   <tile/>
   <tile/>
   <tile/>
   <tile/>
   <tile/>
   <tile/>
   <tile/>
   <tile/>
   <tile/>
   <tile/>
   <tile/>
   <tile/>
   <tile/>
   <tile/>
   <tile/>
   <tile/>
   <tile/>
   <tile/>
   <tile/>
   <tile/>
   <tile/>
   <tile/>
   <tile/>
   <tile/>
   <tile/>
   <tile/>
   <tile/>
   <tile/>
   <tile/>
   <tile/>
   <tile/>
   <tile/>
   <tile/>
   <tile/>
   <tile/>
   <tile/>
   <tile/>
   <tile/>
   <tile/>
   <tile/>
   <tile/>
   <tile/>
   <tile/>
   <tile/>
   <tile/>
   <tile/>
   <tile/>
   <tile/>
   <tile/>
   <tile/>
   <tile/>
   <tile/>
   <tile/>
   <tile/>
   <tile/>
   <tile/>
   <tile/>
   <tile/>
   <tile/>
   <tile/>
   <tile/>
   <tile/>
   <tile/>
   <tile/>
   <tile/>
   <tile/>
   <tile/>
   <tile/>
   <tile/>
   <tile/>
   <tile/>
   <tile/>
   <tile/>
   <tile/>
   <tile/>
   <tile/>
   <tile/>
   <tile/>
   <tile/>
   <tile/>
   <tile/>
   <tile/>
   <tile/>
   <tile/>
   <tile/>
   <tile/>
   <tile/>
   <tile/>
   <tile/>
   <tile/>
   <tile/>
   <tile/>
   <tile/>
   <tile/>
   <tile/>
   <tile/>
   <tile/>
   <tile/>
   <tile/>
   <tile/>
   <tile/>
   <tile/>
   <tile/>
   <tile/>
   <tile/>
   <tile/>
   <tile/>
   <tile/>
   <tile/>
   <tile/>
   <tile/>
   <tile/>
   <tile/>
   <tile/>
   <tile/>
   <tile/>
   <tile/>
   <tile/>
   <tile/>
   <tile/>
   <tile/>
   <tile/>
   <tile/>
   <tile/>
   <tile/>
   <tile/>
   <tile/>
   <tile/>
   <tile/>
   <tile/>
   <tile/>
   <tile/>
   <tile/>
   <tile/>
   <tile/>
   <tile/>
   <tile/>
   <tile/>
   <tile/>
   <tile/>
   <tile/>
   <tile/>
   <tile/>
   <tile/>
   <tile/>
   <tile/>
   <tile/>
   <tile/>
   <tile/>
   <tile/>
   <tile/>
   <tile/>
   <tile/>
   <tile/>
   <tile/>
   <tile/>
   <tile/>
   <tile/>
   <tile/>
   <tile/>
   <tile/>
   <tile/>
   <tile/>
   <tile/>
   <tile/>
   <tile/>
   <tile/>
   <tile/>
   <tile/>
   <tile/>
   <tile/>
   <tile/>
   <tile/>
   <tile/>
   <tile/>
   <tile/>
   <tile/>
   <tile/>
   <tile/>
   <tile/>
   <tile/>
   <tile/>
   <tile/>
   <tile/>
   <tile/>
   <tile/>
   <tile/>
   <tile/>
   <tile/>
   <tile/>
   <tile/>
   <tile/>
   <tile/>
   <tile/>
   <tile/>
   <tile/>
   <tile/>
   <tile/>
   <tile/>
   <tile/>
   <tile/>
   <tile/>
   <tile/>
   <tile/>
   <tile/>
   <tile/>
   <tile/>
   <tile/>
   <tile/>
   <tile/>
   <tile/>
   <tile/>
   <tile/>
   <tile/>
   <tile/>
   <tile/>
   <tile/>
   <tile/>
   <tile/>
   <tile/>
   <tile/>
   <tile/>
   <tile/>
   <tile/>
   <tile/>
   <tile/>
   <tile/>
   <tile/>
   <tile/>
   <tile/>
   <tile/>
   <tile/>
   <tile/>
   <tile/>
   <tile/>
   <tile/>
   <tile/>
   <tile/>
   <tile/>
   <tile/>
   <tile/>
   <tile/>
   <tile/>
   <tile/>
   <tile/>
   <tile/>
   <tile/>
   <tile/>
   <tile/>
   <tile/>
   <tile/>
   <tile/>
   <tile/>
   <tile/>
   <tile/>
   <tile/>
   <tile/>
   <tile/>
   <tile/>
   <tile/>
   <tile/>
   <tile/>
   <tile/>
   <tile/>
   <tile/>
   <tile/>
   <tile/>
   <tile/>
   <tile/>
   <tile/>
   <tile/>
   <tile/>
   <tile/>
   <tile/>
   <tile/>
   <tile/>
   <tile/>
   <tile/>
   <tile/>
   <tile/>
   <tile/>
   <tile/>
   <tile/>
   <tile/>
   <tile/>
   <tile/>
   <tile/>
   <tile/>
   <tile/>
   <tile/>
   <tile/>
   <tile/>
   <tile/>
   <tile/>
   <tile/>
   <tile/>
   <tile/>
   <tile/>
   <tile/>
   <tile/>
   <tile/>
   <tile/>
   <tile/>
   <tile/>
   <tile/>
   <tile/>
   <tile/>
   <tile/>
   <tile/>
   <tile/>
   <tile/>
   <tile/>
   <tile/>
   <tile/>
   <tile/>
   <tile/>
   <tile/>
   <tile/>
   <tile/>
   <tile/>
   <tile/>
   <tile/>
   <tile/>
   <tile/>
   <tile/>
   <tile/>
   <tile/>
   <tile/>
   <tile/>
   <tile/>
   <tile/>
   <tile/>
   <tile/>
   <tile/>
   <tile/>
   <tile/>
   <tile/>
   <tile/>
   <tile/>
   <tile/>
   <tile/>
   <tile/>
   <tile/>
   <tile/>
   <tile/>
   <tile/>
   <tile/>
   <tile/>
   <tile/>
   <tile/>
   <tile/>
   <tile/>
   <tile/>
   <tile/>
   <tile/>
   <tile/>
   <tile/>
   <tile/>
   <tile/>
   <tile/>
   <tile/>
   <tile/>
   <tile/>
   <tile/>
   <tile/>
   <tile/>
   <tile/>
   <tile/>
   <tile/>
   <tile/>
   <tile/>
   <tile/>
   <tile/>
   <tile/>
   <tile/>
   <tile/>
   <tile/>
   <tile/>
   <tile/>
   <tile/>
   <tile/>
   <tile/>
   <tile/>
   <tile/>
   <tile/>
   <tile/>
   <tile/>
   <tile/>
   <tile/>
   <tile/>
   <tile/>
   <tile/>
   <tile/>
   <tile/>
   <tile/>
   <tile/>
   <tile/>
   <tile/>
   <tile/>
   <tile/>
   <tile/>
   <tile/>
   <tile/>
   <tile/>
   <tile/>
   <tile/>
   <tile/>
   <tile/>
   <tile/>
   <tile/>
   <tile/>
   <tile/>
   <tile/>
   <tile/>
   <tile/>
   <tile/>
   <tile/>
   <tile/>
   <tile/>
   <tile/>
   <tile/>
   <tile/>
   <tile/>
   <tile/>
   <tile/>
   <tile/>
   <tile/>
   <tile/>
   <tile/>
   <tile/>
   <tile/>
   <tile/>
   <tile/>
   <tile/>
   <tile/>
   <tile/>
   <tile/>
   <tile/>
   <tile/>
   <tile/>
   <tile/>
   <tile/>
   <tile/>
   <tile/>
   <tile/>
   <tile/>
   <tile/>
   <tile/>
   <tile/>
   <tile/>
   <tile/>
   <tile/>
   <tile/>
   <tile/>
   <tile/>
   <tile/>
   <tile/>
   <tile/>
   <tile/>
   <tile/>
   <tile/>
   <tile/>
   <tile/>
   <tile/>
   <tile/>
   <tile/>
   <tile/>
   <tile/>
   <tile/>
   <tile/>
   <tile/>
   <tile/>
   <tile/>
   <tile/>
   <tile/>
   <tile/>
   <tile/>
   <tile/>
   <tile/>
   <tile/>
   <tile/>
   <tile/>
   <tile/>
   <tile/>
   <tile/>
   <tile/>
   <tile/>
   <tile/>
   <tile/>
   <tile/>
   <tile/>
   <tile/>
   <tile/>
   <tile/>
   <tile/>
   <tile/>
   <tile/>
   <tile/>
   <tile/>
   <tile/>
   <tile/>
   <tile/>
   <tile/>
   <tile/>
   <tile/>
   <tile/>
   <tile/>
   <tile/>
   <tile/>
   <tile/>
   <tile/>
   <tile/>
   <tile/>
   <tile/>
   <tile/>
   <tile/>
   <tile/>
   <tile/>
   <tile/>
   <tile/>
   <tile/>
   <tile/>
   <tile/>
   <tile/>
   <tile/>
   <tile/>
   <tile/>
   <tile/>
   <tile/>
   <tile/>
   <tile/>
   <tile/>
   <tile/>
   <tile/>
   <tile/>
   <tile/>
   <tile/>
   <tile/>
   <tile/>
   <tile/>
   <tile/>
   <tile/>
   <tile/>
   <tile/>
   <tile/>
   <tile/>
   <tile/>
   <tile/>
   <tile/>
   <tile/>
   <tile/>
   <tile/>
   <tile/>
   <tile/>
   <tile/>
   <tile/>
   <tile/>
   <tile/>
   <tile/>
   <tile/>
   <tile/>
   <tile/>
   <tile/>
   <tile/>
   <tile/>
   <tile/>
   <tile/>
   <tile/>
   <tile/>
   <tile/>
   <tile/>
   <tile/>
   <tile/>
   <tile/>
   <tile/>
   <tile/>
   <tile/>
   <tile/>
   <tile/>
   <tile/>
   <tile/>
   <tile/>
   <tile/>
   <tile/>
   <tile/>
   <tile/>
   <tile/>
   <tile/>
   <tile/>
   <tile/>
   <tile/>
   <tile/>
   <tile/>
   <tile/>
   <tile/>
   <tile/>
   <tile/>
   <tile/>
   <tile/>
   <tile/>
   <tile/>
   <tile/>
   <tile/>
   <tile/>
   <tile/>
   <tile/>
   <tile/>
   <tile/>
   <tile/>
   <tile/>
   <tile/>
   <tile/>
   <tile/>
   <tile/>
   <tile/>
   <tile/>
   <tile/>
   <tile/>
   <tile/>
   <tile/>
   <tile/>
   <tile/>
   <tile/>
   <tile/>
   <tile/>
   <tile/>
   <tile/>
   <tile/>
   <tile/>
   <tile/>
   <tile/>
   <tile/>
   <tile/>
   <tile/>
   <tile/>
   <tile/>
   <tile/>
   <tile/>
   <tile/>
   <tile/>
   <tile/>
   <tile/>
   <tile/>
   <tile/>
   <tile/>
   <tile/>
   <tile/>
   <tile/>
   <tile/>
   <tile/>
   <tile/>
   <tile/>
   <tile/>
   <tile/>
   <tile/>
   <tile/>
   <tile/>
   <tile/>
   <tile/>
   <tile/>
   <tile/>
   <tile/>
   <tile/>
   <tile/>
   <tile/>
   <tile/>
   <tile/>
   <tile/>
   <tile/>
   <tile/>
   <tile/>
   <tile/>
   <tile/>
   <tile/>
   <tile/>
   <tile/>
   <tile/>
   <tile/>
   <tile/>
   <tile/>
   <tile/>
   <tile/>
   <tile/>
   <tile/>
   <tile/>
   <tile/>
   <tile/>
   <tile/>
   <tile/>
   <tile/>
   <tile/>
   <tile/>
   <tile/>
   <tile/>
   <tile/>
   <tile/>
   <tile/>
   <tile/>
   <tile/>
   <tile/>
   <tile/>
   <tile/>
   <tile/>
   <tile/>
   <tile/>
   <tile/>
   <tile/>
   <tile/>
   <tile/>
   <tile/>
   <tile/>
   <tile/>
   <tile/>
   <tile/>
   <tile/>
   <tile/>
   <tile/>
   <tile/>
   <tile/>
   <tile/>
   <tile/>
   <tile/>
   <tile/>
   <tile/>
   <tile/>
   <tile/>
   <tile/>
   <tile/>
   <tile/>
   <tile/>
   <tile/>
   <tile/>
   <tile/>
   <tile/>
   <tile/>
   <tile/>
   <tile/>
   <tile/>
   <tile/>
   <tile/>
   <tile/>
   <tile/>
   <tile/>
   <tile/>
   <tile/>
   <tile/>
   <tile/>
   <tile/>
   <tile/>
   <tile/>
   <tile/>
   <tile/>
   <tile/>
   <tile/>
   <tile/>
   <tile/>
   <tile/>
   <tile/>
   <tile/>
   <tile/>
   <tile/>
   <tile/>
   <tile/>
   <tile/>
   <tile/>
   <tile/>
   <tile/>
   <tile/>
   <tile/>
   <tile/>
   <tile/>
   <tile/>
   <tile/>
   <tile/>
   <tile/>
   <tile/>
   <tile/>
   <tile/>
   <tile/>
   <tile/>
   <tile/>
   <tile/>
   <tile/>
   <tile/>
   <tile/>
   <tile/>
   <tile/>
   <tile/>
   <tile/>
   <tile/>
   <tile/>
   <tile/>
   <tile/>
   <tile/>
   <tile/>
   <tile/>
   <tile/>
   <tile/>
   <tile/>
   <tile/>
   <tile/>
   <tile/>
   <tile/>
   <tile/>
   <tile/>
   <tile/>
   <tile/>
   <tile/>
   <tile/>
   <tile/>
   <tile/>
   <tile/>
   <tile/>
   <tile/>
   <tile/>
   <tile/>
   <tile/>
   <tile/>
   <tile/>
   <tile/>
   <tile/>
   <tile/>
   <tile/>
   <tile/>
   <tile/>
   <tile/>
   <tile/>
   <tile/>
   <tile/>
   <tile/>
   <tile/>
   <tile/>
   <tile/>
   <tile/>
   <tile/>
   <tile/>
   <tile/>
   <tile/>
   <tile/>
   <tile/>
   <tile/>
   <tile/>
   <tile/>
   <tile/>
   <tile/>
   <tile/>
   <tile/>
   <tile/>
   <tile/>
   <tile/>
   <tile/>
   <tile/>
   <tile/>
   <tile/>
   <tile/>
   <tile/>
   <tile/>
   <tile/>
   <tile/>
   <tile/>
   <tile/>
   <tile/>
   <tile/>
   <tile/>
   <tile/>
   <tile/>
   <tile/>
   <tile/>
   <tile/>
   <tile/>
   <tile/>
   <tile/>
   <tile/>
   <tile/>
   <tile/>
   <tile/>
   <tile/>
   <tile/>
   <tile/>
   <tile/>
   <tile/>
   <tile/>
   <tile/>
   <tile/>
   <tile/>
   <tile/>
   <tile/>
   <tile/>
   <tile/>
   <tile/>
   <tile/>
   <tile/>
   <tile/>
   <tile/>
   <tile/>
   <tile/>
   <tile/>
   <tile/>
   <tile/>
   <tile/>
   <tile/>
   <tile/>
   <tile/>
   <tile/>
   <tile/>
   <tile/>
   <tile/>
   <tile/>
   <tile/>
   <tile/>
   <tile/>
   <tile/>
   <tile/>
   <tile/>
   <tile/>
   <tile/>
   <tile/>
   <tile/>
   <tile/>
   <tile/>
   <tile/>
   <tile/>
   <tile/>
   <tile/>
   <tile/>
   <tile/>
   <tile/>
   <tile/>
   <tile/>
   <tile/>
   <tile/>
   <tile/>
   <tile/>
   <tile/>
   <tile/>
   <tile/>
   <tile/>
   <tile/>
   <tile/>
   <tile/>
   <tile/>
   <tile/>
   <tile/>
   <tile/>
   <tile/>
   <tile/>
   <tile/>
   <tile/>
   <tile/>
   <tile/>
   <tile/>
   <tile/>
   <tile/>
   <tile/>
   <tile/>
   <tile/>
   <tile/>
   <tile/>
   <tile/>
   <tile/>
   <tile/>
   <tile/>
   <tile/>
   <tile/>
   <tile/>
   <tile/>
   <tile/>
   <tile/>
   <tile/>
   <tile/>
   <tile/>
   <tile/>
   <tile/>
   <tile/>
   <tile/>
   <tile/>
   <tile/>
   <tile/>
   <tile/>
   <tile/>
   <tile/>
   <tile/>
   <tile/>
   <tile/>
   <tile/>
   <tile/>
   <tile/>
   <tile/>
   <tile/>
   <tile/>
   <tile/>
   <tile/>
   <tile/>
   <tile/>
   <tile/>
   <tile/>
   <tile/>
   <tile/>
   <tile/>
   <tile/>
   <tile/>
   <tile/>
   <tile/>
   <tile/>
   <tile/>
   <tile/>
   <tile/>
   <tile/>
   <tile/>
   <tile/>
   <tile/>
   <tile/>
   <tile/>
   <tile/>
   <tile/>
   <tile/>
   <tile/>
   <tile/>
   <tile/>
   <tile/>
   <tile/>
   <tile/>
   <tile/>
   <tile/>
   <tile/>
   <tile/>
   <tile/>
   <tile/>
   <tile/>
   <tile/>
   <tile/>
   <tile/>
   <tile/>
   <tile/>
   <tile/>
   <tile/>
   <tile/>
   <tile/>
   <tile/>
   <tile/>
   <tile/>
   <tile/>
   <tile/>
   <tile/>
   <tile/>
   <tile/>
   <tile/>
   <tile/>
   <tile/>
   <tile/>
   <tile/>
   <tile/>
   <tile/>
   <tile/>
   <tile/>
   <tile/>
   <tile/>
   <tile/>
   <tile/>
   <tile/>
   <tile/>
   <tile/>
   <tile/>
   <tile/>
   <tile/>
   <tile/>
   <tile/>
   <tile/>
   <tile/>
   <tile/>
   <tile/>
   <tile/>
   <tile/>
   <tile/>
   <tile/>
   <tile/>
   <tile/>
   <tile/>
   <tile/>
   <tile/>
   <tile/>
   <tile/>
   <tile/>
   <tile/>
   <tile/>
   <tile/>
   <tile/>
   <tile/>
   <tile/>
   <tile/>
   <tile/>
   <tile/>
   <tile/>
   <tile/>
   <tile/>
   <tile/>
   <tile/>
   <tile/>
   <tile/>
   <tile/>
   <tile/>
   <tile/>
   <tile/>
   <tile/>
   <tile/>
   <tile/>
   <tile/>
   <tile/>
   <tile/>
   <tile/>
   <tile/>
   <tile/>
   <tile/>
   <tile/>
   <tile/>
   <tile/>
   <tile/>
   <tile/>
   <tile/>
   <tile/>
   <tile/>
   <tile/>
   <tile/>
   <tile/>
   <tile/>
   <tile/>
   <tile/>
   <tile/>
   <tile/>
   <tile/>
   <tile/>
   <tile/>
   <tile/>
   <tile/>
   <tile/>
   <tile/>
   <tile/>
   <tile/>
   <tile/>
   <tile/>
   <tile/>
   <tile/>
   <tile/>
   <tile/>
   <tile/>
   <tile/>
   <tile/>
   <tile/>
   <tile/>
   <tile/>
   <tile/>
   <tile/>
   <tile/>
   <tile/>
   <tile/>
   <tile/>
   <tile/>
   <tile/>
   <tile/>
   <tile/>
   <tile/>
   <tile/>
   <tile/>
   <tile/>
   <tile/>
   <tile/>
   <tile/>
   <tile/>
   <tile/>
   <tile/>
   <tile/>
   <tile/>
   <tile/>
   <tile/>
   <tile/>
   <tile/>
   <tile/>
   <tile/>
   <tile/>
   <tile/>
   <tile/>
   <tile/>
   <tile/>
   <tile/>
   <tile/>
   <tile/>
   <tile/>
   <tile/>
   <tile/>
   <tile/>
   <tile/>
   <tile/>
   <tile/>
   <tile/>
   <tile/>
   <tile/>
   <tile/>
   <tile/>
   <tile/>
   <tile/>
   <tile/>
   <tile/>
   <tile/>
   <tile/>
   <tile/>
   <tile/>
   <tile/>
   <tile/>
   <tile/>
   <tile/>
   <tile/>
   <tile/>
   <tile/>
   <tile/>
   <tile/>
   <tile/>
   <tile/>
   <tile/>
   <tile/>
   <tile/>
   <tile/>
   <tile/>
   <tile/>
   <tile/>
   <tile/>
   <tile/>
   <tile/>
   <tile/>
   <tile/>
   <tile/>
   <tile/>
   <tile/>
   <tile/>
   <tile/>
   <tile/>
   <tile/>
   <tile/>
   <tile/>
   <tile/>
   <tile/>
   <tile/>
   <tile/>
   <tile/>
   <tile/>
   <tile/>
   <tile/>
   <tile/>
   <tile/>
   <tile/>
   <tile/>
   <tile/>
   <tile/>
   <tile/>
   <tile/>
   <tile/>
   <tile/>
   <tile/>
   <tile/>
   <tile gid="185"/>
   <tile gid="185"/>
   <tile gid="185"/>
   <tile/>
   <tile/>
   <tile/>
   <tile/>
   <tile/>
   <tile/>
   <tile/>
   <tile/>
   <tile/>
   <tile/>
   <tile/>
   <tile/>
   <tile/>
   <tile/>
   <tile/>
   <tile/>
   <tile/>
   <tile/>
   <tile/>
   <tile/>
   <tile/>
   <tile/>
   <tile/>
   <tile/>
   <tile/>
   <tile gid="185"/>
   <tile gid="185"/>
   <tile gid="185"/>
   <tile/>
   <tile/>
   <tile/>
   <tile/>
   <tile/>
   <tile/>
   <tile/>
   <tile/>
   <tile/>
   <tile/>
   <tile/>
   <tile/>
   <tile/>
   <tile/>
   <tile/>
   <tile/>
   <tile/>
   <tile/>
   <tile/>
   <tile/>
   <tile/>
   <tile/>
   <tile/>
   <tile/>
   <tile/>
   <tile/>
   <tile/>
   <tile/>
   <tile/>
   <tile/>
   <tile/>
   <tile/>
   <tile/>
   <tile/>
   <tile/>
   <tile/>
   <tile/>
   <tile/>
   <tile/>
   <tile/>
   <tile/>
   <tile/>
   <tile/>
   <tile/>
   <tile/>
   <tile/>
   <tile/>
   <tile/>
   <tile/>
   <tile/>
   <tile/>
   <tile/>
   <tile/>
   <tile/>
   <tile/>
   <tile/>
   <tile/>
   <tile/>
   <tile/>
   <tile/>
   <tile/>
   <tile/>
   <tile/>
   <tile/>
   <tile/>
   <tile/>
   <tile/>
   <tile/>
   <tile/>
   <tile/>
   <tile/>
   <tile/>
   <tile/>
   <tile/>
   <tile/>
   <tile/>
   <tile/>
   <tile/>
   <tile/>
   <tile/>
   <tile/>
   <tile/>
   <tile/>
   <tile/>
   <tile/>
   <tile/>
   <tile/>
   <tile/>
   <tile/>
   <tile/>
   <tile/>
   <tile/>
   <tile/>
   <tile/>
   <tile/>
   <tile/>
   <tile/>
   <tile/>
   <tile/>
   <tile/>
   <tile/>
   <tile/>
   <tile/>
   <tile/>
   <tile/>
   <tile/>
   <tile/>
   <tile/>
   <tile/>
   <tile/>
   <tile/>
   <tile/>
   <tile/>
   <tile/>
   <tile/>
   <tile/>
   <tile/>
   <tile/>
   <tile/>
   <tile/>
   <tile/>
   <tile/>
   <tile/>
   <tile/>
   <tile/>
   <tile/>
   <tile/>
   <tile/>
   <tile/>
   <tile/>
   <tile/>
   <tile/>
   <tile/>
   <tile/>
   <tile/>
   <tile/>
   <tile/>
   <tile/>
   <tile/>
   <tile/>
   <tile/>
   <tile/>
   <tile/>
   <tile/>
   <tile/>
   <tile/>
   <tile/>
   <tile/>
   <tile/>
   <tile/>
   <tile/>
   <tile/>
   <tile/>
   <tile/>
   <tile/>
   <tile/>
   <tile/>
   <tile/>
   <tile/>
   <tile/>
   <tile/>
   <tile/>
   <tile/>
   <tile/>
   <tile/>
   <tile/>
   <tile/>
   <tile/>
   <tile/>
   <tile/>
   <tile/>
   <tile/>
   <tile/>
   <tile/>
   <tile/>
   <tile/>
   <tile/>
   <tile/>
   <tile/>
   <tile/>
   <tile/>
   <tile/>
   <tile/>
   <tile/>
   <tile/>
   <tile/>
   <tile/>
   <tile/>
   <tile/>
   <tile/>
   <tile/>
   <tile/>
   <tile/>
   <tile/>
   <tile/>
   <tile/>
   <tile/>
   <tile/>
   <tile/>
   <tile/>
   <tile/>
   <tile/>
   <tile/>
   <tile/>
   <tile/>
   <tile/>
   <tile/>
   <tile/>
   <tile/>
   <tile/>
   <tile/>
   <tile/>
   <tile/>
   <tile/>
   <tile/>
   <tile/>
   <tile/>
   <tile/>
   <tile/>
   <tile/>
   <tile/>
   <tile/>
   <tile/>
   <tile/>
   <tile/>
   <tile/>
   <tile/>
   <tile/>
   <tile/>
   <tile/>
   <tile/>
   <tile/>
   <tile/>
   <tile/>
   <tile/>
   <tile/>
   <tile/>
   <tile/>
   <tile/>
   <tile/>
   <tile/>
   <tile/>
   <tile/>
   <tile/>
   <tile/>
   <tile/>
   <tile/>
   <tile/>
   <tile/>
   <tile/>
   <tile/>
   <tile/>
   <tile/>
   <tile/>
   <tile/>
   <tile/>
   <tile/>
   <tile/>
   <tile/>
   <tile/>
   <tile/>
   <tile/>
   <tile/>
   <tile/>
   <tile/>
   <tile/>
   <tile/>
   <tile/>
   <tile/>
   <tile/>
   <tile/>
   <tile/>
   <tile/>
   <tile/>
   <tile/>
   <tile/>
   <tile/>
   <tile/>
   <tile/>
   <tile/>
   <tile/>
   <tile/>
   <tile/>
   <tile/>
   <tile/>
   <tile/>
   <tile/>
   <tile/>
   <tile/>
   <tile/>
   <tile/>
   <tile/>
   <tile/>
   <tile/>
   <tile/>
   <tile/>
   <tile/>
   <tile/>
   <tile/>
   <tile/>
   <tile/>
   <tile/>
   <tile/>
   <tile/>
   <tile/>
   <tile/>
   <tile/>
   <tile/>
   <tile/>
   <tile/>
   <tile/>
   <tile/>
   <tile/>
   <tile/>
   <tile/>
   <tile/>
   <tile/>
   <tile/>
   <tile/>
   <tile/>
   <tile/>
   <tile/>
   <tile/>
   <tile/>
   <tile/>
   <tile/>
   <tile/>
   <tile/>
   <tile/>
   <tile/>
   <tile/>
   <tile/>
   <tile/>
   <tile/>
   <tile/>
   <tile/>
   <tile/>
   <tile/>
   <tile/>
   <tile/>
   <tile/>
   <tile/>
   <tile/>
   <tile/>
   <tile/>
   <tile/>
   <tile/>
   <tile/>
   <tile/>
   <tile/>
   <tile/>
   <tile/>
   <tile/>
   <tile/>
   <tile/>
   <tile/>
   <tile/>
   <tile/>
   <tile/>
   <tile/>
   <tile/>
   <tile/>
   <tile/>
   <tile/>
   <tile/>
   <tile/>
   <tile/>
   <tile/>
   <tile/>
   <tile/>
   <tile/>
   <tile/>
   <tile/>
   <tile/>
   <tile/>
   <tile/>
   <tile/>
   <tile/>
   <tile/>
   <tile/>
   <tile/>
   <tile/>
   <tile/>
   <tile/>
   <tile/>
   <tile/>
   <tile/>
   <tile/>
   <tile/>
   <tile/>
   <tile/>
   <tile/>
   <tile/>
   <tile/>
   <tile/>
   <tile/>
   <tile/>
   <tile/>
   <tile/>
   <tile/>
   <tile/>
   <tile/>
   <tile/>
   <tile/>
   <tile/>
   <tile/>
   <tile/>
   <tile/>
   <tile/>
   <tile/>
   <tile/>
   <tile/>
   <tile/>
   <tile/>
   <tile/>
   <tile/>
   <tile/>
   <tile/>
   <tile/>
   <tile/>
   <tile/>
   <tile/>
   <tile/>
   <tile/>
   <tile/>
   <tile/>
   <tile/>
   <tile/>
   <tile/>
   <tile/>
   <tile/>
   <tile/>
   <tile/>
   <tile/>
   <tile/>
   <tile/>
   <tile/>
   <tile/>
   <tile/>
   <tile/>
   <tile/>
   <tile/>
   <tile/>
   <tile/>
   <tile/>
   <tile/>
   <tile/>
   <tile/>
   <tile/>
   <tile/>
   <tile/>
   <tile/>
   <tile/>
   <tile/>
   <tile/>
   <tile/>
   <tile/>
   <tile/>
   <tile/>
   <tile/>
   <tile/>
   <tile/>
   <tile/>
   <tile/>
   <tile/>
   <tile/>
   <tile/>
   <tile/>
   <tile/>
   <tile/>
   <tile/>
   <tile/>
   <tile/>
   <tile/>
   <tile/>
   <tile/>
   <tile/>
   <tile/>
   <tile/>
   <tile/>
   <tile/>
   <tile/>
   <tile/>
   <tile/>
   <tile/>
   <tile/>
   <tile/>
   <tile/>
   <tile/>
   <tile/>
   <tile/>
   <tile/>
   <tile/>
   <tile/>
   <tile/>
   <tile/>
   <tile/>
   <tile/>
   <tile/>
   <tile/>
   <tile/>
   <tile/>
   <tile/>
   <tile/>
   <tile/>
   <tile/>
   <tile/>
   <tile/>
   <tile/>
   <tile/>
   <tile/>
   <tile/>
   <tile/>
   <tile/>
   <tile/>
   <tile/>
   <tile/>
   <tile/>
   <tile/>
   <tile/>
   <tile/>
   <tile/>
   <tile/>
   <tile/>
   <tile/>
   <tile/>
   <tile/>
   <tile/>
   <tile/>
   <tile/>
   <tile/>
   <tile/>
   <tile/>
   <tile/>
   <tile/>
   <tile/>
   <tile/>
   <tile/>
   <tile/>
   <tile/>
   <tile/>
   <tile/>
   <tile/>
   <tile/>
   <tile/>
   <tile/>
   <tile/>
   <tile/>
   <tile/>
   <tile/>
   <tile/>
   <tile/>
   <tile/>
   <tile/>
   <tile/>
   <tile/>
   <tile/>
   <tile/>
   <tile/>
   <tile/>
   <tile/>
   <tile/>
   <tile/>
   <tile/>
   <tile/>
   <tile/>
   <tile/>
   <tile/>
   <tile/>
   <tile/>
   <tile/>
   <tile/>
   <tile/>
   <tile/>
   <tile/>
   <tile/>
   <tile/>
   <tile/>
   <tile/>
   <tile/>
   <tile/>
   <tile/>
   <tile/>
   <tile/>
   <tile/>
   <tile/>
   <tile/>
   <tile/>
   <tile/>
   <tile/>
   <tile/>
   <tile/>
   <tile/>
   <tile/>
   <tile/>
   <tile/>
   <tile/>
   <tile/>
   <tile/>
   <tile/>
   <tile/>
   <tile/>
   <tile/>
   <tile/>
   <tile/>
   <tile/>
   <tile/>
   <tile/>
   <tile/>
   <tile/>
   <tile/>
   <tile/>
   <tile/>
   <tile/>
   <tile/>
   <tile/>
   <tile/>
   <tile/>
   <tile/>
   <tile/>
   <tile/>
   <tile/>
   <tile/>
   <tile/>
   <tile/>
   <tile/>
   <tile/>
   <tile/>
   <tile/>
   <tile/>
   <tile/>
   <tile/>
   <tile/>
   <tile/>
   <tile/>
   <tile/>
   <tile/>
   <tile/>
   <tile/>
   <tile/>
   <tile/>
   <tile/>
   <tile/>
   <tile/>
   <tile/>
   <tile/>
   <tile/>
   <tile/>
   <tile/>
   <tile/>
   <tile/>
   <tile/>
   <tile/>
   <tile/>
   <tile/>
   <tile/>
   <tile/>
   <tile/>
   <tile/>
   <tile/>
   <tile/>
   <tile/>
   <tile/>
   <tile/>
   <tile/>
   <tile/>
   <tile/>
   <tile/>
   <tile/>
   <tile/>
   <tile/>
   <tile/>
   <tile/>
   <tile/>
   <tile/>
   <tile/>
   <tile/>
   <tile/>
   <tile/>
   <tile/>
   <tile/>
   <tile/>
   <tile/>
   <tile/>
   <tile/>
   <tile/>
   <tile/>
   <tile/>
   <tile/>
   <tile/>
   <tile/>
   <tile/>
   <tile/>
   <tile/>
   <tile/>
   <tile/>
   <tile/>
   <tile/>
   <tile/>
   <tile/>
   <tile/>
   <tile/>
   <tile/>
   <tile/>
   <tile/>
   <tile/>
   <tile/>
   <tile/>
   <tile/>
   <tile/>
   <tile/>
   <tile/>
   <tile/>
   <tile/>
   <tile/>
   <tile/>
   <tile/>
   <tile/>
   <tile/>
   <tile/>
   <tile/>
   <tile/>
   <tile/>
   <tile/>
   <tile/>
   <tile/>
   <tile/>
   <tile/>
   <tile/>
   <tile/>
   <tile/>
   <tile/>
   <tile/>
   <tile/>
   <tile/>
   <tile/>
   <tile/>
   <tile/>
   <tile/>
   <tile/>
   <tile/>
   <tile/>
   <tile/>
   <tile/>
   <tile/>
   <tile/>
   <tile/>
   <tile/>
   <tile/>
   <tile/>
   <tile/>
   <tile/>
   <tile/>
   <tile/>
   <tile/>
   <tile/>
   <tile/>
   <tile/>
   <tile/>
   <tile/>
   <tile/>
   <tile/>
   <tile/>
   <tile/>
   <tile/>
   <tile/>
   <tile/>
   <tile/>
   <tile/>
   <tile/>
   <tile/>
   <tile/>
   <tile/>
   <tile/>
   <tile/>
   <tile/>
   <tile/>
   <tile/>
   <tile/>
   <tile/>
   <tile/>
   <tile/>
   <tile/>
   <tile/>
   <tile/>
   <tile/>
   <tile/>
   <tile/>
   <tile/>
   <tile/>
   <tile/>
   <tile/>
   <tile/>
   <tile/>
   <tile/>
   <tile/>
   <tile/>
   <tile/>
   <tile/>
   <tile/>
   <tile/>
   <tile/>
   <tile/>
   <tile/>
   <tile/>
   <tile/>
   <tile/>
   <tile/>
   <tile/>
   <tile/>
   <tile/>
   <tile/>
   <tile/>
   <tile/>
   <tile/>
   <tile/>
   <tile/>
   <tile/>
   <tile/>
   <tile/>
   <tile/>
   <tile/>
   <tile/>
   <tile/>
   <tile/>
   <tile/>
   <tile/>
   <tile/>
   <tile/>
   <tile/>
   <tile/>
   <tile/>
   <tile/>
   <tile/>
   <tile/>
   <tile/>
   <tile/>
   <tile/>
   <tile/>
   <tile/>
   <tile/>
   <tile/>
   <tile/>
   <tile/>
   <tile/>
   <tile/>
   <tile/>
   <tile/>
   <tile/>
   <tile/>
   <tile/>
   <tile/>
   <tile/>
   <tile/>
   <tile/>
   <tile/>
   <tile/>
   <tile/>
   <tile/>
   <tile/>
   <tile/>
   <tile/>
   <tile/>
   <tile/>
   <tile/>
   <tile/>
   <tile/>
   <tile/>
   <tile/>
   <tile/>
   <tile/>
   <tile/>
   <tile/>
   <tile/>
   <tile/>
   <tile/>
   <tile/>
   <tile/>
   <tile/>
   <tile/>
   <tile/>
   <tile/>
   <tile/>
   <tile/>
   <tile/>
   <tile/>
   <tile/>
   <tile/>
   <tile/>
   <tile/>
   <tile/>
   <tile/>
   <tile/>
   <tile/>
   <tile/>
   <tile/>
   <tile/>
   <tile/>
   <tile/>
   <tile/>
   <tile/>
   <tile/>
   <tile/>
   <tile/>
   <tile/>
   <tile/>
   <tile/>
   <tile/>
   <tile/>
   <tile/>
   <tile/>
   <tile/>
   <tile/>
   <tile/>
   <tile/>
   <tile/>
   <tile/>
   <tile/>
   <tile/>
   <tile/>
   <tile/>
   <tile/>
   <tile/>
   <tile/>
   <tile/>
   <tile/>
   <tile/>
   <tile/>
   <tile/>
   <tile/>
   <tile/>
   <tile/>
   <tile/>
   <tile/>
   <tile/>
   <tile/>
   <tile/>
   <tile/>
   <tile/>
   <tile/>
   <tile/>
   <tile/>
   <tile/>
   <tile/>
   <tile/>
   <tile/>
   <tile/>
   <tile/>
   <tile/>
   <tile/>
   <tile/>
   <tile/>
   <tile/>
   <tile/>
   <tile/>
   <tile/>
   <tile/>
   <tile/>
   <tile/>
   <tile/>
   <tile/>
   <tile/>
   <tile/>
   <tile/>
   <tile/>
   <tile/>
   <tile/>
   <tile/>
   <tile/>
   <tile/>
   <tile/>
   <tile/>
   <tile/>
   <tile/>
   <tile/>
   <tile/>
   <tile/>
   <tile/>
   <tile/>
   <tile/>
   <tile/>
   <tile/>
   <tile/>
   <tile/>
   <tile/>
   <tile/>
   <tile/>
   <tile/>
   <tile/>
   <tile/>
   <tile/>
   <tile/>
   <tile/>
   <tile/>
   <tile/>
   <tile/>
   <tile/>
   <tile/>
   <tile/>
   <tile/>
   <tile/>
   <tile/>
   <tile/>
   <tile/>
   <tile/>
   <tile/>
   <tile/>
   <tile/>
   <tile/>
   <tile/>
   <tile/>
   <tile/>
   <tile/>
   <tile/>
   <tile/>
   <tile/>
   <tile/>
   <tile/>
   <tile/>
   <tile/>
   <tile/>
   <tile/>
   <tile/>
   <tile/>
   <tile/>
   <tile/>
   <tile/>
   <tile/>
   <tile/>
   <tile/>
   <tile/>
   <tile/>
   <tile/>
   <tile/>
   <tile/>
   <tile/>
   <tile/>
   <tile/>
   <tile/>
   <tile/>
   <tile/>
   <tile/>
   <tile/>
   <tile/>
   <tile/>
   <tile/>
   <tile/>
   <tile/>
   <tile/>
   <tile/>
   <tile/>
   <tile/>
   <tile/>
   <tile/>
   <tile/>
   <tile/>
   <tile/>
   <tile/>
   <tile/>
   <tile/>
   <tile/>
   <tile/>
   <tile/>
   <tile/>
   <tile/>
   <tile/>
   <tile/>
   <tile/>
   <tile/>
   <tile/>
   <tile/>
   <tile/>
   <tile/>
   <tile/>
   <tile/>
   <tile/>
   <tile/>
   <tile/>
   <tile/>
   <tile/>
   <tile/>
   <tile/>
   <tile/>
   <tile/>
   <tile/>
   <tile/>
   <tile/>
   <tile/>
   <tile/>
   <tile/>
   <tile/>
   <tile/>
   <tile/>
   <tile/>
   <tile/>
   <tile/>
   <tile/>
   <tile/>
   <tile/>
   <tile/>
   <tile/>
   <tile/>
   <tile/>
   <tile/>
   <tile/>
   <tile/>
   <tile/>
   <tile/>
   <tile/>
   <tile/>
   <tile/>
   <tile/>
   <tile/>
   <tile/>
   <tile/>
   <tile/>
   <tile/>
   <tile/>
   <tile/>
   <tile/>
   <tile/>
   <tile/>
   <tile/>
   <tile/>
   <tile/>
   <tile/>
   <tile/>
   <tile/>
   <tile/>
   <tile/>
   <tile/>
   <tile/>
   <tile/>
   <tile/>
   <tile/>
   <tile/>
   <tile/>
   <tile/>
   <tile/>
   <tile/>
   <tile/>
   <tile/>
   <tile/>
   <tile/>
   <tile/>
   <tile/>
   <tile/>
   <tile/>
   <tile/>
   <tile/>
   <tile/>
   <tile/>
   <tile/>
   <tile/>
   <tile/>
   <tile/>
   <tile/>
   <tile/>
   <tile/>
   <tile/>
   <tile/>
   <tile/>
   <tile/>
   <tile/>
   <tile/>
   <tile/>
   <tile/>
   <tile/>
   <tile/>
   <tile/>
   <tile/>
   <tile/>
   <tile/>
   <tile/>
   <tile/>
   <tile/>
   <tile/>
   <tile/>
   <tile/>
   <tile/>
   <tile/>
   <tile/>
   <tile/>
   <tile/>
   <tile/>
   <tile/>
   <tile/>
   <tile/>
   <tile/>
   <tile/>
   <tile/>
   <tile/>
   <tile/>
   <tile/>
   <tile/>
   <tile/>
   <tile/>
   <tile/>
   <tile/>
   <tile/>
   <tile/>
   <tile/>
   <tile/>
   <tile/>
   <tile/>
   <tile/>
   <tile/>
   <tile/>
   <tile/>
   <tile/>
   <tile/>
   <tile/>
   <tile/>
   <tile/>
   <tile/>
   <tile/>
   <tile/>
   <tile/>
   <tile/>
   <tile/>
   <tile/>
   <tile/>
   <tile/>
   <tile/>
   <tile/>
   <tile/>
   <tile/>
   <tile/>
   <tile/>
   <tile/>
   <tile/>
   <tile/>
   <tile/>
   <tile/>
   <tile/>
   <tile/>
   <tile/>
   <tile/>
   <tile/>
   <tile/>
   <tile/>
   <tile/>
   <tile/>
   <tile/>
   <tile/>
   <tile/>
   <tile/>
   <tile/>
   <tile/>
   <tile/>
   <tile/>
   <tile/>
   <tile/>
   <tile/>
   <tile/>
   <tile/>
   <tile/>
   <tile/>
   <tile/>
   <tile/>
   <tile/>
   <tile/>
   <tile/>
   <tile/>
   <tile/>
   <tile/>
   <tile/>
   <tile/>
   <tile/>
   <tile/>
   <tile/>
   <tile/>
   <tile/>
   <tile/>
   <tile/>
   <tile/>
   <tile/>
   <tile/>
   <tile/>
   <tile/>
   <tile/>
   <tile/>
   <tile/>
   <tile/>
   <tile/>
   <tile/>
   <tile/>
   <tile/>
   <tile/>
   <tile/>
   <tile/>
   <tile/>
   <tile/>
   <tile/>
   <tile/>
   <tile/>
   <tile/>
   <tile/>
   <tile/>
   <tile/>
   <tile/>
   <tile/>
   <tile/>
   <tile/>
   <tile/>
   <tile/>
   <tile/>
   <tile/>
   <tile/>
   <tile/>
   <tile/>
   <tile/>
   <tile/>
   <tile/>
   <tile/>
   <tile/>
   <tile/>
   <tile/>
   <tile/>
   <tile/>
   <tile/>
   <tile/>
   <tile/>
   <tile/>
   <tile/>
   <tile/>
   <tile/>
   <tile/>
   <tile/>
   <tile/>
   <tile/>
   <tile/>
   <tile/>
   <tile/>
   <tile/>
   <tile/>
   <tile/>
   <tile/>
   <tile/>
   <tile/>
   <tile/>
   <tile/>
   <tile/>
   <tile/>
   <tile/>
   <tile/>
   <tile/>
   <tile/>
   <tile/>
   <tile/>
   <tile/>
   <tile/>
   <tile/>
   <tile/>
   <tile/>
   <tile/>
   <tile/>
   <tile/>
   <tile/>
   <tile/>
   <tile/>
   <tile/>
   <tile/>
   <tile/>
   <tile/>
   <tile/>
   <tile/>
   <tile/>
   <tile/>
   <tile/>
   <tile/>
   <tile/>
   <tile/>
   <tile/>
   <tile/>
   <tile/>
   <tile/>
   <tile/>
   <tile/>
   <tile/>
   <tile/>
   <tile/>
   <tile/>
   <tile/>
   <tile/>
   <tile/>
   <tile/>
   <tile/>
   <tile/>
   <tile/>
   <tile/>
   <tile/>
   <tile/>
   <tile/>
   <tile/>
   <tile/>
   <tile/>
   <tile/>
   <tile/>
   <tile/>
   <tile/>
   <tile/>
   <tile/>
   <tile/>
   <tile/>
   <tile/>
   <tile/>
   <tile/>
   <tile/>
   <tile/>
   <tile/>
   <tile/>
   <tile/>
   <tile/>
   <tile/>
   <tile/>
   <tile/>
   <tile/>
   <tile/>
   <tile/>
   <tile/>
   <tile/>
   <tile/>
   <tile/>
   <tile/>
   <tile/>
   <tile/>
   <tile/>
   <tile/>
   <tile/>
   <tile/>
   <tile/>
   <tile/>
   <tile/>
   <tile/>
   <tile/>
   <tile/>
   <tile/>
   <tile/>
   <tile/>
   <tile/>
   <tile/>
   <tile/>
   <tile/>
   <tile/>
   <tile/>
   <tile/>
   <tile/>
   <tile/>
   <tile/>
   <tile/>
   <tile/>
   <tile/>
   <tile/>
   <tile/>
   <tile/>
   <tile/>
   <tile/>
   <tile/>
   <tile/>
   <tile/>
   <tile/>
   <tile/>
   <tile/>
   <tile/>
   <tile/>
   <tile/>
   <tile/>
   <tile/>
   <tile/>
   <tile/>
   <tile/>
   <tile/>
   <tile/>
   <tile/>
   <tile/>
   <tile/>
   <tile/>
   <tile/>
   <tile/>
   <tile/>
   <tile/>
   <tile/>
   <tile/>
   <tile/>
   <tile/>
   <tile/>
   <tile/>
   <tile/>
   <tile/>
   <tile/>
   <tile/>
   <tile/>
   <tile/>
   <tile/>
   <tile/>
   <tile/>
   <tile/>
   <tile/>
   <tile/>
   <tile/>
   <tile/>
   <tile/>
   <tile/>
   <tile/>
   <tile/>
   <tile/>
   <tile/>
   <tile/>
   <tile/>
   <tile/>
   <tile/>
   <tile/>
   <tile/>
   <tile/>
   <tile/>
   <tile/>
   <tile/>
   <tile/>
   <tile/>
   <tile/>
   <tile/>
   <tile/>
   <tile/>
   <tile/>
   <tile/>
   <tile/>
   <tile/>
   <tile/>
   <tile/>
   <tile/>
   <tile/>
   <tile/>
   <tile/>
   <tile/>
   <tile/>
   <tile/>
   <tile/>
   <tile/>
   <tile/>
   <tile/>
   <tile/>
   <tile/>
   <tile/>
   <tile/>
   <tile/>
   <tile/>
   <tile/>
   <tile/>
   <tile/>
   <tile/>
   <tile/>
   <tile/>
   <tile/>
   <tile/>
   <tile/>
   <tile/>
   <tile/>
   <tile/>
   <tile/>
   <tile/>
   <tile/>
   <tile/>
   <tile/>
   <tile/>
   <tile/>
   <tile/>
   <tile/>
   <tile/>
   <tile/>
   <tile/>
   <tile/>
   <tile/>
   <tile/>
   <tile/>
   <tile/>
   <tile/>
   <tile/>
   <tile/>
   <tile/>
   <tile/>
   <tile/>
   <tile/>
   <tile/>
   <tile/>
   <tile/>
   <tile/>
   <tile/>
   <tile/>
   <tile/>
   <tile/>
   <tile/>
   <tile/>
   <tile/>
   <tile/>
   <tile/>
   <tile/>
   <tile/>
   <tile/>
   <tile/>
   <tile/>
   <tile/>
   <tile/>
   <tile/>
   <tile/>
   <tile/>
   <tile/>
   <tile/>
   <tile/>
   <tile/>
   <tile/>
   <tile/>
   <tile/>
   <tile/>
   <tile/>
   <tile/>
   <tile/>
   <tile/>
   <tile/>
   <tile/>
   <tile/>
   <tile/>
   <tile/>
   <tile/>
   <tile/>
   <tile/>
   <tile/>
   <tile/>
   <tile/>
   <tile/>
   <tile/>
   <tile/>
   <tile/>
   <tile/>
   <tile/>
   <tile/>
   <tile/>
   <tile/>
   <tile/>
   <tile/>
   <tile/>
   <tile/>
   <tile/>
   <tile/>
   <tile/>
   <tile/>
   <tile/>
   <tile/>
   <tile/>
   <tile/>
   <tile/>
   <tile/>
   <tile/>
   <tile/>
   <tile/>
   <tile/>
   <tile/>
   <tile/>
   <tile/>
   <tile/>
   <tile/>
   <tile/>
   <tile/>
   <tile/>
   <tile/>
   <tile/>
   <tile/>
   <tile/>
   <tile/>
   <tile/>
   <tile/>
   <tile/>
   <tile/>
   <tile/>
   <tile/>
   <tile/>
   <tile/>
   <tile/>
   <tile/>
   <tile/>
   <tile/>
   <tile/>
   <tile/>
   <tile/>
   <tile/>
   <tile/>
   <tile/>
   <tile/>
   <tile/>
   <tile/>
   <tile/>
   <tile/>
   <tile/>
   <tile/>
   <tile/>
   <tile/>
   <tile/>
   <tile/>
   <tile/>
   <tile/>
   <tile/>
   <tile/>
   <tile/>
   <tile/>
   <tile/>
   <tile/>
   <tile/>
   <tile/>
   <tile/>
   <tile/>
   <tile/>
   <tile/>
   <tile/>
   <tile/>
   <tile/>
   <tile/>
   <tile/>
   <tile/>
   <tile/>
   <tile/>
   <tile/>
   <tile/>
   <tile/>
   <tile/>
   <tile/>
   <tile/>
   <tile/>
   <tile/>
   <tile/>
   <tile/>
   <tile/>
   <tile/>
   <tile/>
   <tile/>
   <tile/>
   <tile/>
   <tile/>
   <tile/>
   <tile/>
   <tile/>
   <tile/>
   <tile/>
   <tile/>
   <tile/>
   <tile/>
   <tile/>
   <tile/>
   <tile/>
   <tile/>
   <tile/>
   <tile/>
   <tile/>
   <tile/>
   <tile/>
   <tile/>
   <tile/>
   <tile/>
   <tile/>
   <tile/>
   <tile/>
   <tile/>
   <tile/>
   <tile/>
   <tile/>
   <tile/>
   <tile/>
   <tile/>
   <tile/>
   <tile/>
   <tile/>
   <tile/>
   <tile/>
   <tile/>
   <tile/>
   <tile/>
   <tile/>
   <tile/>
   <tile/>
   <tile/>
   <tile/>
   <tile/>
   <tile/>
   <tile/>
   <tile/>
   <tile/>
   <tile/>
   <tile/>
   <tile/>
   <tile/>
   <tile/>
   <tile/>
   <tile/>
   <tile/>
   <tile/>
   <tile/>
   <tile/>
   <tile/>
   <tile/>
   <tile/>
   <tile/>
   <tile/>
   <tile/>
   <tile/>
   <tile/>
   <tile/>
   <tile/>
   <tile/>
   <tile/>
   <tile/>
   <tile/>
   <tile/>
   <tile/>
   <tile/>
   <tile/>
   <tile/>
   <tile/>
   <tile/>
   <tile/>
   <tile/>
   <tile/>
   <tile/>
   <tile/>
   <tile/>
   <tile/>
   <tile/>
   <tile/>
   <tile/>
   <tile/>
   <tile/>
   <tile/>
   <tile/>
   <tile/>
   <tile/>
   <tile/>
   <tile/>
   <tile/>
   <tile/>
   <tile/>
   <tile/>
   <tile/>
   <tile/>
   <tile/>
   <tile/>
   <tile/>
   <tile/>
   <tile/>
   <tile/>
   <tile/>
   <tile/>
   <tile/>
   <tile/>
   <tile/>
   <tile/>
   <tile/>
   <tile/>
   <tile/>
   <tile/>
   <tile/>
   <tile/>
   <tile/>
   <tile/>
   <tile/>
   <tile/>
   <tile/>
   <tile/>
   <tile/>
   <tile/>
   <tile/>
   <tile/>
   <tile/>
   <tile/>
   <tile/>
   <tile/>
   <tile/>
   <tile/>
   <tile/>
   <tile/>
   <tile/>
   <tile/>
   <tile/>
   <tile/>
   <tile/>
   <tile/>
   <tile/>
   <tile/>
   <tile/>
   <tile/>
   <tile/>
   <tile/>
   <tile/>
   <tile/>
   <tile/>
   <tile/>
   <tile/>
   <tile/>
   <tile/>
   <tile/>
   <tile/>
   <tile/>
   <tile/>
   <tile/>
   <tile/>
   <tile/>
   <tile/>
   <tile/>
   <tile/>
   <tile/>
   <tile/>
   <tile/>
   <tile/>
   <tile/>
   <tile/>
   <tile/>
   <tile/>
   <tile/>
   <tile/>
   <tile/>
   <tile/>
   <tile/>
   <tile/>
   <tile/>
   <tile/>
   <tile/>
   <tile/>
   <tile/>
   <tile/>
   <tile/>
   <tile/>
   <tile/>
   <tile/>
   <tile/>
   <tile/>
   <tile/>
   <tile/>
   <tile/>
   <tile/>
   <tile/>
   <tile/>
   <tile/>
   <tile/>
   <tile/>
   <tile/>
   <tile/>
   <tile/>
   <tile/>
   <tile/>
   <tile/>
   <tile/>
   <tile/>
   <tile/>
   <tile/>
   <tile/>
   <tile/>
   <tile/>
   <tile/>
   <tile/>
   <tile/>
   <tile/>
   <tile/>
   <tile/>
   <tile/>
   <tile/>
   <tile/>
   <tile/>
   <tile/>
   <tile/>
   <tile/>
   <tile/>
   <tile/>
   <tile/>
   <tile/>
   <tile/>
   <tile/>
   <tile/>
   <tile/>
   <tile/>
   <tile/>
   <tile/>
   <tile/>
   <tile/>
   <tile/>
   <tile/>
   <tile/>
   <tile/>
   <tile/>
   <tile/>
   <tile/>
   <tile/>
   <tile/>
   <tile/>
   <tile/>
   <tile/>
   <tile/>
   <tile/>
   <tile/>
   <tile/>
   <tile/>
   <tile/>
   <tile/>
   <tile/>
   <tile/>
   <tile/>
   <tile/>
   <tile/>
   <tile/>
   <tile/>
   <tile/>
   <tile/>
   <tile/>
   <tile/>
   <tile/>
   <tile/>
   <tile/>
   <tile/>
   <tile/>
   <tile/>
   <tile/>
   <tile/>
   <tile/>
   <tile/>
   <tile/>
   <tile/>
   <tile/>
   <tile/>
   <tile/>
   <tile/>
   <tile/>
   <tile/>
   <tile/>
   <tile/>
   <tile/>
   <tile/>
   <tile/>
   <tile/>
   <tile/>
   <tile/>
   <tile/>
   <tile/>
   <tile/>
   <tile/>
   <tile/>
   <tile/>
   <tile/>
   <tile/>
   <tile/>
   <tile/>
   <tile/>
   <tile/>
   <tile/>
   <tile/>
   <tile/>
   <tile/>
   <tile/>
   <tile/>
   <tile/>
   <tile/>
   <tile/>
   <tile/>
   <tile/>
   <tile/>
   <tile/>
   <tile/>
   <tile/>
   <tile/>
   <tile/>
   <tile/>
   <tile/>
   <tile/>
   <tile/>
   <tile/>
   <tile/>
   <tile/>
   <tile/>
   <tile/>
   <tile/>
   <tile/>
   <tile/>
   <tile/>
   <tile/>
   <tile/>
   <tile/>
   <tile/>
   <tile/>
   <tile/>
   <tile/>
   <tile/>
   <tile/>
   <tile/>
   <tile/>
   <tile/>
   <tile/>
   <tile/>
   <tile/>
   <tile/>
   <tile/>
   <tile/>
   <tile/>
   <tile/>
   <tile/>
   <tile/>
   <tile/>
   <tile/>
   <tile/>
   <tile/>
   <tile/>
   <tile/>
   <tile/>
   <tile/>
   <tile/>
   <tile/>
   <tile/>
   <tile/>
   <tile/>
   <tile/>
   <tile/>
   <tile/>
   <tile/>
   <tile/>
   <tile/>
   <tile/>
   <tile/>
   <tile/>
   <tile/>
   <tile/>
   <tile/>
   <tile/>
   <tile/>
   <tile/>
   <tile/>
   <tile/>
   <tile/>
   <tile/>
   <tile/>
   <tile/>
   <tile/>
   <tile/>
   <tile/>
   <tile/>
   <tile/>
   <tile/>
   <tile/>
   <tile/>
   <tile/>
   <tile/>
   <tile/>
   <tile/>
   <tile/>
   <tile/>
   <tile/>
   <tile/>
   <tile/>
   <tile/>
   <tile/>
   <tile/>
   <tile/>
   <tile/>
   <tile/>
   <tile/>
   <tile/>
   <tile/>
   <tile/>
   <tile/>
   <tile/>
   <tile/>
   <tile/>
   <tile/>
   <tile/>
   <tile/>
   <tile/>
   <tile/>
   <tile/>
   <tile/>
   <tile/>
   <tile/>
   <tile/>
   <tile/>
   <tile/>
   <tile/>
   <tile/>
   <tile/>
   <tile/>
   <tile/>
   <tile/>
   <tile/>
   <tile/>
   <tile/>
   <tile/>
   <tile/>
   <tile/>
   <tile/>
   <tile/>
   <tile/>
   <tile/>
   <tile/>
   <tile/>
   <tile/>
   <tile/>
   <tile/>
   <tile/>
   <tile/>
   <tile/>
   <tile/>
   <tile/>
   <tile/>
   <tile/>
   <tile/>
   <tile/>
   <tile/>
   <tile/>
   <tile/>
   <tile/>
   <tile/>
   <tile/>
   <tile/>
   <tile/>
   <tile/>
   <tile/>
   <tile/>
   <tile/>
   <tile/>
   <tile/>
   <tile/>
   <tile/>
   <tile/>
   <tile/>
   <tile/>
   <tile/>
   <tile/>
   <tile/>
   <tile/>
   <tile/>
   <tile/>
   <tile/>
   <tile/>
   <tile/>
   <tile/>
   <tile/>
   <tile/>
   <tile/>
   <tile/>
   <tile/>
   <tile/>
   <tile/>
   <tile/>
   <tile/>
   <tile/>
   <tile/>
   <tile/>
   <tile/>
   <tile/>
   <tile/>
   <tile/>
   <tile/>
   <tile/>
   <tile/>
   <tile/>
   <tile/>
   <tile/>
   <tile/>
   <tile/>
   <tile/>
   <tile/>
   <tile/>
   <tile/>
   <tile/>
   <tile/>
   <tile/>
   <tile/>
   <tile/>
   <tile/>
   <tile/>
   <tile/>
   <tile/>
   <tile/>
   <tile/>
   <tile/>
   <tile/>
   <tile/>
   <tile/>
   <tile/>
   <tile/>
   <tile/>
   <tile/>
   <tile/>
   <tile/>
   <tile/>
   <tile/>
   <tile/>
   <tile/>
   <tile/>
   <tile/>
   <tile/>
   <tile/>
   <tile/>
   <tile/>
   <tile/>
   <tile/>
   <tile/>
   <tile/>
   <tile/>
   <tile/>
   <tile/>
   <tile/>
   <tile/>
   <tile/>
   <tile/>
   <tile/>
   <tile/>
   <tile/>
   <tile/>
   <tile/>
   <tile/>
   <tile/>
   <tile/>
   <tile/>
   <tile/>
   <tile/>
   <tile/>
   <tile/>
   <tile/>
   <tile/>
   <tile/>
   <tile/>
   <tile/>
   <tile/>
   <tile/>
   <tile/>
   <tile/>
   <tile/>
   <tile/>
   <tile/>
   <tile gid="185"/>
   <tile gid="185"/>
   <tile gid="185"/>
   <tile gid="185"/>
   <tile gid="185"/>
   <tile gid="185"/>
   <tile gid="185"/>
   <tile/>
   <tile/>
   <tile/>
   <tile/>
   <tile gid="185"/>
   <tile gid="185"/>
   <tile gid="185"/>
   <tile gid="185"/>
   <tile gid="185"/>
   <tile gid="185"/>
   <tile gid="185"/>
   <tile gid="185"/>
   <tile gid="185"/>
   <tile gid="185"/>
   <tile gid="185"/>
   <tile gid="185"/>
   <tile gid="185"/>
   <tile gid="185"/>
   <tile gid="185"/>
   <tile gid="185"/>
   <tile gid="185"/>
   <tile gid="185"/>
   <tile gid="185"/>
   <tile/>
   <tile/>
   <tile/>
   <tile gid="185"/>
   <tile gid="185"/>
   <tile gid="185"/>
   <tile gid="185"/>
   <tile gid="185"/>
   <tile/>
   <tile/>
   <tile/>
   <tile/>
   <tile/>
   <tile/>
   <tile/>
   <tile/>
   <tile/>
   <tile/>
   <tile/>
   <tile/>
   <tile/>
   <tile/>
   <tile/>
   <tile/>
   <tile/>
   <tile/>
   <tile/>
   <tile/>
   <tile/>
   <tile/>
   <tile/>
   <tile/>
   <tile/>
   <tile/>
   <tile/>
   <tile/>
   <tile/>
   <tile/>
   <tile/>
   <tile/>
   <tile/>
   <tile/>
   <tile/>
   <tile/>
   <tile/>
   <tile/>
   <tile/>
   <tile/>
   <tile/>
   <tile/>
   <tile/>
   <tile/>
   <tile/>
   <tile/>
   <tile/>
   <tile/>
   <tile/>
   <tile/>
   <tile/>
   <tile/>
   <tile/>
   <tile/>
   <tile/>
   <tile/>
   <tile/>
   <tile/>
   <tile/>
   <tile/>
   <tile/>
   <tile/>
   <tile/>
   <tile/>
   <tile/>
   <tile/>
   <tile/>
   <tile/>
   <tile/>
   <tile/>
   <tile/>
   <tile/>
   <tile/>
   <tile/>
   <tile/>
   <tile/>
   <tile/>
   <tile/>
   <tile/>
   <tile/>
   <tile/>
   <tile/>
   <tile/>
   <tile/>
   <tile/>
   <tile/>
   <tile/>
   <tile/>
   <tile/>
   <tile/>
   <tile/>
   <tile/>
   <tile/>
   <tile/>
   <tile/>
   <tile/>
   <tile/>
   <tile/>
   <tile/>
   <tile/>
   <tile/>
   <tile/>
   <tile/>
   <tile/>
   <tile/>
   <tile/>
   <tile/>
   <tile/>
   <tile/>
   <tile/>
   <tile/>
   <tile/>
   <tile/>
   <tile/>
   <tile/>
   <tile/>
   <tile/>
   <tile/>
   <tile/>
   <tile/>
   <tile/>
   <tile/>
   <tile/>
   <tile/>
   <tile/>
   <tile/>
   <tile/>
   <tile/>
   <tile/>
   <tile/>
   <tile/>
   <tile/>
   <tile/>
   <tile/>
   <tile/>
   <tile/>
   <tile/>
   <tile/>
   <tile/>
   <tile/>
   <tile/>
   <tile/>
   <tile/>
   <tile/>
   <tile/>
   <tile/>
   <tile/>
   <tile/>
   <tile/>
   <tile/>
   <tile/>
   <tile/>
   <tile/>
   <tile/>
   <tile/>
   <tile/>
   <tile/>
   <tile/>
   <tile/>
   <tile/>
   <tile/>
   <tile/>
   <tile/>
   <tile/>
   <tile/>
   <tile/>
   <tile/>
   <tile/>
   <tile/>
   <tile/>
   <tile/>
   <tile/>
   <tile/>
   <tile/>
   <tile/>
   <tile/>
   <tile/>
   <tile/>
   <tile/>
   <tile/>
   <tile/>
   <tile/>
   <tile/>
   <tile/>
   <tile/>
   <tile/>
   <tile/>
   <tile/>
   <tile/>
   <tile/>
   <tile/>
   <tile/>
   <tile/>
   <tile/>
   <tile/>
   <tile/>
   <tile/>
   <tile/>
   <tile/>
   <tile/>
   <tile/>
   <tile/>
   <tile/>
   <tile/>
   <tile/>
   <tile/>
   <tile/>
   <tile/>
   <tile/>
   <tile/>
   <tile/>
   <tile/>
   <tile/>
   <tile/>
   <tile/>
   <tile/>
   <tile/>
   <tile/>
   <tile/>
   <tile/>
   <tile/>
   <tile/>
   <tile/>
   <tile/>
   <tile/>
   <tile/>
   <tile/>
   <tile/>
   <tile/>
   <tile/>
   <tile/>
   <tile/>
   <tile/>
   <tile/>
   <tile/>
   <tile/>
   <tile/>
   <tile/>
   <tile/>
   <tile/>
   <tile/>
   <tile/>
   <tile/>
   <tile/>
   <tile/>
   <tile/>
   <tile/>
   <tile/>
   <tile/>
   <tile/>
   <tile/>
   <tile/>
   <tile/>
   <tile/>
   <tile/>
   <tile/>
   <tile/>
   <tile/>
   <tile/>
   <tile/>
   <tile/>
   <tile/>
   <tile/>
   <tile/>
   <tile/>
   <tile/>
   <tile/>
   <tile/>
   <tile/>
   <tile/>
   <tile/>
   <tile/>
   <tile/>
   <tile/>
   <tile/>
   <tile/>
   <tile/>
   <tile/>
   <tile/>
   <tile/>
   <tile/>
   <tile/>
   <tile/>
   <tile/>
   <tile/>
   <tile/>
   <tile/>
   <tile/>
   <tile/>
   <tile/>
   <tile/>
   <tile/>
   <tile/>
   <tile/>
   <tile/>
   <tile/>
   <tile/>
   <tile/>
   <tile/>
   <tile/>
   <tile/>
   <tile/>
   <tile/>
   <tile/>
   <tile/>
   <tile/>
   <tile/>
   <tile/>
   <tile/>
   <tile/>
   <tile/>
   <tile/>
   <tile/>
   <tile/>
   <tile/>
   <tile/>
   <tile/>
   <tile/>
   <tile/>
   <tile/>
   <tile/>
   <tile/>
   <tile/>
   <tile/>
   <tile/>
   <tile/>
   <tile/>
   <tile/>
   <tile/>
   <tile/>
   <tile/>
   <tile/>
   <tile/>
   <tile/>
   <tile/>
   <tile/>
   <tile/>
   <tile/>
   <tile/>
   <tile/>
   <tile/>
   <tile/>
   <tile/>
   <tile/>
   <tile/>
   <tile/>
   <tile/>
   <tile/>
   <tile/>
   <tile/>
   <tile/>
   <tile/>
   <tile/>
   <tile/>
   <tile/>
   <tile/>
   <tile/>
   <tile/>
   <tile/>
   <tile/>
   <tile/>
   <tile/>
   <tile/>
   <tile/>
   <tile/>
   <tile/>
   <tile/>
   <tile/>
   <tile/>
   <tile/>
   <tile/>
   <tile/>
   <tile/>
   <tile/>
   <tile/>
   <tile/>
   <tile/>
   <tile/>
   <tile/>
   <tile/>
   <tile/>
   <tile/>
   <tile/>
   <tile/>
   <tile/>
   <tile/>
   <tile/>
   <tile/>
   <tile/>
   <tile/>
   <tile/>
   <tile/>
   <tile/>
   <tile/>
   <tile/>
   <tile/>
   <tile/>
   <tile/>
   <tile/>
   <tile/>
   <tile/>
   <tile/>
   <tile/>
   <tile/>
   <tile/>
   <tile/>
   <tile/>
   <tile/>
   <tile/>
   <tile/>
   <tile/>
   <tile/>
   <tile/>
   <tile/>
   <tile/>
   <tile/>
   <tile/>
   <tile/>
   <tile/>
   <tile/>
   <tile/>
   <tile/>
   <tile/>
   <tile/>
   <tile/>
   <tile/>
   <tile/>
   <tile/>
   <tile/>
   <tile/>
   <tile/>
   <tile/>
   <tile/>
   <tile/>
   <tile/>
   <tile/>
   <tile/>
   <tile/>
   <tile/>
   <tile/>
   <tile/>
   <tile/>
   <tile/>
   <tile/>
   <tile/>
   <tile/>
   <tile/>
   <tile/>
   <tile/>
   <tile/>
   <tile/>
   <tile/>
   <tile/>
   <tile/>
   <tile/>
   <tile/>
   <tile/>
   <tile/>
   <tile/>
   <tile/>
   <tile/>
   <tile/>
   <tile/>
   <tile/>
   <tile/>
   <tile/>
   <tile/>
   <tile/>
   <tile/>
   <tile/>
   <tile/>
   <tile/>
   <tile/>
   <tile/>
   <tile/>
   <tile/>
   <tile/>
   <tile/>
   <tile/>
   <tile/>
   <tile/>
   <tile/>
   <tile/>
   <tile/>
   <tile/>
   <tile/>
   <tile/>
   <tile/>
   <tile/>
   <tile/>
   <tile/>
   <tile/>
   <tile/>
   <tile/>
   <tile/>
   <tile/>
   <tile/>
   <tile/>
   <tile/>
   <tile/>
   <tile/>
   <tile/>
   <tile/>
   <tile/>
   <tile/>
   <tile/>
   <tile/>
   <tile/>
   <tile/>
   <tile/>
   <tile/>
   <tile/>
   <tile/>
   <tile/>
   <tile/>
   <tile/>
   <tile/>
   <tile/>
   <tile/>
   <tile/>
   <tile/>
   <tile/>
   <tile/>
   <tile/>
   <tile/>
   <tile/>
   <tile/>
   <tile/>
   <tile/>
   <tile/>
   <tile/>
   <tile/>
   <tile/>
   <tile/>
   <tile/>
   <tile/>
   <tile/>
   <tile/>
   <tile/>
   <tile/>
   <tile/>
   <tile/>
   <tile/>
   <tile/>
   <tile/>
   <tile/>
   <tile/>
   <tile/>
   <tile/>
   <tile/>
   <tile/>
   <tile/>
   <tile/>
   <tile/>
   <tile/>
   <tile/>
   <tile/>
   <tile/>
   <tile/>
   <tile/>
   <tile/>
   <tile/>
   <tile/>
   <tile/>
   <tile/>
   <tile/>
   <tile/>
   <tile/>
   <tile/>
   <tile/>
   <tile/>
   <tile/>
   <tile/>
   <tile/>
   <tile/>
   <tile/>
   <tile/>
   <tile/>
   <tile/>
   <tile/>
   <tile/>
   <tile/>
   <tile/>
   <tile/>
   <tile/>
   <tile/>
   <tile/>
   <tile/>
   <tile/>
   <tile/>
   <tile/>
   <tile/>
   <tile/>
   <tile/>
   <tile/>
   <tile/>
   <tile/>
   <tile/>
   <tile/>
   <tile/>
   <tile/>
   <tile/>
   <tile/>
   <tile/>
   <tile/>
   <tile/>
   <tile/>
   <tile/>
   <tile/>
   <tile/>
   <tile/>
   <tile/>
   <tile/>
   <tile/>
   <tile/>
   <tile/>
   <tile/>
   <tile/>
   <tile/>
   <tile/>
   <tile/>
   <tile/>
   <tile/>
   <tile/>
   <tile/>
   <tile/>
   <tile/>
   <tile/>
   <tile/>
   <tile/>
   <tile/>
   <tile/>
   <tile/>
   <tile/>
   <tile/>
   <tile/>
   <tile/>
   <tile/>
   <tile/>
   <tile/>
   <tile/>
   <tile/>
   <tile/>
   <tile/>
   <tile/>
   <tile/>
   <tile/>
   <tile/>
   <tile/>
   <tile/>
   <tile/>
   <tile/>
   <tile/>
   <tile/>
   <tile/>
   <tile/>
   <tile/>
   <tile/>
   <tile/>
   <tile/>
   <tile/>
   <tile/>
   <tile/>
   <tile/>
   <tile/>
   <tile/>
   <tile/>
   <tile/>
   <tile/>
   <tile/>
   <tile/>
   <tile/>
   <tile/>
   <tile/>
   <tile/>
   <tile/>
   <tile/>
   <tile/>
   <tile/>
   <tile/>
   <tile/>
   <tile/>
   <tile/>
   <tile/>
   <tile/>
   <tile/>
   <tile/>
   <tile/>
   <tile/>
   <tile/>
   <tile/>
   <tile/>
   <tile/>
   <tile/>
   <tile/>
   <tile/>
   <tile/>
   <tile/>
   <tile/>
   <tile/>
   <tile/>
   <tile/>
   <tile/>
   <tile/>
   <tile/>
   <tile/>
   <tile/>
   <tile/>
   <tile/>
   <tile/>
   <tile/>
   <tile/>
   <tile/>
   <tile/>
   <tile/>
   <tile/>
   <tile/>
   <tile/>
   <tile/>
   <tile/>
   <tile/>
   <tile/>
   <tile/>
   <tile/>
   <tile/>
   <tile/>
   <tile/>
   <tile/>
   <tile/>
   <tile/>
   <tile/>
   <tile/>
   <tile/>
   <tile/>
   <tile/>
   <tile/>
   <tile/>
   <tile/>
   <tile/>
   <tile/>
   <tile/>
   <tile/>
   <tile/>
   <tile/>
   <tile/>
   <tile/>
   <tile/>
   <tile/>
   <tile/>
   <tile/>
   <tile/>
   <tile/>
   <tile/>
   <tile/>
   <tile/>
   <tile/>
   <tile/>
   <tile/>
   <tile/>
   <tile/>
   <tile/>
   <tile/>
   <tile/>
   <tile/>
   <tile/>
   <tile/>
   <tile/>
   <tile/>
   <tile/>
   <tile/>
   <tile/>
   <tile/>
   <tile/>
   <tile/>
   <tile/>
   <tile/>
   <tile/>
   <tile/>
   <tile/>
   <tile/>
   <tile/>
   <tile/>
   <tile/>
   <tile/>
   <tile/>
   <tile/>
   <tile/>
   <tile/>
   <tile/>
   <tile/>
   <tile/>
   <tile/>
   <tile/>
   <tile/>
   <tile/>
   <tile/>
   <tile/>
   <tile/>
   <tile/>
   <tile/>
   <tile/>
   <tile/>
   <tile/>
   <tile/>
   <tile/>
   <tile/>
   <tile/>
   <tile/>
   <tile/>
   <tile/>
   <tile/>
   <tile/>
   <tile/>
   <tile/>
   <tile/>
   <tile/>
   <tile/>
   <tile/>
   <tile/>
   <tile/>
   <tile/>
   <tile/>
   <tile/>
   <tile/>
   <tile/>
   <tile/>
   <tile/>
   <tile/>
   <tile/>
   <tile/>
   <tile/>
   <tile/>
   <tile/>
   <tile/>
   <tile/>
   <tile/>
   <tile/>
   <tile/>
   <tile/>
   <tile/>
   <tile/>
   <tile/>
   <tile/>
   <tile/>
   <tile/>
   <tile/>
   <tile/>
   <tile/>
   <tile/>
   <tile/>
   <tile/>
   <tile/>
   <tile/>
   <tile/>
   <tile/>
   <tile/>
   <tile/>
   <tile/>
   <tile/>
   <tile/>
   <tile/>
   <tile/>
   <tile/>
   <tile/>
   <tile/>
   <tile/>
   <tile/>
   <tile/>
   <tile/>
   <tile/>
   <tile/>
   <tile/>
   <tile/>
   <tile/>
   <tile/>
   <tile/>
   <tile/>
   <tile/>
   <tile/>
   <tile/>
   <tile/>
   <tile/>
   <tile/>
   <tile/>
   <tile/>
   <tile/>
   <tile/>
   <tile/>
   <tile/>
   <tile/>
   <tile/>
   <tile/>
   <tile/>
   <tile/>
   <tile/>
   <tile/>
   <tile/>
   <tile/>
   <tile/>
   <tile/>
   <tile/>
   <tile/>
   <tile/>
   <tile/>
   <tile/>
   <tile/>
   <tile/>
   <tile/>
   <tile/>
   <tile/>
   <tile/>
   <tile/>
   <tile/>
   <tile/>
   <tile/>
   <tile/>
   <tile/>
   <tile/>
   <tile/>
   <tile/>
   <tile/>
   <tile/>
   <tile/>
   <tile/>
   <tile/>
   <tile/>
   <tile/>
   <tile/>
   <tile/>
   <tile/>
   <tile/>
   <tile/>
   <tile/>
   <tile/>
   <tile/>
   <tile/>
   <tile/>
   <tile/>
   <tile/>
   <tile/>
   <tile/>
   <tile/>
   <tile/>
   <tile/>
   <tile/>
   <tile/>
   <tile/>
   <tile/>
   <tile/>
   <tile/>
   <tile/>
   <tile/>
   <tile/>
   <tile/>
   <tile/>
   <tile/>
   <tile/>
   <tile/>
   <tile/>
   <tile/>
   <tile/>
   <tile/>
   <tile/>
   <tile/>
   <tile/>
   <tile/>
   <tile/>
   <tile/>
   <tile/>
   <tile/>
   <tile/>
   <tile/>
   <tile/>
   <tile/>
   <tile/>
   <tile/>
   <tile/>
   <tile/>
   <tile/>
   <tile/>
   <tile/>
   <tile/>
   <tile/>
   <tile/>
   <tile/>
   <tile/>
   <tile/>
   <tile/>
   <tile/>
   <tile/>
   <tile/>
   <tile/>
   <tile/>
   <tile/>
   <tile/>
   <tile/>
   <tile/>
   <tile/>
   <tile/>
   <tile/>
   <tile/>
   <tile/>
   <tile/>
   <tile/>
   <tile/>
   <tile/>
   <tile/>
   <tile/>
   <tile/>
   <tile/>
   <tile/>
   <tile/>
   <tile/>
   <tile/>
   <tile/>
   <tile/>
   <tile/>
   <tile/>
   <tile/>
   <tile/>
   <tile/>
   <tile/>
   <tile/>
   <tile/>
   <tile/>
   <tile/>
   <tile/>
   <tile/>
   <tile/>
   <tile/>
   <tile/>
   <tile/>
   <tile/>
   <tile/>
   <tile/>
   <tile/>
   <tile/>
   <tile/>
   <tile/>
   <tile/>
   <tile/>
   <tile/>
   <tile/>
   <tile/>
   <tile/>
   <tile/>
   <tile/>
   <tile/>
   <tile/>
   <tile/>
   <tile/>
   <tile/>
   <tile/>
   <tile/>
   <tile/>
   <tile/>
   <tile/>
   <tile/>
   <tile/>
   <tile/>
   <tile/>
   <tile/>
   <tile/>
   <tile/>
   <tile/>
   <tile/>
   <tile/>
   <tile/>
   <tile/>
   <tile/>
   <tile/>
   <tile/>
   <tile/>
   <tile/>
   <tile/>
   <tile/>
   <tile/>
   <tile/>
   <tile/>
   <tile/>
   <tile/>
   <tile/>
   <tile/>
   <tile/>
   <tile/>
   <tile/>
   <tile/>
   <tile/>
   <tile/>
   <tile/>
   <tile/>
   <tile/>
   <tile/>
   <tile/>
   <tile/>
   <tile/>
   <tile/>
   <tile/>
   <tile/>
   <tile/>
   <tile/>
   <tile/>
   <tile/>
   <tile/>
   <tile/>
   <tile/>
   <tile/>
   <tile/>
   <tile/>
   <tile/>
   <tile/>
   <tile/>
   <tile/>
   <tile/>
   <tile/>
   <tile/>
   <tile/>
   <tile/>
   <tile/>
   <tile/>
   <tile/>
   <tile/>
   <tile/>
   <tile/>
   <tile/>
   <tile/>
   <tile/>
   <tile/>
   <tile/>
   <tile/>
   <tile/>
   <tile/>
   <tile/>
   <tile/>
   <tile/>
   <tile/>
   <tile/>
   <tile/>
   <tile/>
   <tile/>
   <tile/>
   <tile/>
   <tile/>
   <tile/>
   <tile/>
   <tile/>
   <tile/>
   <tile/>
   <tile/>
   <tile/>
   <tile/>
   <tile/>
   <tile/>
   <tile/>
   <tile/>
   <tile/>
   <tile/>
   <tile/>
   <tile/>
   <tile/>
   <tile/>
   <tile/>
   <tile/>
   <tile/>
   <tile/>
   <tile/>
   <tile/>
   <tile/>
   <tile/>
   <tile/>
   <tile/>
   <tile/>
   <tile/>
   <tile/>
   <tile/>
   <tile/>
   <tile/>
   <tile/>
   <tile/>
   <tile/>
   <tile/>
   <tile/>
   <tile/>
   <tile/>
   <tile/>
   <tile/>
   <tile/>
   <tile/>
   <tile/>
   <tile/>
   <tile/>
   <tile/>
   <tile/>
   <tile/>
   <tile/>
   <tile/>
   <tile/>
   <tile/>
   <tile/>
   <tile/>
   <tile/>
   <tile/>
   <tile/>
   <tile/>
   <tile/>
   <tile/>
   <tile/>
   <tile/>
   <tile/>
   <tile/>
   <tile/>
   <tile/>
   <tile/>
   <tile/>
   <tile/>
   <tile/>
   <tile/>
   <tile/>
   <tile/>
   <tile/>
   <tile/>
   <tile/>
   <tile/>
   <tile/>
   <tile/>
   <tile/>
   <tile/>
   <tile/>
   <tile/>
   <tile/>
   <tile/>
   <tile/>
   <tile/>
   <tile/>
   <tile/>
   <tile/>
   <tile/>
   <tile/>
   <tile/>
   <tile/>
   <tile/>
   <tile/>
   <tile/>
   <tile/>
   <tile/>
   <tile/>
   <tile/>
   <tile/>
   <tile/>
   <tile/>
   <tile/>
   <tile/>
   <tile/>
   <tile/>
   <tile/>
   <tile/>
   <tile/>
   <tile/>
   <tile/>
   <tile/>
   <tile/>
   <tile/>
   <tile/>
   <tile/>
   <tile/>
   <tile/>
   <tile/>
   <tile/>
   <tile/>
   <tile/>
   <tile/>
   <tile/>
   <tile/>
   <tile/>
   <tile/>
   <tile/>
   <tile/>
   <tile/>
   <tile/>
   <tile/>
   <tile/>
   <tile/>
   <tile/>
   <tile/>
   <tile/>
   <tile/>
   <tile/>
   <tile gid="185"/>
   <tile gid="185"/>
   <tile gid="185"/>
   <tile gid="185"/>
   <tile gid="185"/>
   <tile gid="185"/>
   <tile gid="185"/>
   <tile gid="185"/>
   <tile gid="185"/>
   <tile gid="185"/>
   <tile gid="185"/>
   <tile gid="185"/>
   <tile gid="185"/>
   <tile gid="185"/>
   <tile gid="185"/>
   <tile gid="185"/>
   <tile gid="185"/>
   <tile gid="185"/>
   <tile gid="185"/>
   <tile gid="185"/>
   <tile gid="185"/>
   <tile gid="185"/>
   <tile gid="185"/>
   <tile gid="185"/>
   <tile gid="185"/>
   <tile gid="185"/>
   <tile gid="185"/>
   <tile gid="185"/>
   <tile gid="185"/>
   <tile gid="185"/>
   <tile gid="185"/>
   <tile gid="185"/>
   <tile gid="185"/>
   <tile gid="185"/>
   <tile gid="185"/>
   <tile gid="185"/>
   <tile gid="185"/>
   <tile gid="185"/>
   <tile gid="185"/>
   <tile gid="185"/>
   <tile gid="185"/>
   <tile gid="185"/>
   <tile gid="185"/>
   <tile gid="185"/>
   <tile gid="185"/>
   <tile gid="185"/>
   <tile gid="185"/>
   <tile gid="185"/>
   <tile gid="185"/>
   <tile gid="185"/>
   <tile gid="185"/>
   <tile gid="185"/>
   <tile gid="185"/>
   <tile gid="185"/>
   <tile gid="185"/>
   <tile gid="185"/>
   <tile gid="185"/>
   <tile gid="185"/>
   <tile gid="185"/>
   <tile gid="185"/>
   <tile gid="185"/>
   <tile gid="185"/>
   <tile gid="185"/>
   <tile gid="185"/>
   <tile gid="185"/>
   <tile gid="185"/>
   <tile gid="185"/>
   <tile gid="185"/>
   <tile gid="185"/>
   <tile gid="185"/>
   <tile gid="185"/>
   <tile gid="185"/>
   <tile gid="185"/>
   <tile gid="185"/>
   <tile gid="185"/>
   <tile gid="185"/>
   <tile gid="185"/>
   <tile gid="185"/>
   <tile gid="185"/>
   <tile gid="185"/>
   <tile gid="185"/>
   <tile gid="185"/>
   <tile gid="185"/>
   <tile gid="185"/>
   <tile gid="185"/>
   <tile gid="185"/>
   <tile gid="185"/>
   <tile gid="185"/>
   <tile gid="185"/>
   <tile gid="185"/>
   <tile gid="185"/>
   <tile/>
   <tile/>
   <tile/>
   <tile gid="185"/>
   <tile gid="185"/>
   <tile gid="185"/>
   <tile gid="185"/>
   <tile gid="185"/>
   <tile gid="185"/>
   <tile gid="185"/>
   <tile gid="185"/>
   <tile gid="185"/>
   <tile gid="185"/>
   <tile gid="185"/>
   <tile gid="185"/>
   <tile gid="185"/>
   <tile gid="185"/>
   <tile gid="185"/>
   <tile gid="185"/>
   <tile gid="185"/>
   <tile gid="185"/>
   <tile gid="185"/>
   <tile gid="185"/>
   <tile gid="185"/>
   <tile gid="185"/>
   <tile gid="185"/>
   <tile gid="185"/>
   <tile gid="185"/>
   <tile/>
   <tile/>
   <tile/>
   <tile gid="185"/>
   <tile gid="185"/>
   <tile gid="185"/>
   <tile gid="185"/>
   <tile gid="185"/>
   <tile gid="185"/>
   <tile gid="185"/>
   <tile gid="185"/>
   <tile gid="185"/>
   <tile gid="185"/>
   <tile gid="185"/>
   <tile gid="185"/>
   <tile gid="185"/>
   <tile gid="185"/>
   <tile gid="185"/>
   <tile gid="185"/>
   <tile gid="185"/>
   <tile gid="185"/>
   <tile gid="185"/>
   <tile gid="185"/>
   <tile gid="185"/>
   <tile gid="185"/>
   <tile/>
   <tile/>
   <tile/>
   <tile/>
   <tile/>
   <tile/>
   <tile/>
   <tile/>
   <tile/>
   <tile/>
   <tile/>
   <tile/>
   <tile/>
   <tile/>
   <tile/>
   <tile/>
   <tile/>
   <tile/>
   <tile/>
   <tile/>
   <tile/>
   <tile/>
   <tile/>
   <tile/>
   <tile/>
   <tile/>
   <tile/>
   <tile/>
   <tile/>
   <tile/>
   <tile/>
   <tile/>
   <tile/>
   <tile/>
   <tile/>
   <tile/>
   <tile/>
   <tile/>
   <tile/>
   <tile/>
   <tile/>
   <tile/>
   <tile/>
   <tile/>
   <tile/>
   <tile/>
   <tile/>
   <tile/>
   <tile/>
   <tile/>
   <tile/>
   <tile/>
   <tile/>
   <tile/>
   <tile/>
   <tile/>
   <tile/>
   <tile/>
   <tile/>
   <tile/>
   <tile/>
   <tile/>
   <tile/>
   <tile/>
   <tile/>
   <tile/>
   <tile/>
   <tile/>
   <tile/>
   <tile/>
   <tile/>
   <tile/>
   <tile/>
   <tile/>
   <tile/>
   <tile/>
   <tile/>
   <tile/>
   <tile/>
   <tile/>
   <tile/>
   <tile/>
   <tile/>
   <tile/>
   <tile/>
   <tile/>
   <tile/>
   <tile/>
   <tile/>
   <tile/>
   <tile/>
   <tile/>
   <tile/>
   <tile/>
   <tile/>
   <tile/>
   <tile/>
   <tile/>
   <tile/>
   <tile/>
   <tile/>
   <tile/>
   <tile/>
   <tile/>
   <tile/>
   <tile/>
   <tile/>
   <tile/>
   <tile/>
   <tile/>
   <tile/>
   <tile/>
   <tile/>
   <tile/>
   <tile/>
   <tile/>
   <tile/>
   <tile/>
   <tile/>
   <tile/>
   <tile/>
   <tile/>
   <tile/>
   <tile/>
   <tile/>
   <tile/>
   <tile/>
   <tile/>
   <tile/>
   <tile/>
   <tile/>
   <tile/>
   <tile/>
   <tile/>
   <tile/>
   <tile/>
   <tile/>
   <tile/>
   <tile/>
   <tile/>
   <tile/>
   <tile/>
   <tile/>
   <tile/>
   <tile/>
   <tile/>
   <tile/>
   <tile/>
   <tile/>
   <tile/>
   <tile/>
   <tile/>
   <tile/>
   <tile/>
   <tile/>
   <tile/>
   <tile/>
   <tile/>
   <tile/>
   <tile/>
   <tile/>
   <tile/>
   <tile/>
   <tile/>
   <tile/>
   <tile/>
   <tile/>
   <tile/>
   <tile/>
   <tile/>
   <tile/>
   <tile/>
   <tile/>
   <tile/>
   <tile/>
   <tile/>
   <tile/>
   <tile/>
   <tile/>
   <tile/>
   <tile/>
   <tile/>
   <tile/>
   <tile/>
   <tile/>
   <tile/>
   <tile/>
   <tile/>
   <tile/>
   <tile/>
   <tile/>
   <tile/>
   <tile/>
   <tile/>
   <tile/>
   <tile/>
   <tile/>
   <tile/>
   <tile/>
   <tile/>
   <tile/>
   <tile/>
   <tile/>
   <tile/>
   <tile/>
   <tile/>
   <tile/>
   <tile/>
   <tile/>
   <tile/>
   <tile/>
   <tile/>
   <tile/>
   <tile/>
   <tile/>
   <tile/>
   <tile/>
   <tile/>
   <tile/>
   <tile/>
   <tile/>
   <tile/>
   <tile/>
   <tile/>
   <tile/>
   <tile/>
   <tile/>
   <tile/>
   <tile/>
   <tile/>
   <tile/>
   <tile/>
   <tile/>
   <tile/>
   <tile/>
   <tile/>
   <tile/>
   <tile/>
   <tile/>
   <tile/>
   <tile/>
   <tile/>
   <tile/>
   <tile/>
   <tile/>
   <tile/>
   <tile/>
   <tile/>
   <tile/>
   <tile/>
   <tile/>
   <tile/>
   <tile/>
   <tile/>
   <tile/>
   <tile/>
   <tile/>
   <tile/>
   <tile/>
   <tile/>
   <tile/>
   <tile/>
   <tile/>
   <tile/>
   <tile/>
   <tile/>
   <tile/>
   <tile/>
   <tile/>
   <tile/>
   <tile/>
   <tile/>
   <tile/>
   <tile/>
   <tile/>
   <tile/>
   <tile/>
   <tile/>
   <tile/>
   <tile/>
   <tile/>
   <tile/>
   <tile/>
   <tile/>
   <tile/>
   <tile/>
   <tile/>
   <tile/>
   <tile/>
   <tile/>
   <tile/>
   <tile/>
   <tile/>
   <tile/>
   <tile/>
   <tile/>
   <tile/>
   <tile/>
   <tile/>
   <tile/>
   <tile/>
   <tile/>
   <tile/>
   <tile/>
   <tile/>
   <tile/>
   <tile/>
   <tile/>
   <tile/>
   <tile/>
   <tile/>
   <tile/>
   <tile/>
   <tile/>
   <tile/>
   <tile/>
   <tile/>
   <tile/>
   <tile/>
   <tile/>
   <tile/>
   <tile/>
   <tile/>
   <tile/>
   <tile/>
   <tile/>
   <tile/>
   <tile/>
   <tile/>
   <tile/>
   <tile/>
   <tile/>
   <tile/>
   <tile/>
   <tile/>
   <tile/>
   <tile/>
   <tile/>
   <tile/>
   <tile/>
   <tile/>
   <tile/>
   <tile/>
   <tile/>
   <tile/>
   <tile/>
   <tile/>
   <tile/>
   <tile/>
   <tile/>
   <tile/>
   <tile/>
   <tile/>
   <tile/>
   <tile/>
   <tile/>
   <tile/>
   <tile/>
   <tile/>
   <tile/>
   <tile/>
   <tile/>
   <tile/>
   <tile/>
   <tile/>
   <tile/>
   <tile/>
   <tile/>
   <tile/>
   <tile/>
   <tile/>
   <tile/>
   <tile/>
   <tile/>
   <tile/>
   <tile/>
   <tile/>
   <tile/>
   <tile/>
   <tile/>
   <tile/>
   <tile/>
   <tile/>
   <tile/>
   <tile/>
   <tile/>
   <tile/>
   <tile/>
   <tile/>
   <tile/>
   <tile/>
   <tile/>
   <tile/>
   <tile/>
   <tile/>
   <tile/>
   <tile/>
   <tile/>
   <tile/>
   <tile/>
   <tile/>
   <tile/>
   <tile/>
   <tile/>
   <tile/>
   <tile/>
   <tile/>
   <tile/>
   <tile/>
   <tile/>
   <tile/>
   <tile/>
   <tile/>
   <tile/>
   <tile/>
   <tile/>
   <tile/>
   <tile/>
   <tile/>
   <tile/>
   <tile/>
   <tile/>
   <tile/>
   <tile/>
   <tile/>
   <tile/>
   <tile/>
   <tile/>
   <tile/>
   <tile/>
   <tile/>
   <tile/>
   <tile/>
   <tile/>
   <tile/>
   <tile/>
   <tile/>
   <tile/>
   <tile/>
   <tile/>
   <tile/>
   <tile/>
   <tile/>
   <tile/>
   <tile/>
   <tile/>
   <tile/>
   <tile/>
   <tile/>
   <tile/>
   <tile/>
   <tile/>
   <tile/>
  </data>
 </layer>
</map>
