<?xml version="1.0" encoding="UTF-8"?>
<map version="1.10" tiledversion="1.11.2" orientation="orthogonal" renderorder="right-down" width="132" height="100" tilewidth="32" tileheight="32" infinite="0" nextlayerid="7" nextobjectid="85">
 <tileset firstgid="1" name="tmw_desert_spacing" tilewidth="32" tileheight="32" spacing="1" margin="1" tilecount="48" columns="8">
  <image source="../Tilesets/tmw_desert_spacing.png" width="265" height="199"/>
 </tileset>
 <tileset firstgid="49" name="MapMetadata" tilewidth="32" tileheight="32" spacing="1" margin="1" tilecount="2" columns="2">
  <image source="../Tilesets/MapMetadata.png" width="67" height="34"/>
 </tileset>
 <layer id="1" name="Map" width="132" height="100">
  <properties>
   <property name="Draw" type="bool" value="true"/>
  </properties>
  <data>
   <tile gid="34"/>
   <tile gid="34"/>
   <tile gid="34"/>
   <tile gid="34"/>
   <tile gid="34"/>
   <tile gid="34"/>
   <tile gid="34"/>
   <tile gid="34"/>
   <tile gid="34"/>
   <tile gid="34"/>
   <tile gid="34"/>
   <tile gid="34"/>
   <tile gid="34"/>
   <tile gid="34"/>
   <tile gid="34"/>
   <tile gid="34"/>
   <tile gid="34"/>
   <tile gid="34"/>
   <tile gid="34"/>
   <tile gid="34"/>
   <tile gid="34"/>
   <tile gid="34"/>
   <tile gid="34"/>
   <tile gid="34"/>
   <tile gid="34"/>
   <tile gid="34"/>
   <tile gid="34"/>
   <tile gid="34"/>
   <tile gid="34"/>
   <tile gid="34"/>
   <tile gid="34"/>
   <tile gid="34"/>
   <tile gid="34"/>
   <tile gid="34"/>
   <tile gid="34"/>
   <tile gid="34"/>
   <tile gid="34"/>
   <tile gid="34"/>
   <tile gid="34"/>
   <tile gid="34"/>
   <tile gid="34"/>
   <tile gid="34"/>
   <tile gid="34"/>
   <tile gid="34"/>
   <tile gid="34"/>
   <tile gid="34"/>
   <tile gid="34"/>
   <tile gid="34"/>
   <tile gid="34"/>
   <tile gid="34"/>
   <tile gid="34"/>
   <tile gid="34"/>
   <tile gid="34"/>
   <tile gid="34"/>
   <tile gid="34"/>
   <tile gid="34"/>
   <tile gid="34"/>
   <tile gid="34"/>
   <tile/>
   <tile/>
   <tile/>
   <tile/>
   <tile/>
   <tile/>
   <tile/>
   <tile/>
   <tile/>
   <tile/>
   <tile/>
   <tile/>
   <tile/>
   <tile/>
   <tile/>
   <tile/>
   <tile/>
   <tile/>
   <tile gid="34"/>
   <tile gid="34"/>
   <tile gid="34"/>
   <tile gid="34"/>
   <tile gid="34"/>
   <tile gid="34"/>
   <tile gid="34"/>
   <tile gid="34"/>
   <tile gid="34"/>
   <tile gid="34"/>
   <tile gid="34"/>
   <tile gid="34"/>
   <tile gid="34"/>
   <tile gid="34"/>
   <tile gid="34"/>
   <tile gid="34"/>
   <tile gid="34"/>
   <tile gid="34"/>
   <tile gid="34"/>
   <tile gid="34"/>
   <tile gid="34"/>
   <tile gid="34"/>
   <tile gid="34"/>
   <tile gid="34"/>
   <tile gid="34"/>
   <tile gid="34"/>
   <tile gid="34"/>
   <tile gid="34"/>
   <tile gid="34"/>
   <tile gid="34"/>
   <tile gid="34"/>
   <tile gid="34"/>
   <tile gid="34"/>
   <tile gid="34"/>
   <tile gid="34"/>
   <tile gid="34"/>
   <tile gid="34"/>
   <tile gid="34"/>
   <tile gid="34"/>
   <tile gid="34"/>
   <tile gid="34"/>
   <tile gid="34"/>
   <tile gid="34"/>
   <tile gid="34"/>
   <tile gid="34"/>
   <tile gid="34"/>
   <tile gid="34"/>
   <tile gid="34"/>
   <tile gid="34"/>
   <tile gid="34"/>
   <tile gid="34"/>
   <tile gid="34"/>
   <tile gid="34"/>
   <tile gid="34"/>
   <tile gid="34"/>
   <tile gid="34"/>
   <tile gid="34"/>
   <tile gid="34"/>
   <tile gid="34"/>
   <tile gid="34"/>
   <tile gid="34"/>
   <tile gid="34"/>
   <tile gid="34"/>
   <tile gid="34"/>
   <tile gid="34"/>
   <tile gid="34"/>
   <tile gid="34"/>
   <tile gid="34"/>
   <tile gid="34"/>
   <tile gid="34"/>
   <tile gid="34"/>
   <tile gid="34"/>
   <tile gid="34"/>
   <tile gid="34"/>
   <tile gid="34"/>
   <tile gid="34"/>
   <tile gid="34"/>
   <tile gid="34"/>
   <tile gid="34"/>
   <tile gid="34"/>
   <tile gid="34"/>
   <tile gid="34"/>
   <tile gid="34"/>
   <tile gid="34"/>
   <tile gid="34"/>
   <tile gid="34"/>
   <tile gid="34"/>
   <tile gid="34"/>
   <tile gid="34"/>
   <tile gid="34"/>
   <tile gid="34"/>
   <tile gid="34"/>
   <tile gid="34"/>
   <tile gid="34"/>
   <tile gid="34"/>
   <tile gid="34"/>
   <tile gid="34"/>
   <tile gid="34"/>
   <tile gid="34"/>
   <tile gid="34"/>
   <tile gid="34"/>
   <tile gid="34"/>
   <tile gid="34"/>
   <tile gid="34"/>
   <tile gid="34"/>
   <tile gid="34"/>
   <tile gid="34"/>
   <tile gid="34"/>
   <tile gid="34"/>
   <tile gid="34"/>
   <tile gid="34"/>
   <tile gid="34"/>
   <tile gid="34"/>
   <tile gid="34"/>
   <tile/>
   <tile/>
   <tile/>
   <tile/>
   <tile/>
   <tile/>
   <tile/>
   <tile/>
   <tile/>
   <tile/>
   <tile/>
   <tile/>
   <tile/>
   <tile/>
   <tile/>
   <tile/>
   <tile/>
   <tile/>
   <tile gid="34"/>
   <tile gid="34"/>
   <tile gid="34"/>
   <tile gid="34"/>
   <tile gid="34"/>
   <tile gid="34"/>
   <tile gid="34"/>
   <tile gid="34"/>
   <tile gid="34"/>
   <tile gid="34"/>
   <tile gid="34"/>
   <tile gid="34"/>
   <tile gid="34"/>
   <tile gid="34"/>
   <tile gid="34"/>
   <tile gid="34"/>
   <tile gid="34"/>
   <tile gid="34"/>
   <tile gid="34"/>
   <tile gid="34"/>
   <tile gid="34"/>
   <tile gid="34"/>
   <tile gid="34"/>
   <tile gid="34"/>
   <tile gid="34"/>
   <tile gid="34"/>
   <tile gid="34"/>
   <tile gid="34"/>
   <tile gid="34"/>
   <tile gid="34"/>
   <tile gid="34"/>
   <tile gid="34"/>
   <tile gid="34"/>
   <tile gid="34"/>
   <tile gid="34"/>
   <tile gid="34"/>
   <tile gid="34"/>
   <tile gid="34"/>
   <tile gid="34"/>
   <tile gid="34"/>
   <tile gid="34"/>
   <tile gid="34"/>
   <tile gid="34"/>
   <tile gid="34"/>
   <tile gid="34"/>
   <tile gid="34"/>
   <tile gid="34"/>
   <tile gid="34"/>
   <tile gid="34"/>
   <tile gid="34"/>
   <tile gid="34"/>
   <tile gid="34"/>
   <tile gid="34"/>
   <tile gid="34"/>
   <tile gid="34"/>
   <tile gid="34"/>
   <tile gid="34"/>
   <tile gid="34"/>
   <tile gid="34"/>
   <tile gid="34"/>
   <tile gid="34"/>
   <tile gid="34"/>
   <tile gid="34"/>
   <tile gid="34"/>
   <tile gid="34"/>
   <tile gid="34"/>
   <tile gid="34"/>
   <tile gid="34"/>
   <tile gid="34"/>
   <tile gid="34"/>
   <tile gid="34"/>
   <tile gid="34"/>
   <tile gid="34"/>
   <tile gid="34"/>
   <tile gid="34"/>
   <tile gid="34"/>
   <tile gid="34"/>
   <tile gid="34"/>
   <tile gid="34"/>
   <tile gid="34"/>
   <tile gid="34"/>
   <tile gid="34"/>
   <tile gid="34"/>
   <tile gid="34"/>
   <tile gid="34"/>
   <tile gid="34"/>
   <tile gid="34"/>
   <tile gid="34"/>
   <tile gid="34"/>
   <tile gid="34"/>
   <tile gid="34"/>
   <tile gid="34"/>
   <tile gid="34"/>
   <tile gid="34"/>
   <tile gid="34"/>
   <tile gid="34"/>
   <tile gid="34"/>
   <tile gid="34"/>
   <tile gid="34"/>
   <tile gid="34"/>
   <tile gid="34"/>
   <tile gid="34"/>
   <tile gid="34"/>
   <tile gid="34"/>
   <tile gid="34"/>
   <tile gid="34"/>
   <tile gid="34"/>
   <tile gid="34"/>
   <tile gid="34"/>
   <tile gid="34"/>
   <tile gid="34"/>
   <tile gid="34"/>
   <tile gid="34"/>
   <tile gid="34"/>
   <tile/>
   <tile/>
   <tile/>
   <tile/>
   <tile/>
   <tile/>
   <tile/>
   <tile/>
   <tile/>
   <tile/>
   <tile/>
   <tile/>
   <tile/>
   <tile/>
   <tile/>
   <tile/>
   <tile/>
   <tile/>
   <tile gid="34"/>
   <tile gid="34"/>
   <tile gid="34"/>
   <tile gid="34"/>
   <tile gid="34"/>
   <tile gid="34"/>
   <tile gid="34"/>
   <tile gid="34"/>
   <tile gid="34"/>
   <tile gid="34"/>
   <tile gid="34"/>
   <tile gid="34"/>
   <tile gid="34"/>
   <tile gid="34"/>
   <tile gid="34"/>
   <tile gid="34"/>
   <tile gid="34"/>
   <tile gid="34"/>
   <tile gid="34"/>
   <tile gid="34"/>
   <tile gid="34"/>
   <tile gid="34"/>
   <tile gid="34"/>
   <tile gid="34"/>
   <tile gid="34"/>
   <tile gid="34"/>
   <tile gid="34"/>
   <tile gid="34"/>
   <tile gid="34"/>
   <tile gid="34"/>
   <tile gid="34"/>
   <tile gid="34"/>
   <tile gid="34"/>
   <tile gid="34"/>
   <tile gid="34"/>
   <tile gid="34"/>
   <tile gid="34"/>
   <tile gid="34"/>
   <tile gid="34"/>
   <tile gid="34"/>
   <tile gid="34"/>
   <tile gid="34"/>
   <tile gid="34"/>
   <tile gid="34"/>
   <tile gid="34"/>
   <tile gid="34"/>
   <tile gid="34"/>
   <tile gid="34"/>
   <tile gid="34"/>
   <tile gid="34"/>
   <tile gid="34"/>
   <tile gid="34"/>
   <tile gid="34"/>
   <tile gid="34"/>
   <tile gid="34"/>
   <tile gid="34"/>
   <tile gid="34"/>
   <tile gid="34"/>
   <tile gid="34"/>
   <tile gid="30"/>
   <tile gid="30"/>
   <tile gid="30"/>
   <tile gid="30"/>
   <tile gid="30"/>
   <tile gid="30"/>
   <tile gid="30"/>
   <tile gid="30"/>
   <tile gid="30"/>
   <tile gid="30"/>
   <tile gid="30"/>
   <tile gid="30"/>
   <tile gid="30"/>
   <tile gid="30"/>
   <tile gid="34"/>
   <tile gid="34"/>
   <tile gid="34"/>
   <tile gid="30"/>
   <tile gid="30"/>
   <tile gid="30"/>
   <tile gid="30"/>
   <tile gid="30"/>
   <tile gid="30"/>
   <tile gid="30"/>
   <tile gid="30"/>
   <tile gid="30"/>
   <tile gid="30"/>
   <tile gid="30"/>
   <tile gid="30"/>
   <tile gid="30"/>
   <tile gid="30"/>
   <tile gid="30"/>
   <tile gid="30"/>
   <tile gid="30"/>
   <tile gid="30"/>
   <tile gid="30"/>
   <tile gid="30"/>
   <tile gid="30"/>
   <tile gid="30"/>
   <tile gid="34"/>
   <tile gid="34"/>
   <tile gid="34"/>
   <tile gid="30"/>
   <tile gid="30"/>
   <tile gid="30"/>
   <tile gid="30"/>
   <tile gid="30"/>
   <tile gid="30"/>
   <tile gid="30"/>
   <tile gid="30"/>
   <tile gid="30"/>
   <tile gid="30"/>
   <tile gid="34"/>
   <tile gid="34"/>
   <tile gid="34"/>
   <tile/>
   <tile/>
   <tile/>
   <tile/>
   <tile/>
   <tile/>
   <tile/>
   <tile/>
   <tile/>
   <tile/>
   <tile/>
   <tile/>
   <tile/>
   <tile/>
   <tile/>
   <tile/>
   <tile/>
   <tile/>
   <tile gid="34"/>
   <tile gid="34"/>
   <tile gid="34"/>
   <tile gid="30"/>
   <tile gid="30"/>
   <tile gid="30"/>
   <tile gid="30"/>
   <tile gid="30"/>
   <tile gid="30"/>
   <tile gid="30"/>
   <tile gid="30"/>
   <tile gid="30"/>
   <tile gid="30"/>
   <tile gid="34"/>
   <tile gid="34"/>
   <tile gid="34"/>
   <tile gid="30"/>
   <tile gid="30"/>
   <tile gid="30"/>
   <tile gid="30"/>
   <tile gid="30"/>
   <tile gid="30"/>
   <tile gid="30"/>
   <tile gid="30"/>
   <tile gid="30"/>
   <tile gid="30"/>
   <tile gid="30"/>
   <tile gid="30"/>
   <tile gid="30"/>
   <tile gid="30"/>
   <tile gid="30"/>
   <tile gid="30"/>
   <tile gid="30"/>
   <tile gid="30"/>
   <tile gid="30"/>
   <tile gid="30"/>
   <tile gid="30"/>
   <tile gid="30"/>
   <tile gid="34"/>
   <tile gid="34"/>
   <tile gid="34"/>
   <tile gid="30"/>
   <tile gid="30"/>
   <tile gid="30"/>
   <tile gid="30"/>
   <tile gid="30"/>
   <tile gid="30"/>
   <tile gid="30"/>
   <tile gid="30"/>
   <tile gid="30"/>
   <tile gid="30"/>
   <tile gid="30"/>
   <tile gid="30"/>
   <tile gid="34"/>
   <tile gid="34"/>
   <tile gid="34"/>
   <tile gid="34"/>
   <tile gid="34"/>
   <tile gid="34"/>
   <tile gid="30"/>
   <tile gid="30"/>
   <tile gid="30"/>
   <tile gid="30"/>
   <tile gid="30"/>
   <tile gid="30"/>
   <tile gid="30"/>
   <tile gid="30"/>
   <tile gid="30"/>
   <tile gid="30"/>
   <tile gid="30"/>
   <tile gid="30"/>
   <tile gid="30"/>
   <tile gid="30"/>
   <tile gid="34"/>
   <tile gid="34"/>
   <tile gid="34"/>
   <tile gid="30"/>
   <tile gid="30"/>
   <tile gid="30"/>
   <tile gid="30"/>
   <tile gid="30"/>
   <tile gid="30"/>
   <tile gid="30"/>
   <tile gid="30"/>
   <tile gid="30"/>
   <tile gid="30"/>
   <tile gid="30"/>
   <tile gid="30"/>
   <tile gid="30"/>
   <tile gid="30"/>
   <tile gid="30"/>
   <tile gid="30"/>
   <tile gid="30"/>
   <tile gid="30"/>
   <tile gid="30"/>
   <tile gid="30"/>
   <tile gid="30"/>
   <tile gid="30"/>
   <tile gid="34"/>
   <tile gid="34"/>
   <tile gid="34"/>
   <tile gid="30"/>
   <tile gid="30"/>
   <tile gid="30"/>
   <tile gid="30"/>
   <tile gid="30"/>
   <tile gid="30"/>
   <tile gid="30"/>
   <tile gid="30"/>
   <tile gid="30"/>
   <tile gid="30"/>
   <tile gid="34"/>
   <tile gid="34"/>
   <tile gid="34"/>
   <tile/>
   <tile/>
   <tile/>
   <tile/>
   <tile/>
   <tile/>
   <tile/>
   <tile/>
   <tile/>
   <tile/>
   <tile/>
   <tile/>
   <tile/>
   <tile/>
   <tile/>
   <tile/>
   <tile/>
   <tile/>
   <tile gid="34"/>
   <tile gid="34"/>
   <tile gid="34"/>
   <tile gid="30"/>
   <tile gid="30"/>
   <tile gid="30"/>
   <tile gid="30"/>
   <tile gid="30"/>
   <tile gid="30"/>
   <tile gid="30"/>
   <tile gid="30"/>
   <tile gid="30"/>
   <tile gid="30"/>
   <tile gid="34"/>
   <tile gid="34"/>
   <tile gid="34"/>
   <tile gid="30"/>
   <tile gid="30"/>
   <tile gid="30"/>
   <tile gid="30"/>
   <tile gid="30"/>
   <tile gid="30"/>
   <tile gid="30"/>
   <tile gid="30"/>
   <tile gid="30"/>
   <tile gid="30"/>
   <tile gid="30"/>
   <tile gid="30"/>
   <tile gid="30"/>
   <tile gid="30"/>
   <tile gid="30"/>
   <tile gid="30"/>
   <tile gid="30"/>
   <tile gid="30"/>
   <tile gid="30"/>
   <tile gid="30"/>
   <tile gid="30"/>
   <tile gid="30"/>
   <tile gid="34"/>
   <tile gid="34"/>
   <tile gid="34"/>
   <tile gid="30"/>
   <tile gid="30"/>
   <tile gid="30"/>
   <tile gid="30"/>
   <tile gid="30"/>
   <tile gid="30"/>
   <tile gid="30"/>
   <tile gid="30"/>
   <tile gid="30"/>
   <tile gid="30"/>
   <tile gid="30"/>
   <tile gid="30"/>
   <tile gid="34"/>
   <tile gid="34"/>
   <tile gid="34"/>
   <tile gid="34"/>
   <tile gid="34"/>
   <tile gid="34"/>
   <tile gid="30"/>
   <tile gid="30"/>
   <tile gid="30"/>
   <tile gid="30"/>
   <tile gid="30"/>
   <tile gid="30"/>
   <tile gid="30"/>
   <tile gid="30"/>
   <tile gid="30"/>
   <tile gid="30"/>
   <tile gid="30"/>
   <tile gid="30"/>
   <tile gid="30"/>
   <tile gid="30"/>
   <tile gid="34"/>
   <tile gid="34"/>
   <tile gid="34"/>
   <tile gid="30"/>
   <tile gid="30"/>
   <tile gid="30"/>
   <tile gid="30"/>
   <tile gid="30"/>
   <tile gid="30"/>
   <tile gid="30"/>
   <tile gid="30"/>
   <tile gid="30"/>
   <tile gid="30"/>
   <tile gid="30"/>
   <tile gid="30"/>
   <tile gid="30"/>
   <tile gid="30"/>
   <tile gid="30"/>
   <tile gid="30"/>
   <tile gid="30"/>
   <tile gid="30"/>
   <tile gid="30"/>
   <tile gid="30"/>
   <tile gid="30"/>
   <tile gid="30"/>
   <tile gid="34"/>
   <tile gid="34"/>
   <tile gid="34"/>
   <tile gid="30"/>
   <tile gid="30"/>
   <tile gid="30"/>
   <tile gid="30"/>
   <tile gid="30"/>
   <tile gid="30"/>
   <tile gid="30"/>
   <tile gid="30"/>
   <tile gid="30"/>
   <tile gid="30"/>
   <tile gid="34"/>
   <tile gid="34"/>
   <tile gid="34"/>
   <tile/>
   <tile/>
   <tile/>
   <tile/>
   <tile/>
   <tile/>
   <tile/>
   <tile/>
   <tile/>
   <tile/>
   <tile/>
   <tile/>
   <tile/>
   <tile/>
   <tile/>
   <tile/>
   <tile/>
   <tile/>
   <tile gid="34"/>
   <tile gid="34"/>
   <tile gid="34"/>
   <tile gid="30"/>
   <tile gid="30"/>
   <tile gid="30"/>
   <tile gid="30"/>
   <tile gid="30"/>
   <tile gid="30"/>
   <tile gid="30"/>
   <tile gid="30"/>
   <tile gid="30"/>
   <tile gid="30"/>
   <tile gid="30"/>
   <tile gid="30"/>
   <tile gid="30"/>
   <tile gid="30"/>
   <tile gid="30"/>
   <tile gid="30"/>
   <tile gid="30"/>
   <tile gid="30"/>
   <tile gid="30"/>
   <tile gid="30"/>
   <tile gid="30"/>
   <tile gid="30"/>
   <tile gid="30"/>
   <tile gid="30"/>
   <tile gid="30"/>
   <tile gid="30"/>
   <tile gid="30"/>
   <tile gid="30"/>
   <tile gid="30"/>
   <tile gid="30"/>
   <tile gid="30"/>
   <tile gid="30"/>
   <tile gid="30"/>
   <tile gid="30"/>
   <tile gid="30"/>
   <tile gid="30"/>
   <tile gid="30"/>
   <tile gid="30"/>
   <tile gid="30"/>
   <tile gid="30"/>
   <tile gid="30"/>
   <tile gid="30"/>
   <tile gid="30"/>
   <tile gid="30"/>
   <tile gid="30"/>
   <tile gid="30"/>
   <tile gid="30"/>
   <tile gid="30"/>
   <tile gid="30"/>
   <tile gid="30"/>
   <tile gid="34"/>
   <tile gid="34"/>
   <tile gid="34"/>
   <tile gid="34"/>
   <tile gid="34"/>
   <tile gid="34"/>
   <tile gid="30"/>
   <tile gid="30"/>
   <tile gid="30"/>
   <tile gid="30"/>
   <tile gid="30"/>
   <tile gid="30"/>
   <tile gid="30"/>
   <tile gid="30"/>
   <tile gid="30"/>
   <tile gid="30"/>
   <tile gid="30"/>
   <tile gid="30"/>
   <tile gid="30"/>
   <tile gid="30"/>
   <tile gid="30"/>
   <tile gid="30"/>
   <tile gid="30"/>
   <tile gid="30"/>
   <tile gid="30"/>
   <tile gid="30"/>
   <tile gid="30"/>
   <tile gid="30"/>
   <tile gid="30"/>
   <tile gid="30"/>
   <tile gid="30"/>
   <tile gid="30"/>
   <tile gid="30"/>
   <tile gid="30"/>
   <tile gid="30"/>
   <tile gid="30"/>
   <tile gid="30"/>
   <tile gid="30"/>
   <tile gid="30"/>
   <tile gid="30"/>
   <tile gid="30"/>
   <tile gid="30"/>
   <tile gid="30"/>
   <tile gid="30"/>
   <tile gid="30"/>
   <tile gid="34"/>
   <tile gid="34"/>
   <tile gid="34"/>
   <tile gid="30"/>
   <tile gid="30"/>
   <tile gid="30"/>
   <tile gid="30"/>
   <tile gid="30"/>
   <tile gid="30"/>
   <tile gid="30"/>
   <tile gid="30"/>
   <tile gid="30"/>
   <tile gid="30"/>
   <tile gid="34"/>
   <tile gid="34"/>
   <tile gid="34"/>
   <tile/>
   <tile/>
   <tile/>
   <tile/>
   <tile/>
   <tile/>
   <tile/>
   <tile/>
   <tile/>
   <tile/>
   <tile/>
   <tile/>
   <tile/>
   <tile/>
   <tile/>
   <tile/>
   <tile/>
   <tile/>
   <tile gid="34"/>
   <tile gid="34"/>
   <tile gid="34"/>
   <tile gid="30"/>
   <tile gid="30"/>
   <tile gid="30"/>
   <tile gid="30"/>
   <tile gid="30"/>
   <tile gid="30"/>
   <tile gid="30"/>
   <tile gid="30"/>
   <tile gid="30"/>
   <tile gid="30"/>
   <tile gid="30"/>
   <tile gid="30"/>
   <tile gid="30"/>
   <tile gid="30"/>
   <tile gid="30"/>
   <tile gid="30"/>
   <tile gid="30"/>
   <tile gid="30"/>
   <tile gid="30"/>
   <tile gid="30"/>
   <tile gid="30"/>
   <tile gid="30"/>
   <tile gid="30"/>
   <tile gid="30"/>
   <tile gid="30"/>
   <tile gid="30"/>
   <tile gid="30"/>
   <tile gid="30"/>
   <tile gid="30"/>
   <tile gid="30"/>
   <tile gid="30"/>
   <tile gid="30"/>
   <tile gid="30"/>
   <tile gid="30"/>
   <tile gid="30"/>
   <tile gid="30"/>
   <tile gid="30"/>
   <tile gid="30"/>
   <tile gid="30"/>
   <tile gid="30"/>
   <tile gid="30"/>
   <tile gid="30"/>
   <tile gid="30"/>
   <tile gid="30"/>
   <tile gid="30"/>
   <tile gid="30"/>
   <tile gid="30"/>
   <tile gid="30"/>
   <tile gid="30"/>
   <tile gid="30"/>
   <tile gid="34"/>
   <tile gid="34"/>
   <tile gid="34"/>
   <tile gid="34"/>
   <tile gid="34"/>
   <tile gid="34"/>
   <tile gid="30"/>
   <tile gid="30"/>
   <tile gid="30"/>
   <tile gid="30"/>
   <tile gid="30"/>
   <tile gid="30"/>
   <tile gid="30"/>
   <tile gid="30"/>
   <tile gid="30"/>
   <tile gid="30"/>
   <tile gid="30"/>
   <tile gid="30"/>
   <tile gid="30"/>
   <tile gid="30"/>
   <tile gid="30"/>
   <tile gid="30"/>
   <tile gid="30"/>
   <tile gid="30"/>
   <tile gid="30"/>
   <tile gid="30"/>
   <tile gid="30"/>
   <tile gid="30"/>
   <tile gid="30"/>
   <tile gid="30"/>
   <tile gid="30"/>
   <tile gid="30"/>
   <tile gid="30"/>
   <tile gid="30"/>
   <tile gid="30"/>
   <tile gid="30"/>
   <tile gid="30"/>
   <tile gid="30"/>
   <tile gid="30"/>
   <tile gid="30"/>
   <tile gid="30"/>
   <tile gid="30"/>
   <tile gid="30"/>
   <tile gid="30"/>
   <tile gid="30"/>
   <tile gid="34"/>
   <tile gid="34"/>
   <tile gid="34"/>
   <tile gid="30"/>
   <tile gid="30"/>
   <tile gid="30"/>
   <tile gid="30"/>
   <tile gid="30"/>
   <tile gid="30"/>
   <tile gid="30"/>
   <tile gid="30"/>
   <tile gid="30"/>
   <tile gid="30"/>
   <tile gid="34"/>
   <tile gid="34"/>
   <tile gid="34"/>
   <tile/>
   <tile/>
   <tile/>
   <tile/>
   <tile/>
   <tile/>
   <tile/>
   <tile/>
   <tile/>
   <tile/>
   <tile/>
   <tile/>
   <tile/>
   <tile/>
   <tile/>
   <tile/>
   <tile/>
   <tile/>
   <tile gid="34"/>
   <tile gid="34"/>
   <tile gid="34"/>
   <tile gid="30"/>
   <tile gid="30"/>
   <tile gid="30"/>
   <tile gid="30"/>
   <tile gid="30"/>
   <tile gid="30"/>
   <tile gid="30"/>
   <tile gid="30"/>
   <tile gid="30"/>
   <tile gid="30"/>
   <tile gid="30"/>
   <tile gid="30"/>
   <tile gid="30"/>
   <tile gid="30"/>
   <tile gid="30"/>
   <tile gid="30"/>
   <tile gid="30"/>
   <tile gid="30"/>
   <tile gid="30"/>
   <tile gid="30"/>
   <tile gid="30"/>
   <tile gid="30"/>
   <tile gid="30"/>
   <tile gid="30"/>
   <tile gid="30"/>
   <tile gid="30"/>
   <tile gid="30"/>
   <tile gid="30"/>
   <tile gid="30"/>
   <tile gid="30"/>
   <tile gid="30"/>
   <tile gid="30"/>
   <tile gid="30"/>
   <tile gid="30"/>
   <tile gid="30"/>
   <tile gid="30"/>
   <tile gid="30"/>
   <tile gid="30"/>
   <tile gid="30"/>
   <tile gid="30"/>
   <tile gid="30"/>
   <tile gid="30"/>
   <tile gid="30"/>
   <tile gid="30"/>
   <tile gid="30"/>
   <tile gid="30"/>
   <tile gid="30"/>
   <tile gid="30"/>
   <tile gid="30"/>
   <tile gid="30"/>
   <tile gid="34"/>
   <tile gid="34"/>
   <tile gid="34"/>
   <tile gid="34"/>
   <tile gid="34"/>
   <tile gid="34"/>
   <tile gid="30"/>
   <tile gid="30"/>
   <tile gid="30"/>
   <tile gid="30"/>
   <tile gid="30"/>
   <tile gid="30"/>
   <tile gid="30"/>
   <tile gid="30"/>
   <tile gid="30"/>
   <tile gid="30"/>
   <tile gid="30"/>
   <tile gid="30"/>
   <tile gid="30"/>
   <tile gid="30"/>
   <tile gid="30"/>
   <tile gid="30"/>
   <tile gid="30"/>
   <tile gid="30"/>
   <tile gid="30"/>
   <tile gid="30"/>
   <tile gid="30"/>
   <tile gid="30"/>
   <tile gid="30"/>
   <tile gid="30"/>
   <tile gid="30"/>
   <tile gid="30"/>
   <tile gid="30"/>
   <tile gid="30"/>
   <tile gid="30"/>
   <tile gid="30"/>
   <tile gid="30"/>
   <tile gid="30"/>
   <tile gid="30"/>
   <tile gid="30"/>
   <tile gid="30"/>
   <tile gid="30"/>
   <tile gid="30"/>
   <tile gid="30"/>
   <tile gid="30"/>
   <tile gid="34"/>
   <tile gid="34"/>
   <tile gid="34"/>
   <tile gid="30"/>
   <tile gid="30"/>
   <tile gid="30"/>
   <tile gid="30"/>
   <tile gid="30"/>
   <tile gid="30"/>
   <tile gid="30"/>
   <tile gid="30"/>
   <tile gid="30"/>
   <tile gid="30"/>
   <tile gid="34"/>
   <tile gid="34"/>
   <tile gid="34"/>
   <tile/>
   <tile/>
   <tile/>
   <tile/>
   <tile/>
   <tile/>
   <tile/>
   <tile/>
   <tile/>
   <tile/>
   <tile/>
   <tile/>
   <tile/>
   <tile/>
   <tile/>
   <tile/>
   <tile/>
   <tile/>
   <tile gid="34"/>
   <tile gid="34"/>
   <tile gid="34"/>
   <tile gid="30"/>
   <tile gid="30"/>
   <tile gid="30"/>
   <tile gid="30"/>
   <tile gid="30"/>
   <tile gid="30"/>
   <tile gid="30"/>
   <tile gid="30"/>
   <tile gid="30"/>
   <tile gid="30"/>
   <tile gid="34"/>
   <tile gid="34"/>
   <tile gid="34"/>
   <tile gid="30"/>
   <tile gid="30"/>
   <tile gid="30"/>
   <tile gid="30"/>
   <tile gid="30"/>
   <tile gid="30"/>
   <tile gid="30"/>
   <tile gid="30"/>
   <tile gid="30"/>
   <tile gid="30"/>
   <tile gid="30"/>
   <tile gid="30"/>
   <tile gid="30"/>
   <tile gid="30"/>
   <tile gid="30"/>
   <tile gid="30"/>
   <tile gid="30"/>
   <tile gid="30"/>
   <tile gid="30"/>
   <tile gid="30"/>
   <tile gid="30"/>
   <tile gid="30"/>
   <tile gid="34"/>
   <tile gid="34"/>
   <tile gid="34"/>
   <tile gid="30"/>
   <tile gid="30"/>
   <tile gid="30"/>
   <tile gid="30"/>
   <tile gid="30"/>
   <tile gid="30"/>
   <tile gid="30"/>
   <tile gid="30"/>
   <tile gid="30"/>
   <tile gid="30"/>
   <tile gid="30"/>
   <tile gid="30"/>
   <tile gid="34"/>
   <tile gid="34"/>
   <tile gid="34"/>
   <tile gid="34"/>
   <tile gid="34"/>
   <tile gid="34"/>
   <tile gid="30"/>
   <tile gid="30"/>
   <tile gid="30"/>
   <tile gid="30"/>
   <tile gid="30"/>
   <tile gid="30"/>
   <tile gid="30"/>
   <tile gid="30"/>
   <tile gid="30"/>
   <tile gid="30"/>
   <tile gid="30"/>
   <tile gid="30"/>
   <tile gid="30"/>
   <tile gid="30"/>
   <tile gid="34"/>
   <tile gid="34"/>
   <tile gid="34"/>
   <tile gid="30"/>
   <tile gid="30"/>
   <tile gid="30"/>
   <tile gid="30"/>
   <tile gid="30"/>
   <tile gid="30"/>
   <tile gid="30"/>
   <tile gid="30"/>
   <tile gid="30"/>
   <tile gid="30"/>
   <tile gid="30"/>
   <tile gid="30"/>
   <tile gid="30"/>
   <tile gid="30"/>
   <tile gid="30"/>
   <tile gid="30"/>
   <tile gid="30"/>
   <tile gid="30"/>
   <tile gid="30"/>
   <tile gid="30"/>
   <tile gid="30"/>
   <tile gid="30"/>
   <tile gid="34"/>
   <tile gid="34"/>
   <tile gid="34"/>
   <tile gid="30"/>
   <tile gid="30"/>
   <tile gid="30"/>
   <tile gid="30"/>
   <tile gid="30"/>
   <tile gid="30"/>
   <tile gid="30"/>
   <tile gid="30"/>
   <tile gid="30"/>
   <tile gid="30"/>
   <tile gid="34"/>
   <tile gid="34"/>
   <tile gid="34"/>
   <tile/>
   <tile/>
   <tile/>
   <tile/>
   <tile/>
   <tile/>
   <tile/>
   <tile/>
   <tile/>
   <tile/>
   <tile/>
   <tile/>
   <tile/>
   <tile/>
   <tile/>
   <tile/>
   <tile/>
   <tile/>
   <tile gid="34"/>
   <tile gid="34"/>
   <tile gid="34"/>
   <tile gid="30"/>
   <tile gid="30"/>
   <tile gid="30"/>
   <tile gid="30"/>
   <tile gid="30"/>
   <tile gid="30"/>
   <tile gid="30"/>
   <tile gid="30"/>
   <tile gid="30"/>
   <tile gid="30"/>
   <tile gid="34"/>
   <tile gid="34"/>
   <tile gid="34"/>
   <tile gid="30"/>
   <tile gid="30"/>
   <tile gid="30"/>
   <tile gid="30"/>
   <tile gid="30"/>
   <tile gid="30"/>
   <tile gid="30"/>
   <tile gid="30"/>
   <tile gid="30"/>
   <tile gid="30"/>
   <tile gid="30"/>
   <tile gid="30"/>
   <tile gid="30"/>
   <tile gid="30"/>
   <tile gid="30"/>
   <tile gid="30"/>
   <tile gid="30"/>
   <tile gid="30"/>
   <tile gid="30"/>
   <tile gid="30"/>
   <tile gid="30"/>
   <tile gid="30"/>
   <tile gid="34"/>
   <tile gid="34"/>
   <tile gid="34"/>
   <tile gid="30"/>
   <tile gid="30"/>
   <tile gid="30"/>
   <tile gid="30"/>
   <tile gid="30"/>
   <tile gid="30"/>
   <tile gid="30"/>
   <tile gid="30"/>
   <tile gid="30"/>
   <tile gid="30"/>
   <tile gid="30"/>
   <tile gid="30"/>
   <tile gid="34"/>
   <tile gid="34"/>
   <tile gid="34"/>
   <tile gid="34"/>
   <tile gid="34"/>
   <tile gid="34"/>
   <tile gid="30"/>
   <tile gid="30"/>
   <tile gid="30"/>
   <tile gid="30"/>
   <tile gid="30"/>
   <tile gid="30"/>
   <tile gid="30"/>
   <tile gid="30"/>
   <tile gid="30"/>
   <tile gid="30"/>
   <tile gid="30"/>
   <tile gid="30"/>
   <tile gid="30"/>
   <tile gid="30"/>
   <tile gid="34"/>
   <tile gid="34"/>
   <tile gid="34"/>
   <tile gid="30"/>
   <tile gid="30"/>
   <tile gid="30"/>
   <tile gid="30"/>
   <tile gid="30"/>
   <tile gid="30"/>
   <tile gid="30"/>
   <tile gid="30"/>
   <tile gid="30"/>
   <tile gid="30"/>
   <tile gid="30"/>
   <tile gid="30"/>
   <tile gid="30"/>
   <tile gid="30"/>
   <tile gid="30"/>
   <tile gid="30"/>
   <tile gid="30"/>
   <tile gid="30"/>
   <tile gid="30"/>
   <tile gid="30"/>
   <tile gid="30"/>
   <tile gid="30"/>
   <tile gid="34"/>
   <tile gid="34"/>
   <tile gid="34"/>
   <tile gid="30"/>
   <tile gid="30"/>
   <tile gid="30"/>
   <tile gid="30"/>
   <tile gid="30"/>
   <tile gid="30"/>
   <tile gid="30"/>
   <tile gid="30"/>
   <tile gid="30"/>
   <tile gid="30"/>
   <tile gid="34"/>
   <tile gid="34"/>
   <tile gid="34"/>
   <tile/>
   <tile/>
   <tile/>
   <tile/>
   <tile/>
   <tile/>
   <tile/>
   <tile/>
   <tile/>
   <tile/>
   <tile/>
   <tile/>
   <tile/>
   <tile/>
   <tile/>
   <tile/>
   <tile/>
   <tile/>
   <tile gid="34"/>
   <tile gid="34"/>
   <tile gid="34"/>
   <tile gid="30"/>
   <tile gid="30"/>
   <tile gid="30"/>
   <tile gid="30"/>
   <tile gid="30"/>
   <tile gid="30"/>
   <tile gid="30"/>
   <tile gid="30"/>
   <tile gid="30"/>
   <tile gid="30"/>
   <tile gid="34"/>
   <tile gid="34"/>
   <tile gid="34"/>
   <tile gid="30"/>
   <tile gid="30"/>
   <tile gid="30"/>
   <tile gid="30"/>
   <tile gid="30"/>
   <tile gid="30"/>
   <tile gid="30"/>
   <tile gid="30"/>
   <tile gid="30"/>
   <tile gid="30"/>
   <tile gid="30"/>
   <tile gid="30"/>
   <tile gid="30"/>
   <tile gid="30"/>
   <tile gid="30"/>
   <tile gid="30"/>
   <tile gid="30"/>
   <tile gid="30"/>
   <tile gid="30"/>
   <tile gid="30"/>
   <tile gid="30"/>
   <tile gid="30"/>
   <tile gid="34"/>
   <tile gid="34"/>
   <tile gid="34"/>
   <tile gid="30"/>
   <tile gid="30"/>
   <tile gid="30"/>
   <tile gid="30"/>
   <tile gid="30"/>
   <tile gid="30"/>
   <tile gid="30"/>
   <tile gid="30"/>
   <tile gid="30"/>
   <tile gid="30"/>
   <tile gid="30"/>
   <tile gid="30"/>
   <tile gid="34"/>
   <tile gid="34"/>
   <tile gid="34"/>
   <tile gid="34"/>
   <tile gid="34"/>
   <tile gid="34"/>
   <tile gid="30"/>
   <tile gid="30"/>
   <tile gid="30"/>
   <tile gid="30"/>
   <tile gid="30"/>
   <tile gid="30"/>
   <tile gid="30"/>
   <tile gid="30"/>
   <tile gid="30"/>
   <tile gid="30"/>
   <tile gid="30"/>
   <tile gid="30"/>
   <tile gid="30"/>
   <tile gid="30"/>
   <tile gid="34"/>
   <tile gid="34"/>
   <tile gid="34"/>
   <tile gid="30"/>
   <tile gid="30"/>
   <tile gid="30"/>
   <tile gid="30"/>
   <tile gid="30"/>
   <tile gid="30"/>
   <tile gid="30"/>
   <tile gid="30"/>
   <tile gid="30"/>
   <tile gid="30"/>
   <tile gid="30"/>
   <tile gid="30"/>
   <tile gid="30"/>
   <tile gid="30"/>
   <tile gid="30"/>
   <tile gid="30"/>
   <tile gid="30"/>
   <tile gid="30"/>
   <tile gid="30"/>
   <tile gid="30"/>
   <tile gid="30"/>
   <tile gid="30"/>
   <tile gid="34"/>
   <tile gid="34"/>
   <tile gid="34"/>
   <tile gid="30"/>
   <tile gid="30"/>
   <tile gid="30"/>
   <tile gid="30"/>
   <tile gid="30"/>
   <tile gid="30"/>
   <tile gid="30"/>
   <tile gid="30"/>
   <tile gid="30"/>
   <tile gid="30"/>
   <tile gid="34"/>
   <tile gid="34"/>
   <tile gid="34"/>
   <tile gid="34"/>
   <tile gid="34"/>
   <tile gid="34"/>
   <tile gid="34"/>
   <tile gid="34"/>
   <tile gid="34"/>
   <tile gid="34"/>
   <tile gid="34"/>
   <tile gid="34"/>
   <tile gid="34"/>
   <tile gid="34"/>
   <tile gid="34"/>
   <tile gid="34"/>
   <tile gid="34"/>
   <tile gid="34"/>
   <tile gid="34"/>
   <tile gid="34"/>
   <tile gid="34"/>
   <tile gid="34"/>
   <tile gid="34"/>
   <tile gid="34"/>
   <tile gid="30"/>
   <tile gid="30"/>
   <tile gid="30"/>
   <tile gid="30"/>
   <tile gid="30"/>
   <tile gid="30"/>
   <tile gid="30"/>
   <tile gid="30"/>
   <tile gid="30"/>
   <tile gid="30"/>
   <tile gid="34"/>
   <tile gid="34"/>
   <tile gid="34"/>
   <tile gid="30"/>
   <tile gid="30"/>
   <tile gid="30"/>
   <tile gid="30"/>
   <tile gid="30"/>
   <tile gid="30"/>
   <tile gid="30"/>
   <tile gid="30"/>
   <tile gid="30"/>
   <tile gid="30"/>
   <tile gid="30"/>
   <tile gid="30"/>
   <tile gid="30"/>
   <tile gid="30"/>
   <tile gid="30"/>
   <tile gid="30"/>
   <tile gid="30"/>
   <tile gid="30"/>
   <tile gid="30"/>
   <tile gid="30"/>
   <tile gid="30"/>
   <tile gid="30"/>
   <tile gid="34"/>
   <tile gid="34"/>
   <tile gid="34"/>
   <tile gid="30"/>
   <tile gid="30"/>
   <tile gid="30"/>
   <tile gid="30"/>
   <tile gid="30"/>
   <tile gid="30"/>
   <tile gid="30"/>
   <tile gid="30"/>
   <tile gid="30"/>
   <tile gid="30"/>
   <tile gid="30"/>
   <tile gid="30"/>
   <tile gid="34"/>
   <tile gid="34"/>
   <tile gid="34"/>
   <tile gid="34"/>
   <tile gid="34"/>
   <tile gid="34"/>
   <tile gid="30"/>
   <tile gid="30"/>
   <tile gid="30"/>
   <tile gid="30"/>
   <tile gid="30"/>
   <tile gid="30"/>
   <tile gid="30"/>
   <tile gid="30"/>
   <tile gid="30"/>
   <tile gid="30"/>
   <tile gid="30"/>
   <tile gid="30"/>
   <tile gid="30"/>
   <tile gid="30"/>
   <tile gid="34"/>
   <tile gid="34"/>
   <tile gid="34"/>
   <tile gid="30"/>
   <tile gid="30"/>
   <tile gid="30"/>
   <tile gid="30"/>
   <tile gid="30"/>
   <tile gid="30"/>
   <tile gid="30"/>
   <tile gid="30"/>
   <tile gid="30"/>
   <tile gid="30"/>
   <tile gid="30"/>
   <tile gid="30"/>
   <tile gid="30"/>
   <tile gid="30"/>
   <tile gid="30"/>
   <tile gid="30"/>
   <tile gid="30"/>
   <tile gid="30"/>
   <tile gid="30"/>
   <tile gid="30"/>
   <tile gid="30"/>
   <tile gid="30"/>
   <tile gid="34"/>
   <tile gid="34"/>
   <tile gid="34"/>
   <tile gid="30"/>
   <tile gid="30"/>
   <tile gid="30"/>
   <tile gid="30"/>
   <tile gid="30"/>
   <tile gid="30"/>
   <tile gid="30"/>
   <tile gid="30"/>
   <tile gid="30"/>
   <tile gid="30"/>
   <tile gid="34"/>
   <tile gid="34"/>
   <tile gid="34"/>
   <tile gid="34"/>
   <tile gid="34"/>
   <tile gid="34"/>
   <tile gid="34"/>
   <tile gid="34"/>
   <tile gid="34"/>
   <tile gid="34"/>
   <tile gid="34"/>
   <tile gid="34"/>
   <tile gid="34"/>
   <tile gid="34"/>
   <tile gid="34"/>
   <tile gid="34"/>
   <tile gid="34"/>
   <tile gid="34"/>
   <tile gid="34"/>
   <tile gid="34"/>
   <tile gid="34"/>
   <tile gid="34"/>
   <tile gid="34"/>
   <tile gid="34"/>
   <tile gid="30"/>
   <tile gid="30"/>
   <tile gid="30"/>
   <tile gid="30"/>
   <tile gid="30"/>
   <tile gid="30"/>
   <tile gid="30"/>
   <tile gid="30"/>
   <tile gid="30"/>
   <tile gid="30"/>
   <tile gid="34"/>
   <tile gid="34"/>
   <tile gid="34"/>
   <tile gid="30"/>
   <tile gid="30"/>
   <tile gid="30"/>
   <tile gid="30"/>
   <tile gid="30"/>
   <tile gid="30"/>
   <tile gid="30"/>
   <tile gid="30"/>
   <tile gid="30"/>
   <tile gid="30"/>
   <tile gid="30"/>
   <tile gid="30"/>
   <tile gid="30"/>
   <tile gid="30"/>
   <tile gid="30"/>
   <tile gid="30"/>
   <tile gid="30"/>
   <tile gid="30"/>
   <tile gid="30"/>
   <tile gid="30"/>
   <tile gid="30"/>
   <tile gid="30"/>
   <tile gid="34"/>
   <tile gid="34"/>
   <tile gid="34"/>
   <tile gid="30"/>
   <tile gid="30"/>
   <tile gid="30"/>
   <tile gid="30"/>
   <tile gid="30"/>
   <tile gid="30"/>
   <tile gid="30"/>
   <tile gid="30"/>
   <tile gid="30"/>
   <tile gid="30"/>
   <tile gid="30"/>
   <tile gid="30"/>
   <tile gid="34"/>
   <tile gid="34"/>
   <tile gid="34"/>
   <tile gid="34"/>
   <tile gid="34"/>
   <tile gid="34"/>
   <tile gid="30"/>
   <tile gid="30"/>
   <tile gid="30"/>
   <tile gid="30"/>
   <tile gid="30"/>
   <tile gid="30"/>
   <tile gid="30"/>
   <tile gid="30"/>
   <tile gid="30"/>
   <tile gid="30"/>
   <tile gid="30"/>
   <tile gid="30"/>
   <tile gid="30"/>
   <tile gid="30"/>
   <tile gid="34"/>
   <tile gid="34"/>
   <tile gid="34"/>
   <tile gid="30"/>
   <tile gid="30"/>
   <tile gid="30"/>
   <tile gid="30"/>
   <tile gid="30"/>
   <tile gid="30"/>
   <tile gid="30"/>
   <tile gid="30"/>
   <tile gid="30"/>
   <tile gid="30"/>
   <tile gid="30"/>
   <tile gid="30"/>
   <tile gid="30"/>
   <tile gid="30"/>
   <tile gid="30"/>
   <tile gid="30"/>
   <tile gid="30"/>
   <tile gid="30"/>
   <tile gid="30"/>
   <tile gid="30"/>
   <tile gid="30"/>
   <tile gid="30"/>
   <tile gid="34"/>
   <tile gid="34"/>
   <tile gid="34"/>
   <tile gid="30"/>
   <tile gid="30"/>
   <tile gid="30"/>
   <tile gid="30"/>
   <tile gid="30"/>
   <tile gid="30"/>
   <tile gid="30"/>
   <tile gid="30"/>
   <tile gid="30"/>
   <tile gid="30"/>
   <tile gid="34"/>
   <tile gid="34"/>
   <tile gid="34"/>
   <tile gid="34"/>
   <tile gid="34"/>
   <tile gid="34"/>
   <tile gid="34"/>
   <tile gid="34"/>
   <tile gid="34"/>
   <tile gid="34"/>
   <tile gid="49"/>
   <tile gid="49"/>
   <tile gid="49"/>
   <tile gid="34"/>
   <tile gid="34"/>
   <tile gid="34"/>
   <tile gid="34"/>
   <tile gid="34"/>
   <tile gid="34"/>
   <tile gid="34"/>
   <tile gid="34"/>
   <tile gid="34"/>
   <tile gid="34"/>
   <tile gid="34"/>
   <tile gid="30"/>
   <tile gid="30"/>
   <tile gid="30"/>
   <tile gid="30"/>
   <tile gid="30"/>
   <tile gid="30"/>
   <tile gid="30"/>
   <tile gid="30"/>
   <tile gid="30"/>
   <tile gid="30"/>
   <tile gid="34"/>
   <tile gid="34"/>
   <tile gid="34"/>
   <tile gid="30"/>
   <tile gid="30"/>
   <tile gid="30"/>
   <tile gid="30"/>
   <tile gid="30"/>
   <tile gid="30"/>
   <tile gid="30"/>
   <tile gid="30"/>
   <tile gid="30"/>
   <tile gid="30"/>
   <tile gid="30"/>
   <tile gid="30"/>
   <tile gid="30"/>
   <tile gid="30"/>
   <tile gid="30"/>
   <tile gid="30"/>
   <tile gid="30"/>
   <tile gid="30"/>
   <tile gid="30"/>
   <tile gid="30"/>
   <tile gid="30"/>
   <tile gid="30"/>
   <tile gid="34"/>
   <tile gid="34"/>
   <tile gid="34"/>
   <tile gid="30"/>
   <tile gid="30"/>
   <tile gid="30"/>
   <tile gid="30"/>
   <tile gid="30"/>
   <tile gid="30"/>
   <tile gid="30"/>
   <tile gid="30"/>
   <tile gid="30"/>
   <tile gid="30"/>
   <tile gid="30"/>
   <tile gid="30"/>
   <tile gid="34"/>
   <tile gid="34"/>
   <tile gid="34"/>
   <tile gid="34"/>
   <tile gid="34"/>
   <tile gid="34"/>
   <tile gid="30"/>
   <tile gid="30"/>
   <tile gid="30"/>
   <tile gid="30"/>
   <tile gid="30"/>
   <tile gid="30"/>
   <tile gid="30"/>
   <tile gid="30"/>
   <tile gid="30"/>
   <tile gid="30"/>
   <tile gid="30"/>
   <tile gid="30"/>
   <tile gid="30"/>
   <tile gid="30"/>
   <tile gid="34"/>
   <tile gid="34"/>
   <tile gid="34"/>
   <tile gid="30"/>
   <tile gid="30"/>
   <tile gid="30"/>
   <tile gid="30"/>
   <tile gid="30"/>
   <tile gid="30"/>
   <tile gid="30"/>
   <tile gid="30"/>
   <tile gid="30"/>
   <tile gid="30"/>
   <tile gid="30"/>
   <tile gid="30"/>
   <tile gid="30"/>
   <tile gid="30"/>
   <tile gid="30"/>
   <tile gid="30"/>
   <tile gid="30"/>
   <tile gid="30"/>
   <tile gid="30"/>
   <tile gid="30"/>
   <tile gid="30"/>
   <tile gid="30"/>
   <tile gid="34"/>
   <tile gid="34"/>
   <tile gid="34"/>
   <tile gid="30"/>
   <tile gid="30"/>
   <tile gid="30"/>
   <tile gid="30"/>
   <tile gid="30"/>
   <tile gid="30"/>
   <tile gid="30"/>
   <tile gid="30"/>
   <tile gid="30"/>
   <tile gid="30"/>
   <tile gid="30"/>
   <tile gid="30"/>
   <tile gid="30"/>
   <tile gid="30"/>
   <tile gid="30"/>
   <tile gid="30"/>
   <tile gid="30"/>
   <tile gid="30"/>
   <tile gid="30"/>
   <tile gid="30"/>
   <tile gid="30"/>
   <tile gid="30"/>
   <tile gid="30"/>
   <tile gid="30"/>
   <tile gid="30"/>
   <tile gid="30"/>
   <tile gid="30"/>
   <tile gid="30"/>
   <tile gid="30"/>
   <tile gid="30"/>
   <tile gid="30"/>
   <tile gid="30"/>
   <tile gid="30"/>
   <tile gid="30"/>
   <tile gid="30"/>
   <tile gid="30"/>
   <tile gid="30"/>
   <tile gid="30"/>
   <tile gid="30"/>
   <tile gid="30"/>
   <tile gid="30"/>
   <tile gid="30"/>
   <tile gid="30"/>
   <tile gid="30"/>
   <tile gid="34"/>
   <tile gid="34"/>
   <tile gid="34"/>
   <tile gid="34"/>
   <tile gid="34"/>
   <tile gid="34"/>
   <tile gid="34"/>
   <tile gid="34"/>
   <tile gid="34"/>
   <tile gid="34"/>
   <tile gid="30"/>
   <tile gid="30"/>
   <tile gid="30"/>
   <tile gid="34"/>
   <tile gid="34"/>
   <tile gid="34"/>
   <tile gid="34"/>
   <tile gid="34"/>
   <tile gid="34"/>
   <tile gid="34"/>
   <tile gid="34"/>
   <tile gid="34"/>
   <tile gid="34"/>
   <tile gid="34"/>
   <tile gid="34"/>
   <tile gid="34"/>
   <tile gid="34"/>
   <tile gid="34"/>
   <tile gid="30"/>
   <tile gid="30"/>
   <tile gid="30"/>
   <tile gid="30"/>
   <tile gid="30"/>
   <tile gid="30"/>
   <tile gid="30"/>
   <tile gid="30"/>
   <tile gid="30"/>
   <tile gid="30"/>
   <tile gid="30"/>
   <tile gid="30"/>
   <tile gid="34"/>
   <tile gid="34"/>
   <tile gid="34"/>
   <tile gid="34"/>
   <tile gid="34"/>
   <tile gid="34"/>
   <tile gid="30"/>
   <tile gid="30"/>
   <tile gid="30"/>
   <tile gid="30"/>
   <tile gid="30"/>
   <tile gid="30"/>
   <tile gid="30"/>
   <tile gid="30"/>
   <tile gid="30"/>
   <tile gid="30"/>
   <tile gid="30"/>
   <tile gid="30"/>
   <tile gid="30"/>
   <tile gid="30"/>
   <tile gid="34"/>
   <tile gid="34"/>
   <tile gid="34"/>
   <tile gid="30"/>
   <tile gid="30"/>
   <tile gid="30"/>
   <tile gid="30"/>
   <tile gid="30"/>
   <tile gid="30"/>
   <tile gid="30"/>
   <tile gid="30"/>
   <tile gid="30"/>
   <tile gid="30"/>
   <tile gid="30"/>
   <tile gid="30"/>
   <tile gid="30"/>
   <tile gid="30"/>
   <tile gid="30"/>
   <tile gid="30"/>
   <tile gid="30"/>
   <tile gid="30"/>
   <tile gid="30"/>
   <tile gid="30"/>
   <tile gid="30"/>
   <tile gid="30"/>
   <tile gid="34"/>
   <tile gid="34"/>
   <tile gid="34"/>
   <tile gid="30"/>
   <tile gid="30"/>
   <tile gid="30"/>
   <tile gid="30"/>
   <tile gid="30"/>
   <tile gid="30"/>
   <tile gid="30"/>
   <tile gid="30"/>
   <tile gid="30"/>
   <tile gid="30"/>
   <tile gid="30"/>
   <tile gid="30"/>
   <tile gid="30"/>
   <tile gid="30"/>
   <tile gid="30"/>
   <tile gid="30"/>
   <tile gid="30"/>
   <tile gid="30"/>
   <tile gid="30"/>
   <tile gid="30"/>
   <tile gid="30"/>
   <tile gid="30"/>
   <tile gid="30"/>
   <tile gid="30"/>
   <tile gid="30"/>
   <tile gid="30"/>
   <tile gid="30"/>
   <tile gid="30"/>
   <tile gid="30"/>
   <tile gid="30"/>
   <tile gid="30"/>
   <tile gid="30"/>
   <tile gid="30"/>
   <tile gid="30"/>
   <tile gid="30"/>
   <tile gid="30"/>
   <tile gid="30"/>
   <tile gid="30"/>
   <tile gid="30"/>
   <tile gid="30"/>
   <tile gid="30"/>
   <tile gid="30"/>
   <tile gid="30"/>
   <tile gid="30"/>
   <tile gid="34"/>
   <tile gid="34"/>
   <tile gid="34"/>
   <tile gid="34"/>
   <tile gid="34"/>
   <tile gid="34"/>
   <tile gid="34"/>
   <tile gid="34"/>
   <tile gid="34"/>
   <tile gid="34"/>
   <tile gid="30"/>
   <tile gid="30"/>
   <tile gid="30"/>
   <tile gid="34"/>
   <tile gid="34"/>
   <tile gid="34"/>
   <tile gid="34"/>
   <tile gid="34"/>
   <tile gid="34"/>
   <tile gid="34"/>
   <tile gid="34"/>
   <tile gid="34"/>
   <tile gid="34"/>
   <tile gid="34"/>
   <tile gid="34"/>
   <tile gid="34"/>
   <tile gid="34"/>
   <tile gid="34"/>
   <tile gid="30"/>
   <tile gid="30"/>
   <tile gid="30"/>
   <tile gid="30"/>
   <tile gid="30"/>
   <tile gid="30"/>
   <tile gid="30"/>
   <tile gid="30"/>
   <tile gid="30"/>
   <tile gid="30"/>
   <tile gid="30"/>
   <tile gid="30"/>
   <tile gid="34"/>
   <tile gid="34"/>
   <tile gid="34"/>
   <tile gid="34"/>
   <tile gid="34"/>
   <tile gid="34"/>
   <tile gid="30"/>
   <tile gid="30"/>
   <tile gid="30"/>
   <tile gid="30"/>
   <tile gid="30"/>
   <tile gid="30"/>
   <tile gid="30"/>
   <tile gid="30"/>
   <tile gid="30"/>
   <tile gid="30"/>
   <tile gid="30"/>
   <tile gid="30"/>
   <tile gid="30"/>
   <tile gid="30"/>
   <tile gid="34"/>
   <tile gid="34"/>
   <tile gid="34"/>
   <tile gid="30"/>
   <tile gid="30"/>
   <tile gid="30"/>
   <tile gid="30"/>
   <tile gid="30"/>
   <tile gid="30"/>
   <tile gid="30"/>
   <tile gid="30"/>
   <tile gid="30"/>
   <tile gid="30"/>
   <tile gid="30"/>
   <tile gid="30"/>
   <tile gid="30"/>
   <tile gid="30"/>
   <tile gid="30"/>
   <tile gid="30"/>
   <tile gid="30"/>
   <tile gid="30"/>
   <tile gid="30"/>
   <tile gid="30"/>
   <tile gid="30"/>
   <tile gid="30"/>
   <tile gid="34"/>
   <tile gid="34"/>
   <tile gid="34"/>
   <tile gid="30"/>
   <tile gid="30"/>
   <tile gid="30"/>
   <tile gid="30"/>
   <tile gid="30"/>
   <tile gid="30"/>
   <tile gid="30"/>
   <tile gid="30"/>
   <tile gid="30"/>
   <tile gid="30"/>
   <tile gid="30"/>
   <tile gid="30"/>
   <tile gid="30"/>
   <tile gid="30"/>
   <tile gid="30"/>
   <tile gid="30"/>
   <tile gid="30"/>
   <tile gid="30"/>
   <tile gid="30"/>
   <tile gid="30"/>
   <tile gid="30"/>
   <tile gid="30"/>
   <tile gid="30"/>
   <tile gid="30"/>
   <tile gid="30"/>
   <tile gid="30"/>
   <tile gid="30"/>
   <tile gid="30"/>
   <tile gid="30"/>
   <tile gid="30"/>
   <tile gid="30"/>
   <tile gid="30"/>
   <tile gid="30"/>
   <tile gid="30"/>
   <tile gid="30"/>
   <tile gid="30"/>
   <tile gid="30"/>
   <tile gid="30"/>
   <tile gid="30"/>
   <tile gid="30"/>
   <tile gid="30"/>
   <tile gid="30"/>
   <tile gid="30"/>
   <tile gid="30"/>
   <tile gid="34"/>
   <tile gid="34"/>
   <tile gid="34"/>
   <tile gid="34"/>
   <tile gid="34"/>
   <tile gid="34"/>
   <tile gid="34"/>
   <tile gid="34"/>
   <tile gid="34"/>
   <tile gid="34"/>
   <tile gid="30"/>
   <tile gid="30"/>
   <tile gid="30"/>
   <tile gid="34"/>
   <tile gid="34"/>
   <tile gid="34"/>
   <tile gid="34"/>
   <tile gid="34"/>
   <tile gid="34"/>
   <tile gid="34"/>
   <tile gid="34"/>
   <tile gid="34"/>
   <tile gid="34"/>
   <tile gid="34"/>
   <tile gid="34"/>
   <tile gid="34"/>
   <tile gid="34"/>
   <tile gid="34"/>
   <tile gid="30"/>
   <tile gid="30"/>
   <tile gid="30"/>
   <tile gid="30"/>
   <tile gid="30"/>
   <tile gid="30"/>
   <tile gid="30"/>
   <tile gid="30"/>
   <tile gid="30"/>
   <tile gid="30"/>
   <tile gid="30"/>
   <tile gid="30"/>
   <tile gid="34"/>
   <tile gid="34"/>
   <tile gid="34"/>
   <tile gid="34"/>
   <tile gid="34"/>
   <tile gid="34"/>
   <tile gid="30"/>
   <tile gid="30"/>
   <tile gid="30"/>
   <tile gid="30"/>
   <tile gid="30"/>
   <tile gid="30"/>
   <tile gid="30"/>
   <tile gid="30"/>
   <tile gid="30"/>
   <tile gid="30"/>
   <tile gid="30"/>
   <tile gid="30"/>
   <tile gid="30"/>
   <tile gid="30"/>
   <tile gid="34"/>
   <tile gid="34"/>
   <tile gid="34"/>
   <tile gid="30"/>
   <tile gid="30"/>
   <tile gid="30"/>
   <tile gid="30"/>
   <tile gid="30"/>
   <tile gid="30"/>
   <tile gid="30"/>
   <tile gid="30"/>
   <tile gid="30"/>
   <tile gid="30"/>
   <tile gid="30"/>
   <tile gid="30"/>
   <tile gid="30"/>
   <tile gid="30"/>
   <tile gid="30"/>
   <tile gid="30"/>
   <tile gid="30"/>
   <tile gid="30"/>
   <tile gid="30"/>
   <tile gid="30"/>
   <tile gid="30"/>
   <tile gid="30"/>
   <tile gid="34"/>
   <tile gid="34"/>
   <tile gid="34"/>
   <tile gid="30"/>
   <tile gid="30"/>
   <tile gid="30"/>
   <tile gid="30"/>
   <tile gid="30"/>
   <tile gid="30"/>
   <tile gid="30"/>
   <tile gid="30"/>
   <tile gid="30"/>
   <tile gid="30"/>
   <tile gid="30"/>
   <tile gid="30"/>
   <tile gid="30"/>
   <tile gid="30"/>
   <tile gid="30"/>
   <tile gid="30"/>
   <tile gid="30"/>
   <tile gid="30"/>
   <tile gid="30"/>
   <tile gid="30"/>
   <tile gid="30"/>
   <tile gid="30"/>
   <tile gid="30"/>
   <tile gid="30"/>
   <tile gid="30"/>
   <tile gid="30"/>
   <tile gid="30"/>
   <tile gid="30"/>
   <tile gid="30"/>
   <tile gid="30"/>
   <tile gid="30"/>
   <tile gid="30"/>
   <tile gid="30"/>
   <tile gid="30"/>
   <tile gid="30"/>
   <tile gid="30"/>
   <tile gid="30"/>
   <tile gid="30"/>
   <tile gid="30"/>
   <tile gid="30"/>
   <tile gid="30"/>
   <tile gid="30"/>
   <tile gid="30"/>
   <tile gid="30"/>
   <tile gid="34"/>
   <tile gid="34"/>
   <tile gid="34"/>
   <tile gid="30"/>
   <tile gid="30"/>
   <tile gid="30"/>
   <tile gid="30"/>
   <tile gid="30"/>
   <tile gid="30"/>
   <tile gid="30"/>
   <tile gid="30"/>
   <tile gid="30"/>
   <tile gid="30"/>
   <tile gid="30"/>
   <tile gid="30"/>
   <tile gid="30"/>
   <tile gid="30"/>
   <tile gid="30"/>
   <tile gid="30"/>
   <tile gid="30"/>
   <tile gid="30"/>
   <tile gid="30"/>
   <tile gid="30"/>
   <tile gid="30"/>
   <tile gid="30"/>
   <tile gid="34"/>
   <tile gid="34"/>
   <tile gid="34"/>
   <tile gid="30"/>
   <tile gid="30"/>
   <tile gid="30"/>
   <tile gid="30"/>
   <tile gid="30"/>
   <tile gid="30"/>
   <tile gid="30"/>
   <tile gid="30"/>
   <tile gid="30"/>
   <tile gid="30"/>
   <tile gid="30"/>
   <tile gid="30"/>
   <tile gid="34"/>
   <tile gid="34"/>
   <tile gid="34"/>
   <tile gid="34"/>
   <tile gid="34"/>
   <tile gid="34"/>
   <tile gid="30"/>
   <tile gid="30"/>
   <tile gid="30"/>
   <tile gid="30"/>
   <tile gid="30"/>
   <tile gid="30"/>
   <tile gid="30"/>
   <tile gid="30"/>
   <tile gid="30"/>
   <tile gid="30"/>
   <tile gid="30"/>
   <tile gid="30"/>
   <tile gid="30"/>
   <tile gid="30"/>
   <tile gid="34"/>
   <tile gid="34"/>
   <tile gid="34"/>
   <tile gid="30"/>
   <tile gid="30"/>
   <tile gid="30"/>
   <tile gid="30"/>
   <tile gid="30"/>
   <tile gid="30"/>
   <tile gid="30"/>
   <tile gid="30"/>
   <tile gid="30"/>
   <tile gid="30"/>
   <tile gid="30"/>
   <tile gid="30"/>
   <tile gid="30"/>
   <tile gid="30"/>
   <tile gid="30"/>
   <tile gid="30"/>
   <tile gid="30"/>
   <tile gid="30"/>
   <tile gid="30"/>
   <tile gid="30"/>
   <tile gid="30"/>
   <tile gid="30"/>
   <tile gid="34"/>
   <tile gid="34"/>
   <tile gid="34"/>
   <tile gid="30"/>
   <tile gid="30"/>
   <tile gid="30"/>
   <tile gid="30"/>
   <tile gid="30"/>
   <tile gid="30"/>
   <tile gid="30"/>
   <tile gid="30"/>
   <tile gid="30"/>
   <tile gid="30"/>
   <tile gid="30"/>
   <tile gid="30"/>
   <tile gid="30"/>
   <tile gid="30"/>
   <tile gid="30"/>
   <tile gid="30"/>
   <tile gid="30"/>
   <tile gid="30"/>
   <tile gid="30"/>
   <tile gid="30"/>
   <tile gid="30"/>
   <tile gid="30"/>
   <tile gid="30"/>
   <tile gid="30"/>
   <tile gid="30"/>
   <tile gid="30"/>
   <tile gid="30"/>
   <tile gid="30"/>
   <tile gid="30"/>
   <tile gid="30"/>
   <tile gid="30"/>
   <tile gid="30"/>
   <tile gid="30"/>
   <tile gid="30"/>
   <tile gid="30"/>
   <tile gid="30"/>
   <tile gid="30"/>
   <tile gid="30"/>
   <tile gid="30"/>
   <tile gid="30"/>
   <tile gid="30"/>
   <tile gid="30"/>
   <tile gid="30"/>
   <tile gid="30"/>
   <tile gid="34"/>
   <tile gid="34"/>
   <tile gid="34"/>
   <tile gid="30"/>
   <tile gid="30"/>
   <tile gid="30"/>
   <tile gid="30"/>
   <tile gid="30"/>
   <tile gid="30"/>
   <tile gid="30"/>
   <tile gid="30"/>
   <tile gid="30"/>
   <tile gid="30"/>
   <tile gid="30"/>
   <tile gid="30"/>
   <tile gid="30"/>
   <tile gid="30"/>
   <tile gid="30"/>
   <tile gid="30"/>
   <tile gid="30"/>
   <tile gid="30"/>
   <tile gid="30"/>
   <tile gid="30"/>
   <tile gid="30"/>
   <tile gid="30"/>
   <tile gid="34"/>
   <tile gid="34"/>
   <tile gid="34"/>
   <tile gid="30"/>
   <tile gid="30"/>
   <tile gid="30"/>
   <tile gid="30"/>
   <tile gid="30"/>
   <tile gid="30"/>
   <tile gid="30"/>
   <tile gid="30"/>
   <tile gid="30"/>
   <tile gid="30"/>
   <tile gid="30"/>
   <tile gid="30"/>
   <tile gid="34"/>
   <tile gid="34"/>
   <tile gid="34"/>
   <tile gid="34"/>
   <tile gid="34"/>
   <tile gid="34"/>
   <tile gid="30"/>
   <tile gid="30"/>
   <tile gid="30"/>
   <tile gid="30"/>
   <tile gid="30"/>
   <tile gid="30"/>
   <tile gid="30"/>
   <tile gid="30"/>
   <tile gid="30"/>
   <tile gid="30"/>
   <tile gid="30"/>
   <tile gid="30"/>
   <tile gid="30"/>
   <tile gid="30"/>
   <tile gid="34"/>
   <tile gid="34"/>
   <tile gid="34"/>
   <tile gid="30"/>
   <tile gid="30"/>
   <tile gid="30"/>
   <tile gid="30"/>
   <tile gid="30"/>
   <tile gid="30"/>
   <tile gid="30"/>
   <tile gid="30"/>
   <tile gid="30"/>
   <tile gid="30"/>
   <tile gid="30"/>
   <tile gid="30"/>
   <tile gid="30"/>
   <tile gid="30"/>
   <tile gid="30"/>
   <tile gid="30"/>
   <tile gid="30"/>
   <tile gid="30"/>
   <tile gid="30"/>
   <tile gid="30"/>
   <tile gid="30"/>
   <tile gid="30"/>
   <tile gid="34"/>
   <tile gid="34"/>
   <tile gid="34"/>
   <tile gid="30"/>
   <tile gid="30"/>
   <tile gid="30"/>
   <tile gid="30"/>
   <tile gid="30"/>
   <tile gid="30"/>
   <tile gid="30"/>
   <tile gid="30"/>
   <tile gid="30"/>
   <tile gid="30"/>
   <tile gid="30"/>
   <tile gid="30"/>
   <tile gid="30"/>
   <tile gid="30"/>
   <tile gid="30"/>
   <tile gid="30"/>
   <tile gid="30"/>
   <tile gid="30"/>
   <tile gid="30"/>
   <tile gid="30"/>
   <tile gid="30"/>
   <tile gid="30"/>
   <tile gid="30"/>
   <tile gid="30"/>
   <tile gid="30"/>
   <tile gid="30"/>
   <tile gid="30"/>
   <tile gid="30"/>
   <tile gid="30"/>
   <tile gid="30"/>
   <tile gid="30"/>
   <tile gid="30"/>
   <tile gid="30"/>
   <tile gid="30"/>
   <tile gid="30"/>
   <tile gid="30"/>
   <tile gid="30"/>
   <tile gid="30"/>
   <tile gid="30"/>
   <tile gid="30"/>
   <tile gid="30"/>
   <tile gid="30"/>
   <tile gid="30"/>
   <tile gid="30"/>
   <tile gid="34"/>
   <tile gid="34"/>
   <tile gid="34"/>
   <tile gid="30"/>
   <tile gid="30"/>
   <tile gid="30"/>
   <tile gid="30"/>
   <tile gid="30"/>
   <tile gid="30"/>
   <tile gid="30"/>
   <tile gid="30"/>
   <tile gid="30"/>
   <tile gid="30"/>
   <tile gid="30"/>
   <tile gid="30"/>
   <tile gid="30"/>
   <tile gid="30"/>
   <tile gid="30"/>
   <tile gid="30"/>
   <tile gid="30"/>
   <tile gid="30"/>
   <tile gid="30"/>
   <tile gid="30"/>
   <tile gid="30"/>
   <tile gid="30"/>
   <tile gid="34"/>
   <tile gid="34"/>
   <tile gid="34"/>
   <tile gid="30"/>
   <tile gid="30"/>
   <tile gid="30"/>
   <tile gid="30"/>
   <tile gid="30"/>
   <tile gid="30"/>
   <tile gid="30"/>
   <tile gid="30"/>
   <tile gid="30"/>
   <tile gid="30"/>
   <tile gid="30"/>
   <tile gid="30"/>
   <tile gid="34"/>
   <tile gid="34"/>
   <tile gid="34"/>
   <tile gid="34"/>
   <tile gid="34"/>
   <tile gid="34"/>
   <tile gid="30"/>
   <tile gid="30"/>
   <tile gid="30"/>
   <tile gid="30"/>
   <tile gid="30"/>
   <tile gid="30"/>
   <tile gid="30"/>
   <tile gid="30"/>
   <tile gid="30"/>
   <tile gid="30"/>
   <tile gid="30"/>
   <tile gid="30"/>
   <tile gid="30"/>
   <tile gid="30"/>
   <tile gid="34"/>
   <tile gid="34"/>
   <tile gid="34"/>
   <tile gid="30"/>
   <tile gid="30"/>
   <tile gid="30"/>
   <tile gid="30"/>
   <tile gid="30"/>
   <tile gid="30"/>
   <tile gid="30"/>
   <tile gid="30"/>
   <tile gid="30"/>
   <tile gid="30"/>
   <tile gid="30"/>
   <tile gid="30"/>
   <tile gid="30"/>
   <tile gid="30"/>
   <tile gid="30"/>
   <tile gid="30"/>
   <tile gid="30"/>
   <tile gid="30"/>
   <tile gid="30"/>
   <tile gid="30"/>
   <tile gid="30"/>
   <tile gid="30"/>
   <tile gid="34"/>
   <tile gid="34"/>
   <tile gid="34"/>
   <tile gid="30"/>
   <tile gid="30"/>
   <tile gid="30"/>
   <tile gid="30"/>
   <tile gid="30"/>
   <tile gid="30"/>
   <tile gid="30"/>
   <tile gid="30"/>
   <tile gid="30"/>
   <tile gid="30"/>
   <tile gid="30"/>
   <tile gid="30"/>
   <tile gid="30"/>
   <tile gid="30"/>
   <tile gid="30"/>
   <tile gid="30"/>
   <tile gid="30"/>
   <tile gid="30"/>
   <tile gid="30"/>
   <tile gid="30"/>
   <tile gid="30"/>
   <tile gid="30"/>
   <tile gid="30"/>
   <tile gid="30"/>
   <tile gid="30"/>
   <tile gid="30"/>
   <tile gid="30"/>
   <tile gid="30"/>
   <tile gid="30"/>
   <tile gid="30"/>
   <tile gid="30"/>
   <tile gid="30"/>
   <tile gid="30"/>
   <tile gid="30"/>
   <tile gid="30"/>
   <tile gid="30"/>
   <tile gid="30"/>
   <tile gid="30"/>
   <tile gid="30"/>
   <tile gid="30"/>
   <tile gid="30"/>
   <tile gid="30"/>
   <tile gid="30"/>
   <tile gid="30"/>
   <tile gid="34"/>
   <tile gid="34"/>
   <tile gid="34"/>
   <tile gid="30"/>
   <tile gid="30"/>
   <tile gid="30"/>
   <tile gid="30"/>
   <tile gid="30"/>
   <tile gid="30"/>
   <tile gid="30"/>
   <tile gid="30"/>
   <tile gid="30"/>
   <tile gid="30"/>
   <tile gid="30"/>
   <tile gid="30"/>
   <tile gid="30"/>
   <tile gid="30"/>
   <tile gid="30"/>
   <tile gid="30"/>
   <tile gid="30"/>
   <tile gid="30"/>
   <tile gid="30"/>
   <tile gid="30"/>
   <tile gid="30"/>
   <tile gid="30"/>
   <tile gid="34"/>
   <tile gid="34"/>
   <tile gid="34"/>
   <tile gid="30"/>
   <tile gid="30"/>
   <tile gid="30"/>
   <tile gid="30"/>
   <tile gid="30"/>
   <tile gid="30"/>
   <tile gid="30"/>
   <tile gid="30"/>
   <tile gid="30"/>
   <tile gid="30"/>
   <tile gid="30"/>
   <tile gid="30"/>
   <tile gid="34"/>
   <tile gid="34"/>
   <tile gid="34"/>
   <tile gid="34"/>
   <tile gid="34"/>
   <tile gid="34"/>
   <tile gid="30"/>
   <tile gid="30"/>
   <tile gid="30"/>
   <tile gid="30"/>
   <tile gid="30"/>
   <tile gid="30"/>
   <tile gid="30"/>
   <tile gid="30"/>
   <tile gid="30"/>
   <tile gid="30"/>
   <tile gid="30"/>
   <tile gid="30"/>
   <tile gid="30"/>
   <tile gid="30"/>
   <tile gid="34"/>
   <tile gid="34"/>
   <tile gid="34"/>
   <tile gid="30"/>
   <tile gid="30"/>
   <tile gid="30"/>
   <tile gid="30"/>
   <tile gid="30"/>
   <tile gid="30"/>
   <tile gid="30"/>
   <tile gid="30"/>
   <tile gid="30"/>
   <tile gid="30"/>
   <tile gid="30"/>
   <tile gid="30"/>
   <tile gid="30"/>
   <tile gid="30"/>
   <tile gid="30"/>
   <tile gid="30"/>
   <tile gid="30"/>
   <tile gid="30"/>
   <tile gid="30"/>
   <tile gid="30"/>
   <tile gid="30"/>
   <tile gid="30"/>
   <tile gid="34"/>
   <tile gid="34"/>
   <tile gid="34"/>
   <tile gid="30"/>
   <tile gid="30"/>
   <tile gid="30"/>
   <tile gid="30"/>
   <tile gid="30"/>
   <tile gid="30"/>
   <tile gid="30"/>
   <tile gid="30"/>
   <tile gid="30"/>
   <tile gid="30"/>
   <tile gid="30"/>
   <tile gid="30"/>
   <tile gid="30"/>
   <tile gid="30"/>
   <tile gid="30"/>
   <tile gid="30"/>
   <tile gid="30"/>
   <tile gid="30"/>
   <tile gid="30"/>
   <tile gid="30"/>
   <tile gid="30"/>
   <tile gid="30"/>
   <tile gid="30"/>
   <tile gid="30"/>
   <tile gid="30"/>
   <tile gid="30"/>
   <tile gid="30"/>
   <tile gid="30"/>
   <tile gid="30"/>
   <tile gid="30"/>
   <tile gid="30"/>
   <tile gid="30"/>
   <tile gid="30"/>
   <tile gid="30"/>
   <tile gid="30"/>
   <tile gid="30"/>
   <tile gid="30"/>
   <tile gid="30"/>
   <tile gid="30"/>
   <tile gid="30"/>
   <tile gid="30"/>
   <tile gid="30"/>
   <tile gid="30"/>
   <tile gid="30"/>
   <tile gid="34"/>
   <tile gid="34"/>
   <tile gid="34"/>
   <tile gid="30"/>
   <tile gid="30"/>
   <tile gid="30"/>
   <tile gid="30"/>
   <tile gid="30"/>
   <tile gid="30"/>
   <tile gid="30"/>
   <tile gid="30"/>
   <tile gid="30"/>
   <tile gid="30"/>
   <tile gid="30"/>
   <tile gid="30"/>
   <tile gid="30"/>
   <tile gid="30"/>
   <tile gid="30"/>
   <tile gid="30"/>
   <tile gid="30"/>
   <tile gid="30"/>
   <tile gid="30"/>
   <tile gid="30"/>
   <tile gid="30"/>
   <tile gid="30"/>
   <tile gid="34"/>
   <tile gid="34"/>
   <tile gid="34"/>
   <tile gid="30"/>
   <tile gid="30"/>
   <tile gid="30"/>
   <tile gid="30"/>
   <tile gid="30"/>
   <tile gid="30"/>
   <tile gid="30"/>
   <tile gid="30"/>
   <tile gid="30"/>
   <tile gid="30"/>
   <tile gid="30"/>
   <tile gid="30"/>
   <tile gid="34"/>
   <tile gid="34"/>
   <tile gid="34"/>
   <tile gid="34"/>
   <tile gid="34"/>
   <tile gid="34"/>
   <tile gid="30"/>
   <tile gid="30"/>
   <tile gid="30"/>
   <tile gid="30"/>
   <tile gid="30"/>
   <tile gid="30"/>
   <tile gid="30"/>
   <tile gid="30"/>
   <tile gid="30"/>
   <tile gid="30"/>
   <tile gid="30"/>
   <tile gid="30"/>
   <tile gid="30"/>
   <tile gid="30"/>
   <tile gid="34"/>
   <tile gid="34"/>
   <tile gid="34"/>
   <tile gid="30"/>
   <tile gid="30"/>
   <tile gid="30"/>
   <tile gid="30"/>
   <tile gid="30"/>
   <tile gid="30"/>
   <tile gid="30"/>
   <tile gid="30"/>
   <tile gid="30"/>
   <tile gid="30"/>
   <tile gid="30"/>
   <tile gid="30"/>
   <tile gid="30"/>
   <tile gid="30"/>
   <tile gid="30"/>
   <tile gid="30"/>
   <tile gid="30"/>
   <tile gid="30"/>
   <tile gid="30"/>
   <tile gid="30"/>
   <tile gid="30"/>
   <tile gid="30"/>
   <tile gid="30"/>
   <tile gid="30"/>
   <tile gid="30"/>
   <tile gid="30"/>
   <tile gid="30"/>
   <tile gid="30"/>
   <tile gid="30"/>
   <tile gid="30"/>
   <tile gid="30"/>
   <tile gid="30"/>
   <tile gid="30"/>
   <tile gid="30"/>
   <tile gid="30"/>
   <tile gid="30"/>
   <tile gid="30"/>
   <tile gid="30"/>
   <tile gid="30"/>
   <tile gid="30"/>
   <tile gid="30"/>
   <tile gid="30"/>
   <tile gid="30"/>
   <tile gid="30"/>
   <tile gid="30"/>
   <tile gid="30"/>
   <tile gid="30"/>
   <tile gid="30"/>
   <tile gid="30"/>
   <tile gid="30"/>
   <tile gid="30"/>
   <tile gid="30"/>
   <tile gid="30"/>
   <tile gid="30"/>
   <tile gid="30"/>
   <tile gid="30"/>
   <tile gid="30"/>
   <tile gid="30"/>
   <tile gid="30"/>
   <tile gid="30"/>
   <tile gid="30"/>
   <tile gid="30"/>
   <tile gid="30"/>
   <tile gid="30"/>
   <tile gid="30"/>
   <tile gid="30"/>
   <tile gid="30"/>
   <tile gid="30"/>
   <tile gid="30"/>
   <tile gid="34"/>
   <tile gid="34"/>
   <tile gid="34"/>
   <tile gid="30"/>
   <tile gid="30"/>
   <tile gid="30"/>
   <tile gid="30"/>
   <tile gid="30"/>
   <tile gid="30"/>
   <tile gid="30"/>
   <tile gid="30"/>
   <tile gid="30"/>
   <tile gid="30"/>
   <tile gid="30"/>
   <tile gid="30"/>
   <tile gid="30"/>
   <tile gid="30"/>
   <tile gid="30"/>
   <tile gid="30"/>
   <tile gid="30"/>
   <tile gid="30"/>
   <tile gid="30"/>
   <tile gid="30"/>
   <tile gid="30"/>
   <tile gid="30"/>
   <tile gid="34"/>
   <tile gid="34"/>
   <tile gid="34"/>
   <tile gid="30"/>
   <tile gid="30"/>
   <tile gid="30"/>
   <tile gid="30"/>
   <tile gid="30"/>
   <tile gid="30"/>
   <tile gid="30"/>
   <tile gid="30"/>
   <tile gid="30"/>
   <tile gid="30"/>
   <tile gid="30"/>
   <tile gid="30"/>
   <tile gid="34"/>
   <tile gid="34"/>
   <tile gid="34"/>
   <tile gid="34"/>
   <tile gid="34"/>
   <tile gid="34"/>
   <tile gid="30"/>
   <tile gid="30"/>
   <tile gid="30"/>
   <tile gid="30"/>
   <tile gid="30"/>
   <tile gid="30"/>
   <tile gid="30"/>
   <tile gid="30"/>
   <tile gid="30"/>
   <tile gid="30"/>
   <tile gid="30"/>
   <tile gid="30"/>
   <tile gid="30"/>
   <tile gid="30"/>
   <tile gid="34"/>
   <tile gid="34"/>
   <tile gid="34"/>
   <tile gid="30"/>
   <tile gid="30"/>
   <tile gid="30"/>
   <tile gid="30"/>
   <tile gid="30"/>
   <tile gid="30"/>
   <tile gid="30"/>
   <tile gid="30"/>
   <tile gid="30"/>
   <tile gid="30"/>
   <tile gid="30"/>
   <tile gid="30"/>
   <tile gid="30"/>
   <tile gid="30"/>
   <tile gid="30"/>
   <tile gid="30"/>
   <tile gid="30"/>
   <tile gid="30"/>
   <tile gid="30"/>
   <tile gid="30"/>
   <tile gid="30"/>
   <tile gid="30"/>
   <tile gid="30"/>
   <tile gid="30"/>
   <tile gid="30"/>
   <tile gid="30"/>
   <tile gid="30"/>
   <tile gid="30"/>
   <tile gid="30"/>
   <tile gid="30"/>
   <tile gid="30"/>
   <tile gid="30"/>
   <tile gid="30"/>
   <tile gid="30"/>
   <tile gid="30"/>
   <tile gid="30"/>
   <tile gid="30"/>
   <tile gid="30"/>
   <tile gid="30"/>
   <tile gid="30"/>
   <tile gid="30"/>
   <tile gid="30"/>
   <tile gid="30"/>
   <tile gid="30"/>
   <tile gid="30"/>
   <tile gid="30"/>
   <tile gid="30"/>
   <tile gid="30"/>
   <tile gid="30"/>
   <tile gid="30"/>
   <tile gid="30"/>
   <tile gid="30"/>
   <tile gid="30"/>
   <tile gid="30"/>
   <tile gid="30"/>
   <tile gid="30"/>
   <tile gid="30"/>
   <tile gid="30"/>
   <tile gid="30"/>
   <tile gid="30"/>
   <tile gid="30"/>
   <tile gid="30"/>
   <tile gid="30"/>
   <tile gid="30"/>
   <tile gid="30"/>
   <tile gid="30"/>
   <tile gid="30"/>
   <tile gid="30"/>
   <tile gid="30"/>
   <tile gid="34"/>
   <tile gid="34"/>
   <tile gid="34"/>
   <tile gid="30"/>
   <tile gid="30"/>
   <tile gid="30"/>
   <tile gid="30"/>
   <tile gid="30"/>
   <tile gid="30"/>
   <tile gid="30"/>
   <tile gid="30"/>
   <tile gid="30"/>
   <tile gid="30"/>
   <tile gid="30"/>
   <tile gid="30"/>
   <tile gid="30"/>
   <tile gid="30"/>
   <tile gid="30"/>
   <tile gid="30"/>
   <tile gid="30"/>
   <tile gid="30"/>
   <tile gid="30"/>
   <tile gid="30"/>
   <tile gid="30"/>
   <tile gid="30"/>
   <tile gid="34"/>
   <tile gid="34"/>
   <tile gid="34"/>
   <tile gid="30"/>
   <tile gid="30"/>
   <tile gid="30"/>
   <tile gid="30"/>
   <tile gid="30"/>
   <tile gid="30"/>
   <tile gid="30"/>
   <tile gid="30"/>
   <tile gid="30"/>
   <tile gid="30"/>
   <tile gid="30"/>
   <tile gid="30"/>
   <tile gid="34"/>
   <tile gid="34"/>
   <tile gid="34"/>
   <tile gid="34"/>
   <tile gid="34"/>
   <tile gid="34"/>
   <tile gid="30"/>
   <tile gid="30"/>
   <tile gid="30"/>
   <tile gid="30"/>
   <tile gid="30"/>
   <tile gid="30"/>
   <tile gid="30"/>
   <tile gid="30"/>
   <tile gid="30"/>
   <tile gid="30"/>
   <tile gid="30"/>
   <tile gid="30"/>
   <tile gid="30"/>
   <tile gid="30"/>
   <tile gid="34"/>
   <tile gid="34"/>
   <tile gid="34"/>
   <tile gid="30"/>
   <tile gid="30"/>
   <tile gid="30"/>
   <tile gid="30"/>
   <tile gid="30"/>
   <tile gid="30"/>
   <tile gid="30"/>
   <tile gid="30"/>
   <tile gid="30"/>
   <tile gid="30"/>
   <tile gid="30"/>
   <tile gid="30"/>
   <tile gid="30"/>
   <tile gid="30"/>
   <tile gid="30"/>
   <tile gid="30"/>
   <tile gid="30"/>
   <tile gid="30"/>
   <tile gid="30"/>
   <tile gid="30"/>
   <tile gid="30"/>
   <tile gid="30"/>
   <tile gid="30"/>
   <tile gid="30"/>
   <tile gid="30"/>
   <tile gid="30"/>
   <tile gid="30"/>
   <tile gid="30"/>
   <tile gid="30"/>
   <tile gid="30"/>
   <tile gid="30"/>
   <tile gid="30"/>
   <tile gid="30"/>
   <tile gid="30"/>
   <tile gid="30"/>
   <tile gid="30"/>
   <tile gid="30"/>
   <tile gid="30"/>
   <tile gid="30"/>
   <tile gid="30"/>
   <tile gid="30"/>
   <tile gid="30"/>
   <tile gid="30"/>
   <tile gid="30"/>
   <tile gid="30"/>
   <tile gid="30"/>
   <tile gid="30"/>
   <tile gid="30"/>
   <tile gid="30"/>
   <tile gid="30"/>
   <tile gid="30"/>
   <tile gid="30"/>
   <tile gid="30"/>
   <tile gid="30"/>
   <tile gid="30"/>
   <tile gid="30"/>
   <tile gid="30"/>
   <tile gid="30"/>
   <tile gid="30"/>
   <tile gid="30"/>
   <tile gid="30"/>
   <tile gid="30"/>
   <tile gid="30"/>
   <tile gid="30"/>
   <tile gid="30"/>
   <tile gid="30"/>
   <tile gid="30"/>
   <tile gid="30"/>
   <tile gid="30"/>
   <tile gid="34"/>
   <tile gid="34"/>
   <tile gid="34"/>
   <tile gid="30"/>
   <tile gid="30"/>
   <tile gid="30"/>
   <tile gid="30"/>
   <tile gid="30"/>
   <tile gid="30"/>
   <tile gid="30"/>
   <tile gid="30"/>
   <tile gid="30"/>
   <tile gid="30"/>
   <tile gid="30"/>
   <tile gid="30"/>
   <tile gid="30"/>
   <tile gid="30"/>
   <tile gid="30"/>
   <tile gid="30"/>
   <tile gid="30"/>
   <tile gid="30"/>
   <tile gid="30"/>
   <tile gid="30"/>
   <tile gid="30"/>
   <tile gid="30"/>
   <tile gid="34"/>
   <tile gid="34"/>
   <tile gid="34"/>
   <tile gid="30"/>
   <tile gid="30"/>
   <tile gid="30"/>
   <tile gid="30"/>
   <tile gid="30"/>
   <tile gid="30"/>
   <tile gid="30"/>
   <tile gid="30"/>
   <tile gid="30"/>
   <tile gid="30"/>
   <tile gid="30"/>
   <tile gid="30"/>
   <tile gid="34"/>
   <tile gid="34"/>
   <tile gid="34"/>
   <tile gid="34"/>
   <tile gid="34"/>
   <tile gid="34"/>
   <tile gid="30"/>
   <tile gid="30"/>
   <tile gid="30"/>
   <tile gid="30"/>
   <tile gid="30"/>
   <tile gid="30"/>
   <tile gid="30"/>
   <tile gid="30"/>
   <tile gid="30"/>
   <tile gid="30"/>
   <tile gid="30"/>
   <tile gid="30"/>
   <tile gid="30"/>
   <tile gid="30"/>
   <tile gid="34"/>
   <tile gid="34"/>
   <tile gid="34"/>
   <tile gid="30"/>
   <tile gid="30"/>
   <tile gid="30"/>
   <tile gid="30"/>
   <tile gid="30"/>
   <tile gid="30"/>
   <tile gid="30"/>
   <tile gid="30"/>
   <tile gid="30"/>
   <tile gid="30"/>
   <tile gid="30"/>
   <tile gid="30"/>
   <tile gid="30"/>
   <tile gid="30"/>
   <tile gid="30"/>
   <tile gid="30"/>
   <tile gid="30"/>
   <tile gid="30"/>
   <tile gid="30"/>
   <tile gid="30"/>
   <tile gid="30"/>
   <tile gid="30"/>
   <tile gid="34"/>
   <tile gid="34"/>
   <tile gid="34"/>
   <tile gid="30"/>
   <tile gid="30"/>
   <tile gid="30"/>
   <tile gid="30"/>
   <tile gid="30"/>
   <tile gid="30"/>
   <tile gid="30"/>
   <tile gid="30"/>
   <tile gid="30"/>
   <tile gid="30"/>
   <tile gid="30"/>
   <tile gid="30"/>
   <tile gid="30"/>
   <tile gid="30"/>
   <tile gid="30"/>
   <tile gid="30"/>
   <tile gid="30"/>
   <tile gid="30"/>
   <tile gid="30"/>
   <tile gid="30"/>
   <tile gid="30"/>
   <tile gid="30"/>
   <tile gid="30"/>
   <tile gid="30"/>
   <tile gid="30"/>
   <tile gid="30"/>
   <tile gid="30"/>
   <tile gid="30"/>
   <tile gid="30"/>
   <tile gid="30"/>
   <tile gid="30"/>
   <tile gid="30"/>
   <tile gid="30"/>
   <tile gid="30"/>
   <tile gid="30"/>
   <tile gid="30"/>
   <tile gid="30"/>
   <tile gid="30"/>
   <tile gid="30"/>
   <tile gid="30"/>
   <tile gid="30"/>
   <tile gid="30"/>
   <tile gid="30"/>
   <tile gid="30"/>
   <tile gid="34"/>
   <tile gid="34"/>
   <tile gid="34"/>
   <tile gid="30"/>
   <tile gid="30"/>
   <tile gid="30"/>
   <tile gid="30"/>
   <tile gid="30"/>
   <tile gid="30"/>
   <tile gid="30"/>
   <tile gid="30"/>
   <tile gid="30"/>
   <tile gid="30"/>
   <tile gid="30"/>
   <tile gid="30"/>
   <tile gid="30"/>
   <tile gid="30"/>
   <tile gid="30"/>
   <tile gid="30"/>
   <tile gid="30"/>
   <tile gid="30"/>
   <tile gid="30"/>
   <tile gid="30"/>
   <tile gid="30"/>
   <tile gid="30"/>
   <tile gid="34"/>
   <tile gid="34"/>
   <tile gid="34"/>
   <tile gid="30"/>
   <tile gid="30"/>
   <tile gid="30"/>
   <tile gid="30"/>
   <tile gid="30"/>
   <tile gid="30"/>
   <tile gid="30"/>
   <tile gid="30"/>
   <tile gid="30"/>
   <tile gid="30"/>
   <tile gid="30"/>
   <tile gid="30"/>
   <tile gid="34"/>
   <tile gid="34"/>
   <tile gid="34"/>
   <tile gid="34"/>
   <tile gid="34"/>
   <tile gid="34"/>
   <tile gid="30"/>
   <tile gid="30"/>
   <tile gid="30"/>
   <tile gid="30"/>
   <tile gid="30"/>
   <tile gid="30"/>
   <tile gid="30"/>
   <tile gid="30"/>
   <tile gid="30"/>
   <tile gid="30"/>
   <tile gid="30"/>
   <tile gid="30"/>
   <tile gid="30"/>
   <tile gid="30"/>
   <tile gid="34"/>
   <tile gid="34"/>
   <tile gid="34"/>
   <tile gid="30"/>
   <tile gid="30"/>
   <tile gid="30"/>
   <tile gid="30"/>
   <tile gid="30"/>
   <tile gid="30"/>
   <tile gid="30"/>
   <tile gid="30"/>
   <tile gid="30"/>
   <tile gid="30"/>
   <tile gid="30"/>
   <tile gid="30"/>
   <tile gid="30"/>
   <tile gid="30"/>
   <tile gid="30"/>
   <tile gid="30"/>
   <tile gid="30"/>
   <tile gid="30"/>
   <tile gid="30"/>
   <tile gid="30"/>
   <tile gid="30"/>
   <tile gid="30"/>
   <tile gid="34"/>
   <tile gid="34"/>
   <tile gid="34"/>
   <tile gid="30"/>
   <tile gid="30"/>
   <tile gid="30"/>
   <tile gid="30"/>
   <tile gid="30"/>
   <tile gid="30"/>
   <tile gid="30"/>
   <tile gid="30"/>
   <tile gid="30"/>
   <tile gid="30"/>
   <tile gid="30"/>
   <tile gid="30"/>
   <tile gid="30"/>
   <tile gid="30"/>
   <tile gid="30"/>
   <tile gid="30"/>
   <tile gid="30"/>
   <tile gid="30"/>
   <tile gid="30"/>
   <tile gid="30"/>
   <tile gid="30"/>
   <tile gid="30"/>
   <tile gid="30"/>
   <tile gid="30"/>
   <tile gid="30"/>
   <tile gid="30"/>
   <tile gid="30"/>
   <tile gid="30"/>
   <tile gid="30"/>
   <tile gid="30"/>
   <tile gid="30"/>
   <tile gid="30"/>
   <tile gid="30"/>
   <tile gid="30"/>
   <tile gid="30"/>
   <tile gid="30"/>
   <tile gid="30"/>
   <tile gid="30"/>
   <tile gid="30"/>
   <tile gid="30"/>
   <tile gid="30"/>
   <tile gid="30"/>
   <tile gid="30"/>
   <tile gid="30"/>
   <tile gid="34"/>
   <tile gid="34"/>
   <tile gid="34"/>
   <tile gid="30"/>
   <tile gid="30"/>
   <tile gid="30"/>
   <tile gid="30"/>
   <tile gid="30"/>
   <tile gid="30"/>
   <tile gid="30"/>
   <tile gid="30"/>
   <tile gid="30"/>
   <tile gid="30"/>
   <tile gid="30"/>
   <tile gid="30"/>
   <tile gid="30"/>
   <tile gid="30"/>
   <tile gid="30"/>
   <tile gid="30"/>
   <tile gid="30"/>
   <tile gid="30"/>
   <tile gid="30"/>
   <tile gid="30"/>
   <tile gid="30"/>
   <tile gid="30"/>
   <tile gid="34"/>
   <tile gid="34"/>
   <tile gid="34"/>
   <tile gid="30"/>
   <tile gid="30"/>
   <tile gid="30"/>
   <tile gid="30"/>
   <tile gid="30"/>
   <tile gid="30"/>
   <tile gid="30"/>
   <tile gid="30"/>
   <tile gid="30"/>
   <tile gid="30"/>
   <tile gid="30"/>
   <tile gid="30"/>
   <tile gid="34"/>
   <tile gid="34"/>
   <tile gid="34"/>
   <tile gid="34"/>
   <tile gid="34"/>
   <tile gid="34"/>
   <tile gid="30"/>
   <tile gid="30"/>
   <tile gid="30"/>
   <tile gid="30"/>
   <tile gid="30"/>
   <tile gid="30"/>
   <tile gid="30"/>
   <tile gid="30"/>
   <tile gid="30"/>
   <tile gid="30"/>
   <tile gid="30"/>
   <tile gid="30"/>
   <tile gid="30"/>
   <tile gid="30"/>
   <tile gid="34"/>
   <tile gid="34"/>
   <tile gid="34"/>
   <tile gid="30"/>
   <tile gid="30"/>
   <tile gid="30"/>
   <tile gid="30"/>
   <tile gid="30"/>
   <tile gid="30"/>
   <tile gid="30"/>
   <tile gid="30"/>
   <tile gid="30"/>
   <tile gid="30"/>
   <tile gid="30"/>
   <tile gid="30"/>
   <tile gid="30"/>
   <tile gid="30"/>
   <tile gid="30"/>
   <tile gid="30"/>
   <tile gid="30"/>
   <tile gid="30"/>
   <tile gid="30"/>
   <tile gid="30"/>
   <tile gid="30"/>
   <tile gid="30"/>
   <tile gid="34"/>
   <tile gid="34"/>
   <tile gid="34"/>
   <tile gid="30"/>
   <tile gid="30"/>
   <tile gid="30"/>
   <tile gid="30"/>
   <tile gid="30"/>
   <tile gid="30"/>
   <tile gid="30"/>
   <tile gid="30"/>
   <tile gid="30"/>
   <tile gid="30"/>
   <tile gid="30"/>
   <tile gid="30"/>
   <tile gid="30"/>
   <tile gid="30"/>
   <tile gid="30"/>
   <tile gid="30"/>
   <tile gid="30"/>
   <tile gid="30"/>
   <tile gid="30"/>
   <tile gid="30"/>
   <tile gid="30"/>
   <tile gid="30"/>
   <tile gid="30"/>
   <tile gid="30"/>
   <tile gid="30"/>
   <tile gid="30"/>
   <tile gid="30"/>
   <tile gid="30"/>
   <tile gid="30"/>
   <tile gid="30"/>
   <tile gid="30"/>
   <tile gid="30"/>
   <tile gid="30"/>
   <tile gid="30"/>
   <tile gid="30"/>
   <tile gid="30"/>
   <tile gid="30"/>
   <tile gid="30"/>
   <tile gid="30"/>
   <tile gid="30"/>
   <tile gid="30"/>
   <tile gid="30"/>
   <tile gid="30"/>
   <tile gid="30"/>
   <tile gid="34"/>
   <tile gid="34"/>
   <tile gid="34"/>
   <tile gid="30"/>
   <tile gid="30"/>
   <tile gid="30"/>
   <tile gid="30"/>
   <tile gid="30"/>
   <tile gid="30"/>
   <tile gid="30"/>
   <tile gid="30"/>
   <tile gid="30"/>
   <tile gid="30"/>
   <tile gid="30"/>
   <tile gid="30"/>
   <tile gid="30"/>
   <tile gid="30"/>
   <tile gid="30"/>
   <tile gid="30"/>
   <tile gid="30"/>
   <tile gid="30"/>
   <tile gid="30"/>
   <tile gid="30"/>
   <tile gid="30"/>
   <tile gid="30"/>
   <tile gid="34"/>
   <tile gid="34"/>
   <tile gid="34"/>
   <tile gid="30"/>
   <tile gid="30"/>
   <tile gid="30"/>
   <tile gid="30"/>
   <tile gid="30"/>
   <tile gid="30"/>
   <tile gid="30"/>
   <tile gid="30"/>
   <tile gid="30"/>
   <tile gid="30"/>
   <tile gid="30"/>
   <tile gid="30"/>
   <tile gid="34"/>
   <tile gid="34"/>
   <tile gid="34"/>
   <tile gid="34"/>
   <tile gid="34"/>
   <tile gid="34"/>
   <tile gid="30"/>
   <tile gid="30"/>
   <tile gid="30"/>
   <tile gid="30"/>
   <tile gid="30"/>
   <tile gid="30"/>
   <tile gid="30"/>
   <tile gid="30"/>
   <tile gid="30"/>
   <tile gid="30"/>
   <tile gid="30"/>
   <tile gid="30"/>
   <tile gid="30"/>
   <tile gid="30"/>
   <tile gid="34"/>
   <tile gid="34"/>
   <tile gid="34"/>
   <tile gid="34"/>
   <tile gid="34"/>
   <tile gid="34"/>
   <tile gid="34"/>
   <tile gid="34"/>
   <tile gid="34"/>
   <tile gid="34"/>
   <tile gid="34"/>
   <tile gid="34"/>
   <tile gid="34"/>
   <tile gid="34"/>
   <tile gid="34"/>
   <tile gid="34"/>
   <tile gid="34"/>
   <tile gid="34"/>
   <tile gid="34"/>
   <tile gid="34"/>
   <tile gid="34"/>
   <tile gid="34"/>
   <tile gid="34"/>
   <tile gid="34"/>
   <tile gid="34"/>
   <tile gid="34"/>
   <tile gid="34"/>
   <tile gid="34"/>
   <tile gid="34"/>
   <tile gid="34"/>
   <tile gid="34"/>
   <tile gid="34"/>
   <tile gid="34"/>
   <tile gid="34"/>
   <tile gid="34"/>
   <tile gid="34"/>
   <tile gid="34"/>
   <tile gid="34"/>
   <tile gid="34"/>
   <tile gid="34"/>
   <tile gid="34"/>
   <tile gid="34"/>
   <tile gid="34"/>
   <tile gid="34"/>
   <tile gid="34"/>
   <tile gid="34"/>
   <tile gid="34"/>
   <tile gid="34"/>
   <tile gid="34"/>
   <tile gid="34"/>
   <tile gid="34"/>
   <tile gid="34"/>
   <tile gid="34"/>
   <tile gid="34"/>
   <tile gid="34"/>
   <tile gid="34"/>
   <tile gid="34"/>
   <tile gid="34"/>
   <tile gid="34"/>
   <tile gid="34"/>
   <tile gid="34"/>
   <tile gid="34"/>
   <tile gid="34"/>
   <tile gid="34"/>
   <tile gid="34"/>
   <tile gid="34"/>
   <tile gid="34"/>
   <tile gid="34"/>
   <tile gid="34"/>
   <tile gid="34"/>
   <tile gid="34"/>
   <tile gid="34"/>
   <tile gid="34"/>
   <tile gid="34"/>
   <tile gid="34"/>
   <tile gid="34"/>
   <tile gid="34"/>
   <tile gid="34"/>
   <tile gid="34"/>
   <tile gid="34"/>
   <tile gid="34"/>
   <tile gid="34"/>
   <tile gid="34"/>
   <tile gid="34"/>
   <tile gid="34"/>
   <tile gid="34"/>
   <tile gid="34"/>
   <tile gid="34"/>
   <tile gid="34"/>
   <tile gid="34"/>
   <tile gid="34"/>
   <tile gid="34"/>
   <tile gid="34"/>
   <tile gid="34"/>
   <tile gid="34"/>
   <tile gid="34"/>
   <tile gid="34"/>
   <tile gid="34"/>
   <tile gid="34"/>
   <tile gid="34"/>
   <tile gid="30"/>
   <tile gid="30"/>
   <tile gid="30"/>
   <tile gid="30"/>
   <tile gid="30"/>
   <tile gid="30"/>
   <tile gid="30"/>
   <tile gid="30"/>
   <tile gid="30"/>
   <tile gid="30"/>
   <tile gid="30"/>
   <tile gid="30"/>
   <tile gid="34"/>
   <tile gid="34"/>
   <tile gid="34"/>
   <tile gid="34"/>
   <tile gid="34"/>
   <tile gid="34"/>
   <tile gid="30"/>
   <tile gid="30"/>
   <tile gid="30"/>
   <tile gid="30"/>
   <tile gid="30"/>
   <tile gid="30"/>
   <tile gid="30"/>
   <tile gid="30"/>
   <tile gid="30"/>
   <tile gid="30"/>
   <tile gid="30"/>
   <tile gid="30"/>
   <tile gid="30"/>
   <tile gid="30"/>
   <tile gid="34"/>
   <tile gid="34"/>
   <tile gid="34"/>
   <tile gid="34"/>
   <tile gid="34"/>
   <tile gid="34"/>
   <tile gid="34"/>
   <tile gid="34"/>
   <tile gid="34"/>
   <tile gid="34"/>
   <tile gid="34"/>
   <tile gid="34"/>
   <tile gid="34"/>
   <tile gid="34"/>
   <tile gid="34"/>
   <tile gid="34"/>
   <tile gid="34"/>
   <tile gid="34"/>
   <tile gid="34"/>
   <tile gid="34"/>
   <tile gid="34"/>
   <tile gid="34"/>
   <tile gid="34"/>
   <tile gid="34"/>
   <tile gid="34"/>
   <tile gid="34"/>
   <tile gid="34"/>
   <tile gid="34"/>
   <tile gid="34"/>
   <tile gid="34"/>
   <tile gid="34"/>
   <tile gid="34"/>
   <tile gid="34"/>
   <tile gid="34"/>
   <tile gid="34"/>
   <tile gid="34"/>
   <tile gid="34"/>
   <tile gid="34"/>
   <tile gid="34"/>
   <tile gid="34"/>
   <tile gid="34"/>
   <tile gid="34"/>
   <tile gid="34"/>
   <tile gid="34"/>
   <tile gid="34"/>
   <tile gid="34"/>
   <tile gid="34"/>
   <tile gid="34"/>
   <tile gid="34"/>
   <tile gid="34"/>
   <tile gid="34"/>
   <tile gid="34"/>
   <tile gid="34"/>
   <tile gid="34"/>
   <tile gid="34"/>
   <tile gid="34"/>
   <tile gid="34"/>
   <tile gid="34"/>
   <tile gid="34"/>
   <tile gid="34"/>
   <tile gid="34"/>
   <tile gid="34"/>
   <tile gid="34"/>
   <tile gid="34"/>
   <tile gid="34"/>
   <tile gid="34"/>
   <tile gid="34"/>
   <tile gid="34"/>
   <tile gid="34"/>
   <tile gid="34"/>
   <tile gid="34"/>
   <tile gid="34"/>
   <tile gid="34"/>
   <tile gid="34"/>
   <tile gid="34"/>
   <tile gid="34"/>
   <tile gid="34"/>
   <tile gid="34"/>
   <tile gid="34"/>
   <tile gid="34"/>
   <tile gid="34"/>
   <tile gid="34"/>
   <tile gid="34"/>
   <tile gid="34"/>
   <tile gid="34"/>
   <tile gid="34"/>
   <tile gid="34"/>
   <tile gid="34"/>
   <tile gid="34"/>
   <tile gid="34"/>
   <tile gid="34"/>
   <tile gid="34"/>
   <tile gid="34"/>
   <tile gid="34"/>
   <tile gid="34"/>
   <tile gid="34"/>
   <tile gid="34"/>
   <tile gid="34"/>
   <tile gid="34"/>
   <tile gid="34"/>
   <tile gid="30"/>
   <tile gid="30"/>
   <tile gid="30"/>
   <tile gid="30"/>
   <tile gid="30"/>
   <tile gid="30"/>
   <tile gid="30"/>
   <tile gid="30"/>
   <tile gid="30"/>
   <tile gid="30"/>
   <tile gid="30"/>
   <tile gid="30"/>
   <tile gid="34"/>
   <tile gid="34"/>
   <tile gid="34"/>
   <tile gid="34"/>
   <tile gid="34"/>
   <tile gid="34"/>
   <tile gid="30"/>
   <tile gid="30"/>
   <tile gid="30"/>
   <tile gid="30"/>
   <tile gid="30"/>
   <tile gid="30"/>
   <tile gid="30"/>
   <tile gid="30"/>
   <tile gid="30"/>
   <tile gid="30"/>
   <tile gid="30"/>
   <tile gid="30"/>
   <tile gid="30"/>
   <tile gid="30"/>
   <tile gid="34"/>
   <tile gid="34"/>
   <tile gid="34"/>
   <tile gid="34"/>
   <tile gid="34"/>
   <tile gid="34"/>
   <tile gid="34"/>
   <tile gid="34"/>
   <tile gid="34"/>
   <tile gid="34"/>
   <tile gid="34"/>
   <tile gid="34"/>
   <tile gid="34"/>
   <tile gid="34"/>
   <tile gid="34"/>
   <tile gid="34"/>
   <tile gid="34"/>
   <tile gid="34"/>
   <tile gid="34"/>
   <tile gid="34"/>
   <tile gid="34"/>
   <tile gid="34"/>
   <tile gid="34"/>
   <tile gid="34"/>
   <tile gid="34"/>
   <tile gid="34"/>
   <tile gid="34"/>
   <tile gid="34"/>
   <tile gid="34"/>
   <tile gid="34"/>
   <tile gid="34"/>
   <tile gid="34"/>
   <tile gid="34"/>
   <tile gid="34"/>
   <tile gid="34"/>
   <tile gid="34"/>
   <tile gid="34"/>
   <tile gid="34"/>
   <tile gid="34"/>
   <tile gid="34"/>
   <tile gid="34"/>
   <tile gid="34"/>
   <tile gid="34"/>
   <tile gid="34"/>
   <tile gid="34"/>
   <tile gid="34"/>
   <tile gid="34"/>
   <tile gid="34"/>
   <tile gid="34"/>
   <tile gid="34"/>
   <tile gid="34"/>
   <tile gid="34"/>
   <tile gid="34"/>
   <tile gid="34"/>
   <tile gid="34"/>
   <tile gid="34"/>
   <tile gid="34"/>
   <tile gid="34"/>
   <tile gid="34"/>
   <tile gid="34"/>
   <tile gid="34"/>
   <tile gid="34"/>
   <tile gid="34"/>
   <tile gid="34"/>
   <tile gid="34"/>
   <tile gid="34"/>
   <tile gid="34"/>
   <tile gid="34"/>
   <tile gid="34"/>
   <tile gid="34"/>
   <tile gid="34"/>
   <tile gid="34"/>
   <tile gid="34"/>
   <tile gid="34"/>
   <tile gid="34"/>
   <tile gid="34"/>
   <tile gid="34"/>
   <tile gid="34"/>
   <tile gid="34"/>
   <tile gid="34"/>
   <tile gid="34"/>
   <tile gid="34"/>
   <tile gid="34"/>
   <tile gid="34"/>
   <tile gid="34"/>
   <tile gid="34"/>
   <tile gid="34"/>
   <tile gid="34"/>
   <tile gid="34"/>
   <tile gid="34"/>
   <tile gid="34"/>
   <tile gid="34"/>
   <tile gid="34"/>
   <tile gid="34"/>
   <tile gid="34"/>
   <tile gid="34"/>
   <tile gid="34"/>
   <tile gid="34"/>
   <tile gid="34"/>
   <tile gid="34"/>
   <tile gid="30"/>
   <tile gid="30"/>
   <tile gid="30"/>
   <tile gid="30"/>
   <tile gid="30"/>
   <tile gid="30"/>
   <tile gid="30"/>
   <tile gid="30"/>
   <tile gid="30"/>
   <tile gid="30"/>
   <tile gid="30"/>
   <tile gid="30"/>
   <tile gid="34"/>
   <tile gid="34"/>
   <tile gid="34"/>
   <tile gid="34"/>
   <tile gid="34"/>
   <tile gid="34"/>
   <tile gid="30"/>
   <tile gid="30"/>
   <tile gid="30"/>
   <tile gid="30"/>
   <tile gid="30"/>
   <tile gid="30"/>
   <tile gid="30"/>
   <tile gid="30"/>
   <tile gid="30"/>
   <tile gid="30"/>
   <tile gid="30"/>
   <tile gid="30"/>
   <tile gid="30"/>
   <tile gid="30"/>
   <tile gid="34"/>
   <tile gid="34"/>
   <tile gid="34"/>
   <tile gid="30"/>
   <tile gid="30"/>
   <tile gid="30"/>
   <tile gid="30"/>
   <tile gid="30"/>
   <tile gid="30"/>
   <tile gid="30"/>
   <tile gid="30"/>
   <tile gid="30"/>
   <tile gid="34"/>
   <tile gid="34"/>
   <tile gid="34"/>
   <tile gid="30"/>
   <tile gid="30"/>
   <tile gid="30"/>
   <tile gid="30"/>
   <tile gid="30"/>
   <tile gid="30"/>
   <tile gid="30"/>
   <tile gid="30"/>
   <tile gid="30"/>
   <tile gid="30"/>
   <tile gid="34"/>
   <tile gid="34"/>
   <tile gid="34"/>
   <tile gid="30"/>
   <tile gid="30"/>
   <tile gid="30"/>
   <tile gid="30"/>
   <tile gid="30"/>
   <tile gid="30"/>
   <tile gid="30"/>
   <tile gid="30"/>
   <tile gid="30"/>
   <tile gid="30"/>
   <tile gid="30"/>
   <tile gid="30"/>
   <tile gid="30"/>
   <tile gid="30"/>
   <tile gid="30"/>
   <tile gid="34"/>
   <tile gid="34"/>
   <tile gid="34"/>
   <tile gid="30"/>
   <tile gid="30"/>
   <tile gid="30"/>
   <tile gid="30"/>
   <tile gid="30"/>
   <tile gid="30"/>
   <tile gid="30"/>
   <tile gid="30"/>
   <tile gid="30"/>
   <tile gid="30"/>
   <tile gid="30"/>
   <tile gid="30"/>
   <tile gid="30"/>
   <tile gid="30"/>
   <tile gid="30"/>
   <tile gid="30"/>
   <tile gid="30"/>
   <tile gid="30"/>
   <tile gid="30"/>
   <tile gid="30"/>
   <tile gid="30"/>
   <tile gid="30"/>
   <tile gid="30"/>
   <tile gid="30"/>
   <tile gid="30"/>
   <tile gid="30"/>
   <tile gid="30"/>
   <tile gid="30"/>
   <tile gid="30"/>
   <tile gid="30"/>
   <tile gid="30"/>
   <tile gid="30"/>
   <tile gid="30"/>
   <tile gid="30"/>
   <tile gid="30"/>
   <tile gid="34"/>
   <tile gid="34"/>
   <tile gid="34"/>
   <tile gid="30"/>
   <tile gid="30"/>
   <tile gid="30"/>
   <tile gid="30"/>
   <tile gid="30"/>
   <tile gid="30"/>
   <tile gid="30"/>
   <tile gid="30"/>
   <tile gid="30"/>
   <tile gid="30"/>
   <tile gid="30"/>
   <tile gid="30"/>
   <tile gid="30"/>
   <tile gid="30"/>
   <tile gid="30"/>
   <tile gid="30"/>
   <tile gid="30"/>
   <tile gid="30"/>
   <tile gid="30"/>
   <tile gid="30"/>
   <tile gid="30"/>
   <tile gid="30"/>
   <tile gid="30"/>
   <tile gid="30"/>
   <tile gid="30"/>
   <tile gid="30"/>
   <tile gid="30"/>
   <tile gid="30"/>
   <tile gid="34"/>
   <tile gid="34"/>
   <tile gid="34"/>
   <tile gid="34"/>
   <tile gid="34"/>
   <tile gid="34"/>
   <tile gid="30"/>
   <tile gid="30"/>
   <tile gid="30"/>
   <tile gid="30"/>
   <tile gid="30"/>
   <tile gid="30"/>
   <tile gid="30"/>
   <tile gid="30"/>
   <tile gid="30"/>
   <tile gid="30"/>
   <tile gid="30"/>
   <tile gid="30"/>
   <tile gid="30"/>
   <tile gid="30"/>
   <tile gid="34"/>
   <tile gid="34"/>
   <tile gid="34"/>
   <tile gid="30"/>
   <tile gid="30"/>
   <tile gid="30"/>
   <tile gid="30"/>
   <tile gid="30"/>
   <tile gid="30"/>
   <tile gid="30"/>
   <tile gid="30"/>
   <tile gid="30"/>
   <tile gid="34"/>
   <tile gid="34"/>
   <tile gid="34"/>
   <tile gid="30"/>
   <tile gid="30"/>
   <tile gid="30"/>
   <tile gid="30"/>
   <tile gid="30"/>
   <tile gid="30"/>
   <tile gid="30"/>
   <tile gid="30"/>
   <tile gid="30"/>
   <tile gid="30"/>
   <tile gid="34"/>
   <tile gid="34"/>
   <tile gid="34"/>
   <tile gid="30"/>
   <tile gid="30"/>
   <tile gid="30"/>
   <tile gid="30"/>
   <tile gid="30"/>
   <tile gid="30"/>
   <tile gid="30"/>
   <tile gid="30"/>
   <tile gid="30"/>
   <tile gid="30"/>
   <tile gid="30"/>
   <tile gid="30"/>
   <tile gid="30"/>
   <tile gid="30"/>
   <tile gid="30"/>
   <tile gid="34"/>
   <tile gid="34"/>
   <tile gid="34"/>
   <tile gid="30"/>
   <tile gid="30"/>
   <tile gid="30"/>
   <tile gid="30"/>
   <tile gid="30"/>
   <tile gid="30"/>
   <tile gid="30"/>
   <tile gid="30"/>
   <tile gid="30"/>
   <tile gid="30"/>
   <tile gid="30"/>
   <tile gid="30"/>
   <tile gid="30"/>
   <tile gid="30"/>
   <tile gid="30"/>
   <tile gid="30"/>
   <tile gid="30"/>
   <tile gid="30"/>
   <tile gid="30"/>
   <tile gid="30"/>
   <tile gid="30"/>
   <tile gid="30"/>
   <tile gid="30"/>
   <tile gid="30"/>
   <tile gid="30"/>
   <tile gid="30"/>
   <tile gid="30"/>
   <tile gid="30"/>
   <tile gid="30"/>
   <tile gid="30"/>
   <tile gid="30"/>
   <tile gid="30"/>
   <tile gid="30"/>
   <tile gid="30"/>
   <tile gid="30"/>
   <tile gid="34"/>
   <tile gid="34"/>
   <tile gid="34"/>
   <tile gid="30"/>
   <tile gid="30"/>
   <tile gid="30"/>
   <tile gid="30"/>
   <tile gid="30"/>
   <tile gid="30"/>
   <tile gid="30"/>
   <tile gid="30"/>
   <tile gid="30"/>
   <tile gid="30"/>
   <tile gid="30"/>
   <tile gid="30"/>
   <tile gid="30"/>
   <tile gid="30"/>
   <tile gid="30"/>
   <tile gid="30"/>
   <tile gid="30"/>
   <tile gid="30"/>
   <tile gid="30"/>
   <tile gid="30"/>
   <tile gid="30"/>
   <tile gid="30"/>
   <tile gid="30"/>
   <tile gid="30"/>
   <tile gid="30"/>
   <tile gid="30"/>
   <tile gid="30"/>
   <tile gid="30"/>
   <tile gid="34"/>
   <tile gid="34"/>
   <tile gid="34"/>
   <tile gid="34"/>
   <tile gid="34"/>
   <tile gid="34"/>
   <tile gid="30"/>
   <tile gid="30"/>
   <tile gid="30"/>
   <tile gid="30"/>
   <tile gid="30"/>
   <tile gid="30"/>
   <tile gid="30"/>
   <tile gid="30"/>
   <tile gid="30"/>
   <tile gid="30"/>
   <tile gid="30"/>
   <tile gid="30"/>
   <tile gid="30"/>
   <tile gid="30"/>
   <tile gid="34"/>
   <tile gid="34"/>
   <tile gid="34"/>
   <tile gid="30"/>
   <tile gid="30"/>
   <tile gid="30"/>
   <tile gid="30"/>
   <tile gid="30"/>
   <tile gid="30"/>
   <tile gid="30"/>
   <tile gid="30"/>
   <tile gid="30"/>
   <tile gid="34"/>
   <tile gid="34"/>
   <tile gid="34"/>
   <tile gid="30"/>
   <tile gid="30"/>
   <tile gid="30"/>
   <tile gid="30"/>
   <tile gid="30"/>
   <tile gid="30"/>
   <tile gid="30"/>
   <tile gid="30"/>
   <tile gid="30"/>
   <tile gid="30"/>
   <tile gid="34"/>
   <tile gid="34"/>
   <tile gid="34"/>
   <tile gid="30"/>
   <tile gid="30"/>
   <tile gid="30"/>
   <tile gid="30"/>
   <tile gid="30"/>
   <tile gid="30"/>
   <tile gid="30"/>
   <tile gid="30"/>
   <tile gid="30"/>
   <tile gid="30"/>
   <tile gid="30"/>
   <tile gid="30"/>
   <tile gid="30"/>
   <tile gid="30"/>
   <tile gid="30"/>
   <tile gid="34"/>
   <tile gid="34"/>
   <tile gid="34"/>
   <tile gid="30"/>
   <tile gid="30"/>
   <tile gid="30"/>
   <tile gid="30"/>
   <tile gid="30"/>
   <tile gid="30"/>
   <tile gid="30"/>
   <tile gid="30"/>
   <tile gid="30"/>
   <tile gid="30"/>
   <tile gid="30"/>
   <tile gid="30"/>
   <tile gid="30"/>
   <tile gid="30"/>
   <tile gid="30"/>
   <tile gid="30"/>
   <tile gid="30"/>
   <tile gid="30"/>
   <tile gid="30"/>
   <tile gid="30"/>
   <tile gid="30"/>
   <tile gid="30"/>
   <tile gid="30"/>
   <tile gid="30"/>
   <tile gid="30"/>
   <tile gid="30"/>
   <tile gid="30"/>
   <tile gid="30"/>
   <tile gid="30"/>
   <tile gid="30"/>
   <tile gid="30"/>
   <tile gid="30"/>
   <tile gid="30"/>
   <tile gid="30"/>
   <tile gid="30"/>
   <tile gid="34"/>
   <tile gid="34"/>
   <tile gid="34"/>
   <tile gid="30"/>
   <tile gid="30"/>
   <tile gid="30"/>
   <tile gid="30"/>
   <tile gid="30"/>
   <tile gid="30"/>
   <tile gid="30"/>
   <tile gid="30"/>
   <tile gid="30"/>
   <tile gid="30"/>
   <tile gid="30"/>
   <tile gid="30"/>
   <tile gid="30"/>
   <tile gid="30"/>
   <tile gid="30"/>
   <tile gid="30"/>
   <tile gid="30"/>
   <tile gid="30"/>
   <tile gid="30"/>
   <tile gid="30"/>
   <tile gid="30"/>
   <tile gid="30"/>
   <tile gid="30"/>
   <tile gid="30"/>
   <tile gid="30"/>
   <tile gid="30"/>
   <tile gid="30"/>
   <tile gid="30"/>
   <tile gid="34"/>
   <tile gid="34"/>
   <tile gid="34"/>
   <tile gid="34"/>
   <tile gid="34"/>
   <tile gid="34"/>
   <tile gid="30"/>
   <tile gid="30"/>
   <tile gid="30"/>
   <tile gid="30"/>
   <tile gid="30"/>
   <tile gid="30"/>
   <tile gid="30"/>
   <tile gid="30"/>
   <tile gid="30"/>
   <tile gid="30"/>
   <tile gid="30"/>
   <tile gid="30"/>
   <tile gid="30"/>
   <tile gid="30"/>
   <tile gid="34"/>
   <tile gid="34"/>
   <tile gid="34"/>
   <tile gid="30"/>
   <tile gid="30"/>
   <tile gid="30"/>
   <tile gid="30"/>
   <tile gid="30"/>
   <tile gid="30"/>
   <tile gid="30"/>
   <tile gid="30"/>
   <tile gid="30"/>
   <tile gid="34"/>
   <tile gid="34"/>
   <tile gid="34"/>
   <tile gid="30"/>
   <tile gid="30"/>
   <tile gid="30"/>
   <tile gid="30"/>
   <tile gid="30"/>
   <tile gid="30"/>
   <tile gid="30"/>
   <tile gid="30"/>
   <tile gid="30"/>
   <tile gid="30"/>
   <tile gid="34"/>
   <tile gid="34"/>
   <tile gid="34"/>
   <tile gid="30"/>
   <tile gid="30"/>
   <tile gid="30"/>
   <tile gid="30"/>
   <tile gid="30"/>
   <tile gid="30"/>
   <tile gid="30"/>
   <tile gid="30"/>
   <tile gid="30"/>
   <tile gid="30"/>
   <tile gid="30"/>
   <tile gid="30"/>
   <tile gid="30"/>
   <tile gid="30"/>
   <tile gid="30"/>
   <tile gid="34"/>
   <tile gid="34"/>
   <tile gid="34"/>
   <tile gid="30"/>
   <tile gid="30"/>
   <tile gid="30"/>
   <tile gid="30"/>
   <tile gid="30"/>
   <tile gid="30"/>
   <tile gid="30"/>
   <tile gid="30"/>
   <tile gid="30"/>
   <tile gid="30"/>
   <tile gid="30"/>
   <tile gid="30"/>
   <tile gid="30"/>
   <tile gid="30"/>
   <tile gid="30"/>
   <tile gid="30"/>
   <tile gid="30"/>
   <tile gid="30"/>
   <tile gid="30"/>
   <tile gid="30"/>
   <tile gid="30"/>
   <tile gid="30"/>
   <tile gid="30"/>
   <tile gid="30"/>
   <tile gid="30"/>
   <tile gid="30"/>
   <tile gid="30"/>
   <tile gid="30"/>
   <tile gid="30"/>
   <tile gid="30"/>
   <tile gid="30"/>
   <tile gid="30"/>
   <tile gid="30"/>
   <tile gid="30"/>
   <tile gid="30"/>
   <tile gid="30"/>
   <tile gid="30"/>
   <tile gid="30"/>
   <tile gid="30"/>
   <tile gid="30"/>
   <tile gid="30"/>
   <tile gid="30"/>
   <tile gid="30"/>
   <tile gid="30"/>
   <tile gid="30"/>
   <tile gid="30"/>
   <tile gid="30"/>
   <tile gid="30"/>
   <tile gid="30"/>
   <tile gid="30"/>
   <tile gid="30"/>
   <tile gid="30"/>
   <tile gid="30"/>
   <tile gid="30"/>
   <tile gid="30"/>
   <tile gid="30"/>
   <tile gid="30"/>
   <tile gid="30"/>
   <tile gid="30"/>
   <tile gid="30"/>
   <tile gid="30"/>
   <tile gid="30"/>
   <tile gid="30"/>
   <tile gid="30"/>
   <tile gid="30"/>
   <tile gid="30"/>
   <tile gid="34"/>
   <tile gid="34"/>
   <tile gid="34"/>
   <tile gid="34"/>
   <tile gid="34"/>
   <tile gid="34"/>
   <tile gid="30"/>
   <tile gid="30"/>
   <tile gid="30"/>
   <tile gid="30"/>
   <tile gid="30"/>
   <tile gid="30"/>
   <tile gid="30"/>
   <tile gid="30"/>
   <tile gid="30"/>
   <tile gid="30"/>
   <tile gid="30"/>
   <tile gid="30"/>
   <tile gid="30"/>
   <tile gid="30"/>
   <tile gid="34"/>
   <tile gid="34"/>
   <tile gid="34"/>
   <tile gid="30"/>
   <tile gid="30"/>
   <tile gid="30"/>
   <tile gid="30"/>
   <tile gid="30"/>
   <tile gid="30"/>
   <tile gid="30"/>
   <tile gid="30"/>
   <tile gid="30"/>
   <tile gid="34"/>
   <tile gid="34"/>
   <tile gid="34"/>
   <tile gid="30"/>
   <tile gid="30"/>
   <tile gid="30"/>
   <tile gid="30"/>
   <tile gid="30"/>
   <tile gid="30"/>
   <tile gid="30"/>
   <tile gid="30"/>
   <tile gid="30"/>
   <tile gid="30"/>
   <tile gid="34"/>
   <tile gid="34"/>
   <tile gid="34"/>
   <tile gid="30"/>
   <tile gid="30"/>
   <tile gid="30"/>
   <tile gid="30"/>
   <tile gid="30"/>
   <tile gid="30"/>
   <tile gid="30"/>
   <tile gid="30"/>
   <tile gid="30"/>
   <tile gid="30"/>
   <tile gid="30"/>
   <tile gid="30"/>
   <tile gid="30"/>
   <tile gid="30"/>
   <tile gid="30"/>
   <tile gid="34"/>
   <tile gid="34"/>
   <tile gid="34"/>
   <tile gid="30"/>
   <tile gid="30"/>
   <tile gid="30"/>
   <tile gid="30"/>
   <tile gid="30"/>
   <tile gid="30"/>
   <tile gid="30"/>
   <tile gid="30"/>
   <tile gid="30"/>
   <tile gid="30"/>
   <tile gid="30"/>
   <tile gid="30"/>
   <tile gid="30"/>
   <tile gid="30"/>
   <tile gid="30"/>
   <tile gid="30"/>
   <tile gid="30"/>
   <tile gid="30"/>
   <tile gid="30"/>
   <tile gid="30"/>
   <tile gid="30"/>
   <tile gid="30"/>
   <tile gid="30"/>
   <tile gid="30"/>
   <tile gid="30"/>
   <tile gid="30"/>
   <tile gid="30"/>
   <tile gid="30"/>
   <tile gid="30"/>
   <tile gid="30"/>
   <tile gid="30"/>
   <tile gid="30"/>
   <tile gid="30"/>
   <tile gid="30"/>
   <tile gid="30"/>
   <tile gid="30"/>
   <tile gid="30"/>
   <tile gid="30"/>
   <tile gid="30"/>
   <tile gid="30"/>
   <tile gid="30"/>
   <tile gid="30"/>
   <tile gid="30"/>
   <tile gid="30"/>
   <tile gid="30"/>
   <tile gid="30"/>
   <tile gid="30"/>
   <tile gid="30"/>
   <tile gid="30"/>
   <tile gid="30"/>
   <tile gid="30"/>
   <tile gid="30"/>
   <tile gid="30"/>
   <tile gid="30"/>
   <tile gid="30"/>
   <tile gid="30"/>
   <tile gid="30"/>
   <tile gid="30"/>
   <tile gid="30"/>
   <tile gid="30"/>
   <tile gid="30"/>
   <tile gid="30"/>
   <tile gid="30"/>
   <tile gid="30"/>
   <tile gid="30"/>
   <tile gid="30"/>
   <tile gid="34"/>
   <tile gid="34"/>
   <tile gid="34"/>
   <tile gid="34"/>
   <tile gid="34"/>
   <tile gid="34"/>
   <tile gid="30"/>
   <tile gid="30"/>
   <tile gid="30"/>
   <tile gid="30"/>
   <tile gid="30"/>
   <tile gid="30"/>
   <tile gid="30"/>
   <tile gid="30"/>
   <tile gid="30"/>
   <tile gid="30"/>
   <tile gid="30"/>
   <tile gid="30"/>
   <tile gid="30"/>
   <tile gid="30"/>
   <tile gid="34"/>
   <tile gid="34"/>
   <tile gid="34"/>
   <tile gid="30"/>
   <tile gid="30"/>
   <tile gid="30"/>
   <tile gid="30"/>
   <tile gid="30"/>
   <tile gid="30"/>
   <tile gid="30"/>
   <tile gid="30"/>
   <tile gid="30"/>
   <tile gid="34"/>
   <tile gid="34"/>
   <tile gid="34"/>
   <tile gid="30"/>
   <tile gid="30"/>
   <tile gid="30"/>
   <tile gid="30"/>
   <tile gid="30"/>
   <tile gid="30"/>
   <tile gid="30"/>
   <tile gid="30"/>
   <tile gid="30"/>
   <tile gid="30"/>
   <tile gid="34"/>
   <tile gid="34"/>
   <tile gid="34"/>
   <tile gid="30"/>
   <tile gid="30"/>
   <tile gid="30"/>
   <tile gid="30"/>
   <tile gid="30"/>
   <tile gid="30"/>
   <tile gid="30"/>
   <tile gid="30"/>
   <tile gid="30"/>
   <tile gid="30"/>
   <tile gid="30"/>
   <tile gid="30"/>
   <tile gid="30"/>
   <tile gid="30"/>
   <tile gid="30"/>
   <tile gid="34"/>
   <tile gid="34"/>
   <tile gid="34"/>
   <tile gid="30"/>
   <tile gid="30"/>
   <tile gid="30"/>
   <tile gid="30"/>
   <tile gid="30"/>
   <tile gid="30"/>
   <tile gid="30"/>
   <tile gid="30"/>
   <tile gid="30"/>
   <tile gid="30"/>
   <tile gid="30"/>
   <tile gid="30"/>
   <tile gid="30"/>
   <tile gid="30"/>
   <tile gid="30"/>
   <tile gid="30"/>
   <tile gid="30"/>
   <tile gid="30"/>
   <tile gid="30"/>
   <tile gid="30"/>
   <tile gid="30"/>
   <tile gid="30"/>
   <tile gid="30"/>
   <tile gid="30"/>
   <tile gid="30"/>
   <tile gid="30"/>
   <tile gid="30"/>
   <tile gid="30"/>
   <tile gid="30"/>
   <tile gid="30"/>
   <tile gid="30"/>
   <tile gid="30"/>
   <tile gid="30"/>
   <tile gid="30"/>
   <tile gid="30"/>
   <tile gid="30"/>
   <tile gid="30"/>
   <tile gid="30"/>
   <tile gid="30"/>
   <tile gid="30"/>
   <tile gid="30"/>
   <tile gid="30"/>
   <tile gid="30"/>
   <tile gid="30"/>
   <tile gid="30"/>
   <tile gid="30"/>
   <tile gid="30"/>
   <tile gid="30"/>
   <tile gid="30"/>
   <tile gid="30"/>
   <tile gid="30"/>
   <tile gid="30"/>
   <tile gid="30"/>
   <tile gid="30"/>
   <tile gid="30"/>
   <tile gid="30"/>
   <tile gid="30"/>
   <tile gid="30"/>
   <tile gid="30"/>
   <tile gid="30"/>
   <tile gid="30"/>
   <tile gid="30"/>
   <tile gid="30"/>
   <tile gid="30"/>
   <tile gid="30"/>
   <tile gid="30"/>
   <tile gid="34"/>
   <tile gid="34"/>
   <tile gid="34"/>
   <tile gid="34"/>
   <tile gid="34"/>
   <tile gid="34"/>
   <tile gid="30"/>
   <tile gid="30"/>
   <tile gid="30"/>
   <tile gid="30"/>
   <tile gid="30"/>
   <tile gid="30"/>
   <tile gid="30"/>
   <tile gid="30"/>
   <tile gid="30"/>
   <tile gid="30"/>
   <tile gid="30"/>
   <tile gid="30"/>
   <tile gid="30"/>
   <tile gid="30"/>
   <tile gid="34"/>
   <tile gid="34"/>
   <tile gid="34"/>
   <tile gid="30"/>
   <tile gid="30"/>
   <tile gid="30"/>
   <tile gid="30"/>
   <tile gid="30"/>
   <tile gid="30"/>
   <tile gid="30"/>
   <tile gid="30"/>
   <tile gid="30"/>
   <tile gid="30"/>
   <tile gid="30"/>
   <tile gid="30"/>
   <tile gid="30"/>
   <tile gid="30"/>
   <tile gid="30"/>
   <tile gid="30"/>
   <tile gid="30"/>
   <tile gid="30"/>
   <tile gid="30"/>
   <tile gid="30"/>
   <tile gid="30"/>
   <tile gid="30"/>
   <tile gid="30"/>
   <tile gid="30"/>
   <tile gid="30"/>
   <tile gid="30"/>
   <tile gid="30"/>
   <tile gid="30"/>
   <tile gid="30"/>
   <tile gid="30"/>
   <tile gid="30"/>
   <tile gid="30"/>
   <tile gid="30"/>
   <tile gid="30"/>
   <tile gid="30"/>
   <tile gid="30"/>
   <tile gid="30"/>
   <tile gid="30"/>
   <tile gid="30"/>
   <tile gid="30"/>
   <tile gid="34"/>
   <tile gid="34"/>
   <tile gid="34"/>
   <tile gid="30"/>
   <tile gid="30"/>
   <tile gid="30"/>
   <tile gid="30"/>
   <tile gid="30"/>
   <tile gid="30"/>
   <tile gid="30"/>
   <tile gid="30"/>
   <tile gid="30"/>
   <tile gid="30"/>
   <tile gid="30"/>
   <tile gid="30"/>
   <tile gid="30"/>
   <tile gid="30"/>
   <tile gid="30"/>
   <tile gid="30"/>
   <tile gid="30"/>
   <tile gid="30"/>
   <tile gid="30"/>
   <tile gid="30"/>
   <tile gid="30"/>
   <tile gid="30"/>
   <tile gid="30"/>
   <tile gid="30"/>
   <tile gid="30"/>
   <tile gid="30"/>
   <tile gid="30"/>
   <tile gid="30"/>
   <tile gid="30"/>
   <tile gid="30"/>
   <tile gid="30"/>
   <tile gid="30"/>
   <tile gid="30"/>
   <tile gid="30"/>
   <tile gid="30"/>
   <tile gid="34"/>
   <tile gid="34"/>
   <tile gid="34"/>
   <tile gid="30"/>
   <tile gid="30"/>
   <tile gid="30"/>
   <tile gid="30"/>
   <tile gid="30"/>
   <tile gid="30"/>
   <tile gid="30"/>
   <tile gid="30"/>
   <tile gid="30"/>
   <tile gid="30"/>
   <tile gid="30"/>
   <tile gid="30"/>
   <tile gid="30"/>
   <tile gid="30"/>
   <tile gid="30"/>
   <tile gid="30"/>
   <tile gid="30"/>
   <tile gid="30"/>
   <tile gid="30"/>
   <tile gid="30"/>
   <tile gid="30"/>
   <tile gid="30"/>
   <tile gid="30"/>
   <tile gid="30"/>
   <tile gid="30"/>
   <tile gid="30"/>
   <tile gid="30"/>
   <tile gid="30"/>
   <tile gid="34"/>
   <tile gid="34"/>
   <tile gid="34"/>
   <tile gid="34"/>
   <tile gid="34"/>
   <tile gid="34"/>
   <tile gid="30"/>
   <tile gid="30"/>
   <tile gid="30"/>
   <tile gid="30"/>
   <tile gid="30"/>
   <tile gid="30"/>
   <tile gid="30"/>
   <tile gid="30"/>
   <tile gid="30"/>
   <tile gid="30"/>
   <tile gid="30"/>
   <tile gid="30"/>
   <tile gid="30"/>
   <tile gid="30"/>
   <tile gid="34"/>
   <tile gid="34"/>
   <tile gid="34"/>
   <tile gid="30"/>
   <tile gid="30"/>
   <tile gid="30"/>
   <tile gid="30"/>
   <tile gid="30"/>
   <tile gid="30"/>
   <tile gid="30"/>
   <tile gid="30"/>
   <tile gid="30"/>
   <tile gid="30"/>
   <tile gid="30"/>
   <tile gid="30"/>
   <tile gid="30"/>
   <tile gid="30"/>
   <tile gid="30"/>
   <tile gid="30"/>
   <tile gid="30"/>
   <tile gid="30"/>
   <tile gid="30"/>
   <tile gid="30"/>
   <tile gid="30"/>
   <tile gid="30"/>
   <tile gid="30"/>
   <tile gid="30"/>
   <tile gid="30"/>
   <tile gid="30"/>
   <tile gid="30"/>
   <tile gid="30"/>
   <tile gid="30"/>
   <tile gid="30"/>
   <tile gid="30"/>
   <tile gid="30"/>
   <tile gid="30"/>
   <tile gid="30"/>
   <tile gid="30"/>
   <tile gid="30"/>
   <tile gid="30"/>
   <tile gid="30"/>
   <tile gid="30"/>
   <tile gid="30"/>
   <tile gid="34"/>
   <tile gid="34"/>
   <tile gid="34"/>
   <tile gid="30"/>
   <tile gid="30"/>
   <tile gid="30"/>
   <tile gid="30"/>
   <tile gid="30"/>
   <tile gid="30"/>
   <tile gid="30"/>
   <tile gid="30"/>
   <tile gid="30"/>
   <tile gid="30"/>
   <tile gid="30"/>
   <tile gid="30"/>
   <tile gid="30"/>
   <tile gid="30"/>
   <tile gid="30"/>
   <tile gid="30"/>
   <tile gid="30"/>
   <tile gid="30"/>
   <tile gid="30"/>
   <tile gid="30"/>
   <tile gid="30"/>
   <tile gid="30"/>
   <tile gid="30"/>
   <tile gid="30"/>
   <tile gid="30"/>
   <tile gid="30"/>
   <tile gid="30"/>
   <tile gid="30"/>
   <tile gid="30"/>
   <tile gid="30"/>
   <tile gid="30"/>
   <tile gid="30"/>
   <tile gid="30"/>
   <tile gid="30"/>
   <tile gid="30"/>
   <tile gid="34"/>
   <tile gid="34"/>
   <tile gid="34"/>
   <tile gid="30"/>
   <tile gid="30"/>
   <tile gid="30"/>
   <tile gid="30"/>
   <tile gid="30"/>
   <tile gid="30"/>
   <tile gid="30"/>
   <tile gid="30"/>
   <tile gid="30"/>
   <tile gid="30"/>
   <tile gid="30"/>
   <tile gid="30"/>
   <tile gid="30"/>
   <tile gid="30"/>
   <tile gid="30"/>
   <tile gid="30"/>
   <tile gid="30"/>
   <tile gid="30"/>
   <tile gid="30"/>
   <tile gid="30"/>
   <tile gid="30"/>
   <tile gid="30"/>
   <tile gid="30"/>
   <tile gid="30"/>
   <tile gid="30"/>
   <tile gid="30"/>
   <tile gid="30"/>
   <tile gid="30"/>
   <tile gid="34"/>
   <tile gid="34"/>
   <tile gid="34"/>
   <tile gid="34"/>
   <tile gid="34"/>
   <tile gid="34"/>
   <tile gid="30"/>
   <tile gid="30"/>
   <tile gid="30"/>
   <tile gid="30"/>
   <tile gid="30"/>
   <tile gid="30"/>
   <tile gid="30"/>
   <tile gid="30"/>
   <tile gid="30"/>
   <tile gid="30"/>
   <tile gid="30"/>
   <tile gid="30"/>
   <tile gid="30"/>
   <tile gid="30"/>
   <tile gid="34"/>
   <tile gid="34"/>
   <tile gid="34"/>
   <tile gid="30"/>
   <tile gid="30"/>
   <tile gid="30"/>
   <tile gid="30"/>
   <tile gid="30"/>
   <tile gid="30"/>
   <tile gid="30"/>
   <tile gid="30"/>
   <tile gid="30"/>
   <tile gid="30"/>
   <tile gid="30"/>
   <tile gid="30"/>
   <tile gid="30"/>
   <tile gid="30"/>
   <tile gid="30"/>
   <tile gid="30"/>
   <tile gid="30"/>
   <tile gid="30"/>
   <tile gid="30"/>
   <tile gid="30"/>
   <tile gid="30"/>
   <tile gid="30"/>
   <tile gid="30"/>
   <tile gid="30"/>
   <tile gid="30"/>
   <tile gid="30"/>
   <tile gid="30"/>
   <tile gid="30"/>
   <tile gid="30"/>
   <tile gid="30"/>
   <tile gid="30"/>
   <tile gid="30"/>
   <tile gid="30"/>
   <tile gid="30"/>
   <tile gid="30"/>
   <tile gid="30"/>
   <tile gid="30"/>
   <tile gid="30"/>
   <tile gid="30"/>
   <tile gid="30"/>
   <tile gid="34"/>
   <tile gid="34"/>
   <tile gid="34"/>
   <tile gid="30"/>
   <tile gid="30"/>
   <tile gid="30"/>
   <tile gid="30"/>
   <tile gid="30"/>
   <tile gid="30"/>
   <tile gid="30"/>
   <tile gid="30"/>
   <tile gid="30"/>
   <tile gid="30"/>
   <tile gid="30"/>
   <tile gid="30"/>
   <tile gid="30"/>
   <tile gid="30"/>
   <tile gid="30"/>
   <tile gid="30"/>
   <tile gid="30"/>
   <tile gid="30"/>
   <tile gid="30"/>
   <tile gid="30"/>
   <tile gid="30"/>
   <tile gid="30"/>
   <tile gid="30"/>
   <tile gid="30"/>
   <tile gid="30"/>
   <tile gid="30"/>
   <tile gid="30"/>
   <tile gid="30"/>
   <tile gid="30"/>
   <tile gid="30"/>
   <tile gid="30"/>
   <tile gid="30"/>
   <tile gid="30"/>
   <tile gid="30"/>
   <tile gid="30"/>
   <tile gid="34"/>
   <tile gid="34"/>
   <tile gid="34"/>
   <tile gid="30"/>
   <tile gid="30"/>
   <tile gid="30"/>
   <tile gid="30"/>
   <tile gid="30"/>
   <tile gid="30"/>
   <tile gid="30"/>
   <tile gid="30"/>
   <tile gid="30"/>
   <tile gid="30"/>
   <tile gid="30"/>
   <tile gid="30"/>
   <tile gid="30"/>
   <tile gid="30"/>
   <tile gid="30"/>
   <tile gid="30"/>
   <tile gid="30"/>
   <tile gid="30"/>
   <tile gid="30"/>
   <tile gid="30"/>
   <tile gid="30"/>
   <tile gid="30"/>
   <tile gid="30"/>
   <tile gid="30"/>
   <tile gid="30"/>
   <tile gid="30"/>
   <tile gid="30"/>
   <tile gid="30"/>
   <tile gid="34"/>
   <tile gid="34"/>
   <tile gid="34"/>
   <tile gid="34"/>
   <tile gid="34"/>
   <tile gid="34"/>
   <tile gid="30"/>
   <tile gid="30"/>
   <tile gid="30"/>
   <tile gid="30"/>
   <tile gid="30"/>
   <tile gid="30"/>
   <tile gid="30"/>
   <tile gid="30"/>
   <tile gid="30"/>
   <tile gid="30"/>
   <tile gid="30"/>
   <tile gid="30"/>
   <tile gid="30"/>
   <tile gid="30"/>
   <tile gid="34"/>
   <tile gid="34"/>
   <tile gid="34"/>
   <tile gid="30"/>
   <tile gid="30"/>
   <tile gid="30"/>
   <tile gid="30"/>
   <tile gid="30"/>
   <tile gid="30"/>
   <tile gid="30"/>
   <tile gid="30"/>
   <tile gid="30"/>
   <tile gid="34"/>
   <tile gid="34"/>
   <tile gid="34"/>
   <tile gid="30"/>
   <tile gid="30"/>
   <tile gid="30"/>
   <tile gid="30"/>
   <tile gid="30"/>
   <tile gid="30"/>
   <tile gid="30"/>
   <tile gid="30"/>
   <tile gid="30"/>
   <tile gid="30"/>
   <tile gid="34"/>
   <tile gid="34"/>
   <tile gid="34"/>
   <tile gid="30"/>
   <tile gid="30"/>
   <tile gid="30"/>
   <tile gid="30"/>
   <tile gid="30"/>
   <tile gid="30"/>
   <tile gid="30"/>
   <tile gid="30"/>
   <tile gid="30"/>
   <tile gid="30"/>
   <tile gid="30"/>
   <tile gid="30"/>
   <tile gid="30"/>
   <tile gid="30"/>
   <tile gid="30"/>
   <tile gid="34"/>
   <tile gid="34"/>
   <tile gid="34"/>
   <tile gid="30"/>
   <tile gid="30"/>
   <tile gid="30"/>
   <tile gid="30"/>
   <tile gid="30"/>
   <tile gid="30"/>
   <tile gid="30"/>
   <tile gid="30"/>
   <tile gid="30"/>
   <tile gid="30"/>
   <tile gid="30"/>
   <tile gid="30"/>
   <tile gid="30"/>
   <tile gid="30"/>
   <tile gid="30"/>
   <tile gid="30"/>
   <tile gid="30"/>
   <tile gid="30"/>
   <tile gid="30"/>
   <tile gid="30"/>
   <tile gid="30"/>
   <tile gid="30"/>
   <tile gid="30"/>
   <tile gid="30"/>
   <tile gid="30"/>
   <tile gid="30"/>
   <tile gid="30"/>
   <tile gid="30"/>
   <tile gid="30"/>
   <tile gid="30"/>
   <tile gid="30"/>
   <tile gid="30"/>
   <tile gid="30"/>
   <tile gid="30"/>
   <tile gid="30"/>
   <tile gid="34"/>
   <tile gid="34"/>
   <tile gid="34"/>
   <tile gid="30"/>
   <tile gid="30"/>
   <tile gid="30"/>
   <tile gid="30"/>
   <tile gid="30"/>
   <tile gid="30"/>
   <tile gid="30"/>
   <tile gid="30"/>
   <tile gid="30"/>
   <tile gid="30"/>
   <tile gid="30"/>
   <tile gid="30"/>
   <tile gid="30"/>
   <tile gid="30"/>
   <tile gid="30"/>
   <tile gid="30"/>
   <tile gid="30"/>
   <tile gid="30"/>
   <tile gid="30"/>
   <tile gid="30"/>
   <tile gid="30"/>
   <tile gid="30"/>
   <tile gid="30"/>
   <tile gid="30"/>
   <tile gid="30"/>
   <tile gid="30"/>
   <tile gid="30"/>
   <tile gid="30"/>
   <tile gid="34"/>
   <tile gid="34"/>
   <tile gid="34"/>
   <tile gid="34"/>
   <tile gid="34"/>
   <tile gid="34"/>
   <tile gid="30"/>
   <tile gid="30"/>
   <tile gid="30"/>
   <tile gid="30"/>
   <tile gid="30"/>
   <tile gid="30"/>
   <tile gid="30"/>
   <tile gid="30"/>
   <tile gid="30"/>
   <tile gid="30"/>
   <tile gid="30"/>
   <tile gid="30"/>
   <tile gid="30"/>
   <tile gid="30"/>
   <tile gid="34"/>
   <tile gid="34"/>
   <tile gid="34"/>
   <tile gid="30"/>
   <tile gid="30"/>
   <tile gid="30"/>
   <tile gid="30"/>
   <tile gid="30"/>
   <tile gid="30"/>
   <tile gid="30"/>
   <tile gid="30"/>
   <tile gid="30"/>
   <tile gid="34"/>
   <tile gid="34"/>
   <tile gid="34"/>
   <tile gid="30"/>
   <tile gid="30"/>
   <tile gid="30"/>
   <tile gid="30"/>
   <tile gid="30"/>
   <tile gid="30"/>
   <tile gid="30"/>
   <tile gid="30"/>
   <tile gid="30"/>
   <tile gid="30"/>
   <tile gid="34"/>
   <tile gid="34"/>
   <tile gid="34"/>
   <tile gid="30"/>
   <tile gid="30"/>
   <tile gid="30"/>
   <tile gid="30"/>
   <tile gid="30"/>
   <tile gid="30"/>
   <tile gid="30"/>
   <tile gid="30"/>
   <tile gid="30"/>
   <tile gid="30"/>
   <tile gid="30"/>
   <tile gid="30"/>
   <tile gid="30"/>
   <tile gid="30"/>
   <tile gid="30"/>
   <tile gid="34"/>
   <tile gid="34"/>
   <tile gid="34"/>
   <tile gid="30"/>
   <tile gid="30"/>
   <tile gid="30"/>
   <tile gid="30"/>
   <tile gid="30"/>
   <tile gid="30"/>
   <tile gid="30"/>
   <tile gid="30"/>
   <tile gid="30"/>
   <tile gid="30"/>
   <tile gid="30"/>
   <tile gid="30"/>
   <tile gid="30"/>
   <tile gid="30"/>
   <tile gid="30"/>
   <tile gid="30"/>
   <tile gid="30"/>
   <tile gid="30"/>
   <tile gid="30"/>
   <tile gid="30"/>
   <tile gid="30"/>
   <tile gid="30"/>
   <tile gid="30"/>
   <tile gid="30"/>
   <tile gid="30"/>
   <tile gid="30"/>
   <tile gid="30"/>
   <tile gid="30"/>
   <tile gid="30"/>
   <tile gid="30"/>
   <tile gid="30"/>
   <tile gid="30"/>
   <tile gid="30"/>
   <tile gid="30"/>
   <tile gid="30"/>
   <tile gid="34"/>
   <tile gid="34"/>
   <tile gid="34"/>
   <tile gid="30"/>
   <tile gid="30"/>
   <tile gid="30"/>
   <tile gid="30"/>
   <tile gid="30"/>
   <tile gid="30"/>
   <tile gid="30"/>
   <tile gid="30"/>
   <tile gid="30"/>
   <tile gid="30"/>
   <tile gid="30"/>
   <tile gid="30"/>
   <tile gid="30"/>
   <tile gid="30"/>
   <tile gid="30"/>
   <tile gid="30"/>
   <tile gid="30"/>
   <tile gid="30"/>
   <tile gid="30"/>
   <tile gid="30"/>
   <tile gid="30"/>
   <tile gid="30"/>
   <tile gid="30"/>
   <tile gid="30"/>
   <tile gid="30"/>
   <tile gid="30"/>
   <tile gid="30"/>
   <tile gid="30"/>
   <tile gid="34"/>
   <tile gid="34"/>
   <tile gid="34"/>
   <tile gid="34"/>
   <tile gid="34"/>
   <tile gid="34"/>
   <tile gid="30"/>
   <tile gid="30"/>
   <tile gid="30"/>
   <tile gid="30"/>
   <tile gid="30"/>
   <tile gid="30"/>
   <tile gid="30"/>
   <tile gid="30"/>
   <tile gid="30"/>
   <tile gid="30"/>
   <tile gid="30"/>
   <tile gid="30"/>
   <tile gid="30"/>
   <tile gid="30"/>
   <tile gid="34"/>
   <tile gid="34"/>
   <tile gid="34"/>
   <tile gid="30"/>
   <tile gid="30"/>
   <tile gid="30"/>
   <tile gid="30"/>
   <tile gid="30"/>
   <tile gid="30"/>
   <tile gid="30"/>
   <tile gid="30"/>
   <tile gid="30"/>
   <tile gid="34"/>
   <tile gid="34"/>
   <tile gid="34"/>
   <tile gid="30"/>
   <tile gid="30"/>
   <tile gid="30"/>
   <tile gid="30"/>
   <tile gid="30"/>
   <tile gid="30"/>
   <tile gid="30"/>
   <tile gid="30"/>
   <tile gid="30"/>
   <tile gid="30"/>
   <tile gid="34"/>
   <tile gid="34"/>
   <tile gid="34"/>
   <tile gid="30"/>
   <tile gid="30"/>
   <tile gid="30"/>
   <tile gid="30"/>
   <tile gid="30"/>
   <tile gid="30"/>
   <tile gid="30"/>
   <tile gid="30"/>
   <tile gid="30"/>
   <tile gid="30"/>
   <tile gid="30"/>
   <tile gid="30"/>
   <tile gid="30"/>
   <tile gid="30"/>
   <tile gid="30"/>
   <tile gid="34"/>
   <tile gid="34"/>
   <tile gid="34"/>
   <tile gid="30"/>
   <tile gid="30"/>
   <tile gid="30"/>
   <tile gid="30"/>
   <tile gid="30"/>
   <tile gid="30"/>
   <tile gid="30"/>
   <tile gid="30"/>
   <tile gid="30"/>
   <tile gid="30"/>
   <tile gid="30"/>
   <tile gid="30"/>
   <tile gid="30"/>
   <tile gid="30"/>
   <tile gid="30"/>
   <tile gid="30"/>
   <tile gid="30"/>
   <tile gid="30"/>
   <tile gid="30"/>
   <tile gid="30"/>
   <tile gid="30"/>
   <tile gid="30"/>
   <tile gid="30"/>
   <tile gid="30"/>
   <tile gid="30"/>
   <tile gid="30"/>
   <tile gid="30"/>
   <tile gid="30"/>
   <tile gid="30"/>
   <tile gid="30"/>
   <tile gid="30"/>
   <tile gid="30"/>
   <tile gid="30"/>
   <tile gid="30"/>
   <tile gid="30"/>
   <tile gid="34"/>
   <tile gid="34"/>
   <tile gid="34"/>
   <tile gid="30"/>
   <tile gid="30"/>
   <tile gid="30"/>
   <tile gid="30"/>
   <tile gid="30"/>
   <tile gid="30"/>
   <tile gid="30"/>
   <tile gid="30"/>
   <tile gid="30"/>
   <tile gid="30"/>
   <tile gid="30"/>
   <tile gid="30"/>
   <tile gid="30"/>
   <tile gid="30"/>
   <tile gid="30"/>
   <tile gid="30"/>
   <tile gid="30"/>
   <tile gid="30"/>
   <tile gid="30"/>
   <tile gid="30"/>
   <tile gid="30"/>
   <tile gid="30"/>
   <tile gid="30"/>
   <tile gid="30"/>
   <tile gid="30"/>
   <tile gid="30"/>
   <tile gid="30"/>
   <tile gid="30"/>
   <tile gid="34"/>
   <tile gid="34"/>
   <tile gid="34"/>
   <tile gid="34"/>
   <tile gid="34"/>
   <tile gid="34"/>
   <tile gid="30"/>
   <tile gid="30"/>
   <tile gid="30"/>
   <tile gid="30"/>
   <tile gid="30"/>
   <tile gid="30"/>
   <tile gid="30"/>
   <tile gid="30"/>
   <tile gid="30"/>
   <tile gid="30"/>
   <tile gid="30"/>
   <tile gid="30"/>
   <tile gid="30"/>
   <tile gid="30"/>
   <tile gid="34"/>
   <tile gid="34"/>
   <tile gid="34"/>
   <tile gid="30"/>
   <tile gid="30"/>
   <tile gid="30"/>
   <tile gid="30"/>
   <tile gid="30"/>
   <tile gid="30"/>
   <tile gid="30"/>
   <tile gid="30"/>
   <tile gid="30"/>
   <tile gid="34"/>
   <tile gid="34"/>
   <tile gid="34"/>
   <tile gid="30"/>
   <tile gid="30"/>
   <tile gid="30"/>
   <tile gid="30"/>
   <tile gid="30"/>
   <tile gid="30"/>
   <tile gid="30"/>
   <tile gid="30"/>
   <tile gid="30"/>
   <tile gid="30"/>
   <tile gid="34"/>
   <tile gid="34"/>
   <tile gid="34"/>
   <tile gid="30"/>
   <tile gid="30"/>
   <tile gid="30"/>
   <tile gid="30"/>
   <tile gid="30"/>
   <tile gid="30"/>
   <tile gid="30"/>
   <tile gid="30"/>
   <tile gid="30"/>
   <tile gid="30"/>
   <tile gid="30"/>
   <tile gid="30"/>
   <tile gid="30"/>
   <tile gid="30"/>
   <tile gid="30"/>
   <tile gid="34"/>
   <tile gid="34"/>
   <tile gid="34"/>
   <tile gid="30"/>
   <tile gid="30"/>
   <tile gid="30"/>
   <tile gid="30"/>
   <tile gid="30"/>
   <tile gid="30"/>
   <tile gid="30"/>
   <tile gid="30"/>
   <tile gid="30"/>
   <tile gid="30"/>
   <tile gid="30"/>
   <tile gid="30"/>
   <tile gid="30"/>
   <tile gid="30"/>
   <tile gid="30"/>
   <tile gid="30"/>
   <tile gid="30"/>
   <tile gid="30"/>
   <tile gid="30"/>
   <tile gid="30"/>
   <tile gid="30"/>
   <tile gid="30"/>
   <tile gid="30"/>
   <tile gid="30"/>
   <tile gid="30"/>
   <tile gid="30"/>
   <tile gid="30"/>
   <tile gid="30"/>
   <tile gid="30"/>
   <tile gid="30"/>
   <tile gid="30"/>
   <tile gid="30"/>
   <tile gid="30"/>
   <tile gid="30"/>
   <tile gid="30"/>
   <tile gid="34"/>
   <tile gid="34"/>
   <tile gid="34"/>
   <tile gid="30"/>
   <tile gid="30"/>
   <tile gid="30"/>
   <tile gid="30"/>
   <tile gid="30"/>
   <tile gid="30"/>
   <tile gid="30"/>
   <tile gid="30"/>
   <tile gid="30"/>
   <tile gid="30"/>
   <tile gid="30"/>
   <tile gid="30"/>
   <tile gid="30"/>
   <tile gid="30"/>
   <tile gid="30"/>
   <tile gid="30"/>
   <tile gid="30"/>
   <tile gid="30"/>
   <tile gid="30"/>
   <tile gid="30"/>
   <tile gid="30"/>
   <tile gid="30"/>
   <tile gid="30"/>
   <tile gid="30"/>
   <tile gid="30"/>
   <tile gid="30"/>
   <tile gid="30"/>
   <tile gid="30"/>
   <tile gid="34"/>
   <tile gid="34"/>
   <tile gid="34"/>
   <tile gid="34"/>
   <tile gid="34"/>
   <tile gid="34"/>
   <tile gid="30"/>
   <tile gid="30"/>
   <tile gid="30"/>
   <tile gid="30"/>
   <tile gid="30"/>
   <tile gid="30"/>
   <tile gid="30"/>
   <tile gid="30"/>
   <tile gid="30"/>
   <tile gid="30"/>
   <tile gid="30"/>
   <tile gid="30"/>
   <tile gid="30"/>
   <tile gid="30"/>
   <tile gid="34"/>
   <tile gid="34"/>
   <tile gid="34"/>
   <tile gid="30"/>
   <tile gid="30"/>
   <tile gid="30"/>
   <tile gid="30"/>
   <tile gid="30"/>
   <tile gid="30"/>
   <tile gid="30"/>
   <tile gid="30"/>
   <tile gid="30"/>
   <tile gid="34"/>
   <tile gid="34"/>
   <tile gid="34"/>
   <tile gid="30"/>
   <tile gid="30"/>
   <tile gid="30"/>
   <tile gid="30"/>
   <tile gid="30"/>
   <tile gid="30"/>
   <tile gid="30"/>
   <tile gid="30"/>
   <tile gid="30"/>
   <tile gid="30"/>
   <tile gid="34"/>
   <tile gid="34"/>
   <tile gid="34"/>
   <tile gid="30"/>
   <tile gid="30"/>
   <tile gid="30"/>
   <tile gid="30"/>
   <tile gid="30"/>
   <tile gid="30"/>
   <tile gid="30"/>
   <tile gid="30"/>
   <tile gid="30"/>
   <tile gid="30"/>
   <tile gid="30"/>
   <tile gid="30"/>
   <tile gid="30"/>
   <tile gid="30"/>
   <tile gid="30"/>
   <tile gid="34"/>
   <tile gid="34"/>
   <tile gid="34"/>
   <tile gid="30"/>
   <tile gid="30"/>
   <tile gid="30"/>
   <tile gid="30"/>
   <tile gid="30"/>
   <tile gid="30"/>
   <tile gid="30"/>
   <tile gid="30"/>
   <tile gid="30"/>
   <tile gid="30"/>
   <tile gid="30"/>
   <tile gid="30"/>
   <tile gid="30"/>
   <tile gid="30"/>
   <tile gid="30"/>
   <tile gid="30"/>
   <tile gid="30"/>
   <tile gid="30"/>
   <tile gid="30"/>
   <tile gid="30"/>
   <tile gid="30"/>
   <tile gid="30"/>
   <tile gid="30"/>
   <tile gid="30"/>
   <tile gid="30"/>
   <tile gid="30"/>
   <tile gid="30"/>
   <tile gid="30"/>
   <tile gid="30"/>
   <tile gid="30"/>
   <tile gid="30"/>
   <tile gid="30"/>
   <tile gid="30"/>
   <tile gid="30"/>
   <tile gid="30"/>
   <tile gid="34"/>
   <tile gid="34"/>
   <tile gid="34"/>
   <tile gid="30"/>
   <tile gid="30"/>
   <tile gid="30"/>
   <tile gid="30"/>
   <tile gid="30"/>
   <tile gid="30"/>
   <tile gid="30"/>
   <tile gid="30"/>
   <tile gid="30"/>
   <tile gid="30"/>
   <tile gid="30"/>
   <tile gid="30"/>
   <tile gid="30"/>
   <tile gid="30"/>
   <tile gid="30"/>
   <tile gid="30"/>
   <tile gid="30"/>
   <tile gid="30"/>
   <tile gid="30"/>
   <tile gid="30"/>
   <tile gid="30"/>
   <tile gid="30"/>
   <tile gid="30"/>
   <tile gid="30"/>
   <tile gid="30"/>
   <tile gid="30"/>
   <tile gid="30"/>
   <tile gid="30"/>
   <tile gid="34"/>
   <tile gid="34"/>
   <tile gid="34"/>
   <tile gid="34"/>
   <tile gid="34"/>
   <tile gid="34"/>
   <tile gid="30"/>
   <tile gid="30"/>
   <tile gid="30"/>
   <tile gid="30"/>
   <tile gid="30"/>
   <tile gid="30"/>
   <tile gid="30"/>
   <tile gid="30"/>
   <tile gid="30"/>
   <tile gid="30"/>
   <tile gid="30"/>
   <tile gid="30"/>
   <tile gid="30"/>
   <tile gid="30"/>
   <tile gid="34"/>
   <tile gid="34"/>
   <tile gid="34"/>
   <tile gid="30"/>
   <tile gid="30"/>
   <tile gid="30"/>
   <tile gid="30"/>
   <tile gid="30"/>
   <tile gid="30"/>
   <tile gid="30"/>
   <tile gid="30"/>
   <tile gid="30"/>
   <tile gid="34"/>
   <tile gid="34"/>
   <tile gid="34"/>
   <tile gid="30"/>
   <tile gid="30"/>
   <tile gid="30"/>
   <tile gid="30"/>
   <tile gid="30"/>
   <tile gid="30"/>
   <tile gid="30"/>
   <tile gid="30"/>
   <tile gid="30"/>
   <tile gid="30"/>
   <tile gid="34"/>
   <tile gid="34"/>
   <tile gid="34"/>
   <tile gid="30"/>
   <tile gid="30"/>
   <tile gid="30"/>
   <tile gid="30"/>
   <tile gid="30"/>
   <tile gid="30"/>
   <tile gid="30"/>
   <tile gid="30"/>
   <tile gid="30"/>
   <tile gid="30"/>
   <tile gid="30"/>
   <tile gid="30"/>
   <tile gid="30"/>
   <tile gid="30"/>
   <tile gid="30"/>
   <tile gid="34"/>
   <tile gid="34"/>
   <tile gid="34"/>
   <tile gid="30"/>
   <tile gid="30"/>
   <tile gid="30"/>
   <tile gid="30"/>
   <tile gid="30"/>
   <tile gid="30"/>
   <tile gid="30"/>
   <tile gid="30"/>
   <tile gid="30"/>
   <tile gid="30"/>
   <tile gid="30"/>
   <tile gid="30"/>
   <tile gid="30"/>
   <tile gid="30"/>
   <tile gid="30"/>
   <tile gid="30"/>
   <tile gid="30"/>
   <tile gid="30"/>
   <tile gid="30"/>
   <tile gid="30"/>
   <tile gid="30"/>
   <tile gid="30"/>
   <tile gid="30"/>
   <tile gid="30"/>
   <tile gid="30"/>
   <tile gid="30"/>
   <tile gid="30"/>
   <tile gid="30"/>
   <tile gid="30"/>
   <tile gid="30"/>
   <tile gid="30"/>
   <tile gid="30"/>
   <tile gid="30"/>
   <tile gid="30"/>
   <tile gid="30"/>
   <tile gid="34"/>
   <tile gid="34"/>
   <tile gid="34"/>
   <tile gid="30"/>
   <tile gid="30"/>
   <tile gid="30"/>
   <tile gid="30"/>
   <tile gid="30"/>
   <tile gid="30"/>
   <tile gid="30"/>
   <tile gid="30"/>
   <tile gid="30"/>
   <tile gid="30"/>
   <tile gid="30"/>
   <tile gid="30"/>
   <tile gid="30"/>
   <tile gid="30"/>
   <tile gid="30"/>
   <tile gid="30"/>
   <tile gid="30"/>
   <tile gid="30"/>
   <tile gid="30"/>
   <tile gid="30"/>
   <tile gid="30"/>
   <tile gid="30"/>
   <tile gid="30"/>
   <tile gid="30"/>
   <tile gid="30"/>
   <tile gid="30"/>
   <tile gid="30"/>
   <tile gid="30"/>
   <tile gid="34"/>
   <tile gid="34"/>
   <tile gid="34"/>
   <tile gid="34"/>
   <tile gid="34"/>
   <tile gid="34"/>
   <tile gid="30"/>
   <tile gid="30"/>
   <tile gid="30"/>
   <tile gid="30"/>
   <tile gid="30"/>
   <tile gid="30"/>
   <tile gid="30"/>
   <tile gid="30"/>
   <tile gid="30"/>
   <tile gid="30"/>
   <tile gid="30"/>
   <tile gid="30"/>
   <tile gid="30"/>
   <tile gid="30"/>
   <tile gid="34"/>
   <tile gid="34"/>
   <tile gid="34"/>
   <tile gid="30"/>
   <tile gid="30"/>
   <tile gid="30"/>
   <tile gid="30"/>
   <tile gid="30"/>
   <tile gid="30"/>
   <tile gid="30"/>
   <tile gid="30"/>
   <tile gid="30"/>
   <tile gid="34"/>
   <tile gid="34"/>
   <tile gid="34"/>
   <tile gid="30"/>
   <tile gid="30"/>
   <tile gid="30"/>
   <tile gid="30"/>
   <tile gid="30"/>
   <tile gid="30"/>
   <tile gid="30"/>
   <tile gid="30"/>
   <tile gid="30"/>
   <tile gid="30"/>
   <tile gid="34"/>
   <tile gid="34"/>
   <tile gid="34"/>
   <tile gid="30"/>
   <tile gid="30"/>
   <tile gid="30"/>
   <tile gid="30"/>
   <tile gid="30"/>
   <tile gid="30"/>
   <tile gid="30"/>
   <tile gid="30"/>
   <tile gid="30"/>
   <tile gid="30"/>
   <tile gid="30"/>
   <tile gid="30"/>
   <tile gid="30"/>
   <tile gid="30"/>
   <tile gid="30"/>
   <tile gid="34"/>
   <tile gid="34"/>
   <tile gid="34"/>
   <tile gid="30"/>
   <tile gid="30"/>
   <tile gid="30"/>
   <tile gid="30"/>
   <tile gid="30"/>
   <tile gid="30"/>
   <tile gid="30"/>
   <tile gid="30"/>
   <tile gid="30"/>
   <tile gid="30"/>
   <tile gid="30"/>
   <tile gid="30"/>
   <tile gid="30"/>
   <tile gid="30"/>
   <tile gid="30"/>
   <tile gid="30"/>
   <tile gid="30"/>
   <tile gid="30"/>
   <tile gid="30"/>
   <tile gid="30"/>
   <tile gid="30"/>
   <tile gid="30"/>
   <tile gid="30"/>
   <tile gid="30"/>
   <tile gid="30"/>
   <tile gid="30"/>
   <tile gid="30"/>
   <tile gid="30"/>
   <tile gid="30"/>
   <tile gid="30"/>
   <tile gid="30"/>
   <tile gid="30"/>
   <tile gid="30"/>
   <tile gid="30"/>
   <tile gid="30"/>
   <tile gid="34"/>
   <tile gid="34"/>
   <tile gid="34"/>
   <tile gid="30"/>
   <tile gid="30"/>
   <tile gid="30"/>
   <tile gid="30"/>
   <tile gid="30"/>
   <tile gid="30"/>
   <tile gid="30"/>
   <tile gid="30"/>
   <tile gid="30"/>
   <tile gid="30"/>
   <tile gid="30"/>
   <tile gid="30"/>
   <tile gid="30"/>
   <tile gid="30"/>
   <tile gid="30"/>
   <tile gid="30"/>
   <tile gid="30"/>
   <tile gid="30"/>
   <tile gid="30"/>
   <tile gid="30"/>
   <tile gid="30"/>
   <tile gid="30"/>
   <tile gid="30"/>
   <tile gid="30"/>
   <tile gid="30"/>
   <tile gid="30"/>
   <tile gid="30"/>
   <tile gid="30"/>
   <tile gid="34"/>
   <tile gid="34"/>
   <tile gid="34"/>
   <tile gid="34"/>
   <tile gid="34"/>
   <tile gid="34"/>
   <tile gid="34"/>
   <tile gid="34"/>
   <tile gid="34"/>
   <tile gid="34"/>
   <tile gid="34"/>
   <tile gid="34"/>
   <tile gid="34"/>
   <tile gid="34"/>
   <tile gid="34"/>
   <tile gid="34"/>
   <tile gid="34"/>
   <tile gid="30"/>
   <tile gid="30"/>
   <tile gid="30"/>
   <tile gid="34"/>
   <tile gid="34"/>
   <tile gid="34"/>
   <tile gid="34"/>
   <tile gid="34"/>
   <tile gid="34"/>
   <tile gid="34"/>
   <tile gid="34"/>
   <tile gid="34"/>
   <tile gid="34"/>
   <tile gid="34"/>
   <tile gid="34"/>
   <tile gid="34"/>
   <tile gid="34"/>
   <tile gid="34"/>
   <tile gid="34"/>
   <tile gid="34"/>
   <tile gid="34"/>
   <tile gid="30"/>
   <tile gid="30"/>
   <tile gid="30"/>
   <tile gid="30"/>
   <tile gid="34"/>
   <tile gid="34"/>
   <tile gid="34"/>
   <tile gid="34"/>
   <tile gid="34"/>
   <tile gid="34"/>
   <tile gid="34"/>
   <tile gid="34"/>
   <tile gid="34"/>
   <tile gid="34"/>
   <tile gid="34"/>
   <tile gid="34"/>
   <tile gid="34"/>
   <tile gid="34"/>
   <tile gid="34"/>
   <tile gid="34"/>
   <tile gid="34"/>
   <tile gid="34"/>
   <tile gid="34"/>
   <tile gid="34"/>
   <tile gid="34"/>
   <tile gid="34"/>
   <tile gid="34"/>
   <tile gid="34"/>
   <tile gid="34"/>
   <tile gid="34"/>
   <tile gid="34"/>
   <tile gid="30"/>
   <tile gid="30"/>
   <tile gid="30"/>
   <tile gid="34"/>
   <tile gid="34"/>
   <tile gid="34"/>
   <tile gid="34"/>
   <tile gid="34"/>
   <tile gid="34"/>
   <tile gid="34"/>
   <tile gid="34"/>
   <tile gid="34"/>
   <tile gid="34"/>
   <tile gid="34"/>
   <tile gid="34"/>
   <tile gid="34"/>
   <tile gid="34"/>
   <tile gid="30"/>
   <tile gid="30"/>
   <tile gid="30"/>
   <tile gid="30"/>
   <tile gid="30"/>
   <tile gid="30"/>
   <tile gid="30"/>
   <tile gid="30"/>
   <tile gid="30"/>
   <tile gid="30"/>
   <tile gid="30"/>
   <tile gid="30"/>
   <tile gid="30"/>
   <tile gid="30"/>
   <tile gid="30"/>
   <tile gid="34"/>
   <tile gid="34"/>
   <tile gid="34"/>
   <tile gid="30"/>
   <tile gid="30"/>
   <tile gid="30"/>
   <tile gid="30"/>
   <tile gid="30"/>
   <tile gid="30"/>
   <tile gid="30"/>
   <tile gid="30"/>
   <tile gid="30"/>
   <tile gid="30"/>
   <tile gid="30"/>
   <tile gid="30"/>
   <tile gid="30"/>
   <tile gid="30"/>
   <tile gid="30"/>
   <tile gid="30"/>
   <tile gid="30"/>
   <tile gid="30"/>
   <tile gid="30"/>
   <tile gid="30"/>
   <tile gid="30"/>
   <tile gid="30"/>
   <tile gid="30"/>
   <tile gid="30"/>
   <tile gid="30"/>
   <tile gid="30"/>
   <tile gid="30"/>
   <tile gid="30"/>
   <tile gid="34"/>
   <tile gid="34"/>
   <tile gid="34"/>
   <tile gid="34"/>
   <tile gid="34"/>
   <tile gid="34"/>
   <tile gid="34"/>
   <tile gid="34"/>
   <tile gid="34"/>
   <tile gid="34"/>
   <tile gid="34"/>
   <tile gid="34"/>
   <tile gid="34"/>
   <tile gid="34"/>
   <tile gid="34"/>
   <tile gid="34"/>
   <tile gid="34"/>
   <tile gid="30"/>
   <tile gid="30"/>
   <tile gid="30"/>
   <tile gid="34"/>
   <tile gid="34"/>
   <tile gid="34"/>
   <tile gid="34"/>
   <tile gid="34"/>
   <tile gid="34"/>
   <tile gid="34"/>
   <tile gid="34"/>
   <tile gid="34"/>
   <tile gid="34"/>
   <tile gid="34"/>
   <tile gid="34"/>
   <tile gid="34"/>
   <tile gid="34"/>
   <tile gid="34"/>
   <tile gid="34"/>
   <tile gid="34"/>
   <tile gid="34"/>
   <tile gid="30"/>
   <tile gid="30"/>
   <tile gid="30"/>
   <tile gid="30"/>
   <tile gid="34"/>
   <tile gid="34"/>
   <tile gid="34"/>
   <tile gid="34"/>
   <tile gid="34"/>
   <tile gid="34"/>
   <tile gid="34"/>
   <tile gid="34"/>
   <tile gid="34"/>
   <tile gid="34"/>
   <tile gid="34"/>
   <tile gid="34"/>
   <tile gid="34"/>
   <tile gid="34"/>
   <tile gid="34"/>
   <tile gid="34"/>
   <tile gid="34"/>
   <tile gid="34"/>
   <tile gid="34"/>
   <tile gid="34"/>
   <tile gid="34"/>
   <tile gid="34"/>
   <tile gid="34"/>
   <tile gid="34"/>
   <tile gid="34"/>
   <tile gid="34"/>
   <tile gid="34"/>
   <tile gid="30"/>
   <tile gid="30"/>
   <tile gid="30"/>
   <tile gid="34"/>
   <tile gid="34"/>
   <tile gid="34"/>
   <tile gid="34"/>
   <tile gid="34"/>
   <tile gid="34"/>
   <tile gid="34"/>
   <tile gid="34"/>
   <tile gid="34"/>
   <tile gid="34"/>
   <tile gid="34"/>
   <tile gid="34"/>
   <tile gid="34"/>
   <tile gid="34"/>
   <tile gid="30"/>
   <tile gid="30"/>
   <tile gid="30"/>
   <tile gid="30"/>
   <tile gid="30"/>
   <tile gid="30"/>
   <tile gid="30"/>
   <tile gid="30"/>
   <tile gid="30"/>
   <tile gid="30"/>
   <tile gid="30"/>
   <tile gid="30"/>
   <tile gid="30"/>
   <tile gid="30"/>
   <tile gid="30"/>
   <tile gid="34"/>
   <tile gid="34"/>
   <tile gid="34"/>
   <tile gid="30"/>
   <tile gid="30"/>
   <tile gid="30"/>
   <tile gid="30"/>
   <tile gid="30"/>
   <tile gid="30"/>
   <tile gid="30"/>
   <tile gid="30"/>
   <tile gid="30"/>
   <tile gid="30"/>
   <tile gid="30"/>
   <tile gid="30"/>
   <tile gid="30"/>
   <tile gid="30"/>
   <tile gid="30"/>
   <tile gid="30"/>
   <tile gid="30"/>
   <tile gid="30"/>
   <tile gid="30"/>
   <tile gid="30"/>
   <tile gid="30"/>
   <tile gid="30"/>
   <tile gid="30"/>
   <tile gid="30"/>
   <tile gid="30"/>
   <tile gid="30"/>
   <tile gid="30"/>
   <tile gid="30"/>
   <tile gid="34"/>
   <tile gid="34"/>
   <tile gid="34"/>
   <tile gid="34"/>
   <tile gid="34"/>
   <tile gid="34"/>
   <tile gid="34"/>
   <tile gid="34"/>
   <tile gid="34"/>
   <tile gid="34"/>
   <tile gid="34"/>
   <tile gid="34"/>
   <tile gid="34"/>
   <tile gid="34"/>
   <tile gid="34"/>
   <tile gid="34"/>
   <tile gid="34"/>
   <tile gid="30"/>
   <tile gid="30"/>
   <tile gid="30"/>
   <tile gid="34"/>
   <tile gid="34"/>
   <tile gid="34"/>
   <tile gid="34"/>
   <tile gid="34"/>
   <tile gid="34"/>
   <tile gid="34"/>
   <tile gid="34"/>
   <tile gid="34"/>
   <tile gid="34"/>
   <tile gid="34"/>
   <tile gid="34"/>
   <tile gid="34"/>
   <tile gid="34"/>
   <tile gid="34"/>
   <tile gid="34"/>
   <tile gid="34"/>
   <tile gid="34"/>
   <tile gid="30"/>
   <tile gid="30"/>
   <tile gid="30"/>
   <tile gid="30"/>
   <tile gid="34"/>
   <tile gid="34"/>
   <tile gid="34"/>
   <tile gid="34"/>
   <tile gid="34"/>
   <tile gid="34"/>
   <tile gid="34"/>
   <tile gid="34"/>
   <tile gid="34"/>
   <tile gid="34"/>
   <tile gid="34"/>
   <tile gid="34"/>
   <tile gid="34"/>
   <tile gid="34"/>
   <tile gid="34"/>
   <tile gid="34"/>
   <tile gid="34"/>
   <tile gid="34"/>
   <tile gid="34"/>
   <tile gid="34"/>
   <tile gid="34"/>
   <tile gid="34"/>
   <tile gid="34"/>
   <tile gid="34"/>
   <tile gid="34"/>
   <tile gid="34"/>
   <tile gid="34"/>
   <tile gid="30"/>
   <tile gid="30"/>
   <tile gid="30"/>
   <tile gid="34"/>
   <tile gid="34"/>
   <tile gid="34"/>
   <tile gid="34"/>
   <tile gid="34"/>
   <tile gid="34"/>
   <tile gid="34"/>
   <tile gid="34"/>
   <tile gid="34"/>
   <tile gid="34"/>
   <tile gid="34"/>
   <tile gid="34"/>
   <tile gid="34"/>
   <tile gid="34"/>
   <tile gid="30"/>
   <tile gid="30"/>
   <tile gid="30"/>
   <tile gid="30"/>
   <tile gid="30"/>
   <tile gid="30"/>
   <tile gid="30"/>
   <tile gid="30"/>
   <tile gid="30"/>
   <tile gid="30"/>
   <tile gid="30"/>
   <tile gid="30"/>
   <tile gid="30"/>
   <tile gid="30"/>
   <tile gid="30"/>
   <tile gid="34"/>
   <tile gid="34"/>
   <tile gid="34"/>
   <tile gid="30"/>
   <tile gid="30"/>
   <tile gid="30"/>
   <tile gid="30"/>
   <tile gid="30"/>
   <tile gid="30"/>
   <tile gid="30"/>
   <tile gid="30"/>
   <tile gid="30"/>
   <tile gid="30"/>
   <tile gid="30"/>
   <tile gid="30"/>
   <tile gid="30"/>
   <tile gid="30"/>
   <tile gid="30"/>
   <tile gid="30"/>
   <tile gid="30"/>
   <tile gid="30"/>
   <tile gid="30"/>
   <tile gid="30"/>
   <tile gid="30"/>
   <tile gid="30"/>
   <tile gid="30"/>
   <tile gid="30"/>
   <tile gid="30"/>
   <tile gid="30"/>
   <tile gid="30"/>
   <tile gid="30"/>
   <tile gid="34"/>
   <tile gid="34"/>
   <tile gid="34"/>
   <tile gid="34"/>
   <tile gid="34"/>
   <tile gid="34"/>
   <tile gid="30"/>
   <tile gid="30"/>
   <tile gid="30"/>
   <tile gid="30"/>
   <tile gid="30"/>
   <tile gid="30"/>
   <tile gid="30"/>
   <tile gid="30"/>
   <tile gid="34"/>
   <tile gid="34"/>
   <tile gid="34"/>
   <tile gid="30"/>
   <tile gid="30"/>
   <tile gid="30"/>
   <tile gid="30"/>
   <tile gid="30"/>
   <tile gid="30"/>
   <tile gid="30"/>
   <tile gid="30"/>
   <tile gid="30"/>
   <tile gid="30"/>
   <tile gid="30"/>
   <tile gid="30"/>
   <tile gid="30"/>
   <tile gid="30"/>
   <tile gid="30"/>
   <tile gid="30"/>
   <tile gid="30"/>
   <tile gid="30"/>
   <tile gid="30"/>
   <tile gid="30"/>
   <tile gid="30"/>
   <tile gid="30"/>
   <tile gid="30"/>
   <tile gid="30"/>
   <tile gid="30"/>
   <tile gid="30"/>
   <tile gid="30"/>
   <tile gid="30"/>
   <tile gid="34"/>
   <tile gid="34"/>
   <tile gid="34"/>
   <tile gid="30"/>
   <tile gid="30"/>
   <tile gid="30"/>
   <tile gid="30"/>
   <tile gid="30"/>
   <tile gid="30"/>
   <tile gid="30"/>
   <tile gid="30"/>
   <tile gid="30"/>
   <tile gid="30"/>
   <tile gid="30"/>
   <tile gid="30"/>
   <tile gid="30"/>
   <tile gid="30"/>
   <tile gid="30"/>
   <tile gid="30"/>
   <tile gid="30"/>
   <tile gid="30"/>
   <tile gid="30"/>
   <tile gid="30"/>
   <tile gid="30"/>
   <tile gid="30"/>
   <tile gid="30"/>
   <tile gid="30"/>
   <tile gid="30"/>
   <tile gid="30"/>
   <tile gid="30"/>
   <tile gid="30"/>
   <tile gid="30"/>
   <tile gid="30"/>
   <tile gid="30"/>
   <tile gid="30"/>
   <tile gid="30"/>
   <tile gid="30"/>
   <tile gid="30"/>
   <tile gid="34"/>
   <tile gid="34"/>
   <tile gid="34"/>
   <tile gid="30"/>
   <tile gid="30"/>
   <tile gid="30"/>
   <tile gid="30"/>
   <tile gid="30"/>
   <tile gid="30"/>
   <tile gid="30"/>
   <tile gid="30"/>
   <tile gid="30"/>
   <tile gid="30"/>
   <tile gid="30"/>
   <tile gid="30"/>
   <tile gid="30"/>
   <tile gid="30"/>
   <tile gid="30"/>
   <tile gid="34"/>
   <tile gid="34"/>
   <tile gid="34"/>
   <tile gid="30"/>
   <tile gid="30"/>
   <tile gid="30"/>
   <tile gid="30"/>
   <tile gid="30"/>
   <tile gid="30"/>
   <tile gid="30"/>
   <tile gid="30"/>
   <tile gid="30"/>
   <tile gid="30"/>
   <tile gid="30"/>
   <tile gid="30"/>
   <tile gid="30"/>
   <tile gid="30"/>
   <tile gid="30"/>
   <tile gid="30"/>
   <tile gid="30"/>
   <tile gid="30"/>
   <tile gid="30"/>
   <tile gid="30"/>
   <tile gid="30"/>
   <tile gid="30"/>
   <tile gid="30"/>
   <tile gid="30"/>
   <tile gid="30"/>
   <tile gid="30"/>
   <tile gid="30"/>
   <tile gid="30"/>
   <tile gid="34"/>
   <tile gid="34"/>
   <tile gid="34"/>
   <tile gid="34"/>
   <tile gid="34"/>
   <tile gid="34"/>
   <tile gid="30"/>
   <tile gid="30"/>
   <tile gid="30"/>
   <tile gid="30"/>
   <tile gid="30"/>
   <tile gid="30"/>
   <tile gid="30"/>
   <tile gid="30"/>
   <tile gid="34"/>
   <tile gid="34"/>
   <tile gid="34"/>
   <tile gid="30"/>
   <tile gid="30"/>
   <tile gid="30"/>
   <tile gid="30"/>
   <tile gid="30"/>
   <tile gid="30"/>
   <tile gid="30"/>
   <tile gid="30"/>
   <tile gid="30"/>
   <tile gid="30"/>
   <tile gid="30"/>
   <tile gid="30"/>
   <tile gid="30"/>
   <tile gid="30"/>
   <tile gid="30"/>
   <tile gid="30"/>
   <tile gid="30"/>
   <tile gid="30"/>
   <tile gid="30"/>
   <tile gid="30"/>
   <tile gid="30"/>
   <tile gid="30"/>
   <tile gid="30"/>
   <tile gid="30"/>
   <tile gid="30"/>
   <tile gid="30"/>
   <tile gid="30"/>
   <tile gid="30"/>
   <tile gid="34"/>
   <tile gid="34"/>
   <tile gid="34"/>
   <tile gid="30"/>
   <tile gid="30"/>
   <tile gid="30"/>
   <tile gid="30"/>
   <tile gid="30"/>
   <tile gid="30"/>
   <tile gid="30"/>
   <tile gid="30"/>
   <tile gid="30"/>
   <tile gid="30"/>
   <tile gid="30"/>
   <tile gid="30"/>
   <tile gid="30"/>
   <tile gid="30"/>
   <tile gid="30"/>
   <tile gid="30"/>
   <tile gid="30"/>
   <tile gid="30"/>
   <tile gid="30"/>
   <tile gid="30"/>
   <tile gid="30"/>
   <tile gid="30"/>
   <tile gid="30"/>
   <tile gid="30"/>
   <tile gid="30"/>
   <tile gid="30"/>
   <tile gid="30"/>
   <tile gid="30"/>
   <tile gid="30"/>
   <tile gid="30"/>
   <tile gid="30"/>
   <tile gid="30"/>
   <tile gid="30"/>
   <tile gid="30"/>
   <tile gid="30"/>
   <tile gid="34"/>
   <tile gid="34"/>
   <tile gid="34"/>
   <tile gid="30"/>
   <tile gid="30"/>
   <tile gid="30"/>
   <tile gid="30"/>
   <tile gid="30"/>
   <tile gid="30"/>
   <tile gid="30"/>
   <tile gid="30"/>
   <tile gid="30"/>
   <tile gid="30"/>
   <tile gid="30"/>
   <tile gid="30"/>
   <tile gid="30"/>
   <tile gid="30"/>
   <tile gid="30"/>
   <tile gid="34"/>
   <tile gid="34"/>
   <tile gid="34"/>
   <tile gid="30"/>
   <tile gid="30"/>
   <tile gid="30"/>
   <tile gid="30"/>
   <tile gid="30"/>
   <tile gid="30"/>
   <tile gid="30"/>
   <tile gid="30"/>
   <tile gid="30"/>
   <tile gid="30"/>
   <tile gid="30"/>
   <tile gid="30"/>
   <tile gid="30"/>
   <tile gid="30"/>
   <tile gid="30"/>
   <tile gid="30"/>
   <tile gid="30"/>
   <tile gid="30"/>
   <tile gid="30"/>
   <tile gid="30"/>
   <tile gid="30"/>
   <tile gid="30"/>
   <tile gid="30"/>
   <tile gid="30"/>
   <tile gid="30"/>
   <tile gid="30"/>
   <tile gid="30"/>
   <tile gid="30"/>
   <tile gid="34"/>
   <tile gid="34"/>
   <tile gid="34"/>
   <tile gid="34"/>
   <tile gid="34"/>
   <tile gid="34"/>
   <tile gid="30"/>
   <tile gid="30"/>
   <tile gid="30"/>
   <tile gid="30"/>
   <tile gid="30"/>
   <tile gid="30"/>
   <tile gid="30"/>
   <tile gid="30"/>
   <tile gid="34"/>
   <tile gid="34"/>
   <tile gid="34"/>
   <tile gid="30"/>
   <tile gid="30"/>
   <tile gid="30"/>
   <tile gid="30"/>
   <tile gid="30"/>
   <tile gid="30"/>
   <tile gid="30"/>
   <tile gid="30"/>
   <tile gid="30"/>
   <tile gid="30"/>
   <tile gid="30"/>
   <tile gid="30"/>
   <tile gid="30"/>
   <tile gid="30"/>
   <tile gid="30"/>
   <tile gid="30"/>
   <tile gid="30"/>
   <tile gid="30"/>
   <tile gid="30"/>
   <tile gid="30"/>
   <tile gid="30"/>
   <tile gid="30"/>
   <tile gid="30"/>
   <tile gid="30"/>
   <tile gid="30"/>
   <tile gid="30"/>
   <tile gid="30"/>
   <tile gid="30"/>
   <tile gid="34"/>
   <tile gid="34"/>
   <tile gid="34"/>
   <tile gid="30"/>
   <tile gid="30"/>
   <tile gid="30"/>
   <tile gid="30"/>
   <tile gid="30"/>
   <tile gid="30"/>
   <tile gid="30"/>
   <tile gid="30"/>
   <tile gid="30"/>
   <tile gid="30"/>
   <tile gid="30"/>
   <tile gid="30"/>
   <tile gid="30"/>
   <tile gid="30"/>
   <tile gid="30"/>
   <tile gid="30"/>
   <tile gid="30"/>
   <tile gid="30"/>
   <tile gid="30"/>
   <tile gid="30"/>
   <tile gid="30"/>
   <tile gid="30"/>
   <tile gid="30"/>
   <tile gid="30"/>
   <tile gid="30"/>
   <tile gid="30"/>
   <tile gid="30"/>
   <tile gid="30"/>
   <tile gid="30"/>
   <tile gid="30"/>
   <tile gid="30"/>
   <tile gid="30"/>
   <tile gid="30"/>
   <tile gid="30"/>
   <tile gid="30"/>
   <tile gid="34"/>
   <tile gid="34"/>
   <tile gid="34"/>
   <tile gid="30"/>
   <tile gid="30"/>
   <tile gid="30"/>
   <tile gid="30"/>
   <tile gid="30"/>
   <tile gid="30"/>
   <tile gid="30"/>
   <tile gid="30"/>
   <tile gid="30"/>
   <tile gid="30"/>
   <tile gid="30"/>
   <tile gid="30"/>
   <tile gid="30"/>
   <tile gid="30"/>
   <tile gid="30"/>
   <tile gid="34"/>
   <tile gid="34"/>
   <tile gid="34"/>
   <tile gid="30"/>
   <tile gid="30"/>
   <tile gid="30"/>
   <tile gid="30"/>
   <tile gid="30"/>
   <tile gid="30"/>
   <tile gid="30"/>
   <tile gid="30"/>
   <tile gid="30"/>
   <tile gid="30"/>
   <tile gid="30"/>
   <tile gid="30"/>
   <tile gid="30"/>
   <tile gid="30"/>
   <tile gid="30"/>
   <tile gid="30"/>
   <tile gid="30"/>
   <tile gid="30"/>
   <tile gid="30"/>
   <tile gid="30"/>
   <tile gid="30"/>
   <tile gid="30"/>
   <tile gid="30"/>
   <tile gid="30"/>
   <tile gid="30"/>
   <tile gid="30"/>
   <tile gid="30"/>
   <tile gid="30"/>
   <tile gid="34"/>
   <tile gid="34"/>
   <tile gid="34"/>
   <tile gid="34"/>
   <tile gid="34"/>
   <tile gid="34"/>
   <tile gid="30"/>
   <tile gid="30"/>
   <tile gid="30"/>
   <tile gid="30"/>
   <tile gid="30"/>
   <tile gid="30"/>
   <tile gid="30"/>
   <tile gid="30"/>
   <tile gid="34"/>
   <tile gid="34"/>
   <tile gid="34"/>
   <tile gid="30"/>
   <tile gid="30"/>
   <tile gid="30"/>
   <tile gid="30"/>
   <tile gid="30"/>
   <tile gid="30"/>
   <tile gid="30"/>
   <tile gid="30"/>
   <tile gid="30"/>
   <tile gid="30"/>
   <tile gid="30"/>
   <tile gid="30"/>
   <tile gid="30"/>
   <tile gid="30"/>
   <tile gid="30"/>
   <tile gid="30"/>
   <tile gid="30"/>
   <tile gid="30"/>
   <tile gid="30"/>
   <tile gid="30"/>
   <tile gid="30"/>
   <tile gid="30"/>
   <tile gid="30"/>
   <tile gid="30"/>
   <tile gid="30"/>
   <tile gid="30"/>
   <tile gid="30"/>
   <tile gid="30"/>
   <tile gid="34"/>
   <tile gid="34"/>
   <tile gid="34"/>
   <tile gid="30"/>
   <tile gid="30"/>
   <tile gid="30"/>
   <tile gid="30"/>
   <tile gid="30"/>
   <tile gid="30"/>
   <tile gid="30"/>
   <tile gid="30"/>
   <tile gid="30"/>
   <tile gid="30"/>
   <tile gid="30"/>
   <tile gid="30"/>
   <tile gid="30"/>
   <tile gid="30"/>
   <tile gid="30"/>
   <tile gid="30"/>
   <tile gid="30"/>
   <tile gid="30"/>
   <tile gid="30"/>
   <tile gid="30"/>
   <tile gid="30"/>
   <tile gid="30"/>
   <tile gid="30"/>
   <tile gid="30"/>
   <tile gid="30"/>
   <tile gid="30"/>
   <tile gid="30"/>
   <tile gid="30"/>
   <tile gid="30"/>
   <tile gid="30"/>
   <tile gid="30"/>
   <tile gid="30"/>
   <tile gid="30"/>
   <tile gid="30"/>
   <tile gid="30"/>
   <tile gid="34"/>
   <tile gid="34"/>
   <tile gid="34"/>
   <tile gid="30"/>
   <tile gid="30"/>
   <tile gid="30"/>
   <tile gid="30"/>
   <tile gid="30"/>
   <tile gid="30"/>
   <tile gid="30"/>
   <tile gid="30"/>
   <tile gid="30"/>
   <tile gid="30"/>
   <tile gid="30"/>
   <tile gid="30"/>
   <tile gid="30"/>
   <tile gid="30"/>
   <tile gid="30"/>
   <tile gid="34"/>
   <tile gid="34"/>
   <tile gid="34"/>
   <tile gid="30"/>
   <tile gid="30"/>
   <tile gid="30"/>
   <tile gid="30"/>
   <tile gid="30"/>
   <tile gid="30"/>
   <tile gid="30"/>
   <tile gid="30"/>
   <tile gid="30"/>
   <tile gid="30"/>
   <tile gid="30"/>
   <tile gid="30"/>
   <tile gid="30"/>
   <tile gid="30"/>
   <tile gid="30"/>
   <tile gid="30"/>
   <tile gid="30"/>
   <tile gid="30"/>
   <tile gid="30"/>
   <tile gid="30"/>
   <tile gid="30"/>
   <tile gid="30"/>
   <tile gid="30"/>
   <tile gid="30"/>
   <tile gid="30"/>
   <tile gid="30"/>
   <tile gid="30"/>
   <tile gid="30"/>
   <tile gid="34"/>
   <tile gid="34"/>
   <tile gid="34"/>
   <tile gid="34"/>
   <tile gid="34"/>
   <tile gid="34"/>
   <tile gid="30"/>
   <tile gid="30"/>
   <tile gid="30"/>
   <tile gid="30"/>
   <tile gid="30"/>
   <tile gid="30"/>
   <tile gid="30"/>
   <tile gid="30"/>
   <tile gid="34"/>
   <tile gid="34"/>
   <tile gid="34"/>
   <tile gid="30"/>
   <tile gid="30"/>
   <tile gid="30"/>
   <tile gid="30"/>
   <tile gid="30"/>
   <tile gid="30"/>
   <tile gid="30"/>
   <tile gid="30"/>
   <tile gid="30"/>
   <tile gid="30"/>
   <tile gid="30"/>
   <tile gid="30"/>
   <tile gid="30"/>
   <tile gid="30"/>
   <tile gid="30"/>
   <tile gid="30"/>
   <tile gid="30"/>
   <tile gid="30"/>
   <tile gid="30"/>
   <tile gid="30"/>
   <tile gid="30"/>
   <tile gid="30"/>
   <tile gid="30"/>
   <tile gid="30"/>
   <tile gid="30"/>
   <tile gid="30"/>
   <tile gid="30"/>
   <tile gid="30"/>
   <tile gid="34"/>
   <tile gid="34"/>
   <tile gid="34"/>
   <tile gid="30"/>
   <tile gid="30"/>
   <tile gid="30"/>
   <tile gid="30"/>
   <tile gid="30"/>
   <tile gid="30"/>
   <tile gid="30"/>
   <tile gid="30"/>
   <tile gid="30"/>
   <tile gid="30"/>
   <tile gid="30"/>
   <tile gid="30"/>
   <tile gid="30"/>
   <tile gid="30"/>
   <tile gid="30"/>
   <tile gid="30"/>
   <tile gid="30"/>
   <tile gid="30"/>
   <tile gid="30"/>
   <tile gid="30"/>
   <tile gid="30"/>
   <tile gid="30"/>
   <tile gid="30"/>
   <tile gid="30"/>
   <tile gid="30"/>
   <tile gid="30"/>
   <tile gid="30"/>
   <tile gid="30"/>
   <tile gid="30"/>
   <tile gid="30"/>
   <tile gid="30"/>
   <tile gid="30"/>
   <tile gid="30"/>
   <tile gid="30"/>
   <tile gid="30"/>
   <tile gid="34"/>
   <tile gid="34"/>
   <tile gid="34"/>
   <tile gid="34"/>
   <tile gid="34"/>
   <tile gid="34"/>
   <tile gid="34"/>
   <tile gid="34"/>
   <tile gid="34"/>
   <tile gid="34"/>
   <tile gid="34"/>
   <tile gid="34"/>
   <tile gid="34"/>
   <tile gid="34"/>
   <tile gid="34"/>
   <tile gid="34"/>
   <tile gid="34"/>
   <tile gid="34"/>
   <tile gid="34"/>
   <tile gid="34"/>
   <tile gid="34"/>
   <tile gid="34"/>
   <tile gid="34"/>
   <tile gid="34"/>
   <tile gid="34"/>
   <tile gid="34"/>
   <tile gid="34"/>
   <tile gid="34"/>
   <tile gid="34"/>
   <tile gid="34"/>
   <tile gid="34"/>
   <tile gid="34"/>
   <tile gid="34"/>
   <tile gid="34"/>
   <tile gid="34"/>
   <tile gid="34"/>
   <tile gid="34"/>
   <tile gid="34"/>
   <tile gid="34"/>
   <tile gid="34"/>
   <tile gid="34"/>
   <tile gid="34"/>
   <tile gid="34"/>
   <tile gid="34"/>
   <tile gid="34"/>
   <tile gid="34"/>
   <tile gid="34"/>
   <tile gid="34"/>
   <tile gid="34"/>
   <tile gid="34"/>
   <tile gid="34"/>
   <tile gid="34"/>
   <tile gid="34"/>
   <tile gid="34"/>
   <tile gid="34"/>
   <tile gid="30"/>
   <tile gid="30"/>
   <tile gid="30"/>
   <tile gid="30"/>
   <tile gid="30"/>
   <tile gid="30"/>
   <tile gid="30"/>
   <tile gid="30"/>
   <tile gid="34"/>
   <tile gid="34"/>
   <tile gid="34"/>
   <tile gid="30"/>
   <tile gid="30"/>
   <tile gid="30"/>
   <tile gid="30"/>
   <tile gid="30"/>
   <tile gid="30"/>
   <tile gid="30"/>
   <tile gid="30"/>
   <tile gid="30"/>
   <tile gid="30"/>
   <tile gid="30"/>
   <tile gid="30"/>
   <tile gid="30"/>
   <tile gid="30"/>
   <tile gid="30"/>
   <tile gid="30"/>
   <tile gid="30"/>
   <tile gid="30"/>
   <tile gid="30"/>
   <tile gid="30"/>
   <tile gid="30"/>
   <tile gid="30"/>
   <tile gid="30"/>
   <tile gid="30"/>
   <tile gid="30"/>
   <tile gid="30"/>
   <tile gid="30"/>
   <tile gid="30"/>
   <tile gid="34"/>
   <tile gid="34"/>
   <tile gid="34"/>
   <tile gid="30"/>
   <tile gid="30"/>
   <tile gid="30"/>
   <tile gid="30"/>
   <tile gid="30"/>
   <tile gid="30"/>
   <tile gid="30"/>
   <tile gid="30"/>
   <tile gid="30"/>
   <tile gid="30"/>
   <tile gid="30"/>
   <tile gid="30"/>
   <tile gid="30"/>
   <tile gid="30"/>
   <tile gid="30"/>
   <tile gid="30"/>
   <tile gid="30"/>
   <tile gid="30"/>
   <tile gid="30"/>
   <tile gid="30"/>
   <tile gid="30"/>
   <tile gid="30"/>
   <tile gid="30"/>
   <tile gid="30"/>
   <tile gid="30"/>
   <tile gid="30"/>
   <tile gid="30"/>
   <tile gid="30"/>
   <tile gid="30"/>
   <tile gid="30"/>
   <tile gid="30"/>
   <tile gid="30"/>
   <tile gid="30"/>
   <tile gid="30"/>
   <tile gid="30"/>
   <tile gid="34"/>
   <tile gid="34"/>
   <tile gid="34"/>
   <tile gid="34"/>
   <tile gid="34"/>
   <tile gid="34"/>
   <tile gid="34"/>
   <tile gid="34"/>
   <tile gid="34"/>
   <tile gid="34"/>
   <tile gid="34"/>
   <tile gid="34"/>
   <tile gid="34"/>
   <tile gid="34"/>
   <tile gid="34"/>
   <tile gid="34"/>
   <tile gid="34"/>
   <tile gid="34"/>
   <tile gid="34"/>
   <tile gid="34"/>
   <tile gid="34"/>
   <tile gid="34"/>
   <tile gid="34"/>
   <tile gid="34"/>
   <tile gid="34"/>
   <tile gid="34"/>
   <tile gid="34"/>
   <tile gid="34"/>
   <tile gid="34"/>
   <tile gid="34"/>
   <tile gid="34"/>
   <tile gid="34"/>
   <tile gid="34"/>
   <tile gid="34"/>
   <tile gid="34"/>
   <tile gid="34"/>
   <tile gid="34"/>
   <tile gid="34"/>
   <tile gid="34"/>
   <tile gid="34"/>
   <tile gid="34"/>
   <tile gid="34"/>
   <tile gid="34"/>
   <tile gid="34"/>
   <tile gid="34"/>
   <tile gid="34"/>
   <tile gid="34"/>
   <tile gid="34"/>
   <tile gid="34"/>
   <tile gid="34"/>
   <tile gid="34"/>
   <tile gid="34"/>
   <tile gid="34"/>
   <tile gid="34"/>
   <tile gid="34"/>
   <tile gid="30"/>
   <tile gid="30"/>
   <tile gid="30"/>
   <tile gid="30"/>
   <tile gid="30"/>
   <tile gid="30"/>
   <tile gid="30"/>
   <tile gid="30"/>
   <tile gid="34"/>
   <tile gid="34"/>
   <tile gid="34"/>
   <tile gid="30"/>
   <tile gid="30"/>
   <tile gid="30"/>
   <tile gid="30"/>
   <tile gid="30"/>
   <tile gid="30"/>
   <tile gid="30"/>
   <tile gid="30"/>
   <tile gid="30"/>
   <tile gid="30"/>
   <tile gid="30"/>
   <tile gid="30"/>
   <tile gid="30"/>
   <tile gid="30"/>
   <tile gid="30"/>
   <tile gid="30"/>
   <tile gid="30"/>
   <tile gid="30"/>
   <tile gid="30"/>
   <tile gid="30"/>
   <tile gid="30"/>
   <tile gid="30"/>
   <tile gid="30"/>
   <tile gid="30"/>
   <tile gid="30"/>
   <tile gid="30"/>
   <tile gid="30"/>
   <tile gid="30"/>
   <tile gid="34"/>
   <tile gid="34"/>
   <tile gid="34"/>
   <tile gid="30"/>
   <tile gid="30"/>
   <tile gid="30"/>
   <tile gid="30"/>
   <tile gid="30"/>
   <tile gid="30"/>
   <tile gid="30"/>
   <tile gid="30"/>
   <tile gid="30"/>
   <tile gid="30"/>
   <tile gid="30"/>
   <tile gid="30"/>
   <tile gid="30"/>
   <tile gid="30"/>
   <tile gid="30"/>
   <tile gid="30"/>
   <tile gid="30"/>
   <tile gid="30"/>
   <tile gid="30"/>
   <tile gid="30"/>
   <tile gid="30"/>
   <tile gid="30"/>
   <tile gid="30"/>
   <tile gid="30"/>
   <tile gid="30"/>
   <tile gid="30"/>
   <tile gid="30"/>
   <tile gid="30"/>
   <tile gid="30"/>
   <tile gid="30"/>
   <tile gid="30"/>
   <tile gid="30"/>
   <tile gid="30"/>
   <tile gid="30"/>
   <tile gid="30"/>
   <tile gid="34"/>
   <tile gid="34"/>
   <tile gid="34"/>
   <tile gid="34"/>
   <tile gid="34"/>
   <tile gid="34"/>
   <tile gid="34"/>
   <tile gid="34"/>
   <tile gid="34"/>
   <tile gid="34"/>
   <tile gid="34"/>
   <tile gid="34"/>
   <tile gid="34"/>
   <tile gid="34"/>
   <tile gid="34"/>
   <tile gid="34"/>
   <tile gid="34"/>
   <tile gid="34"/>
   <tile gid="34"/>
   <tile gid="34"/>
   <tile gid="34"/>
   <tile gid="34"/>
   <tile gid="34"/>
   <tile gid="34"/>
   <tile gid="34"/>
   <tile gid="34"/>
   <tile gid="34"/>
   <tile gid="34"/>
   <tile gid="34"/>
   <tile gid="34"/>
   <tile gid="34"/>
   <tile gid="34"/>
   <tile gid="34"/>
   <tile gid="34"/>
   <tile gid="34"/>
   <tile gid="34"/>
   <tile gid="34"/>
   <tile gid="34"/>
   <tile gid="34"/>
   <tile gid="34"/>
   <tile gid="34"/>
   <tile gid="34"/>
   <tile gid="34"/>
   <tile gid="34"/>
   <tile gid="34"/>
   <tile gid="34"/>
   <tile gid="34"/>
   <tile gid="34"/>
   <tile gid="34"/>
   <tile gid="34"/>
   <tile gid="34"/>
   <tile gid="34"/>
   <tile gid="34"/>
   <tile gid="34"/>
   <tile gid="34"/>
   <tile gid="30"/>
   <tile gid="30"/>
   <tile gid="30"/>
   <tile gid="30"/>
   <tile gid="30"/>
   <tile gid="30"/>
   <tile gid="30"/>
   <tile gid="30"/>
   <tile gid="34"/>
   <tile gid="34"/>
   <tile gid="34"/>
   <tile gid="30"/>
   <tile gid="30"/>
   <tile gid="30"/>
   <tile gid="30"/>
   <tile gid="30"/>
   <tile gid="30"/>
   <tile gid="30"/>
   <tile gid="30"/>
   <tile gid="30"/>
   <tile gid="30"/>
   <tile gid="30"/>
   <tile gid="30"/>
   <tile gid="30"/>
   <tile gid="30"/>
   <tile gid="30"/>
   <tile gid="30"/>
   <tile gid="30"/>
   <tile gid="30"/>
   <tile gid="30"/>
   <tile gid="30"/>
   <tile gid="30"/>
   <tile gid="30"/>
   <tile gid="30"/>
   <tile gid="30"/>
   <tile gid="30"/>
   <tile gid="30"/>
   <tile gid="30"/>
   <tile gid="30"/>
   <tile gid="34"/>
   <tile gid="34"/>
   <tile gid="34"/>
   <tile gid="30"/>
   <tile gid="30"/>
   <tile gid="30"/>
   <tile gid="30"/>
   <tile gid="30"/>
   <tile gid="30"/>
   <tile gid="30"/>
   <tile gid="30"/>
   <tile gid="30"/>
   <tile gid="30"/>
   <tile gid="30"/>
   <tile gid="30"/>
   <tile gid="30"/>
   <tile gid="30"/>
   <tile gid="30"/>
   <tile gid="30"/>
   <tile gid="30"/>
   <tile gid="30"/>
   <tile gid="30"/>
   <tile gid="30"/>
   <tile gid="30"/>
   <tile gid="30"/>
   <tile gid="30"/>
   <tile gid="30"/>
   <tile gid="30"/>
   <tile gid="30"/>
   <tile gid="30"/>
   <tile gid="30"/>
   <tile gid="30"/>
   <tile gid="30"/>
   <tile gid="30"/>
   <tile gid="30"/>
   <tile gid="30"/>
   <tile gid="30"/>
   <tile gid="30"/>
   <tile gid="34"/>
   <tile gid="34"/>
   <tile gid="34"/>
   <tile gid="30"/>
   <tile gid="30"/>
   <tile gid="30"/>
   <tile gid="30"/>
   <tile gid="30"/>
   <tile gid="30"/>
   <tile gid="30"/>
   <tile gid="30"/>
   <tile gid="30"/>
   <tile gid="30"/>
   <tile gid="30"/>
   <tile gid="30"/>
   <tile gid="30"/>
   <tile gid="30"/>
   <tile gid="30"/>
   <tile gid="30"/>
   <tile gid="30"/>
   <tile gid="30"/>
   <tile gid="30"/>
   <tile gid="30"/>
   <tile gid="30"/>
   <tile gid="30"/>
   <tile gid="30"/>
   <tile gid="30"/>
   <tile gid="30"/>
   <tile gid="30"/>
   <tile gid="30"/>
   <tile gid="30"/>
   <tile gid="30"/>
   <tile gid="30"/>
   <tile gid="30"/>
   <tile gid="30"/>
   <tile gid="30"/>
   <tile gid="30"/>
   <tile gid="30"/>
   <tile gid="30"/>
   <tile gid="30"/>
   <tile gid="30"/>
   <tile gid="30"/>
   <tile gid="30"/>
   <tile gid="30"/>
   <tile gid="30"/>
   <tile gid="30"/>
   <tile gid="30"/>
   <tile gid="30"/>
   <tile gid="30"/>
   <tile gid="34"/>
   <tile gid="34"/>
   <tile gid="34"/>
   <tile gid="34"/>
   <tile gid="34"/>
   <tile gid="34"/>
   <tile gid="30"/>
   <tile gid="30"/>
   <tile gid="30"/>
   <tile gid="30"/>
   <tile gid="30"/>
   <tile gid="30"/>
   <tile gid="30"/>
   <tile gid="30"/>
   <tile gid="34"/>
   <tile gid="34"/>
   <tile gid="34"/>
   <tile gid="30"/>
   <tile gid="30"/>
   <tile gid="30"/>
   <tile gid="30"/>
   <tile gid="30"/>
   <tile gid="30"/>
   <tile gid="30"/>
   <tile gid="30"/>
   <tile gid="30"/>
   <tile gid="30"/>
   <tile gid="30"/>
   <tile gid="30"/>
   <tile gid="30"/>
   <tile gid="30"/>
   <tile gid="30"/>
   <tile gid="30"/>
   <tile gid="30"/>
   <tile gid="30"/>
   <tile gid="30"/>
   <tile gid="30"/>
   <tile gid="30"/>
   <tile gid="30"/>
   <tile gid="30"/>
   <tile gid="30"/>
   <tile gid="30"/>
   <tile gid="30"/>
   <tile gid="30"/>
   <tile gid="30"/>
   <tile gid="34"/>
   <tile gid="34"/>
   <tile gid="34"/>
   <tile gid="30"/>
   <tile gid="30"/>
   <tile gid="30"/>
   <tile gid="30"/>
   <tile gid="30"/>
   <tile gid="30"/>
   <tile gid="30"/>
   <tile gid="30"/>
   <tile gid="30"/>
   <tile gid="30"/>
   <tile gid="30"/>
   <tile gid="30"/>
   <tile gid="30"/>
   <tile gid="30"/>
   <tile gid="30"/>
   <tile gid="30"/>
   <tile gid="30"/>
   <tile gid="30"/>
   <tile gid="30"/>
   <tile gid="30"/>
   <tile gid="30"/>
   <tile gid="30"/>
   <tile gid="30"/>
   <tile gid="30"/>
   <tile gid="30"/>
   <tile gid="30"/>
   <tile gid="30"/>
   <tile gid="30"/>
   <tile gid="30"/>
   <tile gid="30"/>
   <tile gid="30"/>
   <tile gid="30"/>
   <tile gid="30"/>
   <tile gid="30"/>
   <tile gid="30"/>
   <tile gid="34"/>
   <tile gid="34"/>
   <tile gid="34"/>
   <tile gid="30"/>
   <tile gid="30"/>
   <tile gid="30"/>
   <tile gid="30"/>
   <tile gid="30"/>
   <tile gid="30"/>
   <tile gid="30"/>
   <tile gid="30"/>
   <tile gid="30"/>
   <tile gid="30"/>
   <tile gid="30"/>
   <tile gid="30"/>
   <tile gid="30"/>
   <tile gid="30"/>
   <tile gid="30"/>
   <tile gid="30"/>
   <tile gid="30"/>
   <tile gid="30"/>
   <tile gid="30"/>
   <tile gid="30"/>
   <tile gid="30"/>
   <tile gid="30"/>
   <tile gid="30"/>
   <tile gid="30"/>
   <tile gid="30"/>
   <tile gid="30"/>
   <tile gid="30"/>
   <tile gid="30"/>
   <tile gid="30"/>
   <tile gid="30"/>
   <tile gid="30"/>
   <tile gid="30"/>
   <tile gid="30"/>
   <tile gid="30"/>
   <tile gid="30"/>
   <tile gid="30"/>
   <tile gid="30"/>
   <tile gid="30"/>
   <tile gid="30"/>
   <tile gid="30"/>
   <tile gid="30"/>
   <tile gid="30"/>
   <tile gid="30"/>
   <tile gid="30"/>
   <tile gid="30"/>
   <tile gid="30"/>
   <tile gid="34"/>
   <tile gid="34"/>
   <tile gid="34"/>
   <tile gid="34"/>
   <tile gid="34"/>
   <tile gid="34"/>
   <tile gid="30"/>
   <tile gid="30"/>
   <tile gid="30"/>
   <tile gid="30"/>
   <tile gid="30"/>
   <tile gid="30"/>
   <tile gid="30"/>
   <tile gid="30"/>
   <tile gid="34"/>
   <tile gid="34"/>
   <tile gid="34"/>
   <tile gid="30"/>
   <tile gid="30"/>
   <tile gid="30"/>
   <tile gid="30"/>
   <tile gid="30"/>
   <tile gid="30"/>
   <tile gid="30"/>
   <tile gid="30"/>
   <tile gid="30"/>
   <tile gid="30"/>
   <tile gid="30"/>
   <tile gid="30"/>
   <tile gid="30"/>
   <tile gid="30"/>
   <tile gid="30"/>
   <tile gid="30"/>
   <tile gid="30"/>
   <tile gid="30"/>
   <tile gid="30"/>
   <tile gid="30"/>
   <tile gid="30"/>
   <tile gid="30"/>
   <tile gid="30"/>
   <tile gid="30"/>
   <tile gid="30"/>
   <tile gid="30"/>
   <tile gid="30"/>
   <tile gid="30"/>
   <tile gid="34"/>
   <tile gid="34"/>
   <tile gid="34"/>
   <tile gid="30"/>
   <tile gid="30"/>
   <tile gid="30"/>
   <tile gid="30"/>
   <tile gid="30"/>
   <tile gid="30"/>
   <tile gid="30"/>
   <tile gid="30"/>
   <tile gid="30"/>
   <tile gid="30"/>
   <tile gid="30"/>
   <tile gid="30"/>
   <tile gid="30"/>
   <tile gid="30"/>
   <tile gid="30"/>
   <tile gid="30"/>
   <tile gid="30"/>
   <tile gid="30"/>
   <tile gid="30"/>
   <tile gid="30"/>
   <tile gid="30"/>
   <tile gid="30"/>
   <tile gid="30"/>
   <tile gid="30"/>
   <tile gid="30"/>
   <tile gid="30"/>
   <tile gid="30"/>
   <tile gid="30"/>
   <tile gid="30"/>
   <tile gid="30"/>
   <tile gid="30"/>
   <tile gid="30"/>
   <tile gid="30"/>
   <tile gid="30"/>
   <tile gid="30"/>
   <tile gid="34"/>
   <tile gid="34"/>
   <tile gid="34"/>
   <tile gid="30"/>
   <tile gid="30"/>
   <tile gid="30"/>
   <tile gid="30"/>
   <tile gid="30"/>
   <tile gid="30"/>
   <tile gid="30"/>
   <tile gid="30"/>
   <tile gid="30"/>
   <tile gid="30"/>
   <tile gid="30"/>
   <tile gid="30"/>
   <tile gid="30"/>
   <tile gid="30"/>
   <tile gid="30"/>
   <tile gid="30"/>
   <tile gid="30"/>
   <tile gid="30"/>
   <tile gid="30"/>
   <tile gid="30"/>
   <tile gid="30"/>
   <tile gid="30"/>
   <tile gid="30"/>
   <tile gid="30"/>
   <tile gid="30"/>
   <tile gid="30"/>
   <tile gid="30"/>
   <tile gid="30"/>
   <tile gid="30"/>
   <tile gid="30"/>
   <tile gid="30"/>
   <tile gid="30"/>
   <tile gid="30"/>
   <tile gid="30"/>
   <tile gid="30"/>
   <tile gid="30"/>
   <tile gid="30"/>
   <tile gid="30"/>
   <tile gid="30"/>
   <tile gid="30"/>
   <tile gid="30"/>
   <tile gid="30"/>
   <tile gid="30"/>
   <tile gid="30"/>
   <tile gid="30"/>
   <tile gid="30"/>
   <tile gid="34"/>
   <tile gid="34"/>
   <tile gid="34"/>
   <tile gid="34"/>
   <tile gid="34"/>
   <tile gid="34"/>
   <tile gid="30"/>
   <tile gid="30"/>
   <tile gid="30"/>
   <tile gid="30"/>
   <tile gid="30"/>
   <tile gid="30"/>
   <tile gid="30"/>
   <tile gid="30"/>
   <tile gid="34"/>
   <tile gid="34"/>
   <tile gid="34"/>
   <tile gid="30"/>
   <tile gid="30"/>
   <tile gid="30"/>
   <tile gid="30"/>
   <tile gid="30"/>
   <tile gid="30"/>
   <tile gid="30"/>
   <tile gid="30"/>
   <tile gid="30"/>
   <tile gid="30"/>
   <tile gid="30"/>
   <tile gid="30"/>
   <tile gid="30"/>
   <tile gid="30"/>
   <tile gid="30"/>
   <tile gid="30"/>
   <tile gid="30"/>
   <tile gid="30"/>
   <tile gid="30"/>
   <tile gid="30"/>
   <tile gid="30"/>
   <tile gid="30"/>
   <tile gid="30"/>
   <tile gid="30"/>
   <tile gid="30"/>
   <tile gid="30"/>
   <tile gid="30"/>
   <tile gid="30"/>
   <tile gid="34"/>
   <tile gid="34"/>
   <tile gid="34"/>
   <tile gid="30"/>
   <tile gid="30"/>
   <tile gid="30"/>
   <tile gid="30"/>
   <tile gid="30"/>
   <tile gid="30"/>
   <tile gid="30"/>
   <tile gid="30"/>
   <tile gid="30"/>
   <tile gid="30"/>
   <tile gid="30"/>
   <tile gid="30"/>
   <tile gid="30"/>
   <tile gid="30"/>
   <tile gid="30"/>
   <tile gid="30"/>
   <tile gid="30"/>
   <tile gid="30"/>
   <tile gid="30"/>
   <tile gid="30"/>
   <tile gid="30"/>
   <tile gid="30"/>
   <tile gid="30"/>
   <tile gid="30"/>
   <tile gid="30"/>
   <tile gid="30"/>
   <tile gid="30"/>
   <tile gid="30"/>
   <tile gid="30"/>
   <tile gid="30"/>
   <tile gid="30"/>
   <tile gid="30"/>
   <tile gid="30"/>
   <tile gid="30"/>
   <tile gid="30"/>
   <tile gid="34"/>
   <tile gid="34"/>
   <tile gid="34"/>
   <tile gid="30"/>
   <tile gid="30"/>
   <tile gid="30"/>
   <tile gid="30"/>
   <tile gid="30"/>
   <tile gid="30"/>
   <tile gid="30"/>
   <tile gid="30"/>
   <tile gid="30"/>
   <tile gid="30"/>
   <tile gid="30"/>
   <tile gid="30"/>
   <tile gid="30"/>
   <tile gid="30"/>
   <tile gid="30"/>
   <tile gid="30"/>
   <tile gid="30"/>
   <tile gid="30"/>
   <tile gid="30"/>
   <tile gid="30"/>
   <tile gid="30"/>
   <tile gid="30"/>
   <tile gid="30"/>
   <tile gid="30"/>
   <tile gid="30"/>
   <tile gid="30"/>
   <tile gid="30"/>
   <tile gid="30"/>
   <tile gid="30"/>
   <tile gid="30"/>
   <tile gid="30"/>
   <tile gid="30"/>
   <tile gid="30"/>
   <tile gid="30"/>
   <tile gid="30"/>
   <tile gid="30"/>
   <tile gid="30"/>
   <tile gid="30"/>
   <tile gid="30"/>
   <tile gid="30"/>
   <tile gid="30"/>
   <tile gid="30"/>
   <tile gid="30"/>
   <tile gid="30"/>
   <tile gid="30"/>
   <tile gid="30"/>
   <tile gid="34"/>
   <tile gid="34"/>
   <tile gid="34"/>
   <tile gid="34"/>
   <tile gid="34"/>
   <tile gid="34"/>
   <tile gid="30"/>
   <tile gid="30"/>
   <tile gid="30"/>
   <tile gid="30"/>
   <tile gid="30"/>
   <tile gid="30"/>
   <tile gid="30"/>
   <tile gid="30"/>
   <tile gid="34"/>
   <tile gid="34"/>
   <tile gid="34"/>
   <tile gid="30"/>
   <tile gid="30"/>
   <tile gid="30"/>
   <tile gid="30"/>
   <tile gid="30"/>
   <tile gid="30"/>
   <tile gid="30"/>
   <tile gid="30"/>
   <tile gid="30"/>
   <tile gid="30"/>
   <tile gid="30"/>
   <tile gid="30"/>
   <tile gid="30"/>
   <tile gid="30"/>
   <tile gid="30"/>
   <tile gid="30"/>
   <tile gid="30"/>
   <tile gid="30"/>
   <tile gid="30"/>
   <tile gid="30"/>
   <tile gid="30"/>
   <tile gid="30"/>
   <tile gid="30"/>
   <tile gid="30"/>
   <tile gid="30"/>
   <tile gid="30"/>
   <tile gid="30"/>
   <tile gid="30"/>
   <tile gid="34"/>
   <tile gid="34"/>
   <tile gid="34"/>
   <tile gid="30"/>
   <tile gid="30"/>
   <tile gid="30"/>
   <tile gid="30"/>
   <tile gid="30"/>
   <tile gid="30"/>
   <tile gid="30"/>
   <tile gid="30"/>
   <tile gid="30"/>
   <tile gid="30"/>
   <tile gid="30"/>
   <tile gid="30"/>
   <tile gid="30"/>
   <tile gid="30"/>
   <tile gid="30"/>
   <tile gid="30"/>
   <tile gid="30"/>
   <tile gid="30"/>
   <tile gid="30"/>
   <tile gid="30"/>
   <tile gid="30"/>
   <tile gid="30"/>
   <tile gid="30"/>
   <tile gid="30"/>
   <tile gid="30"/>
   <tile gid="30"/>
   <tile gid="30"/>
   <tile gid="30"/>
   <tile gid="30"/>
   <tile gid="30"/>
   <tile gid="30"/>
   <tile gid="30"/>
   <tile gid="30"/>
   <tile gid="30"/>
   <tile gid="30"/>
   <tile gid="34"/>
   <tile gid="34"/>
   <tile gid="34"/>
   <tile gid="30"/>
   <tile gid="30"/>
   <tile gid="30"/>
   <tile gid="30"/>
   <tile gid="30"/>
   <tile gid="30"/>
   <tile gid="30"/>
   <tile gid="30"/>
   <tile gid="30"/>
   <tile gid="30"/>
   <tile gid="30"/>
   <tile gid="30"/>
   <tile gid="30"/>
   <tile gid="30"/>
   <tile gid="30"/>
   <tile gid="30"/>
   <tile gid="30"/>
   <tile gid="30"/>
   <tile gid="30"/>
   <tile gid="30"/>
   <tile gid="30"/>
   <tile gid="30"/>
   <tile gid="30"/>
   <tile gid="30"/>
   <tile gid="30"/>
   <tile gid="30"/>
   <tile gid="30"/>
   <tile gid="30"/>
   <tile gid="30"/>
   <tile gid="30"/>
   <tile gid="30"/>
   <tile gid="30"/>
   <tile gid="30"/>
   <tile gid="30"/>
   <tile gid="30"/>
   <tile gid="30"/>
   <tile gid="30"/>
   <tile gid="30"/>
   <tile gid="30"/>
   <tile gid="30"/>
   <tile gid="30"/>
   <tile gid="30"/>
   <tile gid="30"/>
   <tile gid="30"/>
   <tile gid="30"/>
   <tile gid="30"/>
   <tile gid="34"/>
   <tile gid="34"/>
   <tile gid="34"/>
   <tile gid="34"/>
   <tile gid="34"/>
   <tile gid="34"/>
   <tile gid="30"/>
   <tile gid="30"/>
   <tile gid="30"/>
   <tile gid="30"/>
   <tile gid="30"/>
   <tile gid="30"/>
   <tile gid="30"/>
   <tile gid="30"/>
   <tile gid="34"/>
   <tile gid="34"/>
   <tile gid="34"/>
   <tile gid="30"/>
   <tile gid="30"/>
   <tile gid="30"/>
   <tile gid="30"/>
   <tile gid="30"/>
   <tile gid="30"/>
   <tile gid="30"/>
   <tile gid="30"/>
   <tile gid="30"/>
   <tile gid="30"/>
   <tile gid="30"/>
   <tile gid="30"/>
   <tile gid="30"/>
   <tile gid="30"/>
   <tile gid="30"/>
   <tile gid="30"/>
   <tile gid="30"/>
   <tile gid="30"/>
   <tile gid="30"/>
   <tile gid="30"/>
   <tile gid="30"/>
   <tile gid="30"/>
   <tile gid="30"/>
   <tile gid="30"/>
   <tile gid="30"/>
   <tile gid="30"/>
   <tile gid="30"/>
   <tile gid="30"/>
   <tile gid="34"/>
   <tile gid="34"/>
   <tile gid="34"/>
   <tile gid="30"/>
   <tile gid="30"/>
   <tile gid="30"/>
   <tile gid="30"/>
   <tile gid="30"/>
   <tile gid="30"/>
   <tile gid="30"/>
   <tile gid="30"/>
   <tile gid="30"/>
   <tile gid="30"/>
   <tile gid="30"/>
   <tile gid="30"/>
   <tile gid="30"/>
   <tile gid="30"/>
   <tile gid="30"/>
   <tile gid="30"/>
   <tile gid="30"/>
   <tile gid="30"/>
   <tile gid="30"/>
   <tile gid="30"/>
   <tile gid="30"/>
   <tile gid="30"/>
   <tile gid="30"/>
   <tile gid="30"/>
   <tile gid="30"/>
   <tile gid="30"/>
   <tile gid="30"/>
   <tile gid="30"/>
   <tile gid="30"/>
   <tile gid="30"/>
   <tile gid="30"/>
   <tile gid="30"/>
   <tile gid="30"/>
   <tile gid="30"/>
   <tile gid="30"/>
   <tile gid="34"/>
   <tile gid="34"/>
   <tile gid="34"/>
   <tile gid="30"/>
   <tile gid="30"/>
   <tile gid="30"/>
   <tile gid="30"/>
   <tile gid="30"/>
   <tile gid="30"/>
   <tile gid="30"/>
   <tile gid="30"/>
   <tile gid="30"/>
   <tile gid="30"/>
   <tile gid="30"/>
   <tile gid="30"/>
   <tile gid="30"/>
   <tile gid="30"/>
   <tile gid="30"/>
   <tile gid="30"/>
   <tile gid="30"/>
   <tile gid="30"/>
   <tile gid="30"/>
   <tile gid="30"/>
   <tile gid="30"/>
   <tile gid="30"/>
   <tile gid="30"/>
   <tile gid="30"/>
   <tile gid="30"/>
   <tile gid="30"/>
   <tile gid="30"/>
   <tile gid="30"/>
   <tile gid="30"/>
   <tile gid="30"/>
   <tile gid="30"/>
   <tile gid="30"/>
   <tile gid="30"/>
   <tile gid="30"/>
   <tile gid="30"/>
   <tile gid="30"/>
   <tile gid="30"/>
   <tile gid="30"/>
   <tile gid="30"/>
   <tile gid="30"/>
   <tile gid="30"/>
   <tile gid="30"/>
   <tile gid="30"/>
   <tile gid="30"/>
   <tile gid="30"/>
   <tile gid="30"/>
   <tile gid="34"/>
   <tile gid="34"/>
   <tile gid="34"/>
   <tile gid="34"/>
   <tile gid="34"/>
   <tile gid="34"/>
   <tile gid="30"/>
   <tile gid="30"/>
   <tile gid="30"/>
   <tile gid="30"/>
   <tile gid="30"/>
   <tile gid="30"/>
   <tile gid="30"/>
   <tile gid="30"/>
   <tile gid="34"/>
   <tile gid="34"/>
   <tile gid="34"/>
   <tile gid="30"/>
   <tile gid="30"/>
   <tile gid="30"/>
   <tile gid="30"/>
   <tile gid="30"/>
   <tile gid="30"/>
   <tile gid="30"/>
   <tile gid="30"/>
   <tile gid="30"/>
   <tile gid="30"/>
   <tile gid="30"/>
   <tile gid="30"/>
   <tile gid="30"/>
   <tile gid="30"/>
   <tile gid="30"/>
   <tile gid="30"/>
   <tile gid="30"/>
   <tile gid="30"/>
   <tile gid="30"/>
   <tile gid="30"/>
   <tile gid="30"/>
   <tile gid="30"/>
   <tile gid="30"/>
   <tile gid="30"/>
   <tile gid="30"/>
   <tile gid="30"/>
   <tile gid="30"/>
   <tile gid="30"/>
   <tile gid="34"/>
   <tile gid="34"/>
   <tile gid="34"/>
   <tile gid="30"/>
   <tile gid="30"/>
   <tile gid="30"/>
   <tile gid="30"/>
   <tile gid="30"/>
   <tile gid="30"/>
   <tile gid="30"/>
   <tile gid="30"/>
   <tile gid="30"/>
   <tile gid="30"/>
   <tile gid="30"/>
   <tile gid="30"/>
   <tile gid="30"/>
   <tile gid="30"/>
   <tile gid="30"/>
   <tile gid="30"/>
   <tile gid="30"/>
   <tile gid="30"/>
   <tile gid="30"/>
   <tile gid="30"/>
   <tile gid="30"/>
   <tile gid="30"/>
   <tile gid="30"/>
   <tile gid="30"/>
   <tile gid="30"/>
   <tile gid="30"/>
   <tile gid="30"/>
   <tile gid="30"/>
   <tile gid="30"/>
   <tile gid="30"/>
   <tile gid="30"/>
   <tile gid="30"/>
   <tile gid="30"/>
   <tile gid="30"/>
   <tile gid="30"/>
   <tile gid="34"/>
   <tile gid="34"/>
   <tile gid="34"/>
   <tile gid="30"/>
   <tile gid="30"/>
   <tile gid="30"/>
   <tile gid="30"/>
   <tile gid="30"/>
   <tile gid="30"/>
   <tile gid="30"/>
   <tile gid="30"/>
   <tile gid="30"/>
   <tile gid="30"/>
   <tile gid="30"/>
   <tile gid="30"/>
   <tile gid="30"/>
   <tile gid="30"/>
   <tile gid="30"/>
   <tile gid="30"/>
   <tile gid="30"/>
   <tile gid="30"/>
   <tile gid="30"/>
   <tile gid="30"/>
   <tile gid="30"/>
   <tile gid="30"/>
   <tile gid="30"/>
   <tile gid="30"/>
   <tile gid="30"/>
   <tile gid="30"/>
   <tile gid="30"/>
   <tile gid="30"/>
   <tile gid="30"/>
   <tile gid="30"/>
   <tile gid="30"/>
   <tile gid="30"/>
   <tile gid="30"/>
   <tile gid="30"/>
   <tile gid="30"/>
   <tile gid="30"/>
   <tile gid="30"/>
   <tile gid="30"/>
   <tile gid="30"/>
   <tile gid="30"/>
   <tile gid="30"/>
   <tile gid="30"/>
   <tile gid="30"/>
   <tile gid="30"/>
   <tile gid="30"/>
   <tile gid="30"/>
   <tile gid="34"/>
   <tile gid="34"/>
   <tile gid="34"/>
   <tile gid="34"/>
   <tile gid="34"/>
   <tile gid="34"/>
   <tile gid="30"/>
   <tile gid="30"/>
   <tile gid="30"/>
   <tile gid="30"/>
   <tile gid="30"/>
   <tile gid="30"/>
   <tile gid="30"/>
   <tile gid="30"/>
   <tile gid="34"/>
   <tile gid="34"/>
   <tile gid="34"/>
   <tile gid="30"/>
   <tile gid="30"/>
   <tile gid="30"/>
   <tile gid="30"/>
   <tile gid="30"/>
   <tile gid="30"/>
   <tile gid="30"/>
   <tile gid="30"/>
   <tile gid="30"/>
   <tile gid="30"/>
   <tile gid="30"/>
   <tile gid="30"/>
   <tile gid="30"/>
   <tile gid="30"/>
   <tile gid="30"/>
   <tile gid="30"/>
   <tile gid="30"/>
   <tile gid="30"/>
   <tile gid="30"/>
   <tile gid="30"/>
   <tile gid="30"/>
   <tile gid="30"/>
   <tile gid="30"/>
   <tile gid="30"/>
   <tile gid="30"/>
   <tile gid="30"/>
   <tile gid="30"/>
   <tile gid="30"/>
   <tile gid="34"/>
   <tile gid="34"/>
   <tile gid="34"/>
   <tile gid="30"/>
   <tile gid="30"/>
   <tile gid="30"/>
   <tile gid="30"/>
   <tile gid="30"/>
   <tile gid="30"/>
   <tile gid="30"/>
   <tile gid="30"/>
   <tile gid="30"/>
   <tile gid="30"/>
   <tile gid="30"/>
   <tile gid="30"/>
   <tile gid="30"/>
   <tile gid="30"/>
   <tile gid="30"/>
   <tile gid="30"/>
   <tile gid="30"/>
   <tile gid="30"/>
   <tile gid="30"/>
   <tile gid="30"/>
   <tile gid="30"/>
   <tile gid="30"/>
   <tile gid="30"/>
   <tile gid="30"/>
   <tile gid="30"/>
   <tile gid="30"/>
   <tile gid="30"/>
   <tile gid="30"/>
   <tile gid="30"/>
   <tile gid="30"/>
   <tile gid="30"/>
   <tile gid="30"/>
   <tile gid="30"/>
   <tile gid="30"/>
   <tile gid="30"/>
   <tile gid="34"/>
   <tile gid="34"/>
   <tile gid="34"/>
   <tile gid="30"/>
   <tile gid="30"/>
   <tile gid="30"/>
   <tile gid="30"/>
   <tile gid="30"/>
   <tile gid="30"/>
   <tile gid="30"/>
   <tile gid="30"/>
   <tile gid="30"/>
   <tile gid="30"/>
   <tile gid="30"/>
   <tile gid="30"/>
   <tile gid="30"/>
   <tile gid="30"/>
   <tile gid="30"/>
   <tile gid="30"/>
   <tile gid="30"/>
   <tile gid="30"/>
   <tile gid="30"/>
   <tile gid="30"/>
   <tile gid="30"/>
   <tile gid="30"/>
   <tile gid="30"/>
   <tile gid="30"/>
   <tile gid="30"/>
   <tile gid="30"/>
   <tile gid="30"/>
   <tile gid="30"/>
   <tile gid="30"/>
   <tile gid="30"/>
   <tile gid="30"/>
   <tile gid="30"/>
   <tile gid="30"/>
   <tile gid="30"/>
   <tile gid="30"/>
   <tile gid="30"/>
   <tile gid="30"/>
   <tile gid="30"/>
   <tile gid="30"/>
   <tile gid="30"/>
   <tile gid="30"/>
   <tile gid="30"/>
   <tile gid="30"/>
   <tile gid="30"/>
   <tile gid="30"/>
   <tile gid="30"/>
   <tile gid="34"/>
   <tile gid="34"/>
   <tile gid="34"/>
   <tile gid="34"/>
   <tile gid="34"/>
   <tile gid="34"/>
   <tile gid="30"/>
   <tile gid="30"/>
   <tile gid="30"/>
   <tile gid="30"/>
   <tile gid="30"/>
   <tile gid="30"/>
   <tile gid="30"/>
   <tile gid="30"/>
   <tile gid="34"/>
   <tile gid="34"/>
   <tile gid="34"/>
   <tile gid="30"/>
   <tile gid="30"/>
   <tile gid="30"/>
   <tile gid="30"/>
   <tile gid="30"/>
   <tile gid="30"/>
   <tile gid="30"/>
   <tile gid="30"/>
   <tile gid="30"/>
   <tile gid="30"/>
   <tile gid="30"/>
   <tile gid="30"/>
   <tile gid="30"/>
   <tile gid="30"/>
   <tile gid="30"/>
   <tile gid="30"/>
   <tile gid="30"/>
   <tile gid="30"/>
   <tile gid="30"/>
   <tile gid="30"/>
   <tile gid="30"/>
   <tile gid="30"/>
   <tile gid="30"/>
   <tile gid="30"/>
   <tile gid="30"/>
   <tile gid="30"/>
   <tile gid="30"/>
   <tile gid="30"/>
   <tile gid="34"/>
   <tile gid="34"/>
   <tile gid="34"/>
   <tile gid="30"/>
   <tile gid="30"/>
   <tile gid="30"/>
   <tile gid="30"/>
   <tile gid="30"/>
   <tile gid="30"/>
   <tile gid="30"/>
   <tile gid="30"/>
   <tile gid="30"/>
   <tile gid="30"/>
   <tile gid="30"/>
   <tile gid="30"/>
   <tile gid="30"/>
   <tile gid="30"/>
   <tile gid="30"/>
   <tile gid="30"/>
   <tile gid="30"/>
   <tile gid="30"/>
   <tile gid="30"/>
   <tile gid="30"/>
   <tile gid="30"/>
   <tile gid="30"/>
   <tile gid="30"/>
   <tile gid="30"/>
   <tile gid="30"/>
   <tile gid="30"/>
   <tile gid="30"/>
   <tile gid="30"/>
   <tile gid="30"/>
   <tile gid="30"/>
   <tile gid="30"/>
   <tile gid="30"/>
   <tile gid="30"/>
   <tile gid="30"/>
   <tile gid="30"/>
   <tile gid="34"/>
   <tile gid="34"/>
   <tile gid="34"/>
   <tile gid="30"/>
   <tile gid="30"/>
   <tile gid="30"/>
   <tile gid="30"/>
   <tile gid="30"/>
   <tile gid="30"/>
   <tile gid="30"/>
   <tile gid="30"/>
   <tile gid="30"/>
   <tile gid="30"/>
   <tile gid="30"/>
   <tile gid="30"/>
   <tile gid="30"/>
   <tile gid="30"/>
   <tile gid="30"/>
   <tile gid="30"/>
   <tile gid="30"/>
   <tile gid="30"/>
   <tile gid="30"/>
   <tile gid="30"/>
   <tile gid="30"/>
   <tile gid="30"/>
   <tile gid="30"/>
   <tile gid="30"/>
   <tile gid="30"/>
   <tile gid="30"/>
   <tile gid="30"/>
   <tile gid="30"/>
   <tile gid="30"/>
   <tile gid="30"/>
   <tile gid="30"/>
   <tile gid="30"/>
   <tile gid="30"/>
   <tile gid="30"/>
   <tile gid="30"/>
   <tile gid="30"/>
   <tile gid="30"/>
   <tile gid="30"/>
   <tile gid="30"/>
   <tile gid="30"/>
   <tile gid="30"/>
   <tile gid="30"/>
   <tile gid="30"/>
   <tile gid="30"/>
   <tile gid="30"/>
   <tile gid="30"/>
   <tile gid="34"/>
   <tile gid="34"/>
   <tile gid="34"/>
   <tile gid="34"/>
   <tile gid="34"/>
   <tile gid="34"/>
   <tile gid="30"/>
   <tile gid="30"/>
   <tile gid="30"/>
   <tile gid="30"/>
   <tile gid="30"/>
   <tile gid="30"/>
   <tile gid="30"/>
   <tile gid="30"/>
   <tile gid="34"/>
   <tile gid="34"/>
   <tile gid="34"/>
   <tile gid="30"/>
   <tile gid="30"/>
   <tile gid="30"/>
   <tile gid="30"/>
   <tile gid="30"/>
   <tile gid="30"/>
   <tile gid="30"/>
   <tile gid="30"/>
   <tile gid="30"/>
   <tile gid="30"/>
   <tile gid="30"/>
   <tile gid="30"/>
   <tile gid="30"/>
   <tile gid="30"/>
   <tile gid="30"/>
   <tile gid="30"/>
   <tile gid="30"/>
   <tile gid="30"/>
   <tile gid="30"/>
   <tile gid="30"/>
   <tile gid="30"/>
   <tile gid="30"/>
   <tile gid="30"/>
   <tile gid="30"/>
   <tile gid="30"/>
   <tile gid="30"/>
   <tile gid="30"/>
   <tile gid="30"/>
   <tile gid="34"/>
   <tile gid="34"/>
   <tile gid="34"/>
   <tile gid="30"/>
   <tile gid="30"/>
   <tile gid="30"/>
   <tile gid="30"/>
   <tile gid="30"/>
   <tile gid="30"/>
   <tile gid="30"/>
   <tile gid="30"/>
   <tile gid="30"/>
   <tile gid="30"/>
   <tile gid="30"/>
   <tile gid="30"/>
   <tile gid="30"/>
   <tile gid="30"/>
   <tile gid="30"/>
   <tile gid="30"/>
   <tile gid="30"/>
   <tile gid="30"/>
   <tile gid="30"/>
   <tile gid="30"/>
   <tile gid="30"/>
   <tile gid="30"/>
   <tile gid="30"/>
   <tile gid="30"/>
   <tile gid="30"/>
   <tile gid="30"/>
   <tile gid="30"/>
   <tile gid="30"/>
   <tile gid="30"/>
   <tile gid="30"/>
   <tile gid="30"/>
   <tile gid="30"/>
   <tile gid="30"/>
   <tile gid="30"/>
   <tile gid="30"/>
   <tile gid="34"/>
   <tile gid="34"/>
   <tile gid="34"/>
   <tile gid="30"/>
   <tile gid="30"/>
   <tile gid="30"/>
   <tile gid="30"/>
   <tile gid="30"/>
   <tile gid="30"/>
   <tile gid="30"/>
   <tile gid="30"/>
   <tile gid="30"/>
   <tile gid="30"/>
   <tile gid="30"/>
   <tile gid="30"/>
   <tile gid="30"/>
   <tile gid="30"/>
   <tile gid="30"/>
   <tile gid="30"/>
   <tile gid="30"/>
   <tile gid="30"/>
   <tile gid="30"/>
   <tile gid="30"/>
   <tile gid="30"/>
   <tile gid="30"/>
   <tile gid="30"/>
   <tile gid="30"/>
   <tile gid="30"/>
   <tile gid="30"/>
   <tile gid="30"/>
   <tile gid="30"/>
   <tile gid="30"/>
   <tile gid="30"/>
   <tile gid="30"/>
   <tile gid="30"/>
   <tile gid="30"/>
   <tile gid="30"/>
   <tile gid="30"/>
   <tile gid="30"/>
   <tile gid="30"/>
   <tile gid="30"/>
   <tile gid="30"/>
   <tile gid="30"/>
   <tile gid="30"/>
   <tile gid="30"/>
   <tile gid="30"/>
   <tile gid="30"/>
   <tile gid="30"/>
   <tile gid="30"/>
   <tile gid="34"/>
   <tile gid="34"/>
   <tile gid="34"/>
   <tile gid="34"/>
   <tile gid="34"/>
   <tile gid="34"/>
   <tile gid="30"/>
   <tile gid="30"/>
   <tile gid="30"/>
   <tile gid="30"/>
   <tile gid="30"/>
   <tile gid="30"/>
   <tile gid="30"/>
   <tile gid="30"/>
   <tile gid="34"/>
   <tile gid="34"/>
   <tile gid="34"/>
   <tile gid="30"/>
   <tile gid="30"/>
   <tile gid="30"/>
   <tile gid="30"/>
   <tile gid="30"/>
   <tile gid="30"/>
   <tile gid="30"/>
   <tile gid="30"/>
   <tile gid="30"/>
   <tile gid="30"/>
   <tile gid="30"/>
   <tile gid="30"/>
   <tile gid="30"/>
   <tile gid="30"/>
   <tile gid="30"/>
   <tile gid="30"/>
   <tile gid="30"/>
   <tile gid="30"/>
   <tile gid="30"/>
   <tile gid="30"/>
   <tile gid="30"/>
   <tile gid="30"/>
   <tile gid="30"/>
   <tile gid="30"/>
   <tile gid="30"/>
   <tile gid="30"/>
   <tile gid="30"/>
   <tile gid="30"/>
   <tile gid="34"/>
   <tile gid="34"/>
   <tile gid="34"/>
   <tile gid="30"/>
   <tile gid="30"/>
   <tile gid="30"/>
   <tile gid="30"/>
   <tile gid="30"/>
   <tile gid="30"/>
   <tile gid="30"/>
   <tile gid="30"/>
   <tile gid="30"/>
   <tile gid="30"/>
   <tile gid="30"/>
   <tile gid="30"/>
   <tile gid="30"/>
   <tile gid="30"/>
   <tile gid="30"/>
   <tile gid="30"/>
   <tile gid="30"/>
   <tile gid="30"/>
   <tile gid="30"/>
   <tile gid="30"/>
   <tile gid="30"/>
   <tile gid="30"/>
   <tile gid="30"/>
   <tile gid="30"/>
   <tile gid="30"/>
   <tile gid="30"/>
   <tile gid="30"/>
   <tile gid="30"/>
   <tile gid="30"/>
   <tile gid="30"/>
   <tile gid="30"/>
   <tile gid="30"/>
   <tile gid="30"/>
   <tile gid="30"/>
   <tile gid="30"/>
   <tile gid="34"/>
   <tile gid="34"/>
   <tile gid="34"/>
   <tile gid="30"/>
   <tile gid="30"/>
   <tile gid="30"/>
   <tile gid="30"/>
   <tile gid="30"/>
   <tile gid="30"/>
   <tile gid="30"/>
   <tile gid="30"/>
   <tile gid="30"/>
   <tile gid="30"/>
   <tile gid="30"/>
   <tile gid="30"/>
   <tile gid="30"/>
   <tile gid="30"/>
   <tile gid="30"/>
   <tile gid="30"/>
   <tile gid="30"/>
   <tile gid="30"/>
   <tile gid="30"/>
   <tile gid="30"/>
   <tile gid="30"/>
   <tile gid="30"/>
   <tile gid="30"/>
   <tile gid="30"/>
   <tile gid="30"/>
   <tile gid="30"/>
   <tile gid="30"/>
   <tile gid="30"/>
   <tile gid="30"/>
   <tile gid="30"/>
   <tile gid="30"/>
   <tile gid="30"/>
   <tile gid="30"/>
   <tile gid="30"/>
   <tile gid="30"/>
   <tile gid="30"/>
   <tile gid="30"/>
   <tile gid="30"/>
   <tile gid="30"/>
   <tile gid="30"/>
   <tile gid="30"/>
   <tile gid="30"/>
   <tile gid="30"/>
   <tile gid="30"/>
   <tile gid="30"/>
   <tile gid="30"/>
   <tile gid="34"/>
   <tile gid="34"/>
   <tile gid="34"/>
   <tile gid="34"/>
   <tile gid="34"/>
   <tile gid="34"/>
   <tile gid="30"/>
   <tile gid="30"/>
   <tile gid="30"/>
   <tile gid="30"/>
   <tile gid="30"/>
   <tile gid="30"/>
   <tile gid="30"/>
   <tile gid="30"/>
   <tile gid="34"/>
   <tile gid="34"/>
   <tile gid="34"/>
   <tile gid="30"/>
   <tile gid="30"/>
   <tile gid="30"/>
   <tile gid="30"/>
   <tile gid="30"/>
   <tile gid="30"/>
   <tile gid="30"/>
   <tile gid="30"/>
   <tile gid="30"/>
   <tile gid="30"/>
   <tile gid="30"/>
   <tile gid="30"/>
   <tile gid="30"/>
   <tile gid="30"/>
   <tile gid="30"/>
   <tile gid="30"/>
   <tile gid="30"/>
   <tile gid="30"/>
   <tile gid="30"/>
   <tile gid="30"/>
   <tile gid="30"/>
   <tile gid="30"/>
   <tile gid="30"/>
   <tile gid="30"/>
   <tile gid="30"/>
   <tile gid="30"/>
   <tile gid="30"/>
   <tile gid="30"/>
   <tile gid="34"/>
   <tile gid="34"/>
   <tile gid="34"/>
   <tile gid="30"/>
   <tile gid="30"/>
   <tile gid="30"/>
   <tile gid="30"/>
   <tile gid="30"/>
   <tile gid="30"/>
   <tile gid="30"/>
   <tile gid="30"/>
   <tile gid="30"/>
   <tile gid="30"/>
   <tile gid="30"/>
   <tile gid="30"/>
   <tile gid="30"/>
   <tile gid="30"/>
   <tile gid="30"/>
   <tile gid="30"/>
   <tile gid="30"/>
   <tile gid="30"/>
   <tile gid="30"/>
   <tile gid="30"/>
   <tile gid="30"/>
   <tile gid="30"/>
   <tile gid="30"/>
   <tile gid="30"/>
   <tile gid="30"/>
   <tile gid="30"/>
   <tile gid="30"/>
   <tile gid="30"/>
   <tile gid="30"/>
   <tile gid="30"/>
   <tile gid="30"/>
   <tile gid="30"/>
   <tile gid="30"/>
   <tile gid="30"/>
   <tile gid="30"/>
   <tile gid="34"/>
   <tile gid="34"/>
   <tile gid="34"/>
   <tile gid="30"/>
   <tile gid="30"/>
   <tile gid="30"/>
   <tile gid="30"/>
   <tile gid="30"/>
   <tile gid="30"/>
   <tile gid="30"/>
   <tile gid="30"/>
   <tile gid="30"/>
   <tile gid="30"/>
   <tile gid="30"/>
   <tile gid="30"/>
   <tile gid="30"/>
   <tile gid="30"/>
   <tile gid="30"/>
   <tile gid="30"/>
   <tile gid="30"/>
   <tile gid="30"/>
   <tile gid="30"/>
   <tile gid="30"/>
   <tile gid="30"/>
   <tile gid="30"/>
   <tile gid="30"/>
   <tile gid="30"/>
   <tile gid="30"/>
   <tile gid="30"/>
   <tile gid="30"/>
   <tile gid="30"/>
   <tile gid="30"/>
   <tile gid="30"/>
   <tile gid="30"/>
   <tile gid="30"/>
   <tile gid="30"/>
   <tile gid="30"/>
   <tile gid="30"/>
   <tile gid="30"/>
   <tile gid="30"/>
   <tile gid="30"/>
   <tile gid="30"/>
   <tile gid="30"/>
   <tile gid="30"/>
   <tile gid="30"/>
   <tile gid="30"/>
   <tile gid="30"/>
   <tile gid="30"/>
   <tile gid="30"/>
   <tile gid="34"/>
   <tile gid="34"/>
   <tile gid="34"/>
   <tile gid="34"/>
   <tile gid="34"/>
   <tile gid="34"/>
   <tile gid="30"/>
   <tile gid="30"/>
   <tile gid="30"/>
   <tile gid="30"/>
   <tile gid="30"/>
   <tile gid="30"/>
   <tile gid="30"/>
   <tile gid="30"/>
   <tile gid="34"/>
   <tile gid="34"/>
   <tile gid="34"/>
   <tile gid="30"/>
   <tile gid="30"/>
   <tile gid="30"/>
   <tile gid="30"/>
   <tile gid="30"/>
   <tile gid="30"/>
   <tile gid="30"/>
   <tile gid="30"/>
   <tile gid="30"/>
   <tile gid="30"/>
   <tile gid="30"/>
   <tile gid="30"/>
   <tile gid="30"/>
   <tile gid="30"/>
   <tile gid="30"/>
   <tile gid="30"/>
   <tile gid="30"/>
   <tile gid="30"/>
   <tile gid="30"/>
   <tile gid="30"/>
   <tile gid="30"/>
   <tile gid="30"/>
   <tile gid="30"/>
   <tile gid="30"/>
   <tile gid="30"/>
   <tile gid="30"/>
   <tile gid="30"/>
   <tile gid="30"/>
   <tile gid="34"/>
   <tile gid="34"/>
   <tile gid="34"/>
   <tile gid="30"/>
   <tile gid="30"/>
   <tile gid="30"/>
   <tile gid="30"/>
   <tile gid="30"/>
   <tile gid="30"/>
   <tile gid="30"/>
   <tile gid="30"/>
   <tile gid="30"/>
   <tile gid="30"/>
   <tile gid="30"/>
   <tile gid="30"/>
   <tile gid="30"/>
   <tile gid="30"/>
   <tile gid="30"/>
   <tile gid="30"/>
   <tile gid="30"/>
   <tile gid="30"/>
   <tile gid="30"/>
   <tile gid="30"/>
   <tile gid="30"/>
   <tile gid="30"/>
   <tile gid="30"/>
   <tile gid="30"/>
   <tile gid="30"/>
   <tile gid="30"/>
   <tile gid="30"/>
   <tile gid="30"/>
   <tile gid="30"/>
   <tile gid="30"/>
   <tile gid="30"/>
   <tile gid="30"/>
   <tile gid="30"/>
   <tile gid="30"/>
   <tile gid="30"/>
   <tile gid="34"/>
   <tile gid="34"/>
   <tile gid="34"/>
   <tile gid="30"/>
   <tile gid="30"/>
   <tile gid="30"/>
   <tile gid="30"/>
   <tile gid="30"/>
   <tile gid="30"/>
   <tile gid="30"/>
   <tile gid="30"/>
   <tile gid="30"/>
   <tile gid="30"/>
   <tile gid="30"/>
   <tile gid="30"/>
   <tile gid="30"/>
   <tile gid="30"/>
   <tile gid="30"/>
   <tile gid="30"/>
   <tile gid="30"/>
   <tile gid="30"/>
   <tile gid="30"/>
   <tile gid="30"/>
   <tile gid="30"/>
   <tile gid="30"/>
   <tile gid="30"/>
   <tile gid="30"/>
   <tile gid="30"/>
   <tile gid="30"/>
   <tile gid="30"/>
   <tile gid="30"/>
   <tile gid="30"/>
   <tile gid="30"/>
   <tile gid="30"/>
   <tile gid="30"/>
   <tile gid="30"/>
   <tile gid="30"/>
   <tile gid="30"/>
   <tile gid="30"/>
   <tile gid="30"/>
   <tile gid="30"/>
   <tile gid="30"/>
   <tile gid="30"/>
   <tile gid="30"/>
   <tile gid="30"/>
   <tile gid="30"/>
   <tile gid="30"/>
   <tile gid="30"/>
   <tile gid="30"/>
   <tile gid="34"/>
   <tile gid="34"/>
   <tile gid="34"/>
   <tile gid="34"/>
   <tile gid="34"/>
   <tile gid="34"/>
   <tile gid="34"/>
   <tile gid="34"/>
   <tile gid="34"/>
   <tile gid="30"/>
   <tile gid="30"/>
   <tile gid="30"/>
   <tile gid="34"/>
   <tile gid="34"/>
   <tile gid="34"/>
   <tile gid="34"/>
   <tile gid="34"/>
   <tile gid="34"/>
   <tile gid="34"/>
   <tile gid="34"/>
   <tile gid="34"/>
   <tile gid="34"/>
   <tile gid="34"/>
   <tile gid="34"/>
   <tile gid="34"/>
   <tile gid="34"/>
   <tile gid="34"/>
   <tile gid="34"/>
   <tile gid="34"/>
   <tile gid="34"/>
   <tile gid="34"/>
   <tile gid="34"/>
   <tile gid="34"/>
   <tile gid="34"/>
   <tile gid="34"/>
   <tile gid="34"/>
   <tile gid="34"/>
   <tile gid="34"/>
   <tile gid="34"/>
   <tile gid="34"/>
   <tile gid="34"/>
   <tile gid="34"/>
   <tile gid="34"/>
   <tile gid="34"/>
   <tile gid="34"/>
   <tile gid="34"/>
   <tile gid="34"/>
   <tile gid="34"/>
   <tile gid="34"/>
   <tile gid="34"/>
   <tile gid="34"/>
   <tile gid="34"/>
   <tile gid="34"/>
   <tile gid="34"/>
   <tile gid="34"/>
   <tile gid="34"/>
   <tile gid="34"/>
   <tile gid="34"/>
   <tile gid="34"/>
   <tile gid="34"/>
   <tile gid="34"/>
   <tile gid="34"/>
   <tile gid="34"/>
   <tile gid="34"/>
   <tile gid="49"/>
   <tile gid="49"/>
   <tile gid="49"/>
   <tile gid="34"/>
   <tile gid="34"/>
   <tile gid="34"/>
   <tile gid="34"/>
   <tile gid="34"/>
   <tile gid="34"/>
   <tile gid="34"/>
   <tile gid="34"/>
   <tile gid="34"/>
   <tile gid="34"/>
   <tile gid="34"/>
   <tile gid="34"/>
   <tile gid="34"/>
   <tile gid="34"/>
   <tile gid="34"/>
   <tile gid="34"/>
   <tile gid="34"/>
   <tile gid="34"/>
   <tile gid="34"/>
   <tile gid="34"/>
   <tile gid="34"/>
   <tile gid="34"/>
   <tile gid="34"/>
   <tile gid="34"/>
   <tile gid="34"/>
   <tile gid="34"/>
   <tile gid="34"/>
   <tile gid="34"/>
   <tile gid="34"/>
   <tile gid="34"/>
   <tile gid="34"/>
   <tile gid="34"/>
   <tile gid="34"/>
   <tile gid="34"/>
   <tile gid="34"/>
   <tile gid="34"/>
   <tile gid="34"/>
   <tile gid="34"/>
   <tile gid="34"/>
   <tile gid="34"/>
   <tile gid="34"/>
   <tile gid="34"/>
   <tile gid="34"/>
   <tile gid="34"/>
   <tile gid="34"/>
   <tile gid="34"/>
   <tile gid="34"/>
   <tile gid="34"/>
   <tile gid="34"/>
   <tile gid="34"/>
   <tile gid="34"/>
   <tile gid="34"/>
   <tile gid="34"/>
   <tile gid="34"/>
   <tile gid="34"/>
   <tile gid="30"/>
   <tile gid="30"/>
   <tile gid="30"/>
   <tile gid="34"/>
   <tile gid="34"/>
   <tile gid="34"/>
   <tile gid="34"/>
   <tile gid="34"/>
   <tile gid="34"/>
   <tile gid="34"/>
   <tile gid="34"/>
   <tile gid="34"/>
   <tile gid="34"/>
   <tile gid="34"/>
   <tile gid="34"/>
   <tile gid="34"/>
   <tile gid="34"/>
   <tile gid="34"/>
   <tile gid="34"/>
   <tile gid="30"/>
   <tile gid="30"/>
   <tile gid="30"/>
   <tile gid="34"/>
   <tile gid="34"/>
   <tile gid="34"/>
   <tile gid="34"/>
   <tile gid="34"/>
   <tile gid="34"/>
   <tile gid="34"/>
   <tile gid="34"/>
   <tile gid="34"/>
   <tile gid="34"/>
   <tile gid="34"/>
   <tile gid="34"/>
   <tile gid="34"/>
   <tile gid="34"/>
   <tile gid="34"/>
   <tile gid="34"/>
   <tile gid="34"/>
   <tile gid="34"/>
   <tile gid="34"/>
   <tile gid="34"/>
   <tile gid="34"/>
   <tile gid="34"/>
   <tile gid="34"/>
   <tile gid="34"/>
   <tile gid="34"/>
   <tile gid="34"/>
   <tile gid="34"/>
   <tile gid="34"/>
   <tile gid="34"/>
   <tile gid="34"/>
   <tile gid="34"/>
   <tile gid="34"/>
   <tile gid="34"/>
   <tile gid="34"/>
   <tile gid="34"/>
   <tile gid="34"/>
   <tile gid="34"/>
   <tile gid="34"/>
   <tile gid="34"/>
   <tile gid="34"/>
   <tile gid="34"/>
   <tile gid="34"/>
   <tile gid="34"/>
   <tile gid="34"/>
   <tile gid="34"/>
   <tile gid="34"/>
   <tile gid="34"/>
   <tile gid="34"/>
   <tile gid="34"/>
   <tile gid="34"/>
   <tile gid="34"/>
   <tile gid="34"/>
   <tile gid="49"/>
   <tile gid="49"/>
   <tile gid="49"/>
   <tile gid="34"/>
   <tile gid="34"/>
   <tile gid="34"/>
   <tile gid="34"/>
   <tile gid="34"/>
   <tile gid="34"/>
   <tile gid="34"/>
   <tile gid="34"/>
   <tile gid="34"/>
   <tile gid="34"/>
   <tile gid="34"/>
   <tile gid="34"/>
   <tile gid="34"/>
   <tile gid="34"/>
   <tile gid="34"/>
   <tile gid="34"/>
   <tile gid="34"/>
   <tile gid="34"/>
   <tile gid="34"/>
   <tile gid="34"/>
   <tile gid="34"/>
   <tile gid="34"/>
   <tile gid="34"/>
   <tile gid="34"/>
   <tile gid="34"/>
   <tile gid="34"/>
   <tile gid="34"/>
   <tile gid="34"/>
   <tile gid="34"/>
   <tile gid="34"/>
   <tile gid="34"/>
   <tile gid="34"/>
   <tile gid="34"/>
   <tile gid="34"/>
   <tile gid="34"/>
   <tile gid="34"/>
   <tile gid="34"/>
   <tile gid="34"/>
   <tile gid="34"/>
   <tile gid="34"/>
   <tile gid="34"/>
   <tile gid="34"/>
   <tile gid="34"/>
   <tile gid="34"/>
   <tile gid="34"/>
   <tile gid="34"/>
   <tile gid="34"/>
   <tile gid="34"/>
   <tile gid="34"/>
   <tile gid="34"/>
   <tile gid="34"/>
   <tile gid="34"/>
   <tile gid="34"/>
   <tile gid="34"/>
   <tile gid="34"/>
   <tile gid="30"/>
   <tile gid="30"/>
   <tile gid="30"/>
   <tile gid="34"/>
   <tile gid="34"/>
   <tile gid="34"/>
   <tile gid="34"/>
   <tile gid="34"/>
   <tile gid="34"/>
   <tile gid="34"/>
   <tile gid="34"/>
   <tile gid="34"/>
   <tile gid="34"/>
   <tile gid="34"/>
   <tile gid="34"/>
   <tile gid="34"/>
   <tile gid="34"/>
   <tile gid="34"/>
   <tile gid="34"/>
   <tile gid="30"/>
   <tile gid="30"/>
   <tile gid="30"/>
   <tile gid="34"/>
   <tile gid="34"/>
   <tile gid="34"/>
   <tile gid="34"/>
   <tile gid="34"/>
   <tile gid="34"/>
   <tile gid="34"/>
   <tile gid="34"/>
   <tile gid="34"/>
   <tile gid="34"/>
   <tile gid="34"/>
   <tile gid="34"/>
   <tile gid="34"/>
   <tile gid="34"/>
   <tile gid="34"/>
   <tile gid="34"/>
   <tile gid="34"/>
   <tile gid="34"/>
   <tile gid="34"/>
   <tile gid="34"/>
   <tile gid="34"/>
   <tile gid="34"/>
   <tile gid="34"/>
   <tile gid="34"/>
   <tile gid="34"/>
   <tile gid="34"/>
   <tile gid="34"/>
   <tile gid="34"/>
   <tile gid="34"/>
   <tile gid="34"/>
   <tile gid="34"/>
   <tile gid="34"/>
   <tile gid="34"/>
   <tile gid="34"/>
   <tile gid="34"/>
   <tile gid="34"/>
   <tile gid="34"/>
   <tile gid="34"/>
   <tile gid="34"/>
   <tile gid="34"/>
   <tile gid="34"/>
   <tile gid="34"/>
   <tile gid="34"/>
   <tile gid="34"/>
   <tile gid="34"/>
   <tile gid="34"/>
   <tile gid="34"/>
   <tile gid="34"/>
   <tile gid="34"/>
   <tile gid="34"/>
   <tile gid="34"/>
   <tile gid="34"/>
   <tile gid="49"/>
   <tile gid="49"/>
   <tile gid="49"/>
   <tile gid="34"/>
   <tile gid="34"/>
   <tile gid="34"/>
   <tile gid="34"/>
   <tile gid="34"/>
   <tile gid="34"/>
   <tile gid="34"/>
   <tile gid="34"/>
   <tile gid="34"/>
   <tile gid="34"/>
   <tile gid="34"/>
   <tile gid="34"/>
   <tile gid="34"/>
   <tile gid="34"/>
   <tile gid="34"/>
   <tile gid="34"/>
   <tile gid="34"/>
   <tile gid="34"/>
   <tile gid="34"/>
   <tile gid="34"/>
   <tile gid="34"/>
   <tile gid="34"/>
   <tile gid="34"/>
   <tile gid="34"/>
   <tile gid="34"/>
   <tile gid="34"/>
   <tile gid="34"/>
   <tile gid="34"/>
   <tile gid="34"/>
   <tile gid="34"/>
   <tile gid="34"/>
   <tile gid="34"/>
   <tile gid="34"/>
   <tile gid="34"/>
   <tile gid="34"/>
   <tile gid="34"/>
   <tile gid="34"/>
   <tile gid="34"/>
   <tile gid="34"/>
   <tile gid="34"/>
   <tile gid="34"/>
   <tile gid="34"/>
   <tile gid="34"/>
   <tile gid="34"/>
   <tile gid="34"/>
   <tile gid="34"/>
   <tile gid="34"/>
   <tile gid="34"/>
   <tile gid="34"/>
   <tile gid="34"/>
   <tile gid="34"/>
   <tile gid="34"/>
   <tile gid="34"/>
   <tile gid="34"/>
   <tile gid="34"/>
   <tile gid="30"/>
   <tile gid="30"/>
   <tile gid="30"/>
   <tile gid="34"/>
   <tile gid="34"/>
   <tile gid="34"/>
   <tile gid="34"/>
   <tile gid="34"/>
   <tile gid="34"/>
   <tile gid="34"/>
   <tile gid="34"/>
   <tile gid="34"/>
   <tile gid="34"/>
   <tile gid="34"/>
   <tile gid="34"/>
   <tile gid="34"/>
   <tile gid="30"/>
   <tile gid="30"/>
   <tile gid="30"/>
   <tile gid="30"/>
   <tile gid="30"/>
   <tile gid="30"/>
   <tile gid="30"/>
   <tile gid="30"/>
   <tile gid="30"/>
   <tile gid="30"/>
   <tile gid="30"/>
   <tile gid="30"/>
   <tile gid="30"/>
   <tile gid="30"/>
   <tile gid="30"/>
   <tile gid="30"/>
   <tile gid="30"/>
   <tile gid="30"/>
   <tile gid="30"/>
   <tile gid="30"/>
   <tile gid="30"/>
   <tile gid="30"/>
   <tile gid="30"/>
   <tile gid="30"/>
   <tile gid="30"/>
   <tile gid="30"/>
   <tile gid="30"/>
   <tile gid="30"/>
   <tile gid="30"/>
   <tile gid="30"/>
   <tile gid="30"/>
   <tile gid="30"/>
   <tile gid="34"/>
   <tile gid="34"/>
   <tile gid="34"/>
   <tile gid="34"/>
   <tile gid="34"/>
   <tile gid="34"/>
   <tile gid="34"/>
   <tile gid="34"/>
   <tile gid="34"/>
   <tile gid="34"/>
   <tile gid="34"/>
   <tile gid="34"/>
   <tile gid="34"/>
   <tile gid="34"/>
   <tile gid="34"/>
   <tile gid="34"/>
   <tile gid="34"/>
   <tile gid="34"/>
   <tile gid="34"/>
   <tile gid="34"/>
   <tile gid="34"/>
   <tile gid="34"/>
   <tile gid="34"/>
   <tile gid="34"/>
   <tile gid="34"/>
   <tile gid="34"/>
   <tile gid="34"/>
   <tile gid="34"/>
   <tile gid="34"/>
   <tile gid="34"/>
   <tile gid="34"/>
   <tile gid="34"/>
   <tile gid="34"/>
   <tile gid="34"/>
   <tile gid="34"/>
   <tile gid="34"/>
   <tile gid="34"/>
   <tile gid="34"/>
   <tile gid="34"/>
   <tile gid="34"/>
   <tile gid="34"/>
   <tile gid="34"/>
   <tile gid="34"/>
   <tile gid="34"/>
   <tile gid="34"/>
   <tile gid="34"/>
   <tile gid="34"/>
   <tile gid="34"/>
   <tile gid="34"/>
   <tile gid="34"/>
   <tile gid="34"/>
   <tile gid="34"/>
   <tile gid="30"/>
   <tile gid="30"/>
   <tile gid="30"/>
   <tile gid="30"/>
   <tile gid="30"/>
   <tile gid="30"/>
   <tile gid="30"/>
   <tile gid="30"/>
   <tile gid="30"/>
   <tile gid="30"/>
   <tile gid="30"/>
   <tile gid="30"/>
   <tile gid="30"/>
   <tile gid="30"/>
   <tile gid="30"/>
   <tile gid="30"/>
   <tile gid="30"/>
   <tile gid="30"/>
   <tile gid="30"/>
   <tile gid="30"/>
   <tile gid="30"/>
   <tile gid="30"/>
   <tile gid="30"/>
   <tile gid="30"/>
   <tile gid="30"/>
   <tile gid="30"/>
   <tile gid="30"/>
   <tile gid="30"/>
   <tile gid="30"/>
   <tile gid="30"/>
   <tile gid="30"/>
   <tile gid="30"/>
   <tile gid="30"/>
   <tile gid="30"/>
   <tile gid="30"/>
   <tile gid="30"/>
   <tile gid="30"/>
   <tile gid="30"/>
   <tile gid="30"/>
   <tile gid="30"/>
   <tile gid="30"/>
   <tile gid="30"/>
   <tile gid="34"/>
   <tile gid="34"/>
   <tile gid="34"/>
   <tile gid="34"/>
   <tile gid="34"/>
   <tile gid="34"/>
   <tile gid="30"/>
   <tile gid="30"/>
   <tile gid="30"/>
   <tile gid="30"/>
   <tile gid="30"/>
   <tile gid="30"/>
   <tile gid="30"/>
   <tile gid="30"/>
   <tile gid="30"/>
   <tile gid="30"/>
   <tile gid="30"/>
   <tile gid="30"/>
   <tile gid="30"/>
   <tile gid="30"/>
   <tile gid="30"/>
   <tile gid="30"/>
   <tile gid="30"/>
   <tile gid="30"/>
   <tile gid="30"/>
   <tile gid="30"/>
   <tile gid="30"/>
   <tile gid="30"/>
   <tile gid="30"/>
   <tile gid="30"/>
   <tile gid="30"/>
   <tile gid="30"/>
   <tile gid="30"/>
   <tile gid="30"/>
   <tile gid="30"/>
   <tile gid="30"/>
   <tile gid="30"/>
   <tile gid="30"/>
   <tile gid="34"/>
   <tile gid="34"/>
   <tile gid="34"/>
   <tile gid="34"/>
   <tile gid="34"/>
   <tile gid="34"/>
   <tile gid="34"/>
   <tile gid="34"/>
   <tile gid="34"/>
   <tile gid="34"/>
   <tile gid="34"/>
   <tile gid="34"/>
   <tile gid="34"/>
   <tile gid="34"/>
   <tile gid="34"/>
   <tile gid="34"/>
   <tile gid="34"/>
   <tile gid="34"/>
   <tile gid="34"/>
   <tile gid="34"/>
   <tile gid="34"/>
   <tile gid="34"/>
   <tile gid="34"/>
   <tile gid="34"/>
   <tile gid="34"/>
   <tile gid="34"/>
   <tile gid="34"/>
   <tile gid="34"/>
   <tile gid="34"/>
   <tile gid="34"/>
   <tile gid="34"/>
   <tile gid="34"/>
   <tile gid="34"/>
   <tile gid="34"/>
   <tile gid="34"/>
   <tile gid="34"/>
   <tile gid="34"/>
   <tile gid="34"/>
   <tile gid="34"/>
   <tile gid="34"/>
   <tile gid="34"/>
   <tile gid="34"/>
   <tile gid="34"/>
   <tile gid="34"/>
   <tile gid="34"/>
   <tile gid="34"/>
   <tile gid="34"/>
   <tile gid="34"/>
   <tile gid="34"/>
   <tile gid="34"/>
   <tile gid="34"/>
   <tile gid="34"/>
   <tile gid="30"/>
   <tile gid="30"/>
   <tile gid="30"/>
   <tile gid="30"/>
   <tile gid="30"/>
   <tile gid="30"/>
   <tile gid="30"/>
   <tile gid="30"/>
   <tile gid="30"/>
   <tile gid="30"/>
   <tile gid="30"/>
   <tile gid="30"/>
   <tile gid="30"/>
   <tile gid="30"/>
   <tile gid="30"/>
   <tile gid="30"/>
   <tile gid="30"/>
   <tile gid="30"/>
   <tile gid="30"/>
   <tile gid="30"/>
   <tile gid="30"/>
   <tile gid="30"/>
   <tile gid="30"/>
   <tile gid="30"/>
   <tile gid="30"/>
   <tile gid="30"/>
   <tile gid="30"/>
   <tile gid="30"/>
   <tile gid="30"/>
   <tile gid="30"/>
   <tile gid="30"/>
   <tile gid="30"/>
   <tile gid="30"/>
   <tile gid="30"/>
   <tile gid="30"/>
   <tile gid="30"/>
   <tile gid="30"/>
   <tile gid="30"/>
   <tile gid="30"/>
   <tile gid="30"/>
   <tile gid="30"/>
   <tile gid="30"/>
   <tile gid="34"/>
   <tile gid="34"/>
   <tile gid="34"/>
   <tile gid="34"/>
   <tile gid="34"/>
   <tile gid="34"/>
   <tile gid="30"/>
   <tile gid="30"/>
   <tile gid="30"/>
   <tile gid="30"/>
   <tile gid="30"/>
   <tile gid="30"/>
   <tile gid="30"/>
   <tile gid="30"/>
   <tile gid="30"/>
   <tile gid="30"/>
   <tile gid="30"/>
   <tile gid="30"/>
   <tile gid="30"/>
   <tile gid="30"/>
   <tile gid="30"/>
   <tile gid="30"/>
   <tile gid="30"/>
   <tile gid="30"/>
   <tile gid="30"/>
   <tile gid="30"/>
   <tile gid="30"/>
   <tile gid="30"/>
   <tile gid="30"/>
   <tile gid="30"/>
   <tile gid="30"/>
   <tile gid="30"/>
   <tile gid="30"/>
   <tile gid="30"/>
   <tile gid="30"/>
   <tile gid="30"/>
   <tile gid="30"/>
   <tile gid="30"/>
   <tile gid="34"/>
   <tile gid="34"/>
   <tile gid="34"/>
   <tile gid="34"/>
   <tile gid="34"/>
   <tile gid="34"/>
   <tile gid="34"/>
   <tile gid="34"/>
   <tile gid="34"/>
   <tile gid="34"/>
   <tile gid="34"/>
   <tile gid="34"/>
   <tile gid="34"/>
   <tile gid="34"/>
   <tile gid="34"/>
   <tile gid="34"/>
   <tile gid="34"/>
   <tile gid="34"/>
   <tile gid="34"/>
   <tile gid="34"/>
   <tile gid="34"/>
   <tile gid="34"/>
   <tile gid="34"/>
   <tile gid="34"/>
   <tile gid="34"/>
   <tile gid="34"/>
   <tile gid="34"/>
   <tile gid="34"/>
   <tile gid="34"/>
   <tile gid="34"/>
   <tile gid="34"/>
   <tile gid="34"/>
   <tile gid="34"/>
   <tile gid="34"/>
   <tile gid="34"/>
   <tile gid="34"/>
   <tile gid="34"/>
   <tile gid="34"/>
   <tile gid="34"/>
   <tile gid="34"/>
   <tile gid="34"/>
   <tile gid="34"/>
   <tile gid="34"/>
   <tile gid="34"/>
   <tile gid="34"/>
   <tile gid="34"/>
   <tile gid="34"/>
   <tile gid="34"/>
   <tile gid="34"/>
   <tile gid="34"/>
   <tile gid="34"/>
   <tile gid="34"/>
   <tile gid="30"/>
   <tile gid="30"/>
   <tile gid="30"/>
   <tile gid="30"/>
   <tile gid="30"/>
   <tile gid="30"/>
   <tile gid="30"/>
   <tile gid="30"/>
   <tile gid="30"/>
   <tile gid="30"/>
   <tile gid="30"/>
   <tile gid="30"/>
   <tile gid="30"/>
   <tile gid="30"/>
   <tile gid="30"/>
   <tile gid="30"/>
   <tile gid="30"/>
   <tile gid="30"/>
   <tile gid="30"/>
   <tile gid="30"/>
   <tile gid="30"/>
   <tile gid="30"/>
   <tile gid="30"/>
   <tile gid="30"/>
   <tile gid="30"/>
   <tile gid="30"/>
   <tile gid="30"/>
   <tile gid="30"/>
   <tile gid="30"/>
   <tile gid="30"/>
   <tile gid="30"/>
   <tile gid="30"/>
   <tile gid="30"/>
   <tile gid="30"/>
   <tile gid="30"/>
   <tile gid="30"/>
   <tile gid="30"/>
   <tile gid="30"/>
   <tile gid="30"/>
   <tile gid="30"/>
   <tile gid="30"/>
   <tile gid="30"/>
   <tile gid="34"/>
   <tile gid="34"/>
   <tile gid="34"/>
   <tile gid="34"/>
   <tile gid="34"/>
   <tile gid="34"/>
   <tile gid="30"/>
   <tile gid="30"/>
   <tile gid="30"/>
   <tile gid="30"/>
   <tile gid="30"/>
   <tile gid="30"/>
   <tile gid="30"/>
   <tile gid="30"/>
   <tile gid="30"/>
   <tile gid="30"/>
   <tile gid="30"/>
   <tile gid="30"/>
   <tile gid="30"/>
   <tile gid="30"/>
   <tile gid="30"/>
   <tile gid="30"/>
   <tile gid="30"/>
   <tile gid="30"/>
   <tile gid="30"/>
   <tile gid="30"/>
   <tile gid="30"/>
   <tile gid="30"/>
   <tile gid="30"/>
   <tile gid="30"/>
   <tile gid="30"/>
   <tile gid="30"/>
   <tile gid="30"/>
   <tile gid="30"/>
   <tile gid="30"/>
   <tile gid="30"/>
   <tile gid="30"/>
   <tile gid="30"/>
   <tile gid="34"/>
   <tile gid="34"/>
   <tile gid="34"/>
   <tile gid="34"/>
   <tile gid="34"/>
   <tile gid="34"/>
   <tile gid="34"/>
   <tile gid="34"/>
   <tile gid="34"/>
   <tile gid="34"/>
   <tile gid="34"/>
   <tile gid="34"/>
   <tile gid="34"/>
   <tile gid="34"/>
   <tile gid="34"/>
   <tile gid="34"/>
   <tile gid="34"/>
   <tile gid="34"/>
   <tile gid="34"/>
   <tile gid="34"/>
   <tile gid="34"/>
   <tile gid="34"/>
   <tile gid="34"/>
   <tile gid="34"/>
   <tile gid="34"/>
   <tile gid="34"/>
   <tile gid="34"/>
   <tile gid="34"/>
   <tile gid="34"/>
   <tile gid="34"/>
   <tile gid="34"/>
   <tile gid="34"/>
   <tile gid="34"/>
   <tile gid="34"/>
   <tile gid="34"/>
   <tile gid="34"/>
   <tile gid="34"/>
   <tile gid="34"/>
   <tile gid="34"/>
   <tile gid="34"/>
   <tile gid="34"/>
   <tile gid="34"/>
   <tile gid="34"/>
   <tile gid="34"/>
   <tile gid="34"/>
   <tile gid="34"/>
   <tile gid="34"/>
   <tile gid="34"/>
   <tile gid="34"/>
   <tile gid="34"/>
   <tile gid="34"/>
   <tile gid="34"/>
   <tile gid="30"/>
   <tile gid="30"/>
   <tile gid="30"/>
   <tile gid="30"/>
   <tile gid="30"/>
   <tile gid="30"/>
   <tile gid="30"/>
   <tile gid="30"/>
   <tile gid="30"/>
   <tile gid="30"/>
   <tile gid="30"/>
   <tile gid="30"/>
   <tile gid="30"/>
   <tile gid="30"/>
   <tile gid="30"/>
   <tile gid="30"/>
   <tile gid="30"/>
   <tile gid="30"/>
   <tile gid="30"/>
   <tile gid="30"/>
   <tile gid="30"/>
   <tile gid="30"/>
   <tile gid="30"/>
   <tile gid="30"/>
   <tile gid="30"/>
   <tile gid="30"/>
   <tile gid="30"/>
   <tile gid="30"/>
   <tile gid="30"/>
   <tile gid="30"/>
   <tile gid="30"/>
   <tile gid="30"/>
   <tile gid="30"/>
   <tile gid="30"/>
   <tile gid="30"/>
   <tile gid="30"/>
   <tile gid="30"/>
   <tile gid="30"/>
   <tile gid="30"/>
   <tile gid="30"/>
   <tile gid="30"/>
   <tile gid="30"/>
   <tile gid="34"/>
   <tile gid="34"/>
   <tile gid="34"/>
   <tile gid="34"/>
   <tile gid="34"/>
   <tile gid="34"/>
   <tile gid="30"/>
   <tile gid="30"/>
   <tile gid="30"/>
   <tile gid="30"/>
   <tile gid="30"/>
   <tile gid="30"/>
   <tile gid="30"/>
   <tile gid="30"/>
   <tile gid="30"/>
   <tile gid="30"/>
   <tile gid="30"/>
   <tile gid="30"/>
   <tile gid="30"/>
   <tile gid="30"/>
   <tile gid="30"/>
   <tile gid="30"/>
   <tile gid="30"/>
   <tile gid="30"/>
   <tile gid="30"/>
   <tile gid="30"/>
   <tile gid="30"/>
   <tile gid="30"/>
   <tile gid="30"/>
   <tile gid="30"/>
   <tile gid="30"/>
   <tile gid="30"/>
   <tile gid="30"/>
   <tile gid="30"/>
   <tile gid="30"/>
   <tile gid="30"/>
   <tile gid="30"/>
   <tile gid="30"/>
   <tile gid="34"/>
   <tile gid="34"/>
   <tile gid="34"/>
   <tile gid="34"/>
   <tile gid="34"/>
   <tile gid="34"/>
   <tile gid="34"/>
   <tile gid="34"/>
   <tile gid="34"/>
   <tile gid="34"/>
   <tile gid="34"/>
   <tile gid="34"/>
   <tile gid="34"/>
   <tile gid="34"/>
   <tile gid="34"/>
   <tile gid="34"/>
   <tile gid="34"/>
   <tile gid="34"/>
   <tile gid="34"/>
   <tile gid="34"/>
   <tile gid="34"/>
   <tile gid="34"/>
   <tile gid="34"/>
   <tile gid="34"/>
   <tile gid="34"/>
   <tile gid="34"/>
   <tile gid="34"/>
   <tile gid="34"/>
   <tile gid="34"/>
   <tile gid="34"/>
   <tile gid="34"/>
   <tile gid="34"/>
   <tile gid="34"/>
   <tile gid="34"/>
   <tile gid="34"/>
   <tile gid="34"/>
   <tile gid="34"/>
   <tile gid="34"/>
   <tile gid="34"/>
   <tile gid="34"/>
   <tile gid="34"/>
   <tile gid="34"/>
   <tile gid="34"/>
   <tile gid="34"/>
   <tile gid="34"/>
   <tile gid="34"/>
   <tile gid="34"/>
   <tile gid="34"/>
   <tile gid="34"/>
   <tile gid="34"/>
   <tile gid="34"/>
   <tile gid="34"/>
   <tile gid="30"/>
   <tile gid="30"/>
   <tile gid="30"/>
   <tile gid="30"/>
   <tile gid="30"/>
   <tile gid="30"/>
   <tile gid="30"/>
   <tile gid="30"/>
   <tile gid="30"/>
   <tile gid="30"/>
   <tile gid="30"/>
   <tile gid="30"/>
   <tile gid="30"/>
   <tile gid="30"/>
   <tile gid="30"/>
   <tile gid="30"/>
   <tile gid="30"/>
   <tile gid="30"/>
   <tile gid="30"/>
   <tile gid="30"/>
   <tile gid="30"/>
   <tile gid="30"/>
   <tile gid="30"/>
   <tile gid="30"/>
   <tile gid="30"/>
   <tile gid="30"/>
   <tile gid="30"/>
   <tile gid="30"/>
   <tile gid="30"/>
   <tile gid="30"/>
   <tile gid="30"/>
   <tile gid="30"/>
   <tile gid="30"/>
   <tile gid="30"/>
   <tile gid="30"/>
   <tile gid="30"/>
   <tile gid="30"/>
   <tile gid="30"/>
   <tile gid="30"/>
   <tile gid="30"/>
   <tile gid="30"/>
   <tile gid="30"/>
   <tile gid="34"/>
   <tile gid="34"/>
   <tile gid="34"/>
   <tile gid="34"/>
   <tile gid="34"/>
   <tile gid="34"/>
   <tile gid="30"/>
   <tile gid="30"/>
   <tile gid="30"/>
   <tile gid="30"/>
   <tile gid="30"/>
   <tile gid="30"/>
   <tile gid="30"/>
   <tile gid="30"/>
   <tile gid="30"/>
   <tile gid="30"/>
   <tile gid="30"/>
   <tile gid="30"/>
   <tile gid="30"/>
   <tile gid="30"/>
   <tile gid="30"/>
   <tile gid="30"/>
   <tile gid="30"/>
   <tile gid="30"/>
   <tile gid="30"/>
   <tile gid="30"/>
   <tile gid="30"/>
   <tile gid="30"/>
   <tile gid="30"/>
   <tile gid="30"/>
   <tile gid="30"/>
   <tile gid="30"/>
   <tile gid="30"/>
   <tile gid="30"/>
   <tile gid="30"/>
   <tile gid="30"/>
   <tile gid="30"/>
   <tile gid="30"/>
   <tile gid="34"/>
   <tile gid="34"/>
   <tile gid="34"/>
   <tile gid="34"/>
   <tile gid="34"/>
   <tile gid="34"/>
   <tile gid="34"/>
   <tile gid="34"/>
   <tile gid="34"/>
   <tile gid="34"/>
   <tile gid="34"/>
   <tile gid="34"/>
   <tile gid="34"/>
   <tile gid="34"/>
   <tile gid="34"/>
   <tile gid="34"/>
   <tile gid="34"/>
   <tile gid="34"/>
   <tile gid="34"/>
   <tile gid="34"/>
   <tile gid="34"/>
   <tile gid="34"/>
   <tile gid="34"/>
   <tile gid="34"/>
   <tile gid="34"/>
   <tile gid="34"/>
   <tile gid="34"/>
   <tile gid="34"/>
   <tile gid="34"/>
   <tile gid="34"/>
   <tile gid="34"/>
   <tile gid="34"/>
   <tile gid="34"/>
   <tile gid="34"/>
   <tile gid="34"/>
   <tile gid="34"/>
   <tile gid="34"/>
   <tile gid="34"/>
   <tile gid="34"/>
   <tile gid="34"/>
   <tile gid="34"/>
   <tile gid="34"/>
   <tile gid="34"/>
   <tile gid="34"/>
   <tile gid="34"/>
   <tile gid="34"/>
   <tile gid="34"/>
   <tile gid="34"/>
   <tile gid="34"/>
   <tile gid="34"/>
   <tile gid="34"/>
   <tile gid="34"/>
   <tile gid="30"/>
   <tile gid="30"/>
   <tile gid="30"/>
   <tile gid="30"/>
   <tile gid="30"/>
   <tile gid="30"/>
   <tile gid="30"/>
   <tile gid="30"/>
   <tile gid="30"/>
   <tile gid="30"/>
   <tile gid="30"/>
   <tile gid="30"/>
   <tile gid="30"/>
   <tile gid="30"/>
   <tile gid="30"/>
   <tile gid="30"/>
   <tile gid="30"/>
   <tile gid="30"/>
   <tile gid="30"/>
   <tile gid="30"/>
   <tile gid="30"/>
   <tile gid="30"/>
   <tile gid="30"/>
   <tile gid="30"/>
   <tile gid="30"/>
   <tile gid="30"/>
   <tile gid="30"/>
   <tile gid="30"/>
   <tile gid="30"/>
   <tile gid="30"/>
   <tile gid="30"/>
   <tile gid="30"/>
   <tile gid="30"/>
   <tile gid="30"/>
   <tile gid="30"/>
   <tile gid="30"/>
   <tile gid="30"/>
   <tile gid="30"/>
   <tile gid="30"/>
   <tile gid="30"/>
   <tile gid="30"/>
   <tile gid="30"/>
   <tile gid="34"/>
   <tile gid="34"/>
   <tile gid="34"/>
   <tile gid="34"/>
   <tile gid="34"/>
   <tile gid="34"/>
   <tile gid="30"/>
   <tile gid="30"/>
   <tile gid="30"/>
   <tile gid="30"/>
   <tile gid="30"/>
   <tile gid="30"/>
   <tile gid="30"/>
   <tile gid="30"/>
   <tile gid="30"/>
   <tile gid="30"/>
   <tile gid="30"/>
   <tile gid="30"/>
   <tile gid="30"/>
   <tile gid="30"/>
   <tile gid="30"/>
   <tile gid="30"/>
   <tile gid="30"/>
   <tile gid="30"/>
   <tile gid="30"/>
   <tile gid="30"/>
   <tile gid="30"/>
   <tile gid="30"/>
   <tile gid="30"/>
   <tile gid="30"/>
   <tile gid="30"/>
   <tile gid="30"/>
   <tile gid="30"/>
   <tile gid="30"/>
   <tile gid="30"/>
   <tile gid="30"/>
   <tile gid="30"/>
   <tile gid="30"/>
   <tile gid="34"/>
   <tile gid="34"/>
   <tile gid="34"/>
   <tile gid="34"/>
   <tile gid="34"/>
   <tile gid="34"/>
   <tile gid="34"/>
   <tile gid="34"/>
   <tile gid="34"/>
   <tile gid="34"/>
   <tile gid="34"/>
   <tile gid="34"/>
   <tile gid="34"/>
   <tile gid="34"/>
   <tile gid="34"/>
   <tile gid="34"/>
   <tile gid="34"/>
   <tile gid="34"/>
   <tile gid="34"/>
   <tile gid="34"/>
   <tile gid="34"/>
   <tile gid="34"/>
   <tile gid="34"/>
   <tile gid="34"/>
   <tile gid="34"/>
   <tile gid="34"/>
   <tile gid="34"/>
   <tile gid="34"/>
   <tile gid="34"/>
   <tile gid="34"/>
   <tile gid="34"/>
   <tile gid="34"/>
   <tile gid="34"/>
   <tile gid="34"/>
   <tile gid="34"/>
   <tile gid="34"/>
   <tile gid="34"/>
   <tile gid="34"/>
   <tile gid="34"/>
   <tile gid="34"/>
   <tile gid="34"/>
   <tile gid="34"/>
   <tile gid="34"/>
   <tile gid="34"/>
   <tile gid="34"/>
   <tile gid="34"/>
   <tile gid="34"/>
   <tile gid="34"/>
   <tile gid="34"/>
   <tile gid="34"/>
   <tile gid="34"/>
   <tile gid="34"/>
   <tile gid="30"/>
   <tile gid="30"/>
   <tile gid="30"/>
   <tile gid="30"/>
   <tile gid="30"/>
   <tile gid="30"/>
   <tile gid="30"/>
   <tile gid="30"/>
   <tile gid="30"/>
   <tile gid="30"/>
   <tile gid="30"/>
   <tile gid="30"/>
   <tile gid="30"/>
   <tile gid="30"/>
   <tile gid="30"/>
   <tile gid="30"/>
   <tile gid="30"/>
   <tile gid="30"/>
   <tile gid="30"/>
   <tile gid="30"/>
   <tile gid="30"/>
   <tile gid="30"/>
   <tile gid="30"/>
   <tile gid="30"/>
   <tile gid="30"/>
   <tile gid="30"/>
   <tile gid="30"/>
   <tile gid="30"/>
   <tile gid="30"/>
   <tile gid="30"/>
   <tile gid="30"/>
   <tile gid="30"/>
   <tile gid="30"/>
   <tile gid="30"/>
   <tile gid="30"/>
   <tile gid="30"/>
   <tile gid="30"/>
   <tile gid="30"/>
   <tile gid="30"/>
   <tile gid="30"/>
   <tile gid="30"/>
   <tile gid="30"/>
   <tile gid="34"/>
   <tile gid="34"/>
   <tile gid="34"/>
   <tile gid="34"/>
   <tile gid="34"/>
   <tile gid="34"/>
   <tile gid="30"/>
   <tile gid="30"/>
   <tile gid="30"/>
   <tile gid="30"/>
   <tile gid="30"/>
   <tile gid="30"/>
   <tile gid="30"/>
   <tile gid="30"/>
   <tile gid="30"/>
   <tile gid="30"/>
   <tile gid="30"/>
   <tile gid="30"/>
   <tile gid="30"/>
   <tile gid="30"/>
   <tile gid="30"/>
   <tile gid="30"/>
   <tile gid="30"/>
   <tile gid="30"/>
   <tile gid="30"/>
   <tile gid="30"/>
   <tile gid="30"/>
   <tile gid="30"/>
   <tile gid="30"/>
   <tile gid="30"/>
   <tile gid="30"/>
   <tile gid="30"/>
   <tile gid="30"/>
   <tile gid="30"/>
   <tile gid="30"/>
   <tile gid="30"/>
   <tile gid="30"/>
   <tile gid="30"/>
   <tile gid="34"/>
   <tile gid="34"/>
   <tile gid="34"/>
   <tile gid="34"/>
   <tile gid="34"/>
   <tile gid="34"/>
   <tile gid="34"/>
   <tile gid="34"/>
   <tile gid="34"/>
   <tile gid="34"/>
   <tile gid="34"/>
   <tile gid="34"/>
   <tile gid="34"/>
   <tile gid="34"/>
   <tile gid="34"/>
   <tile gid="34"/>
   <tile gid="34"/>
   <tile gid="34"/>
   <tile gid="34"/>
   <tile gid="34"/>
   <tile gid="34"/>
   <tile gid="34"/>
   <tile gid="34"/>
   <tile gid="34"/>
   <tile gid="34"/>
   <tile gid="34"/>
   <tile gid="34"/>
   <tile gid="34"/>
   <tile gid="34"/>
   <tile gid="34"/>
   <tile gid="34"/>
   <tile gid="34"/>
   <tile gid="34"/>
   <tile gid="34"/>
   <tile gid="34"/>
   <tile gid="34"/>
   <tile gid="34"/>
   <tile gid="34"/>
   <tile gid="34"/>
   <tile gid="34"/>
   <tile gid="34"/>
   <tile gid="34"/>
   <tile gid="34"/>
   <tile gid="34"/>
   <tile gid="34"/>
   <tile gid="34"/>
   <tile gid="34"/>
   <tile gid="34"/>
   <tile gid="34"/>
   <tile gid="34"/>
   <tile gid="34"/>
   <tile gid="34"/>
   <tile gid="30"/>
   <tile gid="30"/>
   <tile gid="30"/>
   <tile gid="30"/>
   <tile gid="30"/>
   <tile gid="30"/>
   <tile gid="30"/>
   <tile gid="30"/>
   <tile gid="30"/>
   <tile gid="30"/>
   <tile gid="30"/>
   <tile gid="30"/>
   <tile gid="30"/>
   <tile gid="30"/>
   <tile gid="30"/>
   <tile gid="30"/>
   <tile gid="30"/>
   <tile gid="30"/>
   <tile gid="30"/>
   <tile gid="30"/>
   <tile gid="30"/>
   <tile gid="30"/>
   <tile gid="30"/>
   <tile gid="30"/>
   <tile gid="30"/>
   <tile gid="30"/>
   <tile gid="30"/>
   <tile gid="30"/>
   <tile gid="30"/>
   <tile gid="30"/>
   <tile gid="30"/>
   <tile gid="30"/>
   <tile gid="30"/>
   <tile gid="30"/>
   <tile gid="30"/>
   <tile gid="30"/>
   <tile gid="30"/>
   <tile gid="30"/>
   <tile gid="30"/>
   <tile gid="30"/>
   <tile gid="30"/>
   <tile gid="30"/>
   <tile gid="34"/>
   <tile gid="34"/>
   <tile gid="34"/>
   <tile gid="34"/>
   <tile gid="34"/>
   <tile gid="34"/>
   <tile gid="30"/>
   <tile gid="30"/>
   <tile gid="30"/>
   <tile gid="30"/>
   <tile gid="30"/>
   <tile gid="30"/>
   <tile gid="30"/>
   <tile gid="30"/>
   <tile gid="30"/>
   <tile gid="30"/>
   <tile gid="30"/>
   <tile gid="30"/>
   <tile gid="30"/>
   <tile gid="30"/>
   <tile gid="30"/>
   <tile gid="30"/>
   <tile gid="30"/>
   <tile gid="30"/>
   <tile gid="30"/>
   <tile gid="30"/>
   <tile gid="30"/>
   <tile gid="30"/>
   <tile gid="30"/>
   <tile gid="30"/>
   <tile gid="30"/>
   <tile gid="30"/>
   <tile gid="30"/>
   <tile gid="30"/>
   <tile gid="30"/>
   <tile gid="30"/>
   <tile gid="30"/>
   <tile gid="30"/>
   <tile gid="34"/>
   <tile gid="34"/>
   <tile gid="34"/>
   <tile gid="34"/>
   <tile gid="34"/>
   <tile gid="34"/>
   <tile gid="34"/>
   <tile gid="34"/>
   <tile gid="34"/>
   <tile gid="34"/>
   <tile gid="34"/>
   <tile gid="34"/>
   <tile gid="34"/>
   <tile gid="34"/>
   <tile gid="34"/>
   <tile gid="34"/>
   <tile gid="34"/>
   <tile gid="34"/>
   <tile gid="34"/>
   <tile gid="34"/>
   <tile gid="34"/>
   <tile gid="34"/>
   <tile gid="34"/>
   <tile gid="34"/>
   <tile gid="34"/>
   <tile gid="34"/>
   <tile gid="34"/>
   <tile gid="34"/>
   <tile gid="34"/>
   <tile gid="34"/>
   <tile gid="34"/>
   <tile gid="34"/>
   <tile gid="34"/>
   <tile gid="34"/>
   <tile gid="34"/>
   <tile gid="34"/>
   <tile gid="34"/>
   <tile gid="34"/>
   <tile gid="34"/>
   <tile gid="34"/>
   <tile gid="34"/>
   <tile gid="34"/>
   <tile gid="34"/>
   <tile gid="34"/>
   <tile gid="34"/>
   <tile gid="34"/>
   <tile gid="34"/>
   <tile gid="34"/>
   <tile gid="34"/>
   <tile gid="34"/>
   <tile gid="34"/>
   <tile gid="34"/>
   <tile gid="30"/>
   <tile gid="30"/>
   <tile gid="30"/>
   <tile gid="30"/>
   <tile gid="30"/>
   <tile gid="30"/>
   <tile gid="30"/>
   <tile gid="30"/>
   <tile gid="30"/>
   <tile gid="30"/>
   <tile gid="30"/>
   <tile gid="30"/>
   <tile gid="30"/>
   <tile gid="30"/>
   <tile gid="30"/>
   <tile gid="30"/>
   <tile gid="30"/>
   <tile gid="30"/>
   <tile gid="30"/>
   <tile gid="30"/>
   <tile gid="30"/>
   <tile gid="30"/>
   <tile gid="30"/>
   <tile gid="30"/>
   <tile gid="30"/>
   <tile gid="30"/>
   <tile gid="30"/>
   <tile gid="30"/>
   <tile gid="30"/>
   <tile gid="30"/>
   <tile gid="30"/>
   <tile gid="30"/>
   <tile gid="30"/>
   <tile gid="30"/>
   <tile gid="30"/>
   <tile gid="30"/>
   <tile gid="30"/>
   <tile gid="30"/>
   <tile gid="30"/>
   <tile gid="30"/>
   <tile gid="30"/>
   <tile gid="30"/>
   <tile gid="34"/>
   <tile gid="34"/>
   <tile gid="34"/>
   <tile gid="34"/>
   <tile gid="34"/>
   <tile gid="34"/>
   <tile gid="30"/>
   <tile gid="30"/>
   <tile gid="30"/>
   <tile gid="30"/>
   <tile gid="30"/>
   <tile gid="30"/>
   <tile gid="30"/>
   <tile gid="30"/>
   <tile gid="30"/>
   <tile gid="30"/>
   <tile gid="30"/>
   <tile gid="30"/>
   <tile gid="30"/>
   <tile gid="30"/>
   <tile gid="30"/>
   <tile gid="30"/>
   <tile gid="30"/>
   <tile gid="30"/>
   <tile gid="30"/>
   <tile gid="30"/>
   <tile gid="30"/>
   <tile gid="30"/>
   <tile gid="30"/>
   <tile gid="30"/>
   <tile gid="30"/>
   <tile gid="30"/>
   <tile gid="30"/>
   <tile gid="30"/>
   <tile gid="30"/>
   <tile gid="30"/>
   <tile gid="30"/>
   <tile gid="30"/>
   <tile gid="34"/>
   <tile gid="34"/>
   <tile gid="34"/>
   <tile gid="34"/>
   <tile gid="34"/>
   <tile gid="34"/>
   <tile gid="34"/>
   <tile gid="34"/>
   <tile gid="34"/>
   <tile gid="34"/>
   <tile gid="34"/>
   <tile gid="34"/>
   <tile gid="34"/>
   <tile gid="34"/>
   <tile gid="34"/>
   <tile gid="34"/>
   <tile gid="34"/>
   <tile gid="34"/>
   <tile gid="34"/>
   <tile gid="34"/>
   <tile gid="34"/>
   <tile gid="34"/>
   <tile gid="34"/>
   <tile gid="34"/>
   <tile gid="34"/>
   <tile gid="34"/>
   <tile gid="34"/>
   <tile gid="34"/>
   <tile gid="34"/>
   <tile gid="34"/>
   <tile gid="34"/>
   <tile gid="34"/>
   <tile gid="34"/>
   <tile gid="34"/>
   <tile gid="34"/>
   <tile gid="34"/>
   <tile gid="34"/>
   <tile gid="34"/>
   <tile gid="34"/>
   <tile gid="34"/>
   <tile gid="34"/>
   <tile gid="34"/>
   <tile gid="34"/>
   <tile gid="34"/>
   <tile gid="34"/>
   <tile gid="34"/>
   <tile gid="34"/>
   <tile gid="34"/>
   <tile gid="34"/>
   <tile gid="34"/>
   <tile gid="34"/>
   <tile gid="34"/>
   <tile gid="30"/>
   <tile gid="30"/>
   <tile gid="30"/>
   <tile gid="30"/>
   <tile gid="30"/>
   <tile gid="30"/>
   <tile gid="30"/>
   <tile gid="30"/>
   <tile gid="30"/>
   <tile gid="30"/>
   <tile gid="30"/>
   <tile gid="30"/>
   <tile gid="30"/>
   <tile gid="30"/>
   <tile gid="30"/>
   <tile gid="30"/>
   <tile gid="30"/>
   <tile gid="30"/>
   <tile gid="30"/>
   <tile gid="30"/>
   <tile gid="30"/>
   <tile gid="30"/>
   <tile gid="30"/>
   <tile gid="30"/>
   <tile gid="30"/>
   <tile gid="30"/>
   <tile gid="30"/>
   <tile gid="30"/>
   <tile gid="30"/>
   <tile gid="30"/>
   <tile gid="30"/>
   <tile gid="30"/>
   <tile gid="30"/>
   <tile gid="30"/>
   <tile gid="30"/>
   <tile gid="30"/>
   <tile gid="30"/>
   <tile gid="30"/>
   <tile gid="30"/>
   <tile gid="30"/>
   <tile gid="30"/>
   <tile gid="30"/>
   <tile gid="34"/>
   <tile gid="34"/>
   <tile gid="34"/>
   <tile gid="34"/>
   <tile gid="34"/>
   <tile gid="34"/>
   <tile gid="30"/>
   <tile gid="30"/>
   <tile gid="30"/>
   <tile gid="30"/>
   <tile gid="30"/>
   <tile gid="30"/>
   <tile gid="30"/>
   <tile gid="30"/>
   <tile gid="30"/>
   <tile gid="30"/>
   <tile gid="30"/>
   <tile gid="30"/>
   <tile gid="30"/>
   <tile gid="30"/>
   <tile gid="30"/>
   <tile gid="30"/>
   <tile gid="30"/>
   <tile gid="30"/>
   <tile gid="30"/>
   <tile gid="30"/>
   <tile gid="30"/>
   <tile gid="30"/>
   <tile gid="30"/>
   <tile gid="30"/>
   <tile gid="30"/>
   <tile gid="30"/>
   <tile gid="30"/>
   <tile gid="30"/>
   <tile gid="30"/>
   <tile gid="30"/>
   <tile gid="30"/>
   <tile gid="30"/>
   <tile gid="34"/>
   <tile gid="34"/>
   <tile gid="34"/>
   <tile gid="34"/>
   <tile gid="34"/>
   <tile gid="34"/>
   <tile gid="34"/>
   <tile gid="34"/>
   <tile gid="34"/>
   <tile gid="34"/>
   <tile gid="34"/>
   <tile gid="34"/>
   <tile gid="34"/>
   <tile gid="34"/>
   <tile gid="34"/>
   <tile gid="34"/>
   <tile gid="34"/>
   <tile gid="34"/>
   <tile gid="34"/>
   <tile gid="34"/>
   <tile gid="34"/>
   <tile gid="34"/>
   <tile gid="34"/>
   <tile gid="34"/>
   <tile gid="34"/>
   <tile gid="34"/>
   <tile gid="34"/>
   <tile gid="34"/>
   <tile gid="34"/>
   <tile gid="34"/>
   <tile gid="34"/>
   <tile gid="34"/>
   <tile gid="34"/>
   <tile gid="34"/>
   <tile gid="34"/>
   <tile gid="34"/>
   <tile gid="34"/>
   <tile gid="34"/>
   <tile gid="34"/>
   <tile gid="34"/>
   <tile gid="34"/>
   <tile gid="34"/>
   <tile gid="34"/>
   <tile gid="34"/>
   <tile gid="34"/>
   <tile gid="34"/>
   <tile gid="34"/>
   <tile gid="34"/>
   <tile gid="34"/>
   <tile gid="34"/>
   <tile gid="34"/>
   <tile gid="34"/>
   <tile gid="30"/>
   <tile gid="30"/>
   <tile gid="30"/>
   <tile gid="30"/>
   <tile gid="30"/>
   <tile gid="30"/>
   <tile gid="30"/>
   <tile gid="30"/>
   <tile gid="30"/>
   <tile gid="30"/>
   <tile gid="30"/>
   <tile gid="30"/>
   <tile gid="30"/>
   <tile gid="30"/>
   <tile gid="30"/>
   <tile gid="30"/>
   <tile gid="30"/>
   <tile gid="30"/>
   <tile gid="30"/>
   <tile gid="30"/>
   <tile gid="30"/>
   <tile gid="30"/>
   <tile gid="30"/>
   <tile gid="30"/>
   <tile gid="30"/>
   <tile gid="30"/>
   <tile gid="30"/>
   <tile gid="30"/>
   <tile gid="30"/>
   <tile gid="30"/>
   <tile gid="30"/>
   <tile gid="30"/>
   <tile gid="30"/>
   <tile gid="30"/>
   <tile gid="30"/>
   <tile gid="30"/>
   <tile gid="30"/>
   <tile gid="30"/>
   <tile gid="30"/>
   <tile gid="30"/>
   <tile gid="30"/>
   <tile gid="30"/>
   <tile gid="34"/>
   <tile gid="34"/>
   <tile gid="34"/>
   <tile gid="34"/>
   <tile gid="34"/>
   <tile gid="34"/>
   <tile gid="30"/>
   <tile gid="30"/>
   <tile gid="30"/>
   <tile gid="30"/>
   <tile gid="30"/>
   <tile gid="30"/>
   <tile gid="30"/>
   <tile gid="30"/>
   <tile gid="30"/>
   <tile gid="30"/>
   <tile gid="30"/>
   <tile gid="30"/>
   <tile gid="30"/>
   <tile gid="30"/>
   <tile gid="30"/>
   <tile gid="30"/>
   <tile gid="30"/>
   <tile gid="30"/>
   <tile gid="30"/>
   <tile gid="30"/>
   <tile gid="30"/>
   <tile gid="30"/>
   <tile gid="30"/>
   <tile gid="30"/>
   <tile gid="30"/>
   <tile gid="30"/>
   <tile gid="30"/>
   <tile gid="30"/>
   <tile gid="30"/>
   <tile gid="30"/>
   <tile gid="30"/>
   <tile gid="30"/>
   <tile gid="34"/>
   <tile gid="34"/>
   <tile gid="34"/>
   <tile gid="34"/>
   <tile gid="34"/>
   <tile gid="34"/>
   <tile gid="34"/>
   <tile gid="34"/>
   <tile gid="34"/>
   <tile gid="34"/>
   <tile gid="34"/>
   <tile gid="34"/>
   <tile gid="34"/>
   <tile gid="34"/>
   <tile gid="34"/>
   <tile gid="34"/>
   <tile gid="34"/>
   <tile gid="34"/>
   <tile gid="34"/>
   <tile gid="34"/>
   <tile gid="34"/>
   <tile gid="34"/>
   <tile gid="34"/>
   <tile gid="34"/>
   <tile gid="34"/>
   <tile gid="34"/>
   <tile gid="34"/>
   <tile gid="34"/>
   <tile gid="34"/>
   <tile gid="34"/>
   <tile gid="34"/>
   <tile gid="34"/>
   <tile gid="34"/>
   <tile gid="34"/>
   <tile gid="34"/>
   <tile gid="34"/>
   <tile gid="34"/>
   <tile gid="34"/>
   <tile gid="34"/>
   <tile gid="34"/>
   <tile gid="34"/>
   <tile gid="34"/>
   <tile gid="34"/>
   <tile gid="34"/>
   <tile gid="34"/>
   <tile gid="34"/>
   <tile gid="34"/>
   <tile gid="34"/>
   <tile gid="34"/>
   <tile gid="34"/>
   <tile gid="34"/>
   <tile gid="34"/>
   <tile gid="30"/>
   <tile gid="30"/>
   <tile gid="30"/>
   <tile gid="30"/>
   <tile gid="30"/>
   <tile gid="30"/>
   <tile gid="30"/>
   <tile gid="30"/>
   <tile gid="30"/>
   <tile gid="30"/>
   <tile gid="30"/>
   <tile gid="30"/>
   <tile gid="30"/>
   <tile gid="30"/>
   <tile gid="30"/>
   <tile gid="30"/>
   <tile gid="30"/>
   <tile gid="30"/>
   <tile gid="30"/>
   <tile gid="30"/>
   <tile gid="30"/>
   <tile gid="30"/>
   <tile gid="30"/>
   <tile gid="30"/>
   <tile gid="30"/>
   <tile gid="30"/>
   <tile gid="30"/>
   <tile gid="30"/>
   <tile gid="30"/>
   <tile gid="30"/>
   <tile gid="30"/>
   <tile gid="30"/>
   <tile gid="30"/>
   <tile gid="30"/>
   <tile gid="30"/>
   <tile gid="30"/>
   <tile gid="30"/>
   <tile gid="30"/>
   <tile gid="30"/>
   <tile gid="30"/>
   <tile gid="30"/>
   <tile gid="30"/>
   <tile gid="34"/>
   <tile gid="34"/>
   <tile gid="34"/>
   <tile gid="34"/>
   <tile gid="34"/>
   <tile gid="34"/>
   <tile gid="30"/>
   <tile gid="30"/>
   <tile gid="30"/>
   <tile gid="30"/>
   <tile gid="30"/>
   <tile gid="30"/>
   <tile gid="30"/>
   <tile gid="30"/>
   <tile gid="30"/>
   <tile gid="30"/>
   <tile gid="30"/>
   <tile gid="30"/>
   <tile gid="30"/>
   <tile gid="30"/>
   <tile gid="30"/>
   <tile gid="30"/>
   <tile gid="30"/>
   <tile gid="30"/>
   <tile gid="30"/>
   <tile gid="30"/>
   <tile gid="30"/>
   <tile gid="30"/>
   <tile gid="30"/>
   <tile gid="30"/>
   <tile gid="30"/>
   <tile gid="30"/>
   <tile gid="30"/>
   <tile gid="30"/>
   <tile gid="30"/>
   <tile gid="30"/>
   <tile gid="30"/>
   <tile gid="30"/>
   <tile gid="34"/>
   <tile gid="34"/>
   <tile gid="34"/>
   <tile gid="34"/>
   <tile gid="34"/>
   <tile gid="34"/>
   <tile gid="34"/>
   <tile gid="34"/>
   <tile gid="34"/>
   <tile gid="34"/>
   <tile gid="34"/>
   <tile gid="34"/>
   <tile gid="34"/>
   <tile gid="34"/>
   <tile gid="34"/>
   <tile gid="34"/>
   <tile gid="34"/>
   <tile gid="34"/>
   <tile gid="34"/>
   <tile gid="34"/>
   <tile gid="34"/>
   <tile gid="34"/>
   <tile gid="34"/>
   <tile gid="34"/>
   <tile gid="34"/>
   <tile gid="34"/>
   <tile gid="34"/>
   <tile gid="34"/>
   <tile gid="34"/>
   <tile gid="34"/>
   <tile gid="34"/>
   <tile gid="34"/>
   <tile gid="34"/>
   <tile gid="34"/>
   <tile gid="34"/>
   <tile gid="34"/>
   <tile gid="34"/>
   <tile gid="34"/>
   <tile gid="34"/>
   <tile gid="34"/>
   <tile gid="34"/>
   <tile gid="34"/>
   <tile gid="34"/>
   <tile gid="34"/>
   <tile gid="34"/>
   <tile gid="34"/>
   <tile gid="34"/>
   <tile gid="34"/>
   <tile gid="34"/>
   <tile gid="34"/>
   <tile gid="34"/>
   <tile gid="34"/>
   <tile gid="30"/>
   <tile gid="30"/>
   <tile gid="30"/>
   <tile gid="30"/>
   <tile gid="30"/>
   <tile gid="30"/>
   <tile gid="30"/>
   <tile gid="30"/>
   <tile gid="30"/>
   <tile gid="30"/>
   <tile gid="30"/>
   <tile gid="30"/>
   <tile gid="30"/>
   <tile gid="30"/>
   <tile gid="30"/>
   <tile gid="30"/>
   <tile gid="30"/>
   <tile gid="30"/>
   <tile gid="30"/>
   <tile gid="30"/>
   <tile gid="30"/>
   <tile gid="30"/>
   <tile gid="30"/>
   <tile gid="30"/>
   <tile gid="30"/>
   <tile gid="30"/>
   <tile gid="30"/>
   <tile gid="30"/>
   <tile gid="30"/>
   <tile gid="30"/>
   <tile gid="30"/>
   <tile gid="30"/>
   <tile gid="30"/>
   <tile gid="30"/>
   <tile gid="30"/>
   <tile gid="30"/>
   <tile gid="30"/>
   <tile gid="30"/>
   <tile gid="30"/>
   <tile gid="30"/>
   <tile gid="30"/>
   <tile gid="30"/>
   <tile gid="34"/>
   <tile gid="34"/>
   <tile gid="34"/>
   <tile gid="34"/>
   <tile gid="34"/>
   <tile gid="34"/>
   <tile gid="30"/>
   <tile gid="30"/>
   <tile gid="30"/>
   <tile gid="30"/>
   <tile gid="30"/>
   <tile gid="30"/>
   <tile gid="30"/>
   <tile gid="30"/>
   <tile gid="30"/>
   <tile gid="30"/>
   <tile gid="30"/>
   <tile gid="30"/>
   <tile gid="30"/>
   <tile gid="30"/>
   <tile gid="30"/>
   <tile gid="30"/>
   <tile gid="30"/>
   <tile gid="30"/>
   <tile gid="30"/>
   <tile gid="30"/>
   <tile gid="30"/>
   <tile gid="30"/>
   <tile gid="30"/>
   <tile gid="30"/>
   <tile gid="30"/>
   <tile gid="30"/>
   <tile gid="30"/>
   <tile gid="30"/>
   <tile gid="30"/>
   <tile gid="30"/>
   <tile gid="30"/>
   <tile gid="30"/>
   <tile gid="34"/>
   <tile gid="34"/>
   <tile gid="34"/>
   <tile gid="34"/>
   <tile gid="34"/>
   <tile gid="34"/>
   <tile gid="34"/>
   <tile gid="34"/>
   <tile gid="34"/>
   <tile gid="34"/>
   <tile gid="34"/>
   <tile gid="34"/>
   <tile gid="34"/>
   <tile gid="34"/>
   <tile gid="34"/>
   <tile gid="34"/>
   <tile gid="34"/>
   <tile gid="34"/>
   <tile gid="34"/>
   <tile gid="34"/>
   <tile gid="34"/>
   <tile gid="34"/>
   <tile gid="34"/>
   <tile gid="34"/>
   <tile gid="34"/>
   <tile gid="34"/>
   <tile gid="34"/>
   <tile gid="34"/>
   <tile gid="34"/>
   <tile gid="34"/>
   <tile gid="34"/>
   <tile gid="34"/>
   <tile gid="34"/>
   <tile gid="34"/>
   <tile gid="34"/>
   <tile gid="34"/>
   <tile gid="34"/>
   <tile gid="34"/>
   <tile gid="34"/>
   <tile gid="34"/>
   <tile gid="34"/>
   <tile gid="34"/>
   <tile gid="34"/>
   <tile gid="34"/>
   <tile gid="34"/>
   <tile gid="34"/>
   <tile gid="34"/>
   <tile gid="34"/>
   <tile gid="34"/>
   <tile gid="34"/>
   <tile gid="34"/>
   <tile gid="34"/>
   <tile gid="30"/>
   <tile gid="30"/>
   <tile gid="30"/>
   <tile gid="30"/>
   <tile gid="30"/>
   <tile gid="30"/>
   <tile gid="30"/>
   <tile gid="30"/>
   <tile gid="30"/>
   <tile gid="30"/>
   <tile gid="30"/>
   <tile gid="30"/>
   <tile gid="30"/>
   <tile gid="30"/>
   <tile gid="30"/>
   <tile gid="30"/>
   <tile gid="30"/>
   <tile gid="30"/>
   <tile gid="30"/>
   <tile gid="30"/>
   <tile gid="30"/>
   <tile gid="30"/>
   <tile gid="30"/>
   <tile gid="30"/>
   <tile gid="30"/>
   <tile gid="30"/>
   <tile gid="30"/>
   <tile gid="30"/>
   <tile gid="30"/>
   <tile gid="30"/>
   <tile gid="30"/>
   <tile gid="30"/>
   <tile gid="30"/>
   <tile gid="30"/>
   <tile gid="30"/>
   <tile gid="30"/>
   <tile gid="30"/>
   <tile gid="30"/>
   <tile gid="30"/>
   <tile gid="30"/>
   <tile gid="30"/>
   <tile gid="30"/>
   <tile gid="34"/>
   <tile gid="34"/>
   <tile gid="34"/>
   <tile gid="34"/>
   <tile gid="34"/>
   <tile gid="34"/>
   <tile gid="30"/>
   <tile gid="30"/>
   <tile gid="30"/>
   <tile gid="30"/>
   <tile gid="30"/>
   <tile gid="30"/>
   <tile gid="30"/>
   <tile gid="30"/>
   <tile gid="30"/>
   <tile gid="30"/>
   <tile gid="30"/>
   <tile gid="30"/>
   <tile gid="30"/>
   <tile gid="30"/>
   <tile gid="30"/>
   <tile gid="30"/>
   <tile gid="30"/>
   <tile gid="30"/>
   <tile gid="30"/>
   <tile gid="30"/>
   <tile gid="30"/>
   <tile gid="30"/>
   <tile gid="30"/>
   <tile gid="30"/>
   <tile gid="30"/>
   <tile gid="30"/>
   <tile gid="30"/>
   <tile gid="30"/>
   <tile gid="30"/>
   <tile gid="30"/>
   <tile gid="30"/>
   <tile gid="30"/>
   <tile gid="34"/>
   <tile gid="34"/>
   <tile gid="34"/>
   <tile gid="34"/>
   <tile gid="34"/>
   <tile gid="34"/>
   <tile gid="34"/>
   <tile gid="34"/>
   <tile gid="34"/>
   <tile gid="34"/>
   <tile gid="34"/>
   <tile gid="34"/>
   <tile gid="34"/>
   <tile gid="34"/>
   <tile gid="34"/>
   <tile gid="34"/>
   <tile gid="34"/>
   <tile gid="34"/>
   <tile gid="34"/>
   <tile gid="34"/>
   <tile gid="34"/>
   <tile gid="34"/>
   <tile gid="34"/>
   <tile gid="34"/>
   <tile gid="34"/>
   <tile gid="34"/>
   <tile gid="34"/>
   <tile gid="34"/>
   <tile gid="34"/>
   <tile gid="34"/>
   <tile gid="34"/>
   <tile gid="34"/>
   <tile gid="34"/>
   <tile gid="34"/>
   <tile gid="34"/>
   <tile gid="34"/>
   <tile gid="34"/>
   <tile gid="34"/>
   <tile gid="34"/>
   <tile gid="34"/>
   <tile gid="34"/>
   <tile gid="34"/>
   <tile gid="34"/>
   <tile gid="34"/>
   <tile gid="34"/>
   <tile gid="34"/>
   <tile gid="34"/>
   <tile gid="34"/>
   <tile gid="34"/>
   <tile gid="34"/>
   <tile gid="34"/>
   <tile gid="34"/>
   <tile gid="30"/>
   <tile gid="30"/>
   <tile gid="30"/>
   <tile gid="30"/>
   <tile gid="30"/>
   <tile gid="30"/>
   <tile gid="30"/>
   <tile gid="30"/>
   <tile gid="30"/>
   <tile gid="30"/>
   <tile gid="30"/>
   <tile gid="30"/>
   <tile gid="30"/>
   <tile gid="30"/>
   <tile gid="30"/>
   <tile gid="30"/>
   <tile gid="30"/>
   <tile gid="30"/>
   <tile gid="30"/>
   <tile gid="30"/>
   <tile gid="30"/>
   <tile gid="30"/>
   <tile gid="30"/>
   <tile gid="30"/>
   <tile gid="30"/>
   <tile gid="30"/>
   <tile gid="30"/>
   <tile gid="30"/>
   <tile gid="30"/>
   <tile gid="30"/>
   <tile gid="30"/>
   <tile gid="30"/>
   <tile gid="30"/>
   <tile gid="30"/>
   <tile gid="30"/>
   <tile gid="30"/>
   <tile gid="30"/>
   <tile gid="30"/>
   <tile gid="30"/>
   <tile gid="30"/>
   <tile gid="30"/>
   <tile gid="30"/>
   <tile gid="34"/>
   <tile gid="34"/>
   <tile gid="34"/>
   <tile gid="34"/>
   <tile gid="34"/>
   <tile gid="34"/>
   <tile gid="30"/>
   <tile gid="30"/>
   <tile gid="30"/>
   <tile gid="30"/>
   <tile gid="30"/>
   <tile gid="30"/>
   <tile gid="30"/>
   <tile gid="30"/>
   <tile gid="30"/>
   <tile gid="30"/>
   <tile gid="30"/>
   <tile gid="30"/>
   <tile gid="30"/>
   <tile gid="30"/>
   <tile gid="30"/>
   <tile gid="30"/>
   <tile gid="30"/>
   <tile gid="30"/>
   <tile gid="30"/>
   <tile gid="30"/>
   <tile gid="30"/>
   <tile gid="30"/>
   <tile gid="30"/>
   <tile gid="30"/>
   <tile gid="30"/>
   <tile gid="30"/>
   <tile gid="30"/>
   <tile gid="30"/>
   <tile gid="30"/>
   <tile gid="30"/>
   <tile gid="30"/>
   <tile gid="30"/>
   <tile gid="34"/>
   <tile gid="34"/>
   <tile gid="34"/>
   <tile gid="34"/>
   <tile gid="34"/>
   <tile gid="34"/>
   <tile gid="34"/>
   <tile gid="34"/>
   <tile gid="34"/>
   <tile gid="34"/>
   <tile gid="34"/>
   <tile gid="34"/>
   <tile gid="34"/>
   <tile gid="34"/>
   <tile gid="34"/>
   <tile gid="34"/>
   <tile gid="34"/>
   <tile gid="34"/>
   <tile gid="34"/>
   <tile gid="34"/>
   <tile gid="34"/>
   <tile gid="34"/>
   <tile gid="34"/>
   <tile gid="34"/>
   <tile gid="34"/>
   <tile gid="34"/>
   <tile gid="34"/>
   <tile gid="34"/>
   <tile gid="34"/>
   <tile gid="34"/>
   <tile gid="34"/>
   <tile gid="34"/>
   <tile gid="34"/>
   <tile gid="34"/>
   <tile gid="34"/>
   <tile gid="34"/>
   <tile gid="34"/>
   <tile gid="34"/>
   <tile gid="34"/>
   <tile gid="34"/>
   <tile gid="34"/>
   <tile gid="34"/>
   <tile gid="34"/>
   <tile gid="34"/>
   <tile gid="34"/>
   <tile gid="34"/>
   <tile gid="34"/>
   <tile gid="34"/>
   <tile gid="34"/>
   <tile gid="34"/>
   <tile gid="34"/>
   <tile gid="34"/>
   <tile gid="30"/>
   <tile gid="30"/>
   <tile gid="30"/>
   <tile gid="30"/>
   <tile gid="30"/>
   <tile gid="30"/>
   <tile gid="30"/>
   <tile gid="30"/>
   <tile gid="30"/>
   <tile gid="30"/>
   <tile gid="30"/>
   <tile gid="30"/>
   <tile gid="30"/>
   <tile gid="30"/>
   <tile gid="30"/>
   <tile gid="30"/>
   <tile gid="30"/>
   <tile gid="30"/>
   <tile gid="30"/>
   <tile gid="30"/>
   <tile gid="30"/>
   <tile gid="30"/>
   <tile gid="30"/>
   <tile gid="30"/>
   <tile gid="30"/>
   <tile gid="30"/>
   <tile gid="30"/>
   <tile gid="30"/>
   <tile gid="30"/>
   <tile gid="30"/>
   <tile gid="30"/>
   <tile gid="30"/>
   <tile gid="30"/>
   <tile gid="30"/>
   <tile gid="30"/>
   <tile gid="30"/>
   <tile gid="30"/>
   <tile gid="30"/>
   <tile gid="30"/>
   <tile gid="30"/>
   <tile gid="30"/>
   <tile gid="30"/>
   <tile gid="34"/>
   <tile gid="34"/>
   <tile gid="34"/>
   <tile gid="34"/>
   <tile gid="34"/>
   <tile gid="34"/>
   <tile gid="30"/>
   <tile gid="30"/>
   <tile gid="30"/>
   <tile gid="30"/>
   <tile gid="30"/>
   <tile gid="30"/>
   <tile gid="30"/>
   <tile gid="30"/>
   <tile gid="30"/>
   <tile gid="30"/>
   <tile gid="30"/>
   <tile gid="30"/>
   <tile gid="30"/>
   <tile gid="30"/>
   <tile gid="30"/>
   <tile gid="30"/>
   <tile gid="30"/>
   <tile gid="30"/>
   <tile gid="30"/>
   <tile gid="30"/>
   <tile gid="30"/>
   <tile gid="30"/>
   <tile gid="30"/>
   <tile gid="30"/>
   <tile gid="30"/>
   <tile gid="30"/>
   <tile gid="30"/>
   <tile gid="30"/>
   <tile gid="30"/>
   <tile gid="30"/>
   <tile gid="30"/>
   <tile gid="30"/>
   <tile gid="34"/>
   <tile gid="34"/>
   <tile gid="34"/>
   <tile gid="34"/>
   <tile gid="34"/>
   <tile gid="34"/>
   <tile gid="34"/>
   <tile gid="34"/>
   <tile gid="34"/>
   <tile gid="34"/>
   <tile gid="34"/>
   <tile gid="34"/>
   <tile gid="34"/>
   <tile gid="34"/>
   <tile gid="34"/>
   <tile gid="34"/>
   <tile gid="34"/>
   <tile gid="34"/>
   <tile gid="34"/>
   <tile gid="34"/>
   <tile gid="34"/>
   <tile gid="34"/>
   <tile gid="34"/>
   <tile gid="34"/>
   <tile gid="34"/>
   <tile gid="34"/>
   <tile gid="34"/>
   <tile gid="34"/>
   <tile gid="34"/>
   <tile gid="34"/>
   <tile gid="34"/>
   <tile gid="34"/>
   <tile gid="34"/>
   <tile gid="34"/>
   <tile gid="34"/>
   <tile gid="34"/>
   <tile gid="34"/>
   <tile gid="34"/>
   <tile gid="34"/>
   <tile gid="34"/>
   <tile gid="34"/>
   <tile gid="34"/>
   <tile gid="34"/>
   <tile gid="34"/>
   <tile gid="34"/>
   <tile gid="34"/>
   <tile gid="34"/>
   <tile gid="34"/>
   <tile gid="34"/>
   <tile gid="34"/>
   <tile gid="34"/>
   <tile gid="34"/>
   <tile gid="30"/>
   <tile gid="30"/>
   <tile gid="30"/>
   <tile gid="30"/>
   <tile gid="30"/>
   <tile gid="30"/>
   <tile gid="30"/>
   <tile gid="30"/>
   <tile gid="30"/>
   <tile gid="30"/>
   <tile gid="30"/>
   <tile gid="30"/>
   <tile gid="30"/>
   <tile gid="30"/>
   <tile gid="30"/>
   <tile gid="30"/>
   <tile gid="30"/>
   <tile gid="30"/>
   <tile gid="30"/>
   <tile gid="30"/>
   <tile gid="30"/>
   <tile gid="30"/>
   <tile gid="30"/>
   <tile gid="30"/>
   <tile gid="30"/>
   <tile gid="30"/>
   <tile gid="30"/>
   <tile gid="30"/>
   <tile gid="30"/>
   <tile gid="30"/>
   <tile gid="30"/>
   <tile gid="30"/>
   <tile gid="30"/>
   <tile gid="30"/>
   <tile gid="30"/>
   <tile gid="30"/>
   <tile gid="30"/>
   <tile gid="30"/>
   <tile gid="30"/>
   <tile gid="30"/>
   <tile gid="30"/>
   <tile gid="30"/>
   <tile gid="34"/>
   <tile gid="34"/>
   <tile gid="34"/>
   <tile gid="34"/>
   <tile gid="34"/>
   <tile gid="34"/>
   <tile gid="30"/>
   <tile gid="30"/>
   <tile gid="30"/>
   <tile gid="30"/>
   <tile gid="30"/>
   <tile gid="30"/>
   <tile gid="30"/>
   <tile gid="30"/>
   <tile gid="30"/>
   <tile gid="30"/>
   <tile gid="30"/>
   <tile gid="30"/>
   <tile gid="30"/>
   <tile gid="30"/>
   <tile gid="30"/>
   <tile gid="30"/>
   <tile gid="30"/>
   <tile gid="30"/>
   <tile gid="30"/>
   <tile gid="30"/>
   <tile gid="30"/>
   <tile gid="30"/>
   <tile gid="30"/>
   <tile gid="30"/>
   <tile gid="30"/>
   <tile gid="30"/>
   <tile gid="30"/>
   <tile gid="30"/>
   <tile gid="30"/>
   <tile gid="30"/>
   <tile gid="30"/>
   <tile gid="30"/>
   <tile gid="34"/>
   <tile gid="34"/>
   <tile gid="34"/>
   <tile gid="34"/>
   <tile gid="34"/>
   <tile gid="34"/>
   <tile gid="34"/>
   <tile gid="34"/>
   <tile gid="34"/>
   <tile gid="34"/>
   <tile gid="34"/>
   <tile gid="34"/>
   <tile gid="34"/>
   <tile gid="34"/>
   <tile gid="34"/>
   <tile gid="34"/>
   <tile gid="34"/>
   <tile gid="34"/>
   <tile gid="34"/>
   <tile gid="34"/>
   <tile gid="34"/>
   <tile gid="34"/>
   <tile gid="34"/>
   <tile gid="34"/>
   <tile gid="34"/>
   <tile gid="34"/>
   <tile gid="34"/>
   <tile gid="34"/>
   <tile gid="34"/>
   <tile gid="34"/>
   <tile gid="34"/>
   <tile gid="34"/>
   <tile gid="34"/>
   <tile gid="34"/>
   <tile gid="34"/>
   <tile gid="34"/>
   <tile gid="34"/>
   <tile gid="34"/>
   <tile gid="34"/>
   <tile gid="34"/>
   <tile gid="34"/>
   <tile gid="34"/>
   <tile gid="34"/>
   <tile gid="34"/>
   <tile gid="34"/>
   <tile gid="34"/>
   <tile gid="34"/>
   <tile gid="34"/>
   <tile gid="34"/>
   <tile gid="34"/>
   <tile gid="34"/>
   <tile gid="34"/>
   <tile gid="30"/>
   <tile gid="30"/>
   <tile gid="30"/>
   <tile gid="30"/>
   <tile gid="30"/>
   <tile gid="30"/>
   <tile gid="30"/>
   <tile gid="30"/>
   <tile gid="30"/>
   <tile gid="30"/>
   <tile gid="30"/>
   <tile gid="30"/>
   <tile gid="30"/>
   <tile gid="30"/>
   <tile gid="30"/>
   <tile gid="30"/>
   <tile gid="30"/>
   <tile gid="30"/>
   <tile gid="30"/>
   <tile gid="30"/>
   <tile gid="30"/>
   <tile gid="30"/>
   <tile gid="30"/>
   <tile gid="30"/>
   <tile gid="30"/>
   <tile gid="30"/>
   <tile gid="30"/>
   <tile gid="30"/>
   <tile gid="30"/>
   <tile gid="30"/>
   <tile gid="30"/>
   <tile gid="30"/>
   <tile gid="30"/>
   <tile gid="30"/>
   <tile gid="30"/>
   <tile gid="30"/>
   <tile gid="30"/>
   <tile gid="30"/>
   <tile gid="30"/>
   <tile gid="30"/>
   <tile gid="30"/>
   <tile gid="30"/>
   <tile gid="34"/>
   <tile gid="34"/>
   <tile gid="34"/>
   <tile gid="34"/>
   <tile gid="34"/>
   <tile gid="34"/>
   <tile gid="30"/>
   <tile gid="30"/>
   <tile gid="30"/>
   <tile gid="30"/>
   <tile gid="30"/>
   <tile gid="30"/>
   <tile gid="30"/>
   <tile gid="30"/>
   <tile gid="30"/>
   <tile gid="30"/>
   <tile gid="30"/>
   <tile gid="30"/>
   <tile gid="30"/>
   <tile gid="30"/>
   <tile gid="30"/>
   <tile gid="30"/>
   <tile gid="30"/>
   <tile gid="30"/>
   <tile gid="30"/>
   <tile gid="30"/>
   <tile gid="30"/>
   <tile gid="30"/>
   <tile gid="30"/>
   <tile gid="30"/>
   <tile gid="30"/>
   <tile gid="30"/>
   <tile gid="30"/>
   <tile gid="30"/>
   <tile gid="30"/>
   <tile gid="30"/>
   <tile gid="30"/>
   <tile gid="30"/>
   <tile gid="34"/>
   <tile gid="34"/>
   <tile gid="34"/>
   <tile gid="34"/>
   <tile gid="34"/>
   <tile gid="34"/>
   <tile gid="34"/>
   <tile gid="34"/>
   <tile gid="34"/>
   <tile gid="34"/>
   <tile gid="34"/>
   <tile gid="34"/>
   <tile gid="34"/>
   <tile gid="34"/>
   <tile gid="34"/>
   <tile gid="34"/>
   <tile gid="34"/>
   <tile gid="34"/>
   <tile gid="34"/>
   <tile gid="34"/>
   <tile gid="34"/>
   <tile gid="34"/>
   <tile gid="34"/>
   <tile gid="34"/>
   <tile gid="34"/>
   <tile gid="34"/>
   <tile gid="34"/>
   <tile gid="34"/>
   <tile gid="34"/>
   <tile gid="34"/>
   <tile gid="34"/>
   <tile gid="34"/>
   <tile gid="34"/>
   <tile gid="34"/>
   <tile gid="34"/>
   <tile gid="34"/>
   <tile gid="34"/>
   <tile gid="34"/>
   <tile gid="34"/>
   <tile gid="34"/>
   <tile gid="34"/>
   <tile gid="34"/>
   <tile gid="34"/>
   <tile gid="34"/>
   <tile gid="34"/>
   <tile gid="34"/>
   <tile gid="34"/>
   <tile gid="34"/>
   <tile gid="34"/>
   <tile gid="34"/>
   <tile gid="34"/>
   <tile gid="34"/>
   <tile gid="30"/>
   <tile gid="30"/>
   <tile gid="30"/>
   <tile gid="30"/>
   <tile gid="30"/>
   <tile gid="30"/>
   <tile gid="30"/>
   <tile gid="30"/>
   <tile gid="30"/>
   <tile gid="30"/>
   <tile gid="30"/>
   <tile gid="30"/>
   <tile gid="30"/>
   <tile gid="30"/>
   <tile gid="30"/>
   <tile gid="30"/>
   <tile gid="30"/>
   <tile gid="30"/>
   <tile gid="30"/>
   <tile gid="30"/>
   <tile gid="30"/>
   <tile gid="30"/>
   <tile gid="30"/>
   <tile gid="30"/>
   <tile gid="30"/>
   <tile gid="30"/>
   <tile gid="30"/>
   <tile gid="30"/>
   <tile gid="30"/>
   <tile gid="30"/>
   <tile gid="30"/>
   <tile gid="30"/>
   <tile gid="30"/>
   <tile gid="30"/>
   <tile gid="30"/>
   <tile gid="30"/>
   <tile gid="30"/>
   <tile gid="30"/>
   <tile gid="30"/>
   <tile gid="30"/>
   <tile gid="30"/>
   <tile gid="30"/>
   <tile gid="34"/>
   <tile gid="34"/>
   <tile gid="34"/>
   <tile gid="34"/>
   <tile gid="34"/>
   <tile gid="34"/>
   <tile gid="30"/>
   <tile gid="30"/>
   <tile gid="30"/>
   <tile gid="30"/>
   <tile gid="30"/>
   <tile gid="30"/>
   <tile gid="30"/>
   <tile gid="30"/>
   <tile gid="30"/>
   <tile gid="30"/>
   <tile gid="30"/>
   <tile gid="30"/>
   <tile gid="30"/>
   <tile gid="30"/>
   <tile gid="30"/>
   <tile gid="30"/>
   <tile gid="30"/>
   <tile gid="30"/>
   <tile gid="30"/>
   <tile gid="30"/>
   <tile gid="30"/>
   <tile gid="30"/>
   <tile gid="30"/>
   <tile gid="30"/>
   <tile gid="30"/>
   <tile gid="30"/>
   <tile gid="30"/>
   <tile gid="30"/>
   <tile gid="30"/>
   <tile gid="30"/>
   <tile gid="30"/>
   <tile gid="30"/>
   <tile gid="34"/>
   <tile gid="34"/>
   <tile gid="34"/>
   <tile gid="34"/>
   <tile gid="34"/>
   <tile gid="34"/>
   <tile gid="34"/>
   <tile gid="34"/>
   <tile gid="34"/>
   <tile gid="34"/>
   <tile gid="34"/>
   <tile gid="34"/>
   <tile gid="34"/>
   <tile gid="34"/>
   <tile gid="34"/>
   <tile gid="34"/>
   <tile gid="34"/>
   <tile gid="34"/>
   <tile gid="34"/>
   <tile gid="34"/>
   <tile gid="34"/>
   <tile gid="34"/>
   <tile gid="34"/>
   <tile gid="34"/>
   <tile gid="34"/>
   <tile gid="34"/>
   <tile gid="34"/>
   <tile gid="34"/>
   <tile gid="34"/>
   <tile gid="34"/>
   <tile gid="34"/>
   <tile gid="34"/>
   <tile gid="34"/>
   <tile gid="34"/>
   <tile gid="34"/>
   <tile gid="34"/>
   <tile gid="34"/>
   <tile gid="34"/>
   <tile gid="34"/>
   <tile gid="34"/>
   <tile gid="34"/>
   <tile gid="34"/>
   <tile gid="34"/>
   <tile gid="34"/>
   <tile gid="34"/>
   <tile gid="34"/>
   <tile gid="34"/>
   <tile gid="34"/>
   <tile gid="34"/>
   <tile gid="34"/>
   <tile gid="34"/>
   <tile gid="34"/>
   <tile gid="30"/>
   <tile gid="30"/>
   <tile gid="30"/>
   <tile gid="30"/>
   <tile gid="30"/>
   <tile gid="30"/>
   <tile gid="30"/>
   <tile gid="30"/>
   <tile gid="30"/>
   <tile gid="30"/>
   <tile gid="30"/>
   <tile gid="30"/>
   <tile gid="30"/>
   <tile gid="30"/>
   <tile gid="30"/>
   <tile gid="30"/>
   <tile gid="30"/>
   <tile gid="30"/>
   <tile gid="30"/>
   <tile gid="30"/>
   <tile gid="30"/>
   <tile gid="30"/>
   <tile gid="30"/>
   <tile gid="30"/>
   <tile gid="30"/>
   <tile gid="30"/>
   <tile gid="30"/>
   <tile gid="30"/>
   <tile gid="30"/>
   <tile gid="30"/>
   <tile gid="30"/>
   <tile gid="30"/>
   <tile gid="30"/>
   <tile gid="30"/>
   <tile gid="30"/>
   <tile gid="30"/>
   <tile gid="30"/>
   <tile gid="30"/>
   <tile gid="30"/>
   <tile gid="30"/>
   <tile gid="30"/>
   <tile gid="30"/>
   <tile gid="34"/>
   <tile gid="34"/>
   <tile gid="34"/>
   <tile gid="34"/>
   <tile gid="34"/>
   <tile gid="34"/>
   <tile gid="30"/>
   <tile gid="30"/>
   <tile gid="30"/>
   <tile gid="30"/>
   <tile gid="30"/>
   <tile gid="30"/>
   <tile gid="30"/>
   <tile gid="30"/>
   <tile gid="30"/>
   <tile gid="30"/>
   <tile gid="30"/>
   <tile gid="30"/>
   <tile gid="30"/>
   <tile gid="30"/>
   <tile gid="30"/>
   <tile gid="30"/>
   <tile gid="30"/>
   <tile gid="30"/>
   <tile gid="30"/>
   <tile gid="30"/>
   <tile gid="30"/>
   <tile gid="30"/>
   <tile gid="30"/>
   <tile gid="30"/>
   <tile gid="30"/>
   <tile gid="30"/>
   <tile gid="30"/>
   <tile gid="30"/>
   <tile gid="30"/>
   <tile gid="30"/>
   <tile gid="30"/>
   <tile gid="30"/>
   <tile gid="34"/>
   <tile gid="34"/>
   <tile gid="34"/>
   <tile gid="34"/>
   <tile gid="34"/>
   <tile gid="34"/>
   <tile gid="34"/>
   <tile gid="34"/>
   <tile gid="34"/>
   <tile gid="34"/>
   <tile gid="34"/>
   <tile gid="34"/>
   <tile gid="34"/>
   <tile gid="34"/>
   <tile gid="34"/>
   <tile gid="34"/>
   <tile gid="34"/>
   <tile gid="34"/>
   <tile gid="34"/>
   <tile gid="34"/>
   <tile gid="34"/>
   <tile gid="34"/>
   <tile gid="34"/>
   <tile gid="34"/>
   <tile gid="34"/>
   <tile gid="34"/>
   <tile gid="34"/>
   <tile gid="34"/>
   <tile gid="34"/>
   <tile gid="34"/>
   <tile gid="34"/>
   <tile gid="34"/>
   <tile gid="34"/>
   <tile gid="34"/>
   <tile gid="34"/>
   <tile gid="34"/>
   <tile gid="34"/>
   <tile gid="34"/>
   <tile gid="34"/>
   <tile gid="34"/>
   <tile gid="34"/>
   <tile gid="34"/>
   <tile gid="34"/>
   <tile gid="34"/>
   <tile gid="34"/>
   <tile gid="34"/>
   <tile gid="34"/>
   <tile gid="34"/>
   <tile gid="34"/>
   <tile gid="34"/>
   <tile gid="34"/>
   <tile gid="34"/>
   <tile gid="30"/>
   <tile gid="30"/>
   <tile gid="30"/>
   <tile gid="30"/>
   <tile gid="30"/>
   <tile gid="30"/>
   <tile gid="30"/>
   <tile gid="30"/>
   <tile gid="30"/>
   <tile gid="30"/>
   <tile gid="30"/>
   <tile gid="30"/>
   <tile gid="30"/>
   <tile gid="30"/>
   <tile gid="30"/>
   <tile gid="30"/>
   <tile gid="30"/>
   <tile gid="30"/>
   <tile gid="30"/>
   <tile gid="30"/>
   <tile gid="30"/>
   <tile gid="30"/>
   <tile gid="30"/>
   <tile gid="30"/>
   <tile gid="30"/>
   <tile gid="30"/>
   <tile gid="30"/>
   <tile gid="30"/>
   <tile gid="30"/>
   <tile gid="30"/>
   <tile gid="30"/>
   <tile gid="30"/>
   <tile gid="30"/>
   <tile gid="30"/>
   <tile gid="30"/>
   <tile gid="30"/>
   <tile gid="30"/>
   <tile gid="30"/>
   <tile gid="30"/>
   <tile gid="30"/>
   <tile gid="30"/>
   <tile gid="30"/>
   <tile gid="34"/>
   <tile gid="34"/>
   <tile gid="34"/>
   <tile gid="34"/>
   <tile gid="34"/>
   <tile gid="34"/>
   <tile gid="30"/>
   <tile gid="30"/>
   <tile gid="30"/>
   <tile gid="30"/>
   <tile gid="30"/>
   <tile gid="30"/>
   <tile gid="30"/>
   <tile gid="30"/>
   <tile gid="30"/>
   <tile gid="30"/>
   <tile gid="30"/>
   <tile gid="30"/>
   <tile gid="30"/>
   <tile gid="30"/>
   <tile gid="30"/>
   <tile gid="30"/>
   <tile gid="30"/>
   <tile gid="30"/>
   <tile gid="30"/>
   <tile gid="30"/>
   <tile gid="30"/>
   <tile gid="30"/>
   <tile gid="30"/>
   <tile gid="30"/>
   <tile gid="30"/>
   <tile gid="30"/>
   <tile gid="30"/>
   <tile gid="30"/>
   <tile gid="30"/>
   <tile gid="30"/>
   <tile gid="30"/>
   <tile gid="30"/>
   <tile gid="34"/>
   <tile gid="34"/>
   <tile gid="34"/>
   <tile gid="34"/>
   <tile gid="34"/>
   <tile gid="34"/>
   <tile gid="34"/>
   <tile gid="34"/>
   <tile gid="34"/>
   <tile gid="34"/>
   <tile gid="34"/>
   <tile gid="34"/>
   <tile gid="34"/>
   <tile gid="34"/>
   <tile gid="34"/>
   <tile gid="34"/>
   <tile gid="34"/>
   <tile gid="34"/>
   <tile gid="34"/>
   <tile gid="34"/>
   <tile gid="34"/>
   <tile gid="34"/>
   <tile gid="34"/>
   <tile gid="34"/>
   <tile gid="34"/>
   <tile gid="34"/>
   <tile gid="34"/>
   <tile gid="34"/>
   <tile gid="34"/>
   <tile gid="34"/>
   <tile gid="34"/>
   <tile gid="34"/>
   <tile gid="34"/>
   <tile gid="34"/>
   <tile gid="34"/>
   <tile gid="34"/>
   <tile gid="34"/>
   <tile gid="34"/>
   <tile gid="34"/>
   <tile gid="34"/>
   <tile gid="34"/>
   <tile gid="34"/>
   <tile gid="34"/>
   <tile gid="34"/>
   <tile gid="34"/>
   <tile gid="34"/>
   <tile gid="34"/>
   <tile gid="34"/>
   <tile gid="34"/>
   <tile gid="34"/>
   <tile gid="34"/>
   <tile gid="34"/>
   <tile gid="30"/>
   <tile gid="30"/>
   <tile gid="30"/>
   <tile gid="30"/>
   <tile gid="30"/>
   <tile gid="30"/>
   <tile gid="30"/>
   <tile gid="30"/>
   <tile gid="30"/>
   <tile gid="30"/>
   <tile gid="30"/>
   <tile gid="30"/>
   <tile gid="30"/>
   <tile gid="30"/>
   <tile gid="30"/>
   <tile gid="30"/>
   <tile gid="30"/>
   <tile gid="30"/>
   <tile gid="30"/>
   <tile gid="30"/>
   <tile gid="30"/>
   <tile gid="30"/>
   <tile gid="30"/>
   <tile gid="30"/>
   <tile gid="30"/>
   <tile gid="30"/>
   <tile gid="30"/>
   <tile gid="30"/>
   <tile gid="30"/>
   <tile gid="30"/>
   <tile gid="30"/>
   <tile gid="30"/>
   <tile gid="30"/>
   <tile gid="30"/>
   <tile gid="30"/>
   <tile gid="30"/>
   <tile gid="30"/>
   <tile gid="30"/>
   <tile gid="30"/>
   <tile gid="30"/>
   <tile gid="30"/>
   <tile gid="30"/>
   <tile gid="34"/>
   <tile gid="34"/>
   <tile gid="34"/>
   <tile gid="34"/>
   <tile gid="34"/>
   <tile gid="34"/>
   <tile gid="30"/>
   <tile gid="30"/>
   <tile gid="30"/>
   <tile gid="30"/>
   <tile gid="30"/>
   <tile gid="30"/>
   <tile gid="30"/>
   <tile gid="30"/>
   <tile gid="30"/>
   <tile gid="30"/>
   <tile gid="30"/>
   <tile gid="30"/>
   <tile gid="30"/>
   <tile gid="30"/>
   <tile gid="30"/>
   <tile gid="30"/>
   <tile gid="30"/>
   <tile gid="30"/>
   <tile gid="30"/>
   <tile gid="30"/>
   <tile gid="30"/>
   <tile gid="30"/>
   <tile gid="30"/>
   <tile gid="30"/>
   <tile gid="30"/>
   <tile gid="30"/>
   <tile gid="30"/>
   <tile gid="30"/>
   <tile gid="30"/>
   <tile gid="30"/>
   <tile gid="30"/>
   <tile gid="30"/>
   <tile gid="34"/>
   <tile gid="34"/>
   <tile gid="34"/>
   <tile gid="34"/>
   <tile gid="34"/>
   <tile gid="34"/>
   <tile gid="34"/>
   <tile gid="34"/>
   <tile gid="34"/>
   <tile gid="34"/>
   <tile gid="34"/>
   <tile gid="34"/>
   <tile gid="34"/>
   <tile gid="34"/>
   <tile gid="34"/>
   <tile gid="34"/>
   <tile gid="34"/>
   <tile gid="34"/>
   <tile gid="34"/>
   <tile gid="34"/>
   <tile gid="34"/>
   <tile gid="34"/>
   <tile gid="34"/>
   <tile gid="34"/>
   <tile gid="34"/>
   <tile gid="34"/>
   <tile gid="34"/>
   <tile gid="34"/>
   <tile gid="34"/>
   <tile gid="34"/>
   <tile gid="34"/>
   <tile gid="34"/>
   <tile gid="34"/>
   <tile gid="34"/>
   <tile gid="34"/>
   <tile gid="34"/>
   <tile gid="34"/>
   <tile gid="34"/>
   <tile gid="34"/>
   <tile gid="34"/>
   <tile gid="34"/>
   <tile gid="34"/>
   <tile gid="34"/>
   <tile gid="34"/>
   <tile gid="34"/>
   <tile gid="34"/>
   <tile gid="34"/>
   <tile gid="34"/>
   <tile gid="34"/>
   <tile gid="34"/>
   <tile gid="34"/>
   <tile gid="34"/>
   <tile gid="30"/>
   <tile gid="30"/>
   <tile gid="30"/>
   <tile gid="30"/>
   <tile gid="30"/>
   <tile gid="30"/>
   <tile gid="30"/>
   <tile gid="30"/>
   <tile gid="30"/>
   <tile gid="30"/>
   <tile gid="30"/>
   <tile gid="30"/>
   <tile gid="30"/>
   <tile gid="30"/>
   <tile gid="30"/>
   <tile gid="30"/>
   <tile gid="30"/>
   <tile gid="30"/>
   <tile gid="30"/>
   <tile gid="30"/>
   <tile gid="30"/>
   <tile gid="30"/>
   <tile gid="30"/>
   <tile gid="30"/>
   <tile gid="30"/>
   <tile gid="30"/>
   <tile gid="30"/>
   <tile gid="30"/>
   <tile gid="30"/>
   <tile gid="30"/>
   <tile gid="30"/>
   <tile gid="30"/>
   <tile gid="30"/>
   <tile gid="30"/>
   <tile gid="30"/>
   <tile gid="30"/>
   <tile gid="30"/>
   <tile gid="30"/>
   <tile gid="30"/>
   <tile gid="30"/>
   <tile gid="30"/>
   <tile gid="30"/>
   <tile gid="34"/>
   <tile gid="34"/>
   <tile gid="34"/>
   <tile gid="34"/>
   <tile gid="34"/>
   <tile gid="34"/>
   <tile gid="30"/>
   <tile gid="30"/>
   <tile gid="30"/>
   <tile gid="30"/>
   <tile gid="30"/>
   <tile gid="30"/>
   <tile gid="30"/>
   <tile gid="30"/>
   <tile gid="30"/>
   <tile gid="30"/>
   <tile gid="30"/>
   <tile gid="30"/>
   <tile gid="30"/>
   <tile gid="30"/>
   <tile gid="30"/>
   <tile gid="30"/>
   <tile gid="30"/>
   <tile gid="30"/>
   <tile gid="30"/>
   <tile gid="30"/>
   <tile gid="30"/>
   <tile gid="30"/>
   <tile gid="30"/>
   <tile gid="30"/>
   <tile gid="30"/>
   <tile gid="30"/>
   <tile gid="30"/>
   <tile gid="30"/>
   <tile gid="30"/>
   <tile gid="30"/>
   <tile gid="30"/>
   <tile gid="30"/>
   <tile gid="34"/>
   <tile gid="34"/>
   <tile gid="34"/>
   <tile gid="34"/>
   <tile gid="34"/>
   <tile gid="34"/>
   <tile gid="34"/>
   <tile gid="34"/>
   <tile gid="34"/>
   <tile gid="34"/>
   <tile gid="34"/>
   <tile gid="34"/>
   <tile gid="34"/>
   <tile gid="34"/>
   <tile gid="34"/>
   <tile gid="34"/>
   <tile gid="34"/>
   <tile gid="34"/>
   <tile gid="34"/>
   <tile gid="34"/>
   <tile gid="34"/>
   <tile gid="34"/>
   <tile gid="34"/>
   <tile gid="34"/>
   <tile gid="34"/>
   <tile gid="34"/>
   <tile gid="34"/>
   <tile gid="34"/>
   <tile gid="34"/>
   <tile gid="34"/>
   <tile gid="34"/>
   <tile gid="34"/>
   <tile gid="34"/>
   <tile gid="34"/>
   <tile gid="34"/>
   <tile gid="34"/>
   <tile gid="34"/>
   <tile gid="34"/>
   <tile gid="34"/>
   <tile gid="34"/>
   <tile gid="34"/>
   <tile gid="34"/>
   <tile gid="34"/>
   <tile gid="34"/>
   <tile gid="34"/>
   <tile gid="34"/>
   <tile gid="34"/>
   <tile gid="34"/>
   <tile gid="34"/>
   <tile gid="34"/>
   <tile gid="34"/>
   <tile gid="34"/>
   <tile gid="30"/>
   <tile gid="30"/>
   <tile gid="30"/>
   <tile gid="30"/>
   <tile gid="30"/>
   <tile gid="30"/>
   <tile gid="30"/>
   <tile gid="30"/>
   <tile gid="30"/>
   <tile gid="30"/>
   <tile gid="30"/>
   <tile gid="30"/>
   <tile gid="30"/>
   <tile gid="30"/>
   <tile gid="30"/>
   <tile gid="30"/>
   <tile gid="30"/>
   <tile gid="30"/>
   <tile gid="30"/>
   <tile gid="30"/>
   <tile gid="30"/>
   <tile gid="30"/>
   <tile gid="30"/>
   <tile gid="30"/>
   <tile gid="30"/>
   <tile gid="30"/>
   <tile gid="30"/>
   <tile gid="30"/>
   <tile gid="30"/>
   <tile gid="30"/>
   <tile gid="30"/>
   <tile gid="30"/>
   <tile gid="30"/>
   <tile gid="30"/>
   <tile gid="30"/>
   <tile gid="30"/>
   <tile gid="30"/>
   <tile gid="30"/>
   <tile gid="30"/>
   <tile gid="30"/>
   <tile gid="30"/>
   <tile gid="30"/>
   <tile gid="34"/>
   <tile gid="34"/>
   <tile gid="34"/>
   <tile gid="34"/>
   <tile gid="34"/>
   <tile gid="34"/>
   <tile gid="34"/>
   <tile gid="34"/>
   <tile gid="34"/>
   <tile gid="34"/>
   <tile gid="34"/>
   <tile gid="34"/>
   <tile gid="34"/>
   <tile gid="34"/>
   <tile gid="34"/>
   <tile gid="34"/>
   <tile gid="34"/>
   <tile gid="34"/>
   <tile gid="34"/>
   <tile gid="34"/>
   <tile gid="34"/>
   <tile gid="34"/>
   <tile gid="34"/>
   <tile gid="34"/>
   <tile gid="34"/>
   <tile gid="34"/>
   <tile gid="34"/>
   <tile gid="34"/>
   <tile gid="34"/>
   <tile gid="34"/>
   <tile gid="34"/>
   <tile gid="34"/>
   <tile gid="34"/>
   <tile gid="34"/>
   <tile gid="34"/>
   <tile gid="34"/>
   <tile gid="34"/>
   <tile gid="34"/>
   <tile gid="34"/>
   <tile gid="34"/>
   <tile gid="34"/>
   <tile gid="34"/>
   <tile gid="34"/>
   <tile gid="34"/>
   <tile gid="34"/>
   <tile gid="34"/>
   <tile gid="34"/>
   <tile gid="34"/>
   <tile gid="34"/>
   <tile gid="34"/>
   <tile gid="34"/>
   <tile gid="34"/>
   <tile gid="34"/>
   <tile gid="34"/>
   <tile gid="34"/>
   <tile gid="34"/>
   <tile gid="34"/>
   <tile gid="34"/>
   <tile gid="34"/>
   <tile gid="34"/>
   <tile gid="34"/>
   <tile gid="34"/>
   <tile gid="34"/>
   <tile gid="34"/>
   <tile gid="34"/>
   <tile gid="34"/>
   <tile gid="34"/>
   <tile gid="34"/>
   <tile gid="34"/>
   <tile gid="34"/>
   <tile gid="34"/>
   <tile gid="34"/>
   <tile gid="34"/>
   <tile gid="34"/>
   <tile gid="34"/>
   <tile gid="34"/>
   <tile gid="34"/>
   <tile gid="34"/>
   <tile gid="34"/>
   <tile gid="34"/>
   <tile gid="34"/>
   <tile gid="34"/>
   <tile gid="34"/>
   <tile gid="34"/>
   <tile gid="34"/>
   <tile gid="34"/>
   <tile gid="34"/>
   <tile gid="34"/>
   <tile gid="34"/>
   <tile gid="34"/>
   <tile gid="34"/>
   <tile gid="34"/>
   <tile gid="34"/>
   <tile gid="34"/>
   <tile gid="34"/>
   <tile gid="34"/>
   <tile gid="34"/>
   <tile gid="34"/>
   <tile gid="34"/>
   <tile gid="34"/>
   <tile gid="34"/>
   <tile gid="34"/>
   <tile gid="34"/>
   <tile gid="34"/>
   <tile gid="34"/>
   <tile gid="34"/>
   <tile gid="34"/>
   <tile gid="34"/>
   <tile gid="34"/>
   <tile gid="34"/>
   <tile gid="34"/>
   <tile gid="34"/>
   <tile gid="34"/>
   <tile gid="34"/>
   <tile gid="34"/>
   <tile gid="34"/>
   <tile gid="34"/>
   <tile gid="34"/>
   <tile gid="34"/>
   <tile gid="34"/>
   <tile gid="34"/>
   <tile gid="34"/>
   <tile gid="34"/>
   <tile gid="34"/>
   <tile gid="34"/>
   <tile gid="34"/>
   <tile gid="34"/>
   <tile gid="34"/>
   <tile gid="34"/>
   <tile gid="34"/>
   <tile gid="34"/>
   <tile gid="34"/>
   <tile gid="34"/>
   <tile gid="34"/>
   <tile gid="34"/>
   <tile gid="34"/>
   <tile gid="34"/>
   <tile gid="34"/>
   <tile gid="34"/>
   <tile gid="34"/>
   <tile gid="34"/>
   <tile gid="34"/>
   <tile gid="34"/>
   <tile gid="34"/>
   <tile gid="34"/>
   <tile gid="34"/>
   <tile gid="34"/>
   <tile gid="34"/>
   <tile gid="34"/>
   <tile gid="34"/>
   <tile gid="34"/>
   <tile gid="34"/>
   <tile gid="34"/>
   <tile gid="34"/>
   <tile gid="34"/>
   <tile gid="34"/>
   <tile gid="34"/>
   <tile gid="34"/>
   <tile gid="34"/>
   <tile gid="34"/>
   <tile gid="34"/>
   <tile gid="34"/>
   <tile gid="34"/>
   <tile gid="34"/>
   <tile gid="34"/>
   <tile gid="34"/>
   <tile gid="34"/>
   <tile gid="34"/>
   <tile gid="34"/>
   <tile gid="34"/>
   <tile gid="34"/>
   <tile gid="34"/>
   <tile gid="34"/>
   <tile gid="34"/>
   <tile gid="34"/>
   <tile gid="34"/>
   <tile gid="34"/>
   <tile gid="34"/>
   <tile gid="34"/>
   <tile gid="34"/>
   <tile gid="34"/>
   <tile gid="34"/>
   <tile gid="34"/>
   <tile gid="34"/>
   <tile gid="34"/>
   <tile gid="34"/>
   <tile gid="34"/>
   <tile gid="34"/>
   <tile gid="34"/>
   <tile gid="34"/>
   <tile gid="34"/>
   <tile gid="34"/>
   <tile gid="34"/>
   <tile gid="34"/>
   <tile gid="34"/>
   <tile gid="34"/>
   <tile gid="34"/>
   <tile gid="34"/>
   <tile gid="34"/>
   <tile gid="34"/>
   <tile gid="34"/>
   <tile gid="34"/>
   <tile gid="34"/>
   <tile gid="34"/>
   <tile gid="34"/>
   <tile gid="34"/>
   <tile gid="34"/>
   <tile gid="34"/>
   <tile gid="34"/>
   <tile gid="34"/>
   <tile gid="34"/>
   <tile gid="34"/>
   <tile gid="34"/>
   <tile gid="34"/>
   <tile gid="34"/>
   <tile gid="34"/>
   <tile gid="34"/>
   <tile gid="34"/>
   <tile gid="34"/>
   <tile gid="34"/>
   <tile gid="34"/>
   <tile gid="34"/>
   <tile gid="34"/>
   <tile gid="34"/>
   <tile gid="34"/>
   <tile gid="34"/>
   <tile gid="34"/>
   <tile gid="34"/>
   <tile gid="34"/>
   <tile gid="34"/>
   <tile gid="34"/>
   <tile gid="34"/>
   <tile gid="34"/>
   <tile gid="34"/>
   <tile gid="34"/>
   <tile gid="34"/>
   <tile gid="34"/>
   <tile gid="34"/>
   <tile gid="34"/>
   <tile gid="34"/>
   <tile gid="34"/>
   <tile gid="34"/>
   <tile gid="34"/>
   <tile gid="34"/>
   <tile gid="34"/>
   <tile gid="34"/>
   <tile gid="34"/>
   <tile gid="34"/>
   <tile gid="34"/>
   <tile gid="34"/>
   <tile gid="34"/>
   <tile gid="34"/>
   <tile gid="34"/>
   <tile gid="34"/>
   <tile gid="34"/>
   <tile gid="34"/>
   <tile gid="34"/>
   <tile gid="34"/>
   <tile gid="34"/>
   <tile gid="34"/>
   <tile gid="34"/>
   <tile gid="34"/>
   <tile gid="34"/>
   <tile gid="34"/>
   <tile gid="34"/>
   <tile gid="34"/>
   <tile gid="34"/>
   <tile gid="34"/>
   <tile gid="34"/>
   <tile gid="34"/>
   <tile gid="34"/>
   <tile gid="34"/>
   <tile gid="34"/>
   <tile gid="34"/>
   <tile gid="34"/>
   <tile gid="34"/>
   <tile gid="34"/>
   <tile gid="34"/>
   <tile gid="34"/>
   <tile gid="34"/>
   <tile gid="34"/>
   <tile gid="34"/>
   <tile gid="34"/>
   <tile gid="34"/>
   <tile gid="34"/>
   <tile gid="34"/>
   <tile gid="34"/>
   <tile gid="34"/>
   <tile gid="34"/>
   <tile gid="34"/>
   <tile gid="34"/>
   <tile gid="34"/>
   <tile gid="34"/>
   <tile gid="34"/>
   <tile gid="34"/>
   <tile gid="34"/>
   <tile gid="34"/>
   <tile gid="34"/>
   <tile gid="34"/>
   <tile gid="34"/>
   <tile gid="34"/>
   <tile gid="34"/>
   <tile gid="34"/>
   <tile gid="34"/>
   <tile gid="34"/>
   <tile gid="34"/>
   <tile gid="34"/>
   <tile gid="34"/>
   <tile gid="34"/>
   <tile gid="34"/>
   <tile gid="34"/>
   <tile gid="34"/>
   <tile gid="34"/>
   <tile gid="34"/>
   <tile gid="34"/>
   <tile gid="34"/>
   <tile gid="34"/>
   <tile gid="34"/>
   <tile gid="34"/>
   <tile gid="34"/>
   <tile gid="34"/>
   <tile gid="34"/>
   <tile gid="34"/>
   <tile gid="34"/>
   <tile gid="34"/>
   <tile gid="34"/>
   <tile gid="34"/>
   <tile gid="34"/>
   <tile gid="34"/>
   <tile gid="34"/>
   <tile gid="34"/>
   <tile gid="34"/>
   <tile gid="34"/>
   <tile gid="34"/>
   <tile gid="34"/>
   <tile gid="34"/>
   <tile gid="34"/>
   <tile gid="34"/>
   <tile gid="34"/>
   <tile gid="34"/>
   <tile gid="34"/>
   <tile gid="34"/>
   <tile gid="34"/>
   <tile gid="34"/>
   <tile gid="34"/>
   <tile gid="34"/>
   <tile gid="34"/>
   <tile gid="34"/>
   <tile gid="34"/>
   <tile gid="34"/>
   <tile gid="34"/>
   <tile gid="34"/>
   <tile gid="34"/>
   <tile gid="34"/>
   <tile gid="34"/>
   <tile gid="34"/>
   <tile gid="34"/>
   <tile gid="34"/>
   <tile gid="34"/>
   <tile gid="34"/>
   <tile gid="34"/>
   <tile gid="34"/>
   <tile gid="34"/>
   <tile gid="34"/>
   <tile gid="34"/>
   <tile gid="34"/>
   <tile gid="34"/>
   <tile gid="34"/>
   <tile gid="34"/>
   <tile gid="34"/>
   <tile gid="34"/>
   <tile gid="34"/>
   <tile gid="34"/>
   <tile gid="34"/>
   <tile gid="34"/>
   <tile gid="34"/>
   <tile gid="34"/>
   <tile gid="34"/>
   <tile gid="34"/>
   <tile gid="34"/>
   <tile gid="34"/>
   <tile gid="34"/>
   <tile gid="34"/>
   <tile gid="34"/>
   <tile gid="34"/>
   <tile gid="34"/>
   <tile gid="34"/>
   <tile gid="34"/>
   <tile gid="34"/>
   <tile gid="34"/>
   <tile gid="34"/>
   <tile gid="34"/>
   <tile gid="34"/>
   <tile gid="34"/>
   <tile gid="34"/>
   <tile gid="34"/>
   <tile gid="34"/>
   <tile gid="34"/>
   <tile gid="34"/>
  </data>
 </layer>
 <objectgroup id="2" name="Collision">
  <properties>
   <property name="Collision" type="bool" value="true"/>
   <property name="Draw" type="bool" value="false"/>
  </properties>
  <object id="1" x="0" y="0" width="1856" height="96"/>
  <object id="2" x="2432" y="0" width="1792" height="96"/>
  <object id="3" x="96" y="3104" width="4032" height="96"/>
  <object id="4" x="4128" y="96" width="96" height="3104"/>
  <object id="5" x="0" y="96" width="96" height="3104"/>
  <object id="6" x="96" y="1504" width="352" height="96"/>
  <object id="7" x="288" y="2240" width="1664" height="96"/>
  <object id="8" x="2048" y="2240" width="1760" height="96"/>
  <object id="9" x="3904" y="2240" width="224" height="96"/>
  <object id="10" x="96" y="2240" width="96" height="96"/>
  <object id="11" x="352" y="1600" width="96" height="640"/>
  <object id="13" x="1120" y="2336" width="96" height="768"/>
  <object id="14" x="2688" y="2336" width="96" height="768"/>
  <object id="15" x="1760" y="96" width="96" height="352"/>
  <object id="16" x="2432" y="96" width="96" height="352"/>
  <object id="17" x="1856" y="352" width="576" height="64"/>
  <object id="18" x="2176" y="416" width="256" height="32"/>
  <object id="19" x="1856" y="416" width="224" height="32"/>
  <object id="20" x="640" y="896" width="3104" height="96"/>
  <object id="21" x="3264" y="448" width="384" height="96"/>
  <object id="22" x="2944" y="448" width="224" height="96"/>
  <object id="23" x="2848" y="256" width="96" height="640"/>
  <object id="24" x="3648" y="256" width="96" height="640"/>
  <object id="25" x="3648" y="96" width="96" height="64"/>
  <object id="26" x="2848" y="96" width="96" height="64"/>
  <object id="27" x="1344" y="96" width="96" height="608"/>
  <object id="28" x="1344" y="800" width="96" height="96"/>
  <object id="29" x="544" y="96" width="96" height="96"/>
  <object id="30" x="544" y="288" width="96" height="1312"/>
  <object id="31" x="640" y="1504" width="480" height="96"/>
  <object id="32" x="928" y="992" width="96" height="192"/>
  <object id="33" x="928" y="1280" width="96" height="224"/>
  <object id="34" x="1344" y="992" width="96" height="192"/>
  <object id="35" x="1344" y="1280" width="96" height="960"/>
  <object id="36" x="1440" y="1504" width="672" height="96"/>
  <object id="37" x="1920" y="992" width="96" height="512"/>
  <object id="38" x="1248" y="1504" width="96" height="96"/>
  <object id="39" x="2656" y="1728" width="1472" height="96"/>
  <object id="40" x="3136" y="1184" width="96" height="544"/>
  <object id="41" x="3136" y="992" width="96" height="96"/>
  <object id="42" x="2208" y="1504" width="448" height="96"/>
  <object id="43" x="2560" y="1600" width="96" height="640"/>
 </objectgroup>
 <objectgroup id="3" name="Teleport">
  <object id="44" x="2080" y="416" width="96" height="32">
   <properties>
    <property name="targetMap" value="FrontRoom.tmx"/>
   </properties>
  </object>
  <object id="45" x="1952" y="2240" width="96" height="96">
   <properties>
    <property name="targetMap" value="Cursed_Supermarket.tmx"/>
   </properties>
  </object>
 </objectgroup>
 <objectgroup id="4" name="Checkpoints">
  <object id="46" x="2080" y="448" width="96" height="32"/>
  <object id="47" x="1952" y="2208" width="96" height="32"/>
 </objectgroup>
 <objectgroup id="5" name="Entities">
  <properties>
   <property name="CorneliusJoined" type="bool" value="false"/>
   <property name="WizardJoined" type="bool" value="false"/>
   <property name="magicPoints" type="int" value="50"/>
  </properties>
  <object id="48" name="Player" type="Player" x="2132.06" y="569.333">
   <properties>
    <property name="magicPoints" type="int" value="50"/>
   </properties>
   <point/>
  </object>
  <object id="49" name="Enemy26" type="Enemy" x="3261.67" y="304.97">
   <properties>
    <property name="Enemy_ID" type="int" value="26"/>
    <property name="active" type="bool" value="true"/>
    <property name="fight_ID" type="int" value="9"/>
    <property name="texturePath" value="Assets/Maps/Tilesets/x.png"/>
   </properties>
   <point/>
  </object>
  <object id="50" name="Enemy30" type="Enemy" x="3681.82" y="1284.85">
   <properties>
    <property name="Enemy_ID" type="int" value="30"/>
    <property name="active" type="bool" value="true"/>
    <property name="fight_ID" type="int" value="10"/>
    <property name="texturePath" value="Assets/Maps/Tilesets/x.png"/>
   </properties>
   <point/>
  </object>
  <object id="51" name="Enemy34" type="Enemy" x="2881.82" y="1296.97">
   <properties>
    <property name="Enemy_ID" type="int" value="34"/>
    <property name="active" type="bool" value="true"/>
    <property name="fight_ID" type="int" value="11"/>
    <property name="texturePath" value="Assets/Maps/Tilesets/x.png"/>
   </properties>
   <point/>
  </object>
  <object id="52" name="Enemy39" type="Enemy" x="2369.7" y="1221.21">
   <properties>
    <property name="Enemy_ID" type="int" value="39"/>
    <property name="active" type="bool" value="true"/>
    <property name="fight_ID" type="int" value="12"/>
    <property name="texturePath" value="Assets/Maps/Tilesets/x.png"/>
   </properties>
   <point/>
  </object>
  <object id="53" name="Enemy41" type="Enemy" x="3281.82" y="2618.18">
   <properties>
    <property name="Enemy_ID" type="int" value="41"/>
    <property name="active" type="bool" value="true"/>
    <property name="fight_ID" type="int" value="13"/>
    <property name="texturePath" value="Assets/Maps/Tilesets/x.png"/>
   </properties>
   <point/>
  </object>
  <object id="54" name="Enemy45" type="Enemy" x="3869.7" y="2748.48">
   <properties>
    <property name="Enemy_ID" type="int" value="45"/>
    <property name="active" type="bool" value="true"/>
    <property name="fight_ID" type="int" value="14"/>
    <property name="texturePath" value="Assets/Maps/Tilesets/x.png"/>
   </properties>
   <point/>
  </object>
  <object id="55" name="Enemy58" type="Enemy" x="715.152" y="2478.79">
   <properties>
    <property name="Enemy_ID" type="int" value="58"/>
    <property name="active" type="bool" value="true"/>
    <property name="fight_ID" type="int" value="25"/>
    <property name="texturePath" value="Assets/Maps/Tilesets/x.png"/>
   </properties>
   <point/>
  </object>
  <object id="56" name="Enemy59" type="Enemy" x="445.455" y="2757.58">
   <properties>
    <property name="Enemy_ID" type="int" value="59"/>
    <property name="active" type="bool" value="true"/>
    <property name="fight_ID" type="int" value="26"/>
    <property name="texturePath" value="Assets/Maps/Tilesets/x.png"/>
   </properties>
   <point/>
  </object>
  <object id="57" name="Enemy60" type="Enemy" x="912.121" y="2927.27">
   <properties>
    <property name="Enemy_ID" type="int" value="60"/>
    <property name="active" type="bool" value="true"/>
    <property name="fight_ID" type="int" value="27"/>
    <property name="texturePath" value="Assets/Maps/Tilesets/x.png"/>
   </properties>
   <point/>
  </object>
  <object id="58" name="Enemy55" type="Enemy" x="609.091" y="1884.85">
   <properties>
    <property name="Enemy_ID" type="int" value="55"/>
    <property name="active" type="bool" value="true"/>
    <property name="fight_ID" type="int" value="21"/>
    <property name="texturePath" value="Assets/Maps/Tilesets/x.png"/>
   </properties>
   <point/>
  </object>
  <object id="59" name="Enemy53" type="Enemy" x="781.818" y="1715.15">
   <properties>
    <property name="Enemy_ID" type="int" value="53"/>
    <property name="active" type="bool" value="true"/>
    <property name="fight_ID" type="int" value="20"/>
    <property name="texturePath" value="Assets/Maps/Tilesets/x.png"/>
   </properties>
   <point/>
  </object>
  <object id="60" name="Enemy56" type="Enemy" x="790.909" y="2100">
   <properties>
    <property name="Enemy_ID" type="int" value="56"/>
    <property name="active" type="bool" value="true"/>
    <property name="fight_ID" type="int" value="22"/>
    <property name="texturePath" value="Assets/Maps/Tilesets/x.png"/>
   </properties>
   <point/>
  </object>
  <object id="61" name="Enemy54" type="Enemy" x="1139.39" y="1830.3">
   <properties>
    <property name="Enemy_ID" type="int" value="54"/>
    <property name="active" type="bool" value="true"/>
    <property name="fight_ID" type="int" value="24"/>
    <property name="texturePath" value="Assets/Maps/Tilesets/x.png"/>
   </properties>
   <point/>
  </object>
  <object id="62" name="Enemy57" type="Enemy" x="1193.94" y="2087.88">
   <properties>
    <property name="Enemy_ID" type="int" value="57"/>
    <property name="active" type="bool" value="true"/>
    <property name="fight_ID" type="int" value="23"/>
    <property name="texturePath" value="Assets/Maps/Tilesets/x.png"/>
   </properties>
   <point/>
  </object>
  <object id="63" name="Enemy52" type="Enemy" x="1187.88" y="1290.91">
   <properties>
    <property name="Enemy_ID" type="int" value="52"/>
    <property name="active" type="bool" value="true"/>
    <property name="fight_ID" type="int" value="19"/>
    <property name="texturePath" value="Assets/Maps/Tilesets/x.png"/>
   </properties>
   <point/>
  </object>
  <object id="64" name="Enemy51" type="Enemy" x="475.758" y="1390.91">
   <properties>
    <property name="Enemy_ID" type="int" value="51"/>
    <property name="active" type="bool" value="true"/>
    <property name="fight_ID" type="int" value="18"/>
    <property name="texturePath" value="Assets/Maps/Tilesets/x.png"/>
   </properties>
   <point/>
  </object>
  <object id="65" name="Enemy50" type="Enemy" x="269.697" y="1254.55">
   <properties>
    <property name="Enemy_ID" type="int" value="50"/>
    <property name="active" type="bool" value="true"/>
    <property name="fight_ID" type="int" value="17"/>
    <property name="texturePath" value="Assets/Maps/Tilesets/x.png"/>
   </properties>
   <point/>
  </object>
  <object id="66" name="Enemy49" type="Enemy" x="436.364" y="972.727">
   <properties>
    <property name="Enemy_ID" type="int" value="49"/>
    <property name="active" type="bool" value="true"/>
    <property name="fight_ID" type="int" value="16"/>
    <property name="texturePath" value="Assets/Maps/Tilesets/x.png"/>
   </properties>
   <point/>
  </object>
  <object id="67" name="Enemy48" type="Enemy" x="278.788" y="775.758">
   <properties>
    <property name="Enemy_ID" type="int" value="48"/>
    <property name="active" type="bool" value="true"/>
    <property name="fight_ID" type="int" value="15"/>
    <property name="texturePath" value="Assets/Maps/Tilesets/x.png"/>
   </properties>
   <point/>
  </object>
  <object id="68" name="Enemy28" type="Enemy" x="3339" y="305">
   <properties>
    <property name="Enemy_ID" type="int" value="28"/>
    <property name="active" type="bool" value="true"/>
    <property name="fight_ID" type="int" value="9"/>
    <property name="texturePath" value="Assets/Maps/Tilesets/x.png"/>
   </properties>
   <point/>
  </object>
  <object id="69" name="Enemy29" type="Enemy" x="3239" y="384">
   <properties>
    <property name="Enemy_ID" type="int" value="29"/>
    <property name="active" type="bool" value="true"/>
    <property name="fight_ID" type="int" value="9"/>
    <property name="texturePath" value="Assets/Maps/Tilesets/x.png"/>
   </properties>
   <point/>
  </object>
  <object id="70" name="Enemy27" type="Enemy" x="3242" y="225">
   <properties>
    <property name="Enemy_ID" type="int" value="27"/>
    <property name="active" type="bool" value="true"/>
    <property name="fight_ID" type="int" value="9"/>
    <property name="texturePath" value="Assets/Maps/Tilesets/x.png"/>
   </properties>
   <point/>
  </object>
  <object id="71" name="Enemy32" type="Enemy" x="3773" y="1192">
   <properties>
    <property name="Enemy_ID" type="int" value="32"/>
    <property name="active" type="bool" value="true"/>
    <property name="fight_ID" type="int" value="10"/>
    <property name="texturePath" value="Assets/Maps/Tilesets/x.png"/>
   </properties>
   <point/>
  </object>
  <object id="72" name="Enemy33" type="Enemy" x="3645" y="1121">
   <properties>
    <property name="Enemy_ID" type="int" value="33"/>
    <property name="active" type="bool" value="true"/>
    <property name="fight_ID" type="int" value="10"/>
    <property name="texturePath" value="Assets/Maps/Tilesets/x.png"/>
   </properties>
   <point/>
  </object>
  <object id="73" name="Enemy31" type="Enemy" x="3757" y="1340">
   <properties>
    <property name="Enemy_ID" type="int" value="31"/>
    <property name="active" type="bool" value="true"/>
    <property name="fight_ID" type="int" value="10"/>
    <property name="texturePath" value="Assets/Maps/Tilesets/x.png"/>
   </properties>
   <point/>
  </object>
  <object id="74" name="Enemy36" type="Enemy" x="2919" y="1241">
   <properties>
    <property name="Enemy_ID" type="int" value="36"/>
    <property name="active" type="bool" value="true"/>
    <property name="fight_ID" type="int" value="11"/>
    <property name="texturePath" value="Assets/Maps/Tilesets/x.png"/>
   </properties>
   <point/>
  </object>
  <object id="75" name="Enemy35" type="Enemy" x="2935" y="1292">
   <properties>
    <property name="Enemy_ID" type="int" value="35"/>
    <property name="active" type="bool" value="true"/>
    <property name="fight_ID" type="int" value="11"/>
    <property name="texturePath" value="Assets/Maps/Tilesets/x.png"/>
   </properties>
   <point/>
  </object>
  <object id="76" name="Enemy40" type="Enemy" x="2325" y="1128">
   <properties>
    <property name="Enemy_ID" type="int" value="40"/>
    <property name="active" type="bool" value="true"/>
    <property name="fight_ID" type="int" value="12"/>
    <property name="texturePath" value="Assets/Maps/Tilesets/x.png"/>
   </properties>
   <point/>
  </object>
  <object id="77" name="Enemy38" type="Enemy" x="2377" y="1319">
   <properties>
    <property name="Enemy_ID" type="int" value="38"/>
    <property name="active" type="bool" value="true"/>
    <property name="fight_ID" type="int" value="12"/>
    <property name="texturePath" value="Assets/Maps/Tilesets/x.png"/>
   </properties>
   <point/>
  </object>
  <object id="78" name="Enemy37" type="Enemy" x="2318" y="1410">
   <properties>
    <property name="Enemy_ID" type="int" value="37"/>
    <property name="active" type="bool" value="true"/>
    <property name="fight_ID" type="int" value="12"/>
    <property name="texturePath" value="Assets/Maps/Tilesets/x.png"/>
   </properties>
   <point/>
  </object>
  <object id="79" name="Enemy42" type="Enemy" x="3355" y="2545">
   <properties>
    <property name="Enemy_ID" type="int" value="42"/>
    <property name="active" type="bool" value="true"/>
    <property name="fight_ID" type="int" value="13"/>
    <property name="texturePath" value="Assets/Maps/Tilesets/x.png"/>
   </properties>
   <point/>
  </object>
  <object id="80" name="Enemy43" type="Enemy" x="3366" y="2639">
   <properties>
    <property name="Enemy_ID" type="int" value="43"/>
    <property name="active" type="bool" value="true"/>
    <property name="fight_ID" type="int" value="13"/>
    <property name="texturePath" value="Assets/Maps/Tilesets/x.png"/>
   </properties>
   <point/>
  </object>
  <object id="81" name="Enemy44" type="Enemy" x="3279" y="2694">
   <properties>
    <property name="Enemy_ID" type="int" value="44"/>
    <property name="active" type="bool" value="true"/>
    <property name="fight_ID" type="int" value="13"/>
    <property name="texturePath" value="Assets/Maps/Tilesets/x.png"/>
   </properties>
   <point/>
  </object>
  <object id="82" name="Enemy45" type="Enemy" x="3920" y="2694">
   <properties>
    <property name="Enemy_ID" type="int" value="45"/>
    <property name="active" type="bool" value="true"/>
    <property name="fight_ID" type="int" value="14"/>
    <property name="texturePath" value="Assets/Maps/Tilesets/x.png"/>
   </properties>
   <point/>
  </object>
  <object id="83" name="Enemy46" type="Enemy" x="3813" y="2685">
   <properties>
    <property name="Enemy_ID" type="int" value="46"/>
    <property name="active" type="bool" value="true"/>
    <property name="fight_ID" type="int" value="14"/>
    <property name="texturePath" value="Assets/Maps/Tilesets/x.png"/>
   </properties>
   <point/>
  </object>
  <object id="84" name="Enemy47" type="Enemy" x="3957" y="2767">
   <properties>
    <property name="Enemy_ID" type="int" value="47"/>
    <property name="active" type="bool" value="true"/>
    <property name="fight_ID" type="int" value="14"/>
    <property name="texturePath" value="Assets/Maps/Tilesets/x.png"/>
   </properties>
   <point/>
  </object>
 </objectgroup>
 <objectgroup id="6" name="Events"/>
</map>
