<?xml version="1.0" encoding="UTF-8"?>
<map version="1.10" tiledversion="1.11.2" orientation="orthogonal" renderorder="right-down" width="50" height="50" tilewidth="32" tileheight="32" infinite="0" nextlayerid="9" nextobjectid="28">
 <tileset firstgid="1" name="victorian-streets" tilewidth="32" tileheight="32" tilecount="1536" columns="16">
  <image source="../Tilesets/victorian-streets.png" width="512" height="3072"/>
 </tileset>
 <tileset firstgid="1537" name="victorian-accessories" tilewidth="32" tileheight="32" tilecount="2560" columns="32">
  <image source="../Tilesets/victorian-accessories.png" width="1024" height="2560"/>
 </tileset>
 <tileset firstgid="4097" name="MapMetadata" tilewidth="32" tileheight="32" spacing="1" margin="1" tilecount="2" columns="2">
  <image source="../Tilesets/MapMetadata.png" width="67" height="34"/>
 </tileset>
 <layer id="1" name="Map" width="50" height="50">
  <properties>
   <property name="Draw" type="bool" value="true"/>
  </properties>
  <data>
   <tile gid="1703"/>
   <tile gid="1703"/>
   <tile gid="1703"/>
   <tile gid="1703"/>
   <tile gid="1703"/>
   <tile gid="1703"/>
   <tile gid="1703"/>
   <tile gid="1703"/>
   <tile gid="1703"/>
   <tile gid="1703"/>
   <tile gid="1703"/>
   <tile gid="1703"/>
   <tile gid="1703"/>
   <tile gid="1703"/>
   <tile gid="1703"/>
   <tile gid="1703"/>
   <tile gid="1109"/>
   <tile gid="1109"/>
   <tile gid="1109"/>
   <tile gid="1109"/>
   <tile gid="1109"/>
   <tile gid="1109"/>
   <tile gid="1109"/>
   <tile gid="1109"/>
   <tile gid="1109"/>
   <tile gid="1109"/>
   <tile gid="1109"/>
   <tile gid="1109"/>
   <tile gid="1109"/>
   <tile gid="1109"/>
   <tile gid="1109"/>
   <tile gid="1109"/>
   <tile gid="1109"/>
   <tile gid="1109"/>
   <tile gid="1109"/>
   <tile gid="1703"/>
   <tile gid="1703"/>
   <tile gid="1703"/>
   <tile gid="1703"/>
   <tile gid="1703"/>
   <tile gid="1703"/>
   <tile gid="1703"/>
   <tile gid="1703"/>
   <tile gid="1703"/>
   <tile gid="1703"/>
   <tile gid="1703"/>
   <tile gid="1703"/>
   <tile gid="1703"/>
   <tile gid="1703"/>
   <tile gid="1703"/>
   <tile gid="1703"/>
   <tile gid="1703"/>
   <tile gid="1703"/>
   <tile gid="1703"/>
   <tile gid="1703"/>
   <tile gid="1703"/>
   <tile gid="1703"/>
   <tile gid="1703"/>
   <tile gid="1703"/>
   <tile gid="1703"/>
   <tile gid="1703"/>
   <tile gid="1703"/>
   <tile gid="1703"/>
   <tile gid="1703"/>
   <tile gid="1703"/>
   <tile gid="1703"/>
   <tile gid="1109"/>
   <tile gid="1109"/>
   <tile gid="1109"/>
   <tile gid="1109"/>
   <tile gid="1109"/>
   <tile gid="1109"/>
   <tile gid="1109"/>
   <tile gid="1109"/>
   <tile gid="1109"/>
   <tile gid="1109"/>
   <tile gid="1109"/>
   <tile gid="1109"/>
   <tile gid="1109"/>
   <tile gid="1109"/>
   <tile gid="1109"/>
   <tile gid="1109"/>
   <tile gid="1109"/>
   <tile gid="1109"/>
   <tile gid="1109"/>
   <tile gid="1703"/>
   <tile gid="1703"/>
   <tile gid="1703"/>
   <tile gid="1703"/>
   <tile gid="1703"/>
   <tile gid="1703"/>
   <tile gid="1703"/>
   <tile gid="1703"/>
   <tile gid="1703"/>
   <tile gid="1703"/>
   <tile gid="1703"/>
   <tile gid="1703"/>
   <tile gid="1703"/>
   <tile gid="1703"/>
   <tile gid="1703"/>
   <tile gid="1703"/>
   <tile gid="1703"/>
   <tile gid="1703"/>
   <tile gid="1703"/>
   <tile gid="1703"/>
   <tile gid="1703"/>
   <tile gid="1703"/>
   <tile gid="1703"/>
   <tile gid="1703"/>
   <tile gid="1703"/>
   <tile gid="1703"/>
   <tile gid="1703"/>
   <tile gid="1703"/>
   <tile gid="1703"/>
   <tile gid="1703"/>
   <tile gid="1703"/>
   <tile gid="1109"/>
   <tile gid="1109"/>
   <tile gid="1109"/>
   <tile gid="1109"/>
   <tile gid="1109"/>
   <tile gid="1109"/>
   <tile gid="1109"/>
   <tile gid="1109"/>
   <tile gid="1109"/>
   <tile gid="1109"/>
   <tile gid="1109"/>
   <tile gid="1109"/>
   <tile gid="1109"/>
   <tile gid="1109"/>
   <tile gid="1109"/>
   <tile gid="1109"/>
   <tile gid="1109"/>
   <tile gid="1109"/>
   <tile gid="1109"/>
   <tile gid="1703"/>
   <tile gid="1703"/>
   <tile gid="1703"/>
   <tile gid="1703"/>
   <tile gid="1703"/>
   <tile gid="1703"/>
   <tile gid="1703"/>
   <tile gid="1703"/>
   <tile gid="1703"/>
   <tile gid="1703"/>
   <tile gid="1703"/>
   <tile gid="1703"/>
   <tile gid="1703"/>
   <tile gid="1703"/>
   <tile gid="1703"/>
   <tile gid="1703"/>
   <tile gid="1703"/>
   <tile gid="1703"/>
   <tile gid="1703"/>
   <tile gid="1703"/>
   <tile gid="1703"/>
   <tile gid="1703"/>
   <tile gid="1703"/>
   <tile gid="1703"/>
   <tile gid="1703"/>
   <tile gid="1703"/>
   <tile gid="1703"/>
   <tile gid="1703"/>
   <tile gid="1703"/>
   <tile gid="1703"/>
   <tile gid="1703"/>
   <tile gid="1109"/>
   <tile gid="1109"/>
   <tile gid="1109"/>
   <tile gid="1109"/>
   <tile gid="1109"/>
   <tile gid="1109"/>
   <tile gid="1109"/>
   <tile gid="1109"/>
   <tile gid="1109"/>
   <tile gid="4097"/>
   <tile gid="1109"/>
   <tile gid="1109"/>
   <tile gid="1109"/>
   <tile gid="1109"/>
   <tile gid="1109"/>
   <tile gid="1109"/>
   <tile gid="1109"/>
   <tile gid="1109"/>
   <tile gid="1109"/>
   <tile gid="1703"/>
   <tile gid="1703"/>
   <tile gid="1703"/>
   <tile gid="1703"/>
   <tile gid="1703"/>
   <tile gid="1703"/>
   <tile gid="1703"/>
   <tile gid="1703"/>
   <tile gid="1703"/>
   <tile gid="1703"/>
   <tile gid="1703"/>
   <tile gid="1703"/>
   <tile gid="1703"/>
   <tile gid="1703"/>
   <tile gid="1703"/>
   <tile gid="1703"/>
   <tile gid="1703"/>
   <tile gid="1703"/>
   <tile gid="1703"/>
   <tile gid="1703"/>
   <tile gid="1703"/>
   <tile gid="1703"/>
   <tile gid="1703"/>
   <tile gid="1703"/>
   <tile gid="1703"/>
   <tile gid="1703"/>
   <tile gid="1703"/>
   <tile gid="1703"/>
   <tile gid="1703"/>
   <tile gid="1703"/>
   <tile gid="1703"/>
   <tile gid="1109"/>
   <tile gid="1109"/>
   <tile gid="1109"/>
   <tile gid="1109"/>
   <tile gid="1109"/>
   <tile gid="1109"/>
   <tile gid="1109"/>
   <tile gid="1109"/>
   <tile gid="1109"/>
   <tile gid="4097"/>
   <tile gid="1109"/>
   <tile gid="1109"/>
   <tile gid="1109"/>
   <tile gid="1109"/>
   <tile gid="1109"/>
   <tile gid="1109"/>
   <tile gid="1109"/>
   <tile gid="1109"/>
   <tile gid="1109"/>
   <tile gid="1703"/>
   <tile gid="1703"/>
   <tile gid="1703"/>
   <tile gid="1703"/>
   <tile gid="1703"/>
   <tile gid="1703"/>
   <tile gid="1703"/>
   <tile gid="1703"/>
   <tile gid="1703"/>
   <tile gid="1703"/>
   <tile gid="1703"/>
   <tile gid="1703"/>
   <tile gid="1703"/>
   <tile gid="1703"/>
   <tile gid="1703"/>
   <tile gid="1703"/>
   <tile gid="1703"/>
   <tile gid="1703"/>
   <tile gid="1703"/>
   <tile gid="1703"/>
   <tile gid="1703"/>
   <tile gid="1703"/>
   <tile gid="1703"/>
   <tile gid="1703"/>
   <tile gid="1703"/>
   <tile gid="1703"/>
   <tile gid="1703"/>
   <tile gid="1703"/>
   <tile gid="1703"/>
   <tile gid="1703"/>
   <tile gid="1703"/>
   <tile gid="1336"/>
   <tile gid="1336"/>
   <tile gid="1336"/>
   <tile gid="1336"/>
   <tile gid="1336"/>
   <tile gid="1336"/>
   <tile gid="1336"/>
   <tile gid="1336"/>
   <tile gid="1336"/>
   <tile gid="1336"/>
   <tile gid="1336"/>
   <tile gid="1336"/>
   <tile gid="1336"/>
   <tile gid="1336"/>
   <tile gid="1336"/>
   <tile gid="1336"/>
   <tile gid="1336"/>
   <tile gid="1336"/>
   <tile gid="1336"/>
   <tile gid="1703"/>
   <tile gid="1703"/>
   <tile gid="1703"/>
   <tile gid="1703"/>
   <tile gid="1703"/>
   <tile gid="1703"/>
   <tile gid="1703"/>
   <tile gid="1703"/>
   <tile gid="1703"/>
   <tile gid="1703"/>
   <tile gid="1703"/>
   <tile gid="1703"/>
   <tile gid="1703"/>
   <tile gid="1703"/>
   <tile gid="1703"/>
   <tile gid="1703"/>
   <tile gid="1703"/>
   <tile gid="1703"/>
   <tile gid="1703"/>
   <tile gid="1703"/>
   <tile gid="1703"/>
   <tile gid="1703"/>
   <tile gid="1703"/>
   <tile gid="1703"/>
   <tile gid="1703"/>
   <tile gid="1703"/>
   <tile gid="1703"/>
   <tile gid="1703"/>
   <tile gid="1703"/>
   <tile gid="1703"/>
   <tile gid="1703"/>
   <tile gid="1336"/>
   <tile gid="1336"/>
   <tile gid="1336"/>
   <tile gid="1336"/>
   <tile gid="1336"/>
   <tile gid="1336"/>
   <tile gid="1336"/>
   <tile gid="1336"/>
   <tile gid="1336"/>
   <tile gid="1336"/>
   <tile gid="1336"/>
   <tile gid="1336"/>
   <tile gid="1336"/>
   <tile gid="1336"/>
   <tile gid="1336"/>
   <tile gid="1336"/>
   <tile gid="1336"/>
   <tile gid="1336"/>
   <tile gid="1336"/>
   <tile gid="1703"/>
   <tile gid="1703"/>
   <tile gid="1703"/>
   <tile gid="1703"/>
   <tile gid="1703"/>
   <tile gid="1703"/>
   <tile gid="1703"/>
   <tile gid="1703"/>
   <tile gid="1703"/>
   <tile gid="1703"/>
   <tile gid="1703"/>
   <tile gid="1703"/>
   <tile gid="1703"/>
   <tile gid="1703"/>
   <tile gid="1703"/>
   <tile gid="1703"/>
   <tile gid="1703"/>
   <tile gid="1703"/>
   <tile gid="1703"/>
   <tile gid="1703"/>
   <tile gid="1703"/>
   <tile gid="1703"/>
   <tile gid="1703"/>
   <tile gid="1703"/>
   <tile gid="1703"/>
   <tile gid="1703"/>
   <tile gid="1703"/>
   <tile gid="1703"/>
   <tile gid="1703"/>
   <tile gid="1703"/>
   <tile gid="1703"/>
   <tile gid="1336"/>
   <tile gid="1336"/>
   <tile gid="1336"/>
   <tile gid="1336"/>
   <tile gid="1336"/>
   <tile gid="1336"/>
   <tile gid="1336"/>
   <tile gid="1336"/>
   <tile gid="1336"/>
   <tile gid="1336"/>
   <tile gid="1336"/>
   <tile gid="1336"/>
   <tile gid="1336"/>
   <tile gid="1336"/>
   <tile gid="1336"/>
   <tile gid="1336"/>
   <tile gid="1336"/>
   <tile gid="1336"/>
   <tile gid="1336"/>
   <tile gid="1703"/>
   <tile gid="1703"/>
   <tile gid="1703"/>
   <tile gid="1703"/>
   <tile gid="1703"/>
   <tile gid="1703"/>
   <tile gid="1703"/>
   <tile gid="1703"/>
   <tile gid="1703"/>
   <tile gid="1703"/>
   <tile gid="1703"/>
   <tile gid="1703"/>
   <tile gid="1703"/>
   <tile gid="1703"/>
   <tile gid="1703"/>
   <tile gid="1703"/>
   <tile gid="1703"/>
   <tile gid="1703"/>
   <tile gid="1703"/>
   <tile gid="1703"/>
   <tile gid="1703"/>
   <tile gid="1703"/>
   <tile gid="1703"/>
   <tile gid="1703"/>
   <tile gid="1703"/>
   <tile gid="1703"/>
   <tile gid="1703"/>
   <tile gid="1703"/>
   <tile gid="1703"/>
   <tile gid="1703"/>
   <tile gid="1703"/>
   <tile gid="1336"/>
   <tile gid="1336"/>
   <tile gid="1336"/>
   <tile gid="1336"/>
   <tile gid="1336"/>
   <tile gid="1336"/>
   <tile gid="1336"/>
   <tile gid="1336"/>
   <tile gid="1336"/>
   <tile gid="1336"/>
   <tile gid="1336"/>
   <tile gid="1336"/>
   <tile gid="1336"/>
   <tile gid="1336"/>
   <tile gid="1336"/>
   <tile gid="1336"/>
   <tile gid="1336"/>
   <tile gid="1336"/>
   <tile gid="1336"/>
   <tile gid="1703"/>
   <tile gid="1703"/>
   <tile gid="1703"/>
   <tile gid="1703"/>
   <tile gid="1703"/>
   <tile gid="1703"/>
   <tile gid="1703"/>
   <tile gid="1703"/>
   <tile gid="1703"/>
   <tile gid="1703"/>
   <tile gid="1703"/>
   <tile gid="1703"/>
   <tile gid="1703"/>
   <tile gid="1703"/>
   <tile gid="1703"/>
   <tile gid="1703"/>
   <tile gid="1703"/>
   <tile gid="1703"/>
   <tile gid="1703"/>
   <tile gid="1703"/>
   <tile gid="1703"/>
   <tile gid="1703"/>
   <tile gid="1703"/>
   <tile gid="1703"/>
   <tile gid="1703"/>
   <tile gid="1703"/>
   <tile gid="1703"/>
   <tile gid="1703"/>
   <tile gid="1703"/>
   <tile gid="1703"/>
   <tile gid="1703"/>
   <tile gid="1336"/>
   <tile gid="1336"/>
   <tile gid="1336"/>
   <tile gid="1336"/>
   <tile gid="1336"/>
   <tile gid="1336"/>
   <tile gid="1336"/>
   <tile gid="1336"/>
   <tile gid="1336"/>
   <tile gid="1336"/>
   <tile gid="1336"/>
   <tile gid="1336"/>
   <tile gid="1336"/>
   <tile gid="1336"/>
   <tile gid="1336"/>
   <tile gid="1336"/>
   <tile gid="1336"/>
   <tile gid="1336"/>
   <tile gid="1336"/>
   <tile gid="1703"/>
   <tile gid="1703"/>
   <tile gid="1703"/>
   <tile gid="1703"/>
   <tile gid="1703"/>
   <tile gid="1703"/>
   <tile gid="1703"/>
   <tile gid="1703"/>
   <tile gid="1703"/>
   <tile gid="1703"/>
   <tile gid="1703"/>
   <tile gid="1703"/>
   <tile gid="1703"/>
   <tile gid="1703"/>
   <tile gid="1703"/>
   <tile gid="1109"/>
   <tile gid="1109"/>
   <tile gid="1109"/>
   <tile gid="1109"/>
   <tile gid="1109"/>
   <tile gid="1109"/>
   <tile gid="1109"/>
   <tile gid="1109"/>
   <tile gid="1109"/>
   <tile gid="1109"/>
   <tile gid="1109"/>
   <tile gid="1109"/>
   <tile gid="1109"/>
   <tile gid="1109"/>
   <tile gid="1109"/>
   <tile gid="1109"/>
   <tile gid="1336"/>
   <tile gid="1336"/>
   <tile gid="1336"/>
   <tile gid="1336"/>
   <tile gid="1336"/>
   <tile gid="1336"/>
   <tile gid="1336"/>
   <tile gid="1336"/>
   <tile gid="1336"/>
   <tile gid="1336"/>
   <tile gid="1336"/>
   <tile gid="1336"/>
   <tile gid="1336"/>
   <tile gid="1336"/>
   <tile gid="1336"/>
   <tile gid="1336"/>
   <tile gid="1336"/>
   <tile gid="1336"/>
   <tile gid="1336"/>
   <tile gid="1109"/>
   <tile gid="1109"/>
   <tile gid="1109"/>
   <tile gid="1109"/>
   <tile gid="1109"/>
   <tile gid="1109"/>
   <tile gid="1109"/>
   <tile gid="1109"/>
   <tile gid="1109"/>
   <tile gid="1109"/>
   <tile gid="1109"/>
   <tile gid="1109"/>
   <tile gid="1109"/>
   <tile gid="1109"/>
   <tile gid="1109"/>
   <tile gid="1109"/>
   <tile gid="1109"/>
   <tile gid="1109"/>
   <tile gid="1109"/>
   <tile gid="1109"/>
   <tile gid="1109"/>
   <tile gid="1109"/>
   <tile gid="1109"/>
   <tile gid="1109"/>
   <tile gid="1109"/>
   <tile gid="1109"/>
   <tile gid="1109"/>
   <tile gid="1109"/>
   <tile gid="1109"/>
   <tile gid="1109"/>
   <tile gid="1109"/>
   <tile gid="1336"/>
   <tile gid="1336"/>
   <tile gid="1336"/>
   <tile gid="1336"/>
   <tile gid="1336"/>
   <tile gid="1336"/>
   <tile gid="1336"/>
   <tile gid="1336"/>
   <tile gid="1336"/>
   <tile gid="1336"/>
   <tile gid="1336"/>
   <tile gid="1336"/>
   <tile gid="1336"/>
   <tile gid="1336"/>
   <tile gid="1336"/>
   <tile gid="1336"/>
   <tile gid="1336"/>
   <tile gid="1336"/>
   <tile gid="1336"/>
   <tile gid="1109"/>
   <tile gid="1109"/>
   <tile gid="1109"/>
   <tile gid="1109"/>
   <tile gid="1109"/>
   <tile gid="1109"/>
   <tile gid="1109"/>
   <tile gid="1109"/>
   <tile gid="1109"/>
   <tile gid="1109"/>
   <tile gid="1109"/>
   <tile gid="1109"/>
   <tile gid="1109"/>
   <tile gid="1109"/>
   <tile gid="1109"/>
   <tile gid="1109"/>
   <tile gid="1109"/>
   <tile gid="1109"/>
   <tile gid="1109"/>
   <tile gid="1109"/>
   <tile gid="1109"/>
   <tile gid="1109"/>
   <tile gid="1109"/>
   <tile gid="1109"/>
   <tile gid="1109"/>
   <tile gid="1109"/>
   <tile gid="1109"/>
   <tile gid="1109"/>
   <tile gid="1109"/>
   <tile gid="1109"/>
   <tile gid="1109"/>
   <tile gid="1336"/>
   <tile gid="1336"/>
   <tile gid="1336"/>
   <tile gid="1336"/>
   <tile gid="1336"/>
   <tile gid="1336"/>
   <tile gid="1336"/>
   <tile gid="1336"/>
   <tile gid="1336"/>
   <tile gid="1336"/>
   <tile gid="1336"/>
   <tile gid="1336"/>
   <tile gid="1336"/>
   <tile gid="1336"/>
   <tile gid="1336"/>
   <tile gid="1336"/>
   <tile gid="1336"/>
   <tile gid="1336"/>
   <tile gid="1336"/>
   <tile gid="1109"/>
   <tile gid="1109"/>
   <tile gid="1109"/>
   <tile gid="1109"/>
   <tile gid="1109"/>
   <tile gid="1109"/>
   <tile gid="1109"/>
   <tile gid="1109"/>
   <tile gid="1109"/>
   <tile gid="1109"/>
   <tile gid="1109"/>
   <tile gid="1109"/>
   <tile gid="1109"/>
   <tile gid="1109"/>
   <tile gid="1109"/>
   <tile gid="1109"/>
   <tile gid="1109"/>
   <tile gid="1109"/>
   <tile gid="1109"/>
   <tile gid="1109"/>
   <tile gid="1109"/>
   <tile gid="1109"/>
   <tile gid="1109"/>
   <tile gid="1109"/>
   <tile gid="1109"/>
   <tile gid="1109"/>
   <tile gid="1109"/>
   <tile gid="1109"/>
   <tile gid="1109"/>
   <tile gid="1109"/>
   <tile gid="1109"/>
   <tile gid="1336"/>
   <tile gid="1336"/>
   <tile gid="1336"/>
   <tile gid="1336"/>
   <tile gid="1336"/>
   <tile gid="1336"/>
   <tile gid="1336"/>
   <tile gid="1336"/>
   <tile gid="1336"/>
   <tile gid="1336"/>
   <tile gid="1336"/>
   <tile gid="1336"/>
   <tile gid="1336"/>
   <tile gid="1336"/>
   <tile gid="1336"/>
   <tile gid="1336"/>
   <tile gid="1336"/>
   <tile gid="1336"/>
   <tile gid="1336"/>
   <tile gid="1109"/>
   <tile gid="1109"/>
   <tile gid="1109"/>
   <tile gid="1109"/>
   <tile gid="1109"/>
   <tile gid="1109"/>
   <tile gid="1109"/>
   <tile gid="1109"/>
   <tile gid="1109"/>
   <tile gid="1109"/>
   <tile gid="1109"/>
   <tile gid="1109"/>
   <tile gid="1109"/>
   <tile gid="1109"/>
   <tile gid="1109"/>
   <tile gid="1109"/>
   <tile gid="1109"/>
   <tile gid="1109"/>
   <tile gid="1109"/>
   <tile gid="1109"/>
   <tile gid="1109"/>
   <tile gid="1109"/>
   <tile gid="1109"/>
   <tile gid="1109"/>
   <tile gid="1109"/>
   <tile gid="1109"/>
   <tile gid="1109"/>
   <tile gid="1109"/>
   <tile gid="1109"/>
   <tile gid="1109"/>
   <tile gid="1109"/>
   <tile gid="1336"/>
   <tile gid="1336"/>
   <tile gid="1336"/>
   <tile gid="1336"/>
   <tile gid="1336"/>
   <tile gid="1336"/>
   <tile gid="1336"/>
   <tile gid="1336"/>
   <tile gid="1336"/>
   <tile gid="1336"/>
   <tile gid="1336"/>
   <tile gid="1336"/>
   <tile gid="1336"/>
   <tile gid="1336"/>
   <tile gid="1336"/>
   <tile gid="1336"/>
   <tile gid="1336"/>
   <tile gid="1336"/>
   <tile gid="1336"/>
   <tile gid="1109"/>
   <tile gid="1109"/>
   <tile gid="1109"/>
   <tile gid="1109"/>
   <tile gid="1109"/>
   <tile gid="1109"/>
   <tile gid="1109"/>
   <tile gid="1109"/>
   <tile gid="1109"/>
   <tile gid="1109"/>
   <tile gid="1109"/>
   <tile gid="1109"/>
   <tile gid="1109"/>
   <tile gid="1109"/>
   <tile gid="1109"/>
   <tile gid="1703"/>
   <tile gid="1703"/>
   <tile gid="1336"/>
   <tile gid="1336"/>
   <tile gid="1336"/>
   <tile gid="1336"/>
   <tile gid="1336"/>
   <tile gid="1336"/>
   <tile gid="1336"/>
   <tile gid="1336"/>
   <tile gid="1336"/>
   <tile gid="1336"/>
   <tile gid="1336"/>
   <tile gid="1336"/>
   <tile gid="1336"/>
   <tile gid="1336"/>
   <tile gid="1336"/>
   <tile gid="1336"/>
   <tile gid="1336"/>
   <tile gid="1336"/>
   <tile gid="1336"/>
   <tile gid="1336"/>
   <tile gid="1336"/>
   <tile gid="1336"/>
   <tile gid="1336"/>
   <tile gid="1336"/>
   <tile gid="1336"/>
   <tile gid="1336"/>
   <tile gid="1336"/>
   <tile gid="1336"/>
   <tile gid="1336"/>
   <tile gid="1336"/>
   <tile gid="1336"/>
   <tile gid="1336"/>
   <tile gid="1336"/>
   <tile gid="1336"/>
   <tile gid="1336"/>
   <tile gid="1336"/>
   <tile gid="1336"/>
   <tile gid="1336"/>
   <tile gid="1336"/>
   <tile gid="1336"/>
   <tile gid="1336"/>
   <tile gid="1336"/>
   <tile gid="1336"/>
   <tile gid="1336"/>
   <tile gid="1336"/>
   <tile gid="1336"/>
   <tile gid="1703"/>
   <tile gid="1703"/>
   <tile gid="1703"/>
   <tile gid="1703"/>
   <tile gid="1336"/>
   <tile gid="1336"/>
   <tile gid="1336"/>
   <tile gid="1336"/>
   <tile gid="1336"/>
   <tile gid="1336"/>
   <tile gid="1336"/>
   <tile gid="1336"/>
   <tile gid="1336"/>
   <tile gid="1336"/>
   <tile gid="1336"/>
   <tile gid="1336"/>
   <tile gid="1336"/>
   <tile gid="1336"/>
   <tile gid="1336"/>
   <tile gid="1336"/>
   <tile gid="1336"/>
   <tile gid="1336"/>
   <tile gid="1336"/>
   <tile gid="1336"/>
   <tile gid="1336"/>
   <tile gid="1336"/>
   <tile gid="1336"/>
   <tile gid="1336"/>
   <tile gid="1336"/>
   <tile gid="1336"/>
   <tile gid="1336"/>
   <tile gid="1336"/>
   <tile gid="1336"/>
   <tile gid="1336"/>
   <tile gid="1336"/>
   <tile gid="1336"/>
   <tile gid="1336"/>
   <tile gid="1336"/>
   <tile gid="1336"/>
   <tile gid="1336"/>
   <tile gid="1336"/>
   <tile gid="1336"/>
   <tile gid="1336"/>
   <tile gid="1336"/>
   <tile gid="1336"/>
   <tile gid="1336"/>
   <tile gid="1336"/>
   <tile gid="1336"/>
   <tile gid="1336"/>
   <tile gid="1336"/>
   <tile gid="1703"/>
   <tile gid="1703"/>
   <tile gid="1703"/>
   <tile gid="1703"/>
   <tile gid="1336"/>
   <tile gid="1336"/>
   <tile gid="1336"/>
   <tile gid="1336"/>
   <tile gid="1336"/>
   <tile gid="1336"/>
   <tile gid="1336"/>
   <tile gid="1336"/>
   <tile gid="1336"/>
   <tile gid="1336"/>
   <tile gid="1336"/>
   <tile gid="1336"/>
   <tile gid="1336"/>
   <tile gid="1336"/>
   <tile gid="1336"/>
   <tile gid="1336"/>
   <tile gid="1336"/>
   <tile gid="1336"/>
   <tile gid="1336"/>
   <tile gid="1336"/>
   <tile gid="1336"/>
   <tile gid="1336"/>
   <tile gid="1336"/>
   <tile gid="1336"/>
   <tile gid="1336"/>
   <tile gid="1336"/>
   <tile gid="1336"/>
   <tile gid="1336"/>
   <tile gid="1336"/>
   <tile gid="1336"/>
   <tile gid="1336"/>
   <tile gid="1336"/>
   <tile gid="1336"/>
   <tile gid="1336"/>
   <tile gid="1336"/>
   <tile gid="1336"/>
   <tile gid="1336"/>
   <tile gid="1336"/>
   <tile gid="1336"/>
   <tile gid="1336"/>
   <tile gid="1336"/>
   <tile gid="1336"/>
   <tile gid="1336"/>
   <tile gid="1336"/>
   <tile gid="1336"/>
   <tile gid="1336"/>
   <tile gid="1703"/>
   <tile gid="1703"/>
   <tile gid="1703"/>
   <tile gid="1703"/>
   <tile gid="1336"/>
   <tile gid="1336"/>
   <tile gid="1336"/>
   <tile gid="1336"/>
   <tile gid="1336"/>
   <tile gid="1336"/>
   <tile gid="1336"/>
   <tile gid="1336"/>
   <tile gid="1336"/>
   <tile gid="1336"/>
   <tile gid="1336"/>
   <tile gid="1336"/>
   <tile gid="1336"/>
   <tile gid="1336"/>
   <tile gid="1336"/>
   <tile gid="1336"/>
   <tile gid="1336"/>
   <tile gid="1336"/>
   <tile gid="1336"/>
   <tile gid="1336"/>
   <tile gid="1336"/>
   <tile gid="1336"/>
   <tile gid="1336"/>
   <tile gid="1336"/>
   <tile gid="1336"/>
   <tile gid="1336"/>
   <tile gid="1336"/>
   <tile gid="1336"/>
   <tile gid="1336"/>
   <tile gid="1336"/>
   <tile gid="1336"/>
   <tile gid="1336"/>
   <tile gid="1336"/>
   <tile gid="1336"/>
   <tile gid="1336"/>
   <tile gid="1336"/>
   <tile gid="1336"/>
   <tile gid="1336"/>
   <tile gid="1336"/>
   <tile gid="1336"/>
   <tile gid="1336"/>
   <tile gid="1336"/>
   <tile gid="1336"/>
   <tile gid="1336"/>
   <tile gid="1336"/>
   <tile gid="1336"/>
   <tile gid="1703"/>
   <tile gid="1703"/>
   <tile gid="1703"/>
   <tile gid="1703"/>
   <tile gid="1336"/>
   <tile gid="1336"/>
   <tile gid="1336"/>
   <tile gid="1336"/>
   <tile gid="1336"/>
   <tile gid="1336"/>
   <tile gid="1336"/>
   <tile gid="1336"/>
   <tile gid="1336"/>
   <tile gid="1336"/>
   <tile gid="1336"/>
   <tile gid="1336"/>
   <tile gid="1336"/>
   <tile gid="1336"/>
   <tile gid="1336"/>
   <tile gid="1336"/>
   <tile gid="1336"/>
   <tile gid="1336"/>
   <tile gid="1336"/>
   <tile gid="1336"/>
   <tile gid="1336"/>
   <tile gid="1336"/>
   <tile gid="1336"/>
   <tile gid="1336"/>
   <tile gid="1336"/>
   <tile gid="1336"/>
   <tile gid="1336"/>
   <tile gid="1336"/>
   <tile gid="1336"/>
   <tile gid="1336"/>
   <tile gid="1336"/>
   <tile gid="1336"/>
   <tile gid="1336"/>
   <tile gid="1336"/>
   <tile gid="1336"/>
   <tile gid="1336"/>
   <tile gid="1336"/>
   <tile gid="1336"/>
   <tile gid="1336"/>
   <tile gid="1336"/>
   <tile gid="1336"/>
   <tile gid="1336"/>
   <tile gid="1336"/>
   <tile gid="1336"/>
   <tile gid="1336"/>
   <tile gid="1336"/>
   <tile gid="1703"/>
   <tile gid="1703"/>
   <tile gid="1703"/>
   <tile gid="1703"/>
   <tile gid="1336"/>
   <tile gid="1336"/>
   <tile gid="1336"/>
   <tile gid="1336"/>
   <tile gid="1336"/>
   <tile gid="1336"/>
   <tile gid="1336"/>
   <tile gid="1336"/>
   <tile gid="1336"/>
   <tile gid="1336"/>
   <tile gid="1336"/>
   <tile gid="1336"/>
   <tile gid="1336"/>
   <tile gid="1336"/>
   <tile gid="1336"/>
   <tile gid="1336"/>
   <tile gid="1336"/>
   <tile gid="1336"/>
   <tile gid="1336"/>
   <tile gid="1336"/>
   <tile gid="1336"/>
   <tile gid="1336"/>
   <tile gid="1336"/>
   <tile gid="1336"/>
   <tile gid="1336"/>
   <tile gid="1336"/>
   <tile gid="1336"/>
   <tile gid="1336"/>
   <tile gid="1336"/>
   <tile gid="1336"/>
   <tile gid="1336"/>
   <tile gid="1336"/>
   <tile gid="1336"/>
   <tile gid="1336"/>
   <tile gid="1336"/>
   <tile gid="1336"/>
   <tile gid="1336"/>
   <tile gid="1336"/>
   <tile gid="1336"/>
   <tile gid="1336"/>
   <tile gid="1336"/>
   <tile gid="1336"/>
   <tile gid="1336"/>
   <tile gid="1336"/>
   <tile gid="1336"/>
   <tile gid="1336"/>
   <tile gid="1703"/>
   <tile gid="1703"/>
   <tile gid="1703"/>
   <tile gid="1703"/>
   <tile gid="1336"/>
   <tile gid="1336"/>
   <tile gid="1336"/>
   <tile gid="1336"/>
   <tile gid="1336"/>
   <tile gid="1336"/>
   <tile gid="1336"/>
   <tile gid="1336"/>
   <tile gid="1336"/>
   <tile gid="1336"/>
   <tile gid="1336"/>
   <tile gid="1336"/>
   <tile gid="1336"/>
   <tile gid="1336"/>
   <tile gid="1336"/>
   <tile gid="1336"/>
   <tile gid="1336"/>
   <tile gid="1336"/>
   <tile gid="1336"/>
   <tile gid="1336"/>
   <tile gid="1336"/>
   <tile gid="1336"/>
   <tile gid="1336"/>
   <tile gid="1336"/>
   <tile gid="1336"/>
   <tile gid="1336"/>
   <tile gid="1336"/>
   <tile gid="1336"/>
   <tile gid="1336"/>
   <tile gid="1336"/>
   <tile gid="1336"/>
   <tile gid="1336"/>
   <tile gid="1336"/>
   <tile gid="1336"/>
   <tile gid="1336"/>
   <tile gid="1336"/>
   <tile gid="1336"/>
   <tile gid="1336"/>
   <tile gid="1336"/>
   <tile gid="1336"/>
   <tile gid="1336"/>
   <tile gid="1336"/>
   <tile gid="1336"/>
   <tile gid="1336"/>
   <tile gid="1336"/>
   <tile gid="1336"/>
   <tile gid="1703"/>
   <tile gid="1703"/>
   <tile gid="1703"/>
   <tile gid="1703"/>
   <tile gid="1703"/>
   <tile gid="1703"/>
   <tile gid="1703"/>
   <tile gid="1703"/>
   <tile gid="1703"/>
   <tile gid="1703"/>
   <tile gid="1703"/>
   <tile gid="1703"/>
   <tile gid="1703"/>
   <tile gid="1703"/>
   <tile gid="1703"/>
   <tile gid="1703"/>
   <tile gid="1703"/>
   <tile gid="1703"/>
   <tile gid="1703"/>
   <tile gid="1703"/>
   <tile gid="1703"/>
   <tile gid="1703"/>
   <tile gid="1703"/>
   <tile gid="1703"/>
   <tile gid="1336"/>
   <tile gid="1336"/>
   <tile gid="1336"/>
   <tile gid="1336"/>
   <tile gid="1336"/>
   <tile gid="1336"/>
   <tile gid="1336"/>
   <tile gid="1703"/>
   <tile gid="1703"/>
   <tile gid="1703"/>
   <tile gid="1703"/>
   <tile gid="1703"/>
   <tile gid="1703"/>
   <tile gid="1703"/>
   <tile gid="1703"/>
   <tile gid="1703"/>
   <tile gid="1703"/>
   <tile gid="1703"/>
   <tile gid="1703"/>
   <tile gid="1703"/>
   <tile gid="1703"/>
   <tile gid="1703"/>
   <tile gid="1703"/>
   <tile gid="1703"/>
   <tile gid="1703"/>
   <tile gid="1703"/>
   <tile gid="1703"/>
   <tile gid="1703"/>
   <tile gid="1703"/>
   <tile gid="1703"/>
   <tile gid="1703"/>
   <tile gid="1703"/>
   <tile gid="1703"/>
   <tile gid="1703"/>
   <tile gid="1703"/>
   <tile gid="1703"/>
   <tile gid="1703"/>
   <tile gid="1703"/>
   <tile gid="1703"/>
   <tile gid="1703"/>
   <tile gid="1703"/>
   <tile gid="1703"/>
   <tile gid="1703"/>
   <tile gid="1703"/>
   <tile gid="1703"/>
   <tile gid="1703"/>
   <tile gid="1703"/>
   <tile gid="1703"/>
   <tile gid="1703"/>
   <tile gid="1703"/>
   <tile gid="1336"/>
   <tile gid="1336"/>
   <tile gid="1336"/>
   <tile gid="1336"/>
   <tile gid="1336"/>
   <tile gid="1336"/>
   <tile gid="1336"/>
   <tile gid="1703"/>
   <tile gid="1703"/>
   <tile gid="1703"/>
   <tile gid="1703"/>
   <tile gid="1703"/>
   <tile gid="1703"/>
   <tile gid="1703"/>
   <tile gid="1703"/>
   <tile gid="1703"/>
   <tile gid="1703"/>
   <tile gid="1703"/>
   <tile gid="1703"/>
   <tile gid="1703"/>
   <tile gid="1703"/>
   <tile gid="1703"/>
   <tile gid="1703"/>
   <tile gid="1703"/>
   <tile gid="1703"/>
   <tile gid="1703"/>
   <tile gid="1703"/>
   <tile gid="1703"/>
   <tile gid="1109"/>
   <tile gid="1109"/>
   <tile gid="1109"/>
   <tile gid="1109"/>
   <tile gid="1109"/>
   <tile gid="1109"/>
   <tile gid="1109"/>
   <tile gid="1109"/>
   <tile gid="1109"/>
   <tile gid="1109"/>
   <tile gid="1109"/>
   <tile gid="1109"/>
   <tile gid="1109"/>
   <tile gid="1109"/>
   <tile gid="1109"/>
   <tile gid="1109"/>
   <tile gid="1109"/>
   <tile gid="1109"/>
   <tile gid="1109"/>
   <tile gid="1109"/>
   <tile gid="1109"/>
   <tile gid="1109"/>
   <tile gid="1336"/>
   <tile gid="1336"/>
   <tile gid="1336"/>
   <tile gid="1336"/>
   <tile gid="1336"/>
   <tile gid="1336"/>
   <tile gid="1336"/>
   <tile gid="1109"/>
   <tile gid="1109"/>
   <tile gid="1109"/>
   <tile gid="1109"/>
   <tile gid="1109"/>
   <tile gid="1109"/>
   <tile gid="1109"/>
   <tile gid="1109"/>
   <tile gid="1109"/>
   <tile gid="1109"/>
   <tile gid="1109"/>
   <tile gid="1109"/>
   <tile gid="1109"/>
   <tile gid="1109"/>
   <tile gid="1109"/>
   <tile gid="1109"/>
   <tile gid="1109"/>
   <tile gid="1109"/>
   <tile gid="1109"/>
   <tile gid="1109"/>
   <tile gid="1109"/>
   <tile gid="1109"/>
   <tile gid="1109"/>
   <tile gid="1109"/>
   <tile gid="1109"/>
   <tile gid="1109"/>
   <tile gid="1109"/>
   <tile gid="1109"/>
   <tile gid="1109"/>
   <tile gid="1109"/>
   <tile gid="1109"/>
   <tile gid="1109"/>
   <tile gid="1109"/>
   <tile gid="1109"/>
   <tile gid="1109"/>
   <tile gid="1109"/>
   <tile gid="1109"/>
   <tile gid="1109"/>
   <tile gid="1109"/>
   <tile gid="1109"/>
   <tile gid="1109"/>
   <tile gid="1109"/>
   <tile gid="1109"/>
   <tile gid="1336"/>
   <tile gid="1336"/>
   <tile gid="1336"/>
   <tile gid="1336"/>
   <tile gid="1336"/>
   <tile gid="1336"/>
   <tile gid="1336"/>
   <tile gid="1109"/>
   <tile gid="1109"/>
   <tile gid="1109"/>
   <tile gid="1109"/>
   <tile gid="1109"/>
   <tile gid="1109"/>
   <tile gid="1109"/>
   <tile gid="1109"/>
   <tile gid="1109"/>
   <tile gid="1109"/>
   <tile gid="1109"/>
   <tile gid="1109"/>
   <tile gid="1109"/>
   <tile gid="1109"/>
   <tile gid="1109"/>
   <tile gid="1109"/>
   <tile gid="1109"/>
   <tile gid="1109"/>
   <tile gid="1109"/>
   <tile gid="1109"/>
   <tile gid="1109"/>
   <tile gid="1109"/>
   <tile gid="1109"/>
   <tile gid="1109"/>
   <tile gid="1109"/>
   <tile gid="1109"/>
   <tile gid="1109"/>
   <tile gid="1109"/>
   <tile gid="1109"/>
   <tile gid="1109"/>
   <tile gid="1109"/>
   <tile gid="1109"/>
   <tile gid="1109"/>
   <tile gid="1109"/>
   <tile gid="1109"/>
   <tile gid="1109"/>
   <tile gid="1109"/>
   <tile gid="1109"/>
   <tile gid="1109"/>
   <tile gid="1109"/>
   <tile gid="1109"/>
   <tile gid="1109"/>
   <tile gid="1109"/>
   <tile gid="1336"/>
   <tile gid="1336"/>
   <tile gid="1336"/>
   <tile gid="1336"/>
   <tile gid="1336"/>
   <tile gid="1336"/>
   <tile gid="1336"/>
   <tile gid="1109"/>
   <tile gid="1109"/>
   <tile gid="1109"/>
   <tile gid="1109"/>
   <tile gid="1109"/>
   <tile gid="1109"/>
   <tile gid="1109"/>
   <tile gid="1109"/>
   <tile gid="1109"/>
   <tile gid="1109"/>
   <tile gid="1109"/>
   <tile gid="1109"/>
   <tile gid="1109"/>
   <tile gid="1109"/>
   <tile gid="1109"/>
   <tile gid="1109"/>
   <tile gid="1109"/>
   <tile gid="1109"/>
   <tile gid="1109"/>
   <tile gid="1109"/>
   <tile gid="1109"/>
   <tile gid="1109"/>
   <tile gid="1109"/>
   <tile gid="1109"/>
   <tile gid="1109"/>
   <tile gid="1109"/>
   <tile gid="1109"/>
   <tile gid="1109"/>
   <tile gid="1109"/>
   <tile gid="1109"/>
   <tile gid="1109"/>
   <tile gid="1109"/>
   <tile gid="1109"/>
   <tile gid="1109"/>
   <tile gid="1109"/>
   <tile gid="1109"/>
   <tile gid="1109"/>
   <tile gid="1109"/>
   <tile gid="1109"/>
   <tile gid="1109"/>
   <tile gid="1109"/>
   <tile gid="1109"/>
   <tile gid="1109"/>
   <tile gid="1336"/>
   <tile gid="1336"/>
   <tile gid="1336"/>
   <tile gid="1336"/>
   <tile gid="1336"/>
   <tile gid="1336"/>
   <tile gid="1336"/>
   <tile gid="1109"/>
   <tile gid="1109"/>
   <tile gid="1109"/>
   <tile gid="1109"/>
   <tile gid="1109"/>
   <tile gid="1109"/>
   <tile gid="1109"/>
   <tile gid="1109"/>
   <tile gid="1109"/>
   <tile gid="1109"/>
   <tile gid="1109"/>
   <tile gid="1109"/>
   <tile gid="1109"/>
   <tile gid="1109"/>
   <tile gid="1109"/>
   <tile gid="1109"/>
   <tile gid="1109"/>
   <tile gid="1109"/>
   <tile gid="1109"/>
   <tile gid="1109"/>
   <tile gid="1109"/>
   <tile gid="1109"/>
   <tile gid="1109"/>
   <tile gid="1109"/>
   <tile gid="1109"/>
   <tile gid="1109"/>
   <tile gid="1109"/>
   <tile gid="1109"/>
   <tile gid="1109"/>
   <tile gid="1109"/>
   <tile gid="1109"/>
   <tile gid="1109"/>
   <tile gid="1109"/>
   <tile gid="1109"/>
   <tile gid="1109"/>
   <tile gid="1109"/>
   <tile gid="1109"/>
   <tile gid="1109"/>
   <tile gid="1109"/>
   <tile gid="1109"/>
   <tile gid="1109"/>
   <tile gid="1109"/>
   <tile gid="1109"/>
   <tile gid="1336"/>
   <tile gid="1336"/>
   <tile gid="1336"/>
   <tile gid="1336"/>
   <tile gid="1336"/>
   <tile gid="1336"/>
   <tile gid="1336"/>
   <tile gid="1109"/>
   <tile gid="1109"/>
   <tile gid="1109"/>
   <tile gid="1109"/>
   <tile gid="1109"/>
   <tile gid="1109"/>
   <tile gid="1109"/>
   <tile gid="1109"/>
   <tile gid="1109"/>
   <tile gid="1109"/>
   <tile gid="1109"/>
   <tile gid="1109"/>
   <tile gid="1109"/>
   <tile gid="1109"/>
   <tile gid="1109"/>
   <tile gid="1109"/>
   <tile gid="1109"/>
   <tile gid="1109"/>
   <tile gid="1109"/>
   <tile gid="1109"/>
   <tile gid="1109"/>
   <tile gid="1703"/>
   <tile gid="1703"/>
   <tile gid="1336"/>
   <tile gid="1336"/>
   <tile gid="1336"/>
   <tile gid="1336"/>
   <tile gid="1336"/>
   <tile gid="1336"/>
   <tile gid="1336"/>
   <tile gid="1336"/>
   <tile gid="1336"/>
   <tile gid="1336"/>
   <tile gid="1336"/>
   <tile gid="1336"/>
   <tile gid="1336"/>
   <tile gid="1336"/>
   <tile gid="1336"/>
   <tile gid="1336"/>
   <tile gid="1336"/>
   <tile gid="1336"/>
   <tile gid="1336"/>
   <tile gid="1336"/>
   <tile gid="1336"/>
   <tile gid="1336"/>
   <tile gid="1336"/>
   <tile gid="1336"/>
   <tile gid="1336"/>
   <tile gid="1336"/>
   <tile gid="1336"/>
   <tile gid="1336"/>
   <tile gid="1336"/>
   <tile gid="1336"/>
   <tile gid="1336"/>
   <tile gid="1336"/>
   <tile gid="1336"/>
   <tile gid="1336"/>
   <tile gid="1336"/>
   <tile gid="1336"/>
   <tile gid="1336"/>
   <tile gid="1336"/>
   <tile gid="1336"/>
   <tile gid="1336"/>
   <tile gid="1336"/>
   <tile gid="1336"/>
   <tile gid="1336"/>
   <tile gid="1336"/>
   <tile gid="1336"/>
   <tile gid="1336"/>
   <tile gid="1703"/>
   <tile gid="1703"/>
   <tile gid="1703"/>
   <tile gid="1703"/>
   <tile gid="1336"/>
   <tile gid="1336"/>
   <tile gid="1336"/>
   <tile gid="1336"/>
   <tile gid="1336"/>
   <tile gid="1336"/>
   <tile gid="1336"/>
   <tile gid="1336"/>
   <tile gid="1336"/>
   <tile gid="1336"/>
   <tile gid="1336"/>
   <tile gid="1336"/>
   <tile gid="1336"/>
   <tile gid="1336"/>
   <tile gid="1336"/>
   <tile gid="1336"/>
   <tile gid="1336"/>
   <tile gid="1336"/>
   <tile gid="1336"/>
   <tile gid="1336"/>
   <tile gid="1336"/>
   <tile gid="1336"/>
   <tile gid="1336"/>
   <tile gid="1336"/>
   <tile gid="1336"/>
   <tile gid="1336"/>
   <tile gid="1336"/>
   <tile gid="1336"/>
   <tile gid="1336"/>
   <tile gid="1336"/>
   <tile gid="1336"/>
   <tile gid="1336"/>
   <tile gid="1336"/>
   <tile gid="1336"/>
   <tile gid="1336"/>
   <tile gid="1336"/>
   <tile gid="1336"/>
   <tile gid="1336"/>
   <tile gid="1336"/>
   <tile gid="1336"/>
   <tile gid="1336"/>
   <tile gid="1336"/>
   <tile gid="1336"/>
   <tile gid="1336"/>
   <tile gid="1336"/>
   <tile gid="1336"/>
   <tile gid="1703"/>
   <tile gid="1703"/>
   <tile gid="1703"/>
   <tile gid="1703"/>
   <tile gid="1336"/>
   <tile gid="1336"/>
   <tile gid="1336"/>
   <tile gid="1336"/>
   <tile gid="1336"/>
   <tile gid="1336"/>
   <tile gid="1336"/>
   <tile gid="1336"/>
   <tile gid="1336"/>
   <tile gid="1336"/>
   <tile gid="1336"/>
   <tile gid="1336"/>
   <tile gid="1336"/>
   <tile gid="1336"/>
   <tile gid="1336"/>
   <tile gid="1336"/>
   <tile gid="1336"/>
   <tile gid="1336"/>
   <tile gid="1336"/>
   <tile gid="1336"/>
   <tile gid="1336"/>
   <tile gid="1336"/>
   <tile gid="1336"/>
   <tile gid="1336"/>
   <tile gid="1336"/>
   <tile gid="1336"/>
   <tile gid="1336"/>
   <tile gid="1336"/>
   <tile gid="1336"/>
   <tile gid="1336"/>
   <tile gid="1336"/>
   <tile gid="1336"/>
   <tile gid="1336"/>
   <tile gid="1336"/>
   <tile gid="1336"/>
   <tile gid="1336"/>
   <tile gid="1336"/>
   <tile gid="1336"/>
   <tile gid="1336"/>
   <tile gid="1336"/>
   <tile gid="1336"/>
   <tile gid="1336"/>
   <tile gid="1336"/>
   <tile gid="1336"/>
   <tile gid="1336"/>
   <tile gid="1336"/>
   <tile gid="1703"/>
   <tile gid="1703"/>
   <tile gid="1703"/>
   <tile gid="1703"/>
   <tile gid="1336"/>
   <tile gid="1336"/>
   <tile gid="1336"/>
   <tile gid="1336"/>
   <tile gid="1336"/>
   <tile gid="1336"/>
   <tile gid="1336"/>
   <tile gid="1336"/>
   <tile gid="1336"/>
   <tile gid="1336"/>
   <tile gid="1336"/>
   <tile gid="1336"/>
   <tile gid="1336"/>
   <tile gid="1336"/>
   <tile gid="1336"/>
   <tile gid="1336"/>
   <tile gid="1336"/>
   <tile gid="1336"/>
   <tile gid="1336"/>
   <tile gid="1336"/>
   <tile gid="1336"/>
   <tile gid="1336"/>
   <tile gid="1336"/>
   <tile gid="1336"/>
   <tile gid="1336"/>
   <tile gid="1336"/>
   <tile gid="1336"/>
   <tile gid="1336"/>
   <tile gid="1336"/>
   <tile gid="1336"/>
   <tile gid="1336"/>
   <tile gid="1336"/>
   <tile gid="1336"/>
   <tile gid="1336"/>
   <tile gid="1336"/>
   <tile gid="1336"/>
   <tile gid="1336"/>
   <tile gid="1336"/>
   <tile gid="1336"/>
   <tile gid="1336"/>
   <tile gid="1336"/>
   <tile gid="1336"/>
   <tile gid="1336"/>
   <tile gid="1336"/>
   <tile gid="1336"/>
   <tile gid="1336"/>
   <tile gid="1703"/>
   <tile gid="1703"/>
   <tile gid="1703"/>
   <tile gid="1703"/>
   <tile gid="1336"/>
   <tile gid="1336"/>
   <tile gid="1336"/>
   <tile gid="1336"/>
   <tile gid="1336"/>
   <tile gid="1336"/>
   <tile gid="1336"/>
   <tile gid="1336"/>
   <tile gid="1336"/>
   <tile gid="1336"/>
   <tile gid="1336"/>
   <tile gid="1336"/>
   <tile gid="1336"/>
   <tile gid="1336"/>
   <tile gid="1336"/>
   <tile gid="1336"/>
   <tile gid="1336"/>
   <tile gid="1336"/>
   <tile gid="1336"/>
   <tile gid="1336"/>
   <tile gid="1336"/>
   <tile gid="1336"/>
   <tile gid="1336"/>
   <tile gid="1336"/>
   <tile gid="1336"/>
   <tile gid="1336"/>
   <tile gid="1336"/>
   <tile gid="1336"/>
   <tile gid="1336"/>
   <tile gid="1336"/>
   <tile gid="1336"/>
   <tile gid="1336"/>
   <tile gid="1336"/>
   <tile gid="1336"/>
   <tile gid="1336"/>
   <tile gid="1336"/>
   <tile gid="1336"/>
   <tile gid="1336"/>
   <tile gid="1336"/>
   <tile gid="1336"/>
   <tile gid="1336"/>
   <tile gid="1336"/>
   <tile gid="1336"/>
   <tile gid="1336"/>
   <tile gid="1336"/>
   <tile gid="1336"/>
   <tile gid="1703"/>
   <tile gid="1703"/>
   <tile gid="1703"/>
   <tile gid="1703"/>
   <tile gid="1336"/>
   <tile gid="1336"/>
   <tile gid="1336"/>
   <tile gid="1336"/>
   <tile gid="1336"/>
   <tile gid="1336"/>
   <tile gid="1336"/>
   <tile gid="1336"/>
   <tile gid="1336"/>
   <tile gid="1336"/>
   <tile gid="1336"/>
   <tile gid="1336"/>
   <tile gid="1336"/>
   <tile gid="1336"/>
   <tile gid="1336"/>
   <tile gid="1336"/>
   <tile gid="1336"/>
   <tile gid="1336"/>
   <tile gid="1336"/>
   <tile gid="1336"/>
   <tile gid="1336"/>
   <tile gid="1336"/>
   <tile gid="1336"/>
   <tile gid="1336"/>
   <tile gid="1336"/>
   <tile gid="1336"/>
   <tile gid="1336"/>
   <tile gid="1336"/>
   <tile gid="1336"/>
   <tile gid="1336"/>
   <tile gid="1336"/>
   <tile gid="1336"/>
   <tile gid="1336"/>
   <tile gid="1336"/>
   <tile gid="1336"/>
   <tile gid="1336"/>
   <tile gid="1336"/>
   <tile gid="1336"/>
   <tile gid="1336"/>
   <tile gid="1336"/>
   <tile gid="1336"/>
   <tile gid="1336"/>
   <tile gid="1336"/>
   <tile gid="1336"/>
   <tile gid="1336"/>
   <tile gid="1336"/>
   <tile gid="1703"/>
   <tile gid="1703"/>
   <tile gid="1703"/>
   <tile gid="1703"/>
   <tile gid="1336"/>
   <tile gid="1336"/>
   <tile gid="1336"/>
   <tile gid="1336"/>
   <tile gid="1336"/>
   <tile gid="1336"/>
   <tile gid="1336"/>
   <tile gid="1336"/>
   <tile gid="1336"/>
   <tile gid="1336"/>
   <tile gid="1336"/>
   <tile gid="1336"/>
   <tile gid="1336"/>
   <tile gid="1336"/>
   <tile gid="1336"/>
   <tile gid="1336"/>
   <tile gid="1336"/>
   <tile gid="1336"/>
   <tile gid="1336"/>
   <tile gid="1336"/>
   <tile gid="1336"/>
   <tile gid="1336"/>
   <tile gid="1336"/>
   <tile gid="1336"/>
   <tile gid="1336"/>
   <tile gid="1336"/>
   <tile gid="1336"/>
   <tile gid="1336"/>
   <tile gid="1336"/>
   <tile gid="1336"/>
   <tile gid="1336"/>
   <tile gid="1336"/>
   <tile gid="1336"/>
   <tile gid="1336"/>
   <tile gid="1336"/>
   <tile gid="1336"/>
   <tile gid="1336"/>
   <tile gid="1336"/>
   <tile gid="1336"/>
   <tile gid="1336"/>
   <tile gid="1336"/>
   <tile gid="1336"/>
   <tile gid="1336"/>
   <tile gid="1336"/>
   <tile gid="1336"/>
   <tile gid="1336"/>
   <tile gid="1703"/>
   <tile gid="1703"/>
   <tile gid="1703"/>
   <tile gid="1703"/>
   <tile gid="1703"/>
   <tile gid="1703"/>
   <tile gid="1703"/>
   <tile gid="1703"/>
   <tile gid="1703"/>
   <tile gid="1703"/>
   <tile gid="1703"/>
   <tile gid="1336"/>
   <tile gid="1336"/>
   <tile gid="1336"/>
   <tile gid="1336"/>
   <tile gid="1336"/>
   <tile gid="1336"/>
   <tile gid="1336"/>
   <tile gid="1336"/>
   <tile gid="1336"/>
   <tile gid="1336"/>
   <tile gid="1336"/>
   <tile gid="1336"/>
   <tile gid="1336"/>
   <tile gid="1336"/>
   <tile gid="1336"/>
   <tile gid="1336"/>
   <tile gid="1336"/>
   <tile gid="1336"/>
   <tile gid="1336"/>
   <tile gid="1336"/>
   <tile gid="1336"/>
   <tile gid="1336"/>
   <tile gid="1336"/>
   <tile gid="1336"/>
   <tile gid="1336"/>
   <tile gid="1336"/>
   <tile gid="1336"/>
   <tile gid="1336"/>
   <tile gid="1336"/>
   <tile gid="1336"/>
   <tile gid="1336"/>
   <tile gid="1336"/>
   <tile gid="1336"/>
   <tile gid="1336"/>
   <tile gid="1336"/>
   <tile gid="1336"/>
   <tile gid="1336"/>
   <tile gid="1336"/>
   <tile gid="1336"/>
   <tile gid="1703"/>
   <tile gid="1703"/>
   <tile gid="1703"/>
   <tile gid="1703"/>
   <tile gid="1703"/>
   <tile gid="1703"/>
   <tile gid="1703"/>
   <tile gid="1703"/>
   <tile gid="1703"/>
   <tile gid="1703"/>
   <tile gid="1703"/>
   <tile gid="1336"/>
   <tile gid="1336"/>
   <tile gid="1336"/>
   <tile gid="1336"/>
   <tile gid="1336"/>
   <tile gid="1336"/>
   <tile gid="1336"/>
   <tile gid="1336"/>
   <tile gid="1336"/>
   <tile gid="1336"/>
   <tile gid="1336"/>
   <tile gid="1336"/>
   <tile gid="1336"/>
   <tile gid="1336"/>
   <tile gid="1336"/>
   <tile gid="1336"/>
   <tile gid="1336"/>
   <tile gid="1336"/>
   <tile gid="1336"/>
   <tile gid="1336"/>
   <tile gid="1336"/>
   <tile gid="1336"/>
   <tile gid="1336"/>
   <tile gid="1336"/>
   <tile gid="1336"/>
   <tile gid="1336"/>
   <tile gid="1336"/>
   <tile gid="1336"/>
   <tile gid="1336"/>
   <tile gid="1336"/>
   <tile gid="1336"/>
   <tile gid="1336"/>
   <tile gid="1336"/>
   <tile gid="1336"/>
   <tile gid="1336"/>
   <tile gid="1336"/>
   <tile gid="1336"/>
   <tile gid="1336"/>
   <tile gid="1336"/>
   <tile gid="1703"/>
   <tile gid="1703"/>
   <tile gid="1703"/>
   <tile gid="1703"/>
   <tile gid="1703"/>
   <tile gid="1703"/>
   <tile gid="1703"/>
   <tile gid="1703"/>
   <tile gid="1703"/>
   <tile gid="1703"/>
   <tile gid="1703"/>
   <tile gid="1336"/>
   <tile gid="1336"/>
   <tile gid="1336"/>
   <tile gid="1336"/>
   <tile gid="1336"/>
   <tile gid="1336"/>
   <tile gid="1336"/>
   <tile gid="1336"/>
   <tile gid="1336"/>
   <tile gid="1336"/>
   <tile gid="1336"/>
   <tile gid="1336"/>
   <tile gid="1336"/>
   <tile gid="1336"/>
   <tile gid="1336"/>
   <tile gid="1336"/>
   <tile gid="1336"/>
   <tile gid="1336"/>
   <tile gid="1336"/>
   <tile gid="1336"/>
   <tile gid="1336"/>
   <tile gid="1336"/>
   <tile gid="1336"/>
   <tile gid="1336"/>
   <tile gid="1336"/>
   <tile gid="1336"/>
   <tile gid="1336"/>
   <tile gid="1336"/>
   <tile gid="1336"/>
   <tile gid="1336"/>
   <tile gid="1336"/>
   <tile gid="1336"/>
   <tile gid="1336"/>
   <tile gid="1336"/>
   <tile gid="1336"/>
   <tile gid="1336"/>
   <tile gid="1336"/>
   <tile gid="1336"/>
   <tile gid="1336"/>
   <tile gid="1703"/>
   <tile gid="1703"/>
   <tile gid="1703"/>
   <tile gid="1703"/>
   <tile gid="1106"/>
   <tile gid="1106"/>
   <tile gid="1106"/>
   <tile gid="1106"/>
   <tile gid="1106"/>
   <tile gid="1106"/>
   <tile gid="1106"/>
   <tile gid="1336"/>
   <tile gid="1336"/>
   <tile gid="1336"/>
   <tile gid="1336"/>
   <tile gid="1336"/>
   <tile gid="1336"/>
   <tile gid="1336"/>
   <tile gid="1336"/>
   <tile gid="1336"/>
   <tile gid="1336"/>
   <tile gid="1336"/>
   <tile gid="1336"/>
   <tile gid="1336"/>
   <tile gid="1336"/>
   <tile gid="1336"/>
   <tile gid="1336"/>
   <tile gid="1336"/>
   <tile gid="1336"/>
   <tile gid="1336"/>
   <tile gid="1336"/>
   <tile gid="1336"/>
   <tile gid="1336"/>
   <tile gid="1336"/>
   <tile gid="1336"/>
   <tile gid="1336"/>
   <tile gid="1336"/>
   <tile gid="1336"/>
   <tile gid="1336"/>
   <tile gid="1336"/>
   <tile gid="1336"/>
   <tile gid="1336"/>
   <tile gid="1336"/>
   <tile gid="1336"/>
   <tile gid="1336"/>
   <tile gid="1336"/>
   <tile gid="1336"/>
   <tile gid="1336"/>
   <tile gid="1336"/>
   <tile gid="1336"/>
   <tile gid="1703"/>
   <tile gid="1703"/>
   <tile gid="1703"/>
   <tile gid="1703"/>
   <tile gid="1106"/>
   <tile gid="1106"/>
   <tile gid="1106"/>
   <tile gid="1106"/>
   <tile gid="1106"/>
   <tile gid="1106"/>
   <tile gid="1106"/>
   <tile gid="1336"/>
   <tile gid="1336"/>
   <tile gid="1336"/>
   <tile gid="1336"/>
   <tile gid="1336"/>
   <tile gid="1336"/>
   <tile gid="1336"/>
   <tile gid="1336"/>
   <tile gid="1336"/>
   <tile gid="1336"/>
   <tile gid="1336"/>
   <tile gid="1336"/>
   <tile gid="1336"/>
   <tile gid="1336"/>
   <tile gid="1336"/>
   <tile gid="1336"/>
   <tile gid="1336"/>
   <tile gid="1336"/>
   <tile gid="1336"/>
   <tile gid="1336"/>
   <tile gid="1336"/>
   <tile gid="1336"/>
   <tile gid="1336"/>
   <tile gid="1336"/>
   <tile gid="1336"/>
   <tile gid="1336"/>
   <tile gid="1336"/>
   <tile gid="1336"/>
   <tile gid="1336"/>
   <tile gid="1336"/>
   <tile gid="1336"/>
   <tile gid="1336"/>
   <tile gid="1336"/>
   <tile gid="1336"/>
   <tile gid="1336"/>
   <tile gid="1336"/>
   <tile gid="1336"/>
   <tile gid="1336"/>
   <tile gid="1336"/>
   <tile gid="1703"/>
   <tile gid="1703"/>
   <tile gid="1703"/>
   <tile gid="1703"/>
   <tile gid="1106"/>
   <tile gid="1106"/>
   <tile gid="1106"/>
   <tile gid="1106"/>
   <tile gid="1106"/>
   <tile gid="1106"/>
   <tile gid="1106"/>
   <tile gid="1336"/>
   <tile gid="1336"/>
   <tile gid="1336"/>
   <tile gid="1336"/>
   <tile gid="1336"/>
   <tile gid="1336"/>
   <tile gid="1336"/>
   <tile gid="1336"/>
   <tile gid="1336"/>
   <tile gid="1336"/>
   <tile gid="1336"/>
   <tile gid="1336"/>
   <tile gid="1336"/>
   <tile gid="1336"/>
   <tile gid="1336"/>
   <tile gid="1336"/>
   <tile gid="1336"/>
   <tile gid="1336"/>
   <tile gid="1336"/>
   <tile gid="1336"/>
   <tile gid="1336"/>
   <tile gid="1336"/>
   <tile gid="1336"/>
   <tile gid="1336"/>
   <tile gid="1336"/>
   <tile gid="1336"/>
   <tile gid="1336"/>
   <tile gid="1336"/>
   <tile gid="1336"/>
   <tile gid="1336"/>
   <tile gid="1336"/>
   <tile gid="1336"/>
   <tile gid="1336"/>
   <tile gid="1336"/>
   <tile gid="1336"/>
   <tile gid="1336"/>
   <tile gid="1336"/>
   <tile gid="1336"/>
   <tile gid="1336"/>
   <tile gid="1703"/>
   <tile gid="1703"/>
   <tile gid="1703"/>
   <tile gid="1703"/>
   <tile gid="1106"/>
   <tile gid="1106"/>
   <tile gid="1106"/>
   <tile gid="4097"/>
   <tile gid="4097"/>
   <tile gid="1106"/>
   <tile gid="1106"/>
   <tile gid="1336"/>
   <tile gid="1336"/>
   <tile gid="1336"/>
   <tile gid="1336"/>
   <tile gid="1336"/>
   <tile gid="1336"/>
   <tile gid="1336"/>
   <tile gid="1336"/>
   <tile gid="1336"/>
   <tile gid="1336"/>
   <tile gid="1336"/>
   <tile gid="1336"/>
   <tile gid="1336"/>
   <tile gid="1336"/>
   <tile gid="1336"/>
   <tile gid="1336"/>
   <tile gid="1336"/>
   <tile gid="1336"/>
   <tile gid="1336"/>
   <tile gid="1336"/>
   <tile gid="1336"/>
   <tile gid="1336"/>
   <tile gid="1336"/>
   <tile gid="1336"/>
   <tile gid="1336"/>
   <tile gid="1336"/>
   <tile gid="1336"/>
   <tile gid="1336"/>
   <tile gid="1336"/>
   <tile gid="1336"/>
   <tile gid="1336"/>
   <tile gid="1336"/>
   <tile gid="1336"/>
   <tile gid="1336"/>
   <tile gid="1336"/>
   <tile gid="1336"/>
   <tile gid="1336"/>
   <tile gid="1336"/>
   <tile gid="1336"/>
   <tile gid="1703"/>
   <tile gid="1703"/>
   <tile gid="1703"/>
   <tile gid="1703"/>
   <tile gid="1106"/>
   <tile gid="1106"/>
   <tile gid="1106"/>
   <tile gid="4097"/>
   <tile gid="4097"/>
   <tile gid="1106"/>
   <tile gid="1106"/>
   <tile gid="1336"/>
   <tile gid="1336"/>
   <tile gid="1336"/>
   <tile gid="1336"/>
   <tile gid="1336"/>
   <tile gid="1336"/>
   <tile gid="1336"/>
   <tile gid="1336"/>
   <tile gid="1336"/>
   <tile gid="1336"/>
   <tile gid="1336"/>
   <tile gid="1336"/>
   <tile gid="1336"/>
   <tile gid="1336"/>
   <tile gid="1336"/>
   <tile gid="1336"/>
   <tile gid="1336"/>
   <tile gid="1336"/>
   <tile gid="1336"/>
   <tile gid="1336"/>
   <tile gid="1336"/>
   <tile gid="1336"/>
   <tile gid="1336"/>
   <tile gid="1336"/>
   <tile gid="1336"/>
   <tile gid="1336"/>
   <tile gid="1336"/>
   <tile gid="1336"/>
   <tile gid="1336"/>
   <tile gid="1336"/>
   <tile gid="1336"/>
   <tile gid="1336"/>
   <tile gid="1336"/>
   <tile gid="1336"/>
   <tile gid="1336"/>
   <tile gid="1336"/>
   <tile gid="1336"/>
   <tile gid="1336"/>
   <tile gid="1336"/>
   <tile gid="1703"/>
   <tile gid="1703"/>
   <tile gid="1703"/>
   <tile gid="1703"/>
   <tile gid="1106"/>
   <tile gid="1106"/>
   <tile gid="1106"/>
   <tile gid="4097"/>
   <tile gid="4097"/>
   <tile gid="1106"/>
   <tile gid="1106"/>
   <tile gid="1336"/>
   <tile gid="1336"/>
   <tile gid="1336"/>
   <tile gid="1336"/>
   <tile gid="1336"/>
   <tile gid="1336"/>
   <tile gid="1336"/>
   <tile gid="1336"/>
   <tile gid="1336"/>
   <tile gid="1336"/>
   <tile gid="1336"/>
   <tile gid="1336"/>
   <tile gid="1336"/>
   <tile gid="1336"/>
   <tile gid="1336"/>
   <tile gid="1336"/>
   <tile gid="1336"/>
   <tile gid="1336"/>
   <tile gid="1336"/>
   <tile gid="1336"/>
   <tile gid="1336"/>
   <tile gid="1336"/>
   <tile gid="1336"/>
   <tile gid="1336"/>
   <tile gid="1336"/>
   <tile gid="1336"/>
   <tile gid="1336"/>
   <tile gid="1336"/>
   <tile gid="1336"/>
   <tile gid="1336"/>
   <tile gid="1336"/>
   <tile gid="1336"/>
   <tile gid="1336"/>
   <tile gid="1336"/>
   <tile gid="1336"/>
   <tile gid="1336"/>
   <tile gid="1336"/>
   <tile gid="1336"/>
   <tile gid="1336"/>
   <tile gid="1703"/>
   <tile gid="1703"/>
   <tile gid="1703"/>
   <tile gid="1703"/>
   <tile gid="1336"/>
   <tile gid="1336"/>
   <tile gid="1336"/>
   <tile gid="1336"/>
   <tile gid="1336"/>
   <tile gid="1336"/>
   <tile gid="1336"/>
   <tile gid="1336"/>
   <tile gid="1336"/>
   <tile gid="1336"/>
   <tile gid="1336"/>
   <tile gid="1336"/>
   <tile gid="1336"/>
   <tile gid="1336"/>
   <tile gid="1336"/>
   <tile gid="1336"/>
   <tile gid="1336"/>
   <tile gid="1336"/>
   <tile gid="1336"/>
   <tile gid="1336"/>
   <tile gid="1336"/>
   <tile gid="1336"/>
   <tile gid="1336"/>
   <tile gid="1336"/>
   <tile gid="1336"/>
   <tile gid="1336"/>
   <tile gid="1336"/>
   <tile gid="1336"/>
   <tile gid="1336"/>
   <tile gid="1336"/>
   <tile gid="1336"/>
   <tile gid="1336"/>
   <tile gid="1336"/>
   <tile gid="1336"/>
   <tile gid="1336"/>
   <tile gid="1336"/>
   <tile gid="1336"/>
   <tile gid="1336"/>
   <tile gid="1336"/>
   <tile gid="1336"/>
   <tile gid="1336"/>
   <tile gid="1336"/>
   <tile gid="1336"/>
   <tile gid="1336"/>
   <tile gid="1336"/>
   <tile gid="1336"/>
   <tile gid="1703"/>
   <tile gid="1703"/>
   <tile gid="1703"/>
   <tile gid="1703"/>
   <tile gid="1336"/>
   <tile gid="1336"/>
   <tile gid="1336"/>
   <tile gid="1336"/>
   <tile gid="1336"/>
   <tile gid="1336"/>
   <tile gid="1336"/>
   <tile gid="1336"/>
   <tile gid="1336"/>
   <tile gid="1336"/>
   <tile gid="1336"/>
   <tile gid="1336"/>
   <tile gid="1336"/>
   <tile gid="1336"/>
   <tile gid="1336"/>
   <tile gid="1336"/>
   <tile gid="1336"/>
   <tile gid="1336"/>
   <tile gid="1336"/>
   <tile gid="1336"/>
   <tile gid="1336"/>
   <tile gid="1336"/>
   <tile gid="1336"/>
   <tile gid="1336"/>
   <tile gid="1336"/>
   <tile gid="1336"/>
   <tile gid="1336"/>
   <tile gid="1336"/>
   <tile gid="1336"/>
   <tile gid="1336"/>
   <tile gid="1336"/>
   <tile gid="1336"/>
   <tile gid="1336"/>
   <tile gid="1336"/>
   <tile gid="1336"/>
   <tile gid="1336"/>
   <tile gid="1336"/>
   <tile gid="1336"/>
   <tile gid="1336"/>
   <tile gid="1336"/>
   <tile gid="1336"/>
   <tile gid="1336"/>
   <tile gid="1336"/>
   <tile gid="1336"/>
   <tile gid="1336"/>
   <tile gid="1336"/>
   <tile gid="1703"/>
   <tile gid="1703"/>
   <tile gid="1703"/>
   <tile gid="1703"/>
   <tile gid="1336"/>
   <tile gid="1336"/>
   <tile gid="1336"/>
   <tile gid="1336"/>
   <tile gid="1336"/>
   <tile gid="1336"/>
   <tile gid="1336"/>
   <tile gid="1336"/>
   <tile gid="1336"/>
   <tile gid="1336"/>
   <tile gid="1336"/>
   <tile gid="1336"/>
   <tile gid="1336"/>
   <tile gid="1336"/>
   <tile gid="1336"/>
   <tile gid="1336"/>
   <tile gid="1336"/>
   <tile gid="1336"/>
   <tile gid="1336"/>
   <tile gid="1336"/>
   <tile gid="1336"/>
   <tile gid="1336"/>
   <tile gid="1336"/>
   <tile gid="1336"/>
   <tile gid="1336"/>
   <tile gid="1336"/>
   <tile gid="1336"/>
   <tile gid="1336"/>
   <tile gid="1336"/>
   <tile gid="1336"/>
   <tile gid="1336"/>
   <tile gid="1336"/>
   <tile gid="1336"/>
   <tile gid="1336"/>
   <tile gid="1336"/>
   <tile gid="1336"/>
   <tile gid="1336"/>
   <tile gid="1336"/>
   <tile gid="1336"/>
   <tile gid="1336"/>
   <tile gid="1336"/>
   <tile gid="1336"/>
   <tile gid="1336"/>
   <tile gid="1336"/>
   <tile gid="1336"/>
   <tile gid="1336"/>
   <tile gid="1703"/>
   <tile gid="1703"/>
   <tile gid="1703"/>
   <tile gid="1703"/>
   <tile gid="1703"/>
   <tile gid="1703"/>
   <tile gid="1703"/>
   <tile gid="1703"/>
   <tile gid="1703"/>
   <tile gid="1703"/>
   <tile gid="1703"/>
   <tile gid="1703"/>
   <tile gid="1703"/>
   <tile gid="1703"/>
   <tile gid="1703"/>
   <tile gid="1703"/>
   <tile gid="1703"/>
   <tile gid="1703"/>
   <tile gid="1703"/>
   <tile gid="1703"/>
   <tile gid="1703"/>
   <tile gid="1703"/>
   <tile gid="1703"/>
   <tile gid="1703"/>
   <tile gid="1703"/>
   <tile gid="1703"/>
   <tile gid="1703"/>
   <tile gid="1703"/>
   <tile gid="1703"/>
   <tile gid="1703"/>
   <tile gid="1703"/>
   <tile gid="1703"/>
   <tile gid="1703"/>
   <tile gid="1703"/>
   <tile gid="1703"/>
   <tile gid="1703"/>
   <tile gid="1703"/>
   <tile gid="1703"/>
   <tile gid="1703"/>
   <tile gid="1703"/>
   <tile gid="1703"/>
   <tile gid="1703"/>
   <tile gid="1703"/>
   <tile gid="1703"/>
   <tile gid="1703"/>
   <tile gid="1703"/>
   <tile gid="1703"/>
   <tile gid="1703"/>
   <tile gid="1703"/>
   <tile gid="1703"/>
   <tile gid="1703"/>
   <tile gid="1703"/>
   <tile gid="1703"/>
   <tile gid="1703"/>
   <tile gid="1703"/>
   <tile gid="1703"/>
   <tile gid="1703"/>
   <tile gid="1703"/>
   <tile gid="1703"/>
   <tile gid="1703"/>
   <tile gid="1703"/>
   <tile gid="1703"/>
   <tile gid="1703"/>
   <tile gid="1703"/>
   <tile gid="1703"/>
   <tile gid="1703"/>
   <tile gid="1703"/>
   <tile gid="1703"/>
   <tile gid="1703"/>
   <tile gid="1703"/>
   <tile gid="1703"/>
   <tile gid="1703"/>
   <tile gid="1703"/>
   <tile gid="1703"/>
   <tile gid="1703"/>
   <tile gid="1703"/>
   <tile gid="1703"/>
   <tile gid="1703"/>
   <tile gid="1703"/>
   <tile gid="1703"/>
   <tile gid="1703"/>
   <tile gid="1703"/>
   <tile gid="1703"/>
   <tile gid="1703"/>
   <tile gid="1703"/>
   <tile gid="1703"/>
   <tile gid="1703"/>
   <tile gid="1703"/>
   <tile gid="1703"/>
   <tile gid="1703"/>
   <tile gid="1703"/>
   <tile gid="1703"/>
   <tile gid="1703"/>
   <tile gid="1703"/>
   <tile gid="1703"/>
   <tile gid="1703"/>
   <tile gid="1703"/>
   <tile gid="1703"/>
   <tile gid="1703"/>
   <tile gid="1703"/>
   <tile gid="1703"/>
   <tile gid="1703"/>
  </data>
 </layer>
 <layer id="2" name="MoreMP" width="50" height="50">
  <properties>
   <property name="Draw" type="bool" value="true"/>
  </properties>
  <data>
   <tile/>
   <tile/>
   <tile/>
   <tile/>
   <tile/>
   <tile/>
   <tile/>
   <tile/>
   <tile/>
   <tile/>
   <tile/>
   <tile/>
   <tile/>
   <tile/>
   <tile/>
   <tile/>
   <tile/>
   <tile/>
   <tile/>
   <tile/>
   <tile/>
   <tile/>
   <tile/>
   <tile/>
   <tile/>
   <tile/>
   <tile/>
   <tile/>
   <tile/>
   <tile/>
   <tile/>
   <tile/>
   <tile/>
   <tile/>
   <tile/>
   <tile/>
   <tile/>
   <tile/>
   <tile/>
   <tile/>
   <tile/>
   <tile/>
   <tile/>
   <tile/>
   <tile/>
   <tile/>
   <tile/>
   <tile/>
   <tile/>
   <tile/>
   <tile/>
   <tile/>
   <tile/>
   <tile/>
   <tile/>
   <tile/>
   <tile/>
   <tile/>
   <tile/>
   <tile/>
   <tile/>
   <tile/>
   <tile/>
   <tile/>
   <tile/>
   <tile/>
   <tile/>
   <tile/>
   <tile/>
   <tile/>
   <tile/>
   <tile/>
   <tile/>
   <tile/>
   <tile/>
   <tile/>
   <tile/>
   <tile/>
   <tile/>
   <tile/>
   <tile/>
   <tile/>
   <tile/>
   <tile/>
   <tile/>
   <tile/>
   <tile/>
   <tile/>
   <tile/>
   <tile/>
   <tile/>
   <tile/>
   <tile/>
   <tile/>
   <tile/>
   <tile/>
   <tile/>
   <tile/>
   <tile/>
   <tile/>
   <tile/>
   <tile/>
   <tile/>
   <tile/>
   <tile/>
   <tile/>
   <tile/>
   <tile/>
   <tile/>
   <tile/>
   <tile/>
   <tile/>
   <tile/>
   <tile/>
   <tile/>
   <tile/>
   <tile/>
   <tile/>
   <tile/>
   <tile/>
   <tile/>
   <tile/>
   <tile/>
   <tile/>
   <tile gid="1921"/>
   <tile gid="1922"/>
   <tile gid="1923"/>
   <tile/>
   <tile/>
   <tile/>
   <tile/>
   <tile/>
   <tile/>
   <tile/>
   <tile/>
   <tile/>
   <tile/>
   <tile/>
   <tile/>
   <tile/>
   <tile/>
   <tile/>
   <tile/>
   <tile/>
   <tile/>
   <tile/>
   <tile/>
   <tile/>
   <tile/>
   <tile/>
   <tile/>
   <tile/>
   <tile/>
   <tile/>
   <tile/>
   <tile/>
   <tile/>
   <tile/>
   <tile/>
   <tile/>
   <tile/>
   <tile/>
   <tile/>
   <tile/>
   <tile/>
   <tile/>
   <tile/>
   <tile/>
   <tile/>
   <tile/>
   <tile/>
   <tile/>
   <tile/>
   <tile/>
   <tile gid="1953"/>
   <tile gid="1954"/>
   <tile gid="1955"/>
   <tile/>
   <tile/>
   <tile/>
   <tile/>
   <tile/>
   <tile/>
   <tile/>
   <tile/>
   <tile/>
   <tile/>
   <tile/>
   <tile/>
   <tile/>
   <tile/>
   <tile/>
   <tile/>
   <tile/>
   <tile/>
   <tile/>
   <tile/>
   <tile/>
   <tile/>
   <tile/>
   <tile/>
   <tile/>
   <tile/>
   <tile/>
   <tile/>
   <tile/>
   <tile/>
   <tile/>
   <tile/>
   <tile/>
   <tile/>
   <tile/>
   <tile/>
   <tile/>
   <tile/>
   <tile/>
   <tile/>
   <tile/>
   <tile/>
   <tile/>
   <tile/>
   <tile/>
   <tile/>
   <tile/>
   <tile gid="1985"/>
   <tile gid="1986"/>
   <tile gid="1987"/>
   <tile/>
   <tile/>
   <tile/>
   <tile/>
   <tile/>
   <tile/>
   <tile/>
   <tile/>
   <tile/>
   <tile/>
   <tile/>
   <tile/>
   <tile/>
   <tile/>
   <tile/>
   <tile/>
   <tile/>
   <tile/>
   <tile/>
   <tile/>
   <tile/>
   <tile/>
   <tile/>
   <tile/>
   <tile/>
   <tile/>
   <tile/>
   <tile/>
   <tile/>
   <tile/>
   <tile/>
   <tile/>
   <tile/>
   <tile/>
   <tile/>
   <tile/>
   <tile/>
   <tile/>
   <tile/>
   <tile/>
   <tile/>
   <tile/>
   <tile/>
   <tile/>
   <tile/>
   <tile/>
   <tile/>
   <tile gid="2017"/>
   <tile gid="2018"/>
   <tile gid="2019"/>
   <tile/>
   <tile/>
   <tile/>
   <tile/>
   <tile/>
   <tile/>
   <tile/>
   <tile/>
   <tile/>
   <tile/>
   <tile/>
   <tile/>
   <tile/>
   <tile/>
   <tile/>
   <tile/>
   <tile/>
   <tile/>
   <tile/>
   <tile/>
   <tile/>
   <tile/>
   <tile/>
   <tile/>
   <tile/>
   <tile/>
   <tile/>
   <tile/>
   <tile/>
   <tile/>
   <tile/>
   <tile/>
   <tile/>
   <tile/>
   <tile/>
   <tile/>
   <tile/>
   <tile/>
   <tile/>
   <tile/>
   <tile/>
   <tile/>
   <tile/>
   <tile/>
   <tile/>
   <tile/>
   <tile/>
   <tile/>
   <tile/>
   <tile/>
   <tile/>
   <tile/>
   <tile/>
   <tile/>
   <tile/>
   <tile/>
   <tile/>
   <tile/>
   <tile/>
   <tile/>
   <tile/>
   <tile/>
   <tile/>
   <tile/>
   <tile/>
   <tile/>
   <tile/>
   <tile/>
   <tile/>
   <tile/>
   <tile/>
   <tile/>
   <tile/>
   <tile/>
   <tile/>
   <tile/>
   <tile/>
   <tile/>
   <tile/>
   <tile/>
   <tile/>
   <tile/>
   <tile/>
   <tile/>
   <tile/>
   <tile/>
   <tile/>
   <tile/>
   <tile/>
   <tile/>
   <tile/>
   <tile/>
   <tile/>
   <tile/>
   <tile/>
   <tile/>
   <tile/>
   <tile/>
   <tile/>
   <tile/>
   <tile/>
   <tile/>
   <tile/>
   <tile/>
   <tile/>
   <tile/>
   <tile/>
   <tile/>
   <tile/>
   <tile/>
   <tile/>
   <tile/>
   <tile/>
   <tile/>
   <tile/>
   <tile/>
   <tile/>
   <tile/>
   <tile/>
   <tile/>
   <tile/>
   <tile/>
   <tile/>
   <tile/>
   <tile/>
   <tile/>
   <tile/>
   <tile/>
   <tile/>
   <tile/>
   <tile/>
   <tile/>
   <tile/>
   <tile/>
   <tile/>
   <tile/>
   <tile/>
   <tile/>
   <tile/>
   <tile/>
   <tile/>
   <tile/>
   <tile/>
   <tile/>
   <tile/>
   <tile/>
   <tile/>
   <tile/>
   <tile/>
   <tile/>
   <tile/>
   <tile/>
   <tile/>
   <tile/>
   <tile/>
   <tile/>
   <tile/>
   <tile/>
   <tile/>
   <tile/>
   <tile/>
   <tile/>
   <tile/>
   <tile/>
   <tile/>
   <tile/>
   <tile/>
   <tile/>
   <tile/>
   <tile/>
   <tile/>
   <tile/>
   <tile/>
   <tile/>
   <tile/>
   <tile/>
   <tile/>
   <tile/>
   <tile/>
   <tile/>
   <tile/>
   <tile/>
   <tile/>
   <tile/>
   <tile/>
   <tile/>
   <tile/>
   <tile/>
   <tile/>
   <tile/>
   <tile/>
   <tile/>
   <tile/>
   <tile/>
   <tile/>
   <tile/>
   <tile/>
   <tile/>
   <tile/>
   <tile/>
   <tile/>
   <tile/>
   <tile/>
   <tile/>
   <tile/>
   <tile/>
   <tile/>
   <tile/>
   <tile/>
   <tile/>
   <tile/>
   <tile/>
   <tile/>
   <tile/>
   <tile/>
   <tile/>
   <tile/>
   <tile/>
   <tile/>
   <tile/>
   <tile/>
   <tile/>
   <tile/>
   <tile/>
   <tile/>
   <tile/>
   <tile/>
   <tile/>
   <tile/>
   <tile/>
   <tile/>
   <tile/>
   <tile/>
   <tile/>
   <tile/>
   <tile/>
   <tile/>
   <tile/>
   <tile/>
   <tile/>
   <tile/>
   <tile/>
   <tile/>
   <tile/>
   <tile/>
   <tile/>
   <tile/>
   <tile/>
   <tile/>
   <tile/>
   <tile/>
   <tile/>
   <tile/>
   <tile/>
   <tile/>
   <tile/>
   <tile/>
   <tile/>
   <tile/>
   <tile/>
   <tile/>
   <tile/>
   <tile/>
   <tile/>
   <tile/>
   <tile/>
   <tile/>
   <tile/>
   <tile/>
   <tile/>
   <tile/>
   <tile/>
   <tile/>
   <tile/>
   <tile/>
   <tile/>
   <tile/>
   <tile/>
   <tile/>
   <tile/>
   <tile/>
   <tile/>
   <tile/>
   <tile/>
   <tile/>
   <tile/>
   <tile/>
   <tile/>
   <tile/>
   <tile/>
   <tile/>
   <tile/>
   <tile/>
   <tile/>
   <tile/>
   <tile/>
   <tile/>
   <tile/>
   <tile/>
   <tile/>
   <tile/>
   <tile/>
   <tile/>
   <tile/>
   <tile/>
   <tile/>
   <tile/>
   <tile/>
   <tile/>
   <tile/>
   <tile/>
   <tile/>
   <tile/>
   <tile/>
   <tile/>
   <tile/>
   <tile/>
   <tile/>
   <tile/>
   <tile/>
   <tile/>
   <tile/>
   <tile/>
   <tile/>
   <tile/>
   <tile/>
   <tile/>
   <tile/>
   <tile/>
   <tile/>
   <tile/>
   <tile/>
   <tile/>
   <tile/>
   <tile/>
   <tile/>
   <tile/>
   <tile/>
   <tile/>
   <tile/>
   <tile/>
   <tile/>
   <tile/>
   <tile/>
   <tile/>
   <tile/>
   <tile/>
   <tile/>
   <tile/>
   <tile/>
   <tile/>
   <tile/>
   <tile/>
   <tile/>
   <tile/>
   <tile/>
   <tile/>
   <tile/>
   <tile/>
   <tile/>
   <tile/>
   <tile/>
   <tile/>
   <tile/>
   <tile/>
   <tile/>
   <tile/>
   <tile/>
   <tile/>
   <tile/>
   <tile/>
   <tile/>
   <tile/>
   <tile/>
   <tile/>
   <tile/>
   <tile/>
   <tile/>
   <tile/>
   <tile/>
   <tile/>
   <tile/>
   <tile/>
   <tile/>
   <tile/>
   <tile/>
   <tile/>
   <tile/>
   <tile/>
   <tile/>
   <tile/>
   <tile/>
   <tile/>
   <tile/>
   <tile/>
   <tile/>
   <tile/>
   <tile/>
   <tile/>
   <tile/>
   <tile/>
   <tile/>
   <tile/>
   <tile/>
   <tile/>
   <tile/>
   <tile/>
   <tile/>
   <tile/>
   <tile/>
   <tile/>
   <tile/>
   <tile/>
   <tile/>
   <tile/>
   <tile/>
   <tile/>
   <tile/>
   <tile/>
   <tile/>
   <tile/>
   <tile/>
   <tile/>
   <tile/>
   <tile/>
   <tile/>
   <tile/>
   <tile/>
   <tile/>
   <tile/>
   <tile/>
   <tile/>
   <tile/>
   <tile/>
   <tile/>
   <tile/>
   <tile/>
   <tile/>
   <tile/>
   <tile/>
   <tile/>
   <tile/>
   <tile/>
   <tile/>
   <tile/>
   <tile/>
   <tile/>
   <tile/>
   <tile/>
   <tile/>
   <tile/>
   <tile/>
   <tile/>
   <tile/>
   <tile/>
   <tile/>
   <tile/>
   <tile/>
   <tile/>
   <tile/>
   <tile/>
   <tile/>
   <tile/>
   <tile/>
   <tile/>
   <tile/>
   <tile/>
   <tile/>
   <tile/>
   <tile/>
   <tile/>
   <tile/>
   <tile/>
   <tile/>
   <tile/>
   <tile/>
   <tile/>
   <tile/>
   <tile/>
   <tile/>
   <tile/>
   <tile/>
   <tile/>
   <tile/>
   <tile/>
   <tile/>
   <tile/>
   <tile/>
   <tile/>
   <tile/>
   <tile/>
   <tile/>
   <tile/>
   <tile/>
   <tile/>
   <tile/>
   <tile/>
   <tile/>
   <tile/>
   <tile/>
   <tile/>
   <tile/>
   <tile/>
   <tile/>
   <tile/>
   <tile/>
   <tile/>
   <tile/>
   <tile/>
   <tile/>
   <tile/>
   <tile/>
   <tile/>
   <tile/>
   <tile/>
   <tile/>
   <tile/>
   <tile/>
   <tile/>
   <tile/>
   <tile/>
   <tile/>
   <tile/>
   <tile/>
   <tile/>
   <tile/>
   <tile/>
   <tile/>
   <tile/>
   <tile/>
   <tile/>
   <tile/>
   <tile/>
   <tile/>
   <tile/>
   <tile/>
   <tile/>
   <tile/>
   <tile/>
   <tile/>
   <tile/>
   <tile/>
   <tile/>
   <tile/>
   <tile/>
   <tile/>
   <tile/>
   <tile/>
   <tile/>
   <tile/>
   <tile/>
   <tile/>
   <tile/>
   <tile/>
   <tile/>
   <tile/>
   <tile/>
   <tile/>
   <tile/>
   <tile/>
   <tile/>
   <tile/>
   <tile/>
   <tile/>
   <tile/>
   <tile/>
   <tile/>
   <tile/>
   <tile/>
   <tile/>
   <tile/>
   <tile/>
   <tile/>
   <tile/>
   <tile/>
   <tile/>
   <tile/>
   <tile/>
   <tile/>
   <tile/>
   <tile/>
   <tile/>
   <tile/>
   <tile/>
   <tile/>
   <tile/>
   <tile/>
   <tile/>
   <tile/>
   <tile/>
   <tile/>
   <tile/>
   <tile/>
   <tile/>
   <tile/>
   <tile/>
   <tile/>
   <tile/>
   <tile/>
   <tile/>
   <tile/>
   <tile/>
   <tile/>
   <tile/>
   <tile/>
   <tile/>
   <tile/>
   <tile/>
   <tile/>
   <tile/>
   <tile/>
   <tile/>
   <tile/>
   <tile/>
   <tile/>
   <tile/>
   <tile/>
   <tile/>
   <tile/>
   <tile/>
   <tile/>
   <tile/>
   <tile/>
   <tile/>
   <tile/>
   <tile/>
   <tile/>
   <tile/>
   <tile/>
   <tile/>
   <tile/>
   <tile/>
   <tile/>
   <tile/>
   <tile/>
   <tile/>
   <tile/>
   <tile/>
   <tile/>
   <tile/>
   <tile/>
   <tile/>
   <tile/>
   <tile/>
   <tile/>
   <tile/>
   <tile/>
   <tile/>
   <tile/>
   <tile/>
   <tile/>
   <tile/>
   <tile/>
   <tile/>
   <tile/>
   <tile/>
   <tile/>
   <tile/>
   <tile/>
   <tile/>
   <tile/>
   <tile/>
   <tile/>
   <tile/>
   <tile/>
   <tile/>
   <tile/>
   <tile/>
   <tile/>
   <tile/>
   <tile/>
   <tile/>
   <tile/>
   <tile/>
   <tile/>
   <tile/>
   <tile/>
   <tile/>
   <tile/>
   <tile/>
   <tile/>
   <tile/>
   <tile/>
   <tile/>
   <tile/>
   <tile/>
   <tile/>
   <tile/>
   <tile/>
   <tile/>
   <tile/>
   <tile/>
   <tile/>
   <tile/>
   <tile/>
   <tile/>
   <tile/>
   <tile/>
   <tile/>
   <tile/>
   <tile/>
   <tile/>
   <tile/>
   <tile/>
   <tile/>
   <tile/>
   <tile/>
   <tile/>
   <tile/>
   <tile/>
   <tile/>
   <tile/>
   <tile/>
   <tile/>
   <tile/>
   <tile/>
   <tile/>
   <tile/>
   <tile/>
   <tile/>
   <tile/>
   <tile/>
   <tile/>
   <tile/>
   <tile/>
   <tile/>
   <tile/>
   <tile/>
   <tile/>
   <tile/>
   <tile/>
   <tile/>
   <tile/>
   <tile/>
   <tile/>
   <tile/>
   <tile/>
   <tile/>
   <tile/>
   <tile/>
   <tile/>
   <tile/>
   <tile/>
   <tile/>
   <tile/>
   <tile/>
   <tile/>
   <tile/>
   <tile/>
   <tile/>
   <tile/>
   <tile/>
   <tile/>
   <tile/>
   <tile/>
   <tile/>
   <tile/>
   <tile/>
   <tile/>
   <tile/>
   <tile/>
   <tile/>
   <tile/>
   <tile/>
   <tile/>
   <tile/>
   <tile/>
   <tile/>
   <tile/>
   <tile/>
   <tile/>
   <tile/>
   <tile/>
   <tile/>
   <tile/>
   <tile/>
   <tile/>
   <tile/>
   <tile/>
   <tile/>
   <tile/>
   <tile/>
   <tile/>
   <tile/>
   <tile/>
   <tile/>
   <tile/>
   <tile/>
   <tile/>
   <tile/>
   <tile/>
   <tile/>
   <tile/>
   <tile/>
   <tile/>
   <tile/>
   <tile/>
   <tile/>
   <tile/>
   <tile/>
   <tile/>
   <tile/>
   <tile/>
   <tile/>
   <tile/>
   <tile/>
   <tile/>
   <tile/>
   <tile/>
   <tile/>
   <tile/>
   <tile/>
   <tile/>
   <tile/>
   <tile/>
   <tile/>
   <tile/>
   <tile/>
   <tile/>
   <tile/>
   <tile/>
   <tile/>
   <tile/>
   <tile/>
   <tile/>
   <tile/>
   <tile/>
   <tile/>
   <tile/>
   <tile/>
   <tile/>
   <tile/>
   <tile/>
   <tile/>
   <tile/>
   <tile/>
   <tile/>
   <tile/>
   <tile/>
   <tile/>
   <tile/>
   <tile/>
   <tile/>
   <tile/>
   <tile/>
   <tile gid="1352"/>
   <tile gid="1352"/>
   <tile gid="1352"/>
   <tile gid="1352"/>
   <tile gid="1352"/>
   <tile gid="1352"/>
   <tile gid="1352"/>
   <tile/>
   <tile/>
   <tile/>
   <tile/>
   <tile/>
   <tile/>
   <tile/>
   <tile/>
   <tile/>
   <tile/>
   <tile/>
   <tile/>
   <tile/>
   <tile/>
   <tile/>
   <tile/>
   <tile/>
   <tile/>
   <tile/>
   <tile/>
   <tile/>
   <tile/>
   <tile/>
   <tile/>
   <tile/>
   <tile/>
   <tile/>
   <tile/>
   <tile/>
   <tile/>
   <tile/>
   <tile/>
   <tile/>
   <tile/>
   <tile/>
   <tile/>
   <tile/>
   <tile/>
   <tile/>
   <tile/>
   <tile/>
   <tile/>
   <tile/>
   <tile gid="1352"/>
   <tile gid="1352"/>
   <tile gid="1352"/>
   <tile gid="1352"/>
   <tile gid="1352"/>
   <tile gid="1352"/>
   <tile gid="1352"/>
   <tile/>
   <tile/>
   <tile/>
   <tile/>
   <tile/>
   <tile/>
   <tile/>
   <tile/>
   <tile/>
   <tile/>
   <tile/>
   <tile/>
   <tile/>
   <tile/>
   <tile/>
   <tile/>
   <tile/>
   <tile/>
   <tile/>
   <tile/>
   <tile/>
   <tile/>
   <tile/>
   <tile/>
   <tile/>
   <tile/>
   <tile/>
   <tile/>
   <tile/>
   <tile/>
   <tile/>
   <tile/>
   <tile/>
   <tile/>
   <tile/>
   <tile/>
   <tile/>
   <tile/>
   <tile/>
   <tile/>
   <tile/>
   <tile/>
   <tile/>
   <tile gid="1352"/>
   <tile gid="1352"/>
   <tile gid="1352"/>
   <tile gid="1352"/>
   <tile gid="1352"/>
   <tile gid="1352"/>
   <tile gid="1352"/>
   <tile/>
   <tile/>
   <tile/>
   <tile/>
   <tile/>
   <tile/>
   <tile/>
   <tile/>
   <tile/>
   <tile/>
   <tile/>
   <tile/>
   <tile/>
   <tile/>
   <tile/>
   <tile/>
   <tile/>
   <tile/>
   <tile/>
   <tile/>
   <tile/>
   <tile/>
   <tile/>
   <tile/>
   <tile/>
   <tile/>
   <tile/>
   <tile/>
   <tile/>
   <tile/>
   <tile/>
   <tile/>
   <tile/>
   <tile/>
   <tile/>
   <tile/>
   <tile/>
   <tile/>
   <tile/>
   <tile/>
   <tile/>
   <tile/>
   <tile/>
   <tile gid="1352"/>
   <tile gid="1352"/>
   <tile gid="1352"/>
   <tile gid="1352"/>
   <tile gid="1352"/>
   <tile gid="1352"/>
   <tile gid="1352"/>
   <tile/>
   <tile/>
   <tile/>
   <tile/>
   <tile/>
   <tile/>
   <tile/>
   <tile/>
   <tile/>
   <tile/>
   <tile/>
   <tile/>
   <tile/>
   <tile/>
   <tile/>
   <tile/>
   <tile/>
   <tile/>
   <tile/>
   <tile/>
   <tile/>
   <tile/>
   <tile/>
   <tile/>
   <tile/>
   <tile/>
   <tile/>
   <tile/>
   <tile/>
   <tile/>
   <tile/>
   <tile/>
   <tile/>
   <tile/>
   <tile/>
   <tile/>
   <tile/>
   <tile/>
   <tile/>
   <tile/>
   <tile/>
   <tile/>
   <tile/>
   <tile gid="1352"/>
   <tile gid="1352"/>
   <tile gid="1352"/>
   <tile gid="1352"/>
   <tile gid="1352"/>
   <tile gid="1352"/>
   <tile gid="1352"/>
   <tile/>
   <tile/>
   <tile/>
   <tile/>
   <tile/>
   <tile/>
   <tile/>
   <tile/>
   <tile/>
   <tile/>
   <tile/>
   <tile/>
   <tile/>
   <tile/>
   <tile/>
   <tile/>
   <tile/>
   <tile/>
   <tile/>
   <tile/>
   <tile/>
   <tile/>
   <tile/>
   <tile/>
   <tile/>
   <tile/>
   <tile/>
   <tile/>
   <tile/>
   <tile/>
   <tile/>
   <tile/>
   <tile/>
   <tile/>
   <tile/>
   <tile/>
   <tile/>
   <tile/>
   <tile/>
   <tile/>
   <tile/>
   <tile/>
   <tile/>
   <tile gid="1352"/>
   <tile gid="1352"/>
   <tile gid="1352"/>
   <tile gid="1352"/>
   <tile gid="1352"/>
   <tile gid="1352"/>
   <tile gid="1352"/>
   <tile/>
   <tile/>
   <tile/>
   <tile/>
   <tile/>
   <tile/>
   <tile/>
   <tile/>
   <tile/>
   <tile/>
   <tile/>
   <tile/>
   <tile/>
   <tile/>
   <tile/>
   <tile/>
   <tile/>
   <tile/>
   <tile/>
   <tile/>
   <tile/>
   <tile/>
   <tile/>
   <tile/>
   <tile/>
   <tile/>
   <tile/>
   <tile/>
   <tile/>
   <tile/>
   <tile/>
   <tile/>
   <tile/>
   <tile/>
   <tile/>
   <tile/>
   <tile/>
   <tile/>
   <tile/>
   <tile/>
   <tile/>
   <tile/>
   <tile/>
   <tile gid="1352"/>
   <tile gid="1352"/>
   <tile gid="1352"/>
   <tile gid="1352"/>
   <tile gid="1352"/>
   <tile gid="1352"/>
   <tile gid="1352"/>
   <tile/>
   <tile/>
   <tile/>
   <tile/>
   <tile/>
   <tile/>
   <tile/>
   <tile/>
   <tile/>
   <tile/>
   <tile/>
   <tile/>
   <tile/>
   <tile/>
   <tile/>
   <tile/>
   <tile/>
   <tile/>
   <tile/>
   <tile/>
   <tile/>
   <tile/>
   <tile/>
   <tile/>
   <tile/>
   <tile/>
   <tile/>
   <tile/>
   <tile/>
   <tile/>
   <tile/>
   <tile/>
   <tile/>
   <tile/>
   <tile/>
   <tile/>
   <tile/>
   <tile/>
   <tile/>
   <tile/>
   <tile/>
   <tile/>
   <tile/>
   <tile gid="1368"/>
   <tile gid="1368"/>
   <tile gid="1368"/>
   <tile gid="1368"/>
   <tile gid="1368"/>
   <tile gid="1368"/>
   <tile gid="1368"/>
   <tile/>
   <tile/>
   <tile/>
   <tile/>
   <tile/>
   <tile/>
   <tile/>
   <tile/>
   <tile/>
   <tile/>
   <tile/>
   <tile/>
   <tile/>
   <tile/>
   <tile/>
   <tile/>
   <tile/>
   <tile/>
   <tile/>
   <tile/>
   <tile/>
   <tile/>
   <tile/>
   <tile/>
   <tile/>
   <tile/>
   <tile/>
   <tile/>
   <tile/>
   <tile/>
   <tile/>
   <tile/>
   <tile/>
   <tile/>
   <tile/>
   <tile/>
   <tile/>
   <tile/>
   <tile/>
   <tile/>
   <tile/>
   <tile/>
   <tile/>
   <tile/>
   <tile/>
   <tile/>
   <tile/>
   <tile/>
   <tile/>
   <tile/>
   <tile/>
   <tile/>
   <tile/>
   <tile/>
   <tile/>
   <tile/>
   <tile/>
   <tile/>
   <tile/>
   <tile/>
   <tile/>
   <tile/>
   <tile/>
   <tile/>
   <tile/>
   <tile/>
   <tile/>
   <tile/>
   <tile/>
   <tile/>
   <tile/>
   <tile/>
   <tile/>
   <tile/>
   <tile/>
   <tile/>
   <tile/>
   <tile/>
   <tile/>
   <tile/>
   <tile/>
   <tile/>
   <tile/>
   <tile/>
   <tile/>
   <tile/>
   <tile/>
   <tile/>
   <tile/>
   <tile/>
   <tile/>
   <tile/>
   <tile/>
   <tile/>
   <tile/>
   <tile/>
   <tile/>
   <tile/>
   <tile/>
   <tile/>
   <tile/>
   <tile/>
   <tile/>
   <tile/>
   <tile/>
   <tile/>
   <tile/>
   <tile/>
   <tile/>
   <tile/>
   <tile/>
   <tile/>
   <tile/>
   <tile/>
   <tile/>
   <tile/>
   <tile/>
   <tile/>
   <tile/>
   <tile/>
   <tile/>
   <tile/>
   <tile/>
   <tile/>
   <tile/>
   <tile/>
   <tile/>
   <tile/>
   <tile/>
   <tile/>
   <tile/>
   <tile/>
   <tile/>
   <tile/>
   <tile/>
   <tile/>
   <tile/>
   <tile/>
   <tile/>
   <tile/>
   <tile/>
   <tile/>
   <tile/>
   <tile/>
   <tile/>
   <tile/>
   <tile/>
   <tile/>
   <tile/>
   <tile/>
   <tile/>
   <tile/>
   <tile/>
   <tile/>
   <tile/>
   <tile/>
   <tile/>
   <tile/>
   <tile/>
   <tile/>
   <tile/>
   <tile/>
   <tile/>
   <tile/>
   <tile/>
   <tile/>
   <tile/>
   <tile/>
   <tile/>
   <tile/>
   <tile/>
   <tile/>
   <tile/>
   <tile/>
   <tile/>
   <tile/>
   <tile/>
   <tile/>
   <tile/>
   <tile/>
   <tile/>
   <tile/>
   <tile/>
   <tile/>
   <tile/>
   <tile/>
   <tile/>
   <tile/>
   <tile/>
   <tile/>
   <tile/>
   <tile/>
   <tile/>
   <tile/>
   <tile/>
   <tile/>
   <tile/>
   <tile/>
   <tile/>
   <tile/>
   <tile/>
   <tile/>
   <tile/>
   <tile/>
   <tile/>
   <tile/>
   <tile/>
   <tile/>
   <tile/>
   <tile/>
   <tile/>
   <tile/>
   <tile/>
   <tile/>
   <tile/>
   <tile/>
   <tile/>
   <tile/>
   <tile/>
   <tile/>
   <tile/>
   <tile/>
   <tile/>
   <tile/>
   <tile/>
   <tile/>
   <tile/>
   <tile/>
   <tile/>
   <tile/>
   <tile/>
   <tile/>
   <tile/>
   <tile/>
   <tile/>
   <tile/>
   <tile/>
   <tile/>
   <tile/>
   <tile/>
   <tile/>
   <tile/>
   <tile/>
   <tile/>
   <tile/>
   <tile/>
   <tile/>
   <tile/>
   <tile/>
   <tile/>
   <tile/>
   <tile/>
   <tile/>
   <tile/>
   <tile/>
   <tile/>
   <tile/>
   <tile/>
   <tile/>
   <tile/>
   <tile/>
   <tile/>
   <tile/>
   <tile/>
   <tile/>
   <tile/>
   <tile/>
   <tile/>
   <tile/>
   <tile/>
   <tile/>
   <tile/>
   <tile/>
   <tile gid="1671"/>
   <tile gid="1671"/>
   <tile gid="1671"/>
   <tile gid="1671"/>
   <tile gid="1671"/>
   <tile gid="1671"/>
   <tile gid="1671"/>
   <tile/>
   <tile/>
   <tile/>
   <tile/>
   <tile/>
   <tile/>
   <tile/>
   <tile/>
   <tile/>
   <tile/>
   <tile/>
   <tile/>
   <tile/>
   <tile/>
   <tile/>
   <tile/>
   <tile/>
   <tile/>
   <tile/>
   <tile/>
   <tile/>
   <tile/>
   <tile/>
   <tile/>
   <tile/>
   <tile/>
   <tile/>
   <tile/>
   <tile/>
   <tile/>
   <tile/>
   <tile/>
   <tile/>
   <tile/>
   <tile/>
   <tile/>
   <tile/>
   <tile/>
   <tile/>
   <tile/>
   <tile/>
   <tile/>
   <tile/>
   <tile/>
   <tile/>
   <tile/>
   <tile/>
   <tile/>
   <tile/>
   <tile/>
   <tile/>
   <tile/>
   <tile/>
   <tile/>
   <tile/>
   <tile/>
   <tile/>
   <tile/>
   <tile/>
   <tile/>
   <tile/>
   <tile/>
   <tile/>
   <tile/>
   <tile/>
   <tile/>
   <tile/>
   <tile/>
   <tile/>
   <tile/>
   <tile/>
   <tile/>
   <tile/>
   <tile/>
   <tile/>
   <tile/>
   <tile/>
   <tile/>
   <tile/>
   <tile/>
   <tile/>
   <tile/>
   <tile/>
   <tile/>
   <tile/>
   <tile/>
   <tile/>
   <tile/>
   <tile/>
   <tile/>
   <tile/>
   <tile/>
   <tile/>
   <tile/>
   <tile/>
   <tile/>
   <tile/>
   <tile/>
   <tile/>
   <tile/>
   <tile/>
   <tile/>
   <tile/>
   <tile/>
   <tile/>
   <tile/>
   <tile/>
   <tile/>
   <tile/>
   <tile/>
   <tile/>
   <tile/>
   <tile/>
   <tile/>
   <tile/>
   <tile/>
   <tile/>
   <tile/>
   <tile/>
   <tile/>
   <tile/>
   <tile/>
   <tile/>
   <tile/>
   <tile/>
   <tile/>
   <tile/>
   <tile/>
   <tile/>
   <tile/>
   <tile/>
   <tile/>
   <tile/>
   <tile/>
   <tile/>
   <tile/>
   <tile/>
   <tile/>
   <tile/>
   <tile/>
   <tile/>
   <tile/>
   <tile/>
   <tile/>
   <tile/>
   <tile/>
   <tile/>
   <tile/>
   <tile/>
   <tile/>
   <tile/>
   <tile/>
   <tile/>
   <tile/>
   <tile/>
   <tile/>
   <tile/>
   <tile/>
   <tile/>
   <tile/>
   <tile/>
   <tile/>
   <tile/>
   <tile/>
   <tile/>
   <tile/>
   <tile/>
   <tile/>
   <tile/>
   <tile/>
   <tile/>
   <tile/>
   <tile/>
   <tile/>
   <tile/>
   <tile/>
   <tile/>
   <tile/>
   <tile/>
   <tile/>
   <tile/>
   <tile/>
   <tile/>
   <tile/>
   <tile/>
   <tile/>
   <tile/>
   <tile/>
   <tile/>
   <tile/>
   <tile/>
   <tile/>
   <tile/>
   <tile/>
   <tile/>
   <tile/>
   <tile/>
   <tile/>
   <tile/>
   <tile/>
   <tile/>
   <tile/>
   <tile/>
   <tile/>
   <tile/>
   <tile/>
   <tile/>
   <tile/>
   <tile/>
   <tile/>
   <tile/>
   <tile/>
   <tile/>
   <tile/>
   <tile/>
   <tile/>
   <tile/>
   <tile/>
   <tile/>
   <tile/>
   <tile/>
   <tile/>
   <tile/>
   <tile/>
   <tile/>
   <tile/>
   <tile/>
   <tile/>
   <tile/>
   <tile/>
   <tile/>
   <tile/>
   <tile/>
   <tile/>
   <tile/>
   <tile/>
   <tile/>
   <tile/>
   <tile/>
   <tile/>
   <tile/>
   <tile/>
   <tile/>
   <tile/>
   <tile/>
   <tile/>
   <tile/>
   <tile/>
   <tile/>
   <tile/>
   <tile/>
   <tile/>
   <tile/>
   <tile/>
   <tile/>
   <tile/>
   <tile/>
   <tile/>
   <tile/>
   <tile/>
   <tile/>
   <tile/>
   <tile/>
   <tile/>
   <tile/>
   <tile/>
   <tile/>
   <tile/>
   <tile/>
   <tile/>
   <tile/>
   <tile/>
   <tile/>
   <tile/>
   <tile/>
   <tile/>
   <tile/>
   <tile/>
   <tile/>
   <tile/>
   <tile/>
   <tile/>
   <tile/>
   <tile/>
   <tile/>
   <tile/>
   <tile/>
   <tile/>
   <tile/>
   <tile/>
   <tile/>
   <tile/>
   <tile/>
   <tile/>
   <tile/>
   <tile/>
   <tile/>
   <tile/>
   <tile/>
   <tile/>
   <tile/>
   <tile/>
   <tile/>
   <tile/>
   <tile/>
   <tile/>
   <tile/>
   <tile/>
   <tile/>
   <tile/>
   <tile/>
   <tile/>
   <tile/>
   <tile/>
   <tile/>
   <tile/>
   <tile/>
   <tile/>
   <tile/>
   <tile/>
   <tile/>
   <tile/>
   <tile/>
   <tile/>
   <tile/>
   <tile/>
   <tile/>
   <tile/>
   <tile/>
   <tile/>
   <tile/>
   <tile/>
   <tile/>
   <tile/>
   <tile/>
   <tile/>
   <tile/>
   <tile/>
   <tile/>
   <tile/>
   <tile/>
   <tile/>
   <tile/>
   <tile/>
   <tile/>
   <tile/>
   <tile/>
   <tile/>
   <tile/>
   <tile/>
   <tile/>
   <tile/>
   <tile/>
   <tile/>
   <tile/>
   <tile/>
   <tile/>
   <tile/>
   <tile/>
   <tile/>
   <tile/>
   <tile/>
   <tile/>
   <tile/>
   <tile/>
   <tile/>
   <tile/>
   <tile/>
   <tile/>
   <tile/>
   <tile/>
   <tile/>
   <tile/>
   <tile/>
   <tile/>
   <tile/>
   <tile/>
   <tile/>
   <tile/>
   <tile/>
   <tile/>
   <tile/>
   <tile/>
   <tile/>
   <tile/>
   <tile/>
   <tile/>
   <tile/>
   <tile/>
   <tile/>
   <tile/>
   <tile/>
   <tile/>
   <tile/>
   <tile/>
   <tile/>
   <tile/>
   <tile/>
   <tile/>
   <tile/>
   <tile/>
   <tile/>
   <tile/>
   <tile/>
   <tile/>
   <tile/>
   <tile/>
   <tile/>
   <tile/>
   <tile/>
   <tile/>
   <tile/>
   <tile/>
   <tile/>
   <tile/>
   <tile/>
   <tile/>
   <tile/>
   <tile/>
   <tile/>
   <tile/>
   <tile/>
   <tile/>
   <tile/>
   <tile/>
   <tile/>
   <tile/>
   <tile/>
   <tile/>
   <tile/>
   <tile/>
   <tile/>
   <tile/>
   <tile/>
   <tile/>
   <tile/>
   <tile/>
   <tile/>
   <tile/>
   <tile/>
   <tile/>
   <tile/>
   <tile/>
   <tile/>
   <tile/>
   <tile/>
   <tile/>
   <tile/>
   <tile/>
   <tile/>
   <tile/>
   <tile/>
   <tile/>
   <tile/>
   <tile/>
   <tile/>
   <tile/>
   <tile/>
   <tile/>
   <tile/>
   <tile/>
   <tile/>
   <tile/>
   <tile/>
   <tile/>
   <tile/>
   <tile/>
   <tile/>
   <tile/>
   <tile/>
   <tile/>
   <tile/>
   <tile/>
   <tile/>
   <tile/>
   <tile/>
   <tile/>
   <tile/>
   <tile/>
   <tile/>
   <tile/>
   <tile/>
   <tile/>
   <tile/>
   <tile/>
   <tile/>
   <tile/>
   <tile/>
   <tile/>
   <tile/>
   <tile/>
   <tile/>
   <tile/>
   <tile/>
   <tile/>
   <tile/>
   <tile/>
   <tile/>
   <tile/>
   <tile/>
   <tile/>
   <tile/>
   <tile/>
   <tile/>
   <tile/>
   <tile/>
   <tile/>
   <tile/>
   <tile/>
   <tile/>
   <tile/>
   <tile/>
   <tile/>
   <tile/>
   <tile/>
   <tile/>
   <tile/>
   <tile/>
   <tile/>
   <tile/>
   <tile/>
   <tile/>
   <tile/>
   <tile/>
   <tile/>
   <tile/>
   <tile/>
   <tile/>
   <tile/>
   <tile/>
   <tile/>
   <tile/>
   <tile/>
   <tile/>
   <tile/>
   <tile/>
   <tile/>
   <tile/>
   <tile/>
   <tile/>
   <tile/>
   <tile/>
   <tile/>
   <tile/>
   <tile/>
   <tile/>
   <tile/>
   <tile/>
   <tile/>
   <tile/>
   <tile/>
   <tile/>
   <tile/>
   <tile/>
   <tile/>
   <tile/>
   <tile/>
   <tile/>
   <tile/>
   <tile/>
   <tile/>
   <tile/>
   <tile/>
   <tile/>
   <tile/>
   <tile/>
   <tile/>
   <tile/>
   <tile/>
   <tile/>
   <tile/>
   <tile/>
   <tile/>
   <tile/>
   <tile/>
   <tile/>
   <tile/>
   <tile/>
   <tile/>
   <tile/>
   <tile/>
   <tile/>
   <tile/>
   <tile/>
   <tile/>
   <tile/>
   <tile/>
   <tile/>
   <tile/>
   <tile/>
   <tile/>
   <tile/>
   <tile/>
   <tile/>
   <tile/>
   <tile/>
   <tile/>
   <tile/>
   <tile/>
   <tile/>
   <tile/>
   <tile/>
   <tile/>
   <tile/>
   <tile/>
   <tile/>
   <tile/>
   <tile/>
   <tile/>
   <tile/>
   <tile/>
   <tile/>
   <tile/>
   <tile/>
   <tile/>
   <tile/>
   <tile/>
   <tile/>
   <tile/>
   <tile/>
   <tile/>
   <tile/>
   <tile/>
   <tile/>
   <tile/>
   <tile/>
   <tile/>
   <tile/>
   <tile/>
   <tile/>
   <tile/>
   <tile/>
   <tile/>
   <tile/>
   <tile/>
   <tile/>
   <tile/>
   <tile/>
   <tile/>
   <tile/>
   <tile/>
   <tile/>
   <tile/>
   <tile/>
   <tile/>
   <tile/>
   <tile/>
   <tile/>
   <tile/>
   <tile/>
   <tile/>
   <tile/>
   <tile/>
   <tile/>
   <tile/>
   <tile/>
   <tile/>
   <tile/>
   <tile/>
   <tile/>
   <tile/>
   <tile/>
   <tile/>
   <tile/>
   <tile/>
   <tile/>
   <tile/>
   <tile/>
   <tile/>
   <tile/>
   <tile/>
   <tile/>
   <tile/>
   <tile/>
   <tile/>
   <tile/>
   <tile/>
   <tile/>
   <tile/>
   <tile/>
   <tile/>
   <tile/>
   <tile/>
   <tile/>
   <tile/>
   <tile/>
   <tile/>
   <tile/>
   <tile/>
   <tile/>
   <tile/>
   <tile/>
   <tile/>
   <tile/>
   <tile/>
   <tile/>
   <tile/>
   <tile/>
   <tile/>
   <tile/>
   <tile/>
   <tile/>
   <tile/>
   <tile/>
   <tile/>
   <tile/>
   <tile/>
   <tile/>
   <tile/>
   <tile/>
   <tile/>
   <tile/>
   <tile/>
   <tile/>
   <tile/>
   <tile/>
   <tile/>
   <tile/>
   <tile/>
   <tile/>
   <tile/>
   <tile/>
   <tile/>
   <tile/>
   <tile/>
   <tile/>
   <tile/>
   <tile/>
   <tile/>
   <tile/>
   <tile/>
   <tile/>
   <tile/>
   <tile/>
   <tile/>
   <tile/>
   <tile/>
   <tile/>
   <tile/>
   <tile/>
   <tile/>
  </data>
 </layer>
 <objectgroup id="3" name="Collision">
  <properties>
   <property name="Collision" type="bool" value="true"/>
   <property name="Draw" type="bool" value="false"/>
  </properties>
  <object id="1" x="512" y="64" width="278.667" height="96"/>
  <object id="2" x="832" y="64" width="288" height="96"/>
  <object id="3" x="800" y="64" width="32" height="96"/>
  <object id="4" x="1120" y="64" width="64" height="416"/>
  <object id="5" x="1184" y="448" width="416" height="32"/>
  <object id="6" x="1536" y="480" width="64" height="1088"/>
  <object id="7" x="896" y="1536" width="640" height="64"/>
  <object id="8" x="0" y="1536" width="898.667" height="64"/>
  <object id="9" x="0" y="0" width="64" height="1536"/>
  <object id="10" x="224" y="1248" width="64" height="192"/>
  <object id="11" x="160" y="1280" width="64" height="64"/>
  <object id="12" x="64" y="1248" width="96" height="192"/>
  <object id="13" x="160" y="1248" width="64" height="32"/>
  <object id="14" x="64" y="704" width="640" height="224"/>
  <object id="15" x="928" y="704" width="608" height="224"/>
  <object id="16" x="64" y="64" width="448" height="416"/>
  <object id="27" x="64" y="1152" width="224" height="96"/>
 </objectgroup>
 <objectgroup id="4" name="Teleport">
  <object id="18" x="160" y="1344" width="64" height="96">
   <properties>
    <property name="targetMap" value="ClotheDungeon.tmx"/>
    <property name="unlock" type="bool" value="false"/>
   </properties>
  </object>
 </objectgroup>
 <objectgroup id="5" name="Checkpoints">
  <object id="20" x="160" y="1440" width="64" height="32"/>
 </objectgroup>
 <objectgroup id="6" name="Entities">
  <object id="23" name="Player" type="Player" x="192" y="1504">
   <properties>
    <property name="CorneliusJoined" type="bool" value="false"/>
    <property name="WizardJoined" type="bool" value="false"/>
    <property name="magicPoints" type="int" value="50"/>
   </properties>
   <point/>
  </object>
  <object id="24" name="Statue" type="NPC" x="800" y="1216">
   <properties>
    <property name="NPC_ID" value="12"/>
    <property name="active" type="bool" value="true"/>
    <property name="currentDialogueTree" type="int" value="0"/>
    <property name="texturePath" value="Assets/Textures/goldCoin.png"/>
   </properties>
   <point/>
  </object>
  <object id="26" name="Cornelius" type="Companion" x="544" y="1408">
   <properties>
    <property name="Companion_ID" type="int" value="2"/>
    <property name="Dialogue_ID" type="int" value="102"/>
    <property name="active" type="bool" value="true"/>
    <property name="texturePath" value="Assets/Textures/companionTexture.png"/>
   </properties>
   <point/>
  </object>
 </objectgroup>
 <objectgroup id="7" name="Events"/>
 <layer id="8" name="foreground" width="50" height="50">
  <properties>
   <property name="Draw" type="bool" value="true"/>
  </properties>
  <data>
   <tile/>
   <tile/>
   <tile/>
   <tile/>
   <tile/>
   <tile/>
   <tile/>
   <tile/>
   <tile/>
   <tile/>
   <tile/>
   <tile/>
   <tile/>
   <tile/>
   <tile/>
   <tile/>
   <tile/>
   <tile/>
   <tile/>
   <tile/>
   <tile/>
   <tile/>
   <tile/>
   <tile/>
   <tile/>
   <tile/>
   <tile/>
   <tile/>
   <tile/>
   <tile/>
   <tile/>
   <tile/>
   <tile/>
   <tile/>
   <tile/>
   <tile/>
   <tile/>
   <tile/>
   <tile/>
   <tile/>
   <tile/>
   <tile/>
   <tile/>
   <tile/>
   <tile/>
   <tile/>
   <tile/>
   <tile/>
   <tile/>
   <tile/>
   <tile/>
   <tile/>
   <tile/>
   <tile/>
   <tile/>
   <tile/>
   <tile/>
   <tile/>
   <tile/>
   <tile/>
   <tile/>
   <tile/>
   <tile/>
   <tile/>
   <tile/>
   <tile/>
   <tile/>
   <tile/>
   <tile/>
   <tile/>
   <tile/>
   <tile/>
   <tile/>
   <tile/>
   <tile/>
   <tile/>
   <tile/>
   <tile/>
   <tile/>
   <tile/>
   <tile/>
   <tile/>
   <tile/>
   <tile/>
   <tile/>
   <tile/>
   <tile/>
   <tile/>
   <tile/>
   <tile/>
   <tile/>
   <tile/>
   <tile/>
   <tile/>
   <tile/>
   <tile/>
   <tile/>
   <tile/>
   <tile/>
   <tile/>
   <tile/>
   <tile/>
   <tile/>
   <tile/>
   <tile/>
   <tile/>
   <tile/>
   <tile/>
   <tile/>
   <tile/>
   <tile/>
   <tile/>
   <tile/>
   <tile/>
   <tile/>
   <tile/>
   <tile/>
   <tile/>
   <tile/>
   <tile/>
   <tile/>
   <tile/>
   <tile/>
   <tile/>
   <tile/>
   <tile/>
   <tile/>
   <tile/>
   <tile/>
   <tile/>
   <tile/>
   <tile/>
   <tile/>
   <tile/>
   <tile/>
   <tile/>
   <tile/>
   <tile/>
   <tile/>
   <tile/>
   <tile/>
   <tile/>
   <tile/>
   <tile/>
   <tile/>
   <tile/>
   <tile/>
   <tile/>
   <tile/>
   <tile/>
   <tile/>
   <tile/>
   <tile/>
   <tile/>
   <tile/>
   <tile/>
   <tile/>
   <tile/>
   <tile/>
   <tile/>
   <tile/>
   <tile/>
   <tile/>
   <tile/>
   <tile/>
   <tile/>
   <tile/>
   <tile/>
   <tile/>
   <tile/>
   <tile/>
   <tile/>
   <tile/>
   <tile/>
   <tile/>
   <tile/>
   <tile/>
   <tile/>
   <tile/>
   <tile/>
   <tile/>
   <tile/>
   <tile/>
   <tile/>
   <tile/>
   <tile/>
   <tile/>
   <tile/>
   <tile/>
   <tile/>
   <tile/>
   <tile/>
   <tile/>
   <tile/>
   <tile/>
   <tile/>
   <tile/>
   <tile/>
   <tile/>
   <tile/>
   <tile/>
   <tile/>
   <tile/>
   <tile/>
   <tile/>
   <tile/>
   <tile/>
   <tile/>
   <tile/>
   <tile/>
   <tile/>
   <tile/>
   <tile/>
   <tile/>
   <tile/>
   <tile/>
   <tile/>
   <tile/>
   <tile/>
   <tile/>
   <tile/>
   <tile/>
   <tile/>
   <tile/>
   <tile/>
   <tile/>
   <tile/>
   <tile/>
   <tile/>
   <tile/>
   <tile/>
   <tile/>
   <tile/>
   <tile/>
   <tile/>
   <tile/>
   <tile/>
   <tile/>
   <tile/>
   <tile/>
   <tile/>
   <tile/>
   <tile/>
   <tile/>
   <tile/>
   <tile/>
   <tile/>
   <tile/>
   <tile/>
   <tile/>
   <tile/>
   <tile/>
   <tile/>
   <tile/>
   <tile/>
   <tile/>
   <tile/>
   <tile/>
   <tile/>
   <tile/>
   <tile/>
   <tile/>
   <tile/>
   <tile/>
   <tile/>
   <tile/>
   <tile/>
   <tile/>
   <tile/>
   <tile/>
   <tile/>
   <tile/>
   <tile/>
   <tile/>
   <tile/>
   <tile/>
   <tile/>
   <tile/>
   <tile/>
   <tile/>
   <tile/>
   <tile/>
   <tile/>
   <tile/>
   <tile/>
   <tile/>
   <tile/>
   <tile/>
   <tile/>
   <tile/>
   <tile/>
   <tile/>
   <tile/>
   <tile/>
   <tile/>
   <tile/>
   <tile/>
   <tile/>
   <tile/>
   <tile/>
   <tile/>
   <tile/>
   <tile/>
   <tile/>
   <tile/>
   <tile/>
   <tile/>
   <tile/>
   <tile/>
   <tile/>
   <tile/>
   <tile/>
   <tile/>
   <tile/>
   <tile/>
   <tile/>
   <tile/>
   <tile/>
   <tile/>
   <tile/>
   <tile/>
   <tile/>
   <tile/>
   <tile/>
   <tile/>
   <tile/>
   <tile/>
   <tile/>
   <tile/>
   <tile/>
   <tile/>
   <tile/>
   <tile/>
   <tile/>
   <tile/>
   <tile/>
   <tile/>
   <tile/>
   <tile/>
   <tile/>
   <tile/>
   <tile/>
   <tile/>
   <tile/>
   <tile/>
   <tile/>
   <tile/>
   <tile/>
   <tile/>
   <tile/>
   <tile/>
   <tile/>
   <tile/>
   <tile/>
   <tile/>
   <tile/>
   <tile/>
   <tile/>
   <tile/>
   <tile/>
   <tile/>
   <tile/>
   <tile/>
   <tile/>
   <tile/>
   <tile/>
   <tile/>
   <tile/>
   <tile/>
   <tile/>
   <tile/>
   <tile/>
   <tile/>
   <tile/>
   <tile/>
   <tile/>
   <tile/>
   <tile/>
   <tile/>
   <tile/>
   <tile/>
   <tile/>
   <tile/>
   <tile/>
   <tile/>
   <tile/>
   <tile/>
   <tile/>
   <tile/>
   <tile/>
   <tile/>
   <tile/>
   <tile/>
   <tile/>
   <tile/>
   <tile/>
   <tile/>
   <tile/>
   <tile/>
   <tile/>
   <tile/>
   <tile/>
   <tile/>
   <tile/>
   <tile/>
   <tile/>
   <tile/>
   <tile/>
   <tile/>
   <tile/>
   <tile/>
   <tile/>
   <tile/>
   <tile/>
   <tile/>
   <tile/>
   <tile/>
   <tile/>
   <tile/>
   <tile/>
   <tile/>
   <tile/>
   <tile/>
   <tile/>
   <tile/>
   <tile/>
   <tile/>
   <tile/>
   <tile/>
   <tile/>
   <tile/>
   <tile/>
   <tile/>
   <tile/>
   <tile/>
   <tile/>
   <tile/>
   <tile/>
   <tile/>
   <tile/>
   <tile/>
   <tile/>
   <tile/>
   <tile/>
   <tile/>
   <tile/>
   <tile/>
   <tile/>
   <tile/>
   <tile/>
   <tile/>
   <tile/>
   <tile/>
   <tile/>
   <tile/>
   <tile/>
   <tile/>
   <tile/>
   <tile/>
   <tile/>
   <tile/>
   <tile/>
   <tile/>
   <tile/>
   <tile/>
   <tile/>
   <tile/>
   <tile/>
   <tile/>
   <tile/>
   <tile/>
   <tile/>
   <tile/>
   <tile/>
   <tile/>
   <tile/>
   <tile/>
   <tile/>
   <tile/>
   <tile/>
   <tile/>
   <tile/>
   <tile/>
   <tile/>
   <tile/>
   <tile/>
   <tile/>
   <tile/>
   <tile/>
   <tile/>
   <tile/>
   <tile/>
   <tile/>
   <tile/>
   <tile/>
   <tile/>
   <tile/>
   <tile/>
   <tile/>
   <tile/>
   <tile/>
   <tile/>
   <tile/>
   <tile/>
   <tile/>
   <tile/>
   <tile/>
   <tile/>
   <tile/>
   <tile/>
   <tile/>
   <tile/>
   <tile/>
   <tile/>
   <tile/>
   <tile/>
   <tile/>
   <tile/>
   <tile/>
   <tile/>
   <tile/>
   <tile/>
   <tile/>
   <tile/>
   <tile/>
   <tile/>
   <tile/>
   <tile/>
   <tile/>
   <tile/>
   <tile/>
   <tile/>
   <tile/>
   <tile/>
   <tile/>
   <tile/>
   <tile/>
   <tile/>
   <tile/>
   <tile/>
   <tile/>
   <tile/>
   <tile/>
   <tile/>
   <tile/>
   <tile/>
   <tile/>
   <tile/>
   <tile/>
   <tile/>
   <tile/>
   <tile/>
   <tile/>
   <tile/>
   <tile/>
   <tile/>
   <tile/>
   <tile/>
   <tile/>
   <tile/>
   <tile/>
   <tile/>
   <tile/>
   <tile/>
   <tile/>
   <tile/>
   <tile/>
   <tile/>
   <tile/>
   <tile/>
   <tile/>
   <tile/>
   <tile/>
   <tile/>
   <tile/>
   <tile/>
   <tile/>
   <tile/>
   <tile/>
   <tile/>
   <tile/>
   <tile/>
   <tile/>
   <tile/>
   <tile/>
   <tile/>
   <tile/>
   <tile/>
   <tile/>
   <tile/>
   <tile/>
   <tile/>
   <tile/>
   <tile/>
   <tile/>
   <tile/>
   <tile/>
   <tile/>
   <tile/>
   <tile/>
   <tile/>
   <tile/>
   <tile/>
   <tile/>
   <tile/>
   <tile/>
   <tile/>
   <tile/>
   <tile/>
   <tile/>
   <tile/>
   <tile/>
   <tile/>
   <tile/>
   <tile/>
   <tile/>
   <tile/>
   <tile/>
   <tile/>
   <tile/>
   <tile/>
   <tile/>
   <tile/>
   <tile/>
   <tile/>
   <tile/>
   <tile/>
   <tile/>
   <tile/>
   <tile/>
   <tile/>
   <tile/>
   <tile/>
   <tile/>
   <tile/>
   <tile/>
   <tile/>
   <tile/>
   <tile/>
   <tile/>
   <tile/>
   <tile/>
   <tile/>
   <tile/>
   <tile/>
   <tile/>
   <tile/>
   <tile/>
   <tile/>
   <tile/>
   <tile/>
   <tile/>
   <tile/>
   <tile/>
   <tile/>
   <tile/>
   <tile/>
   <tile/>
   <tile/>
   <tile/>
   <tile/>
   <tile/>
   <tile/>
   <tile/>
   <tile/>
   <tile/>
   <tile/>
   <tile/>
   <tile/>
   <tile/>
   <tile/>
   <tile/>
   <tile/>
   <tile/>
   <tile/>
   <tile/>
   <tile/>
   <tile/>
   <tile/>
   <tile/>
   <tile/>
   <tile/>
   <tile/>
   <tile/>
   <tile/>
   <tile/>
   <tile/>
   <tile/>
   <tile/>
   <tile/>
   <tile/>
   <tile/>
   <tile/>
   <tile/>
   <tile/>
   <tile/>
   <tile/>
   <tile/>
   <tile/>
   <tile/>
   <tile/>
   <tile/>
   <tile/>
   <tile/>
   <tile/>
   <tile/>
   <tile/>
   <tile/>
   <tile/>
   <tile/>
   <tile/>
   <tile/>
   <tile/>
   <tile/>
   <tile/>
   <tile/>
   <tile/>
   <tile/>
   <tile/>
   <tile/>
   <tile/>
   <tile/>
   <tile/>
   <tile/>
   <tile/>
   <tile/>
   <tile/>
   <tile/>
   <tile/>
   <tile/>
   <tile/>
   <tile/>
   <tile/>
   <tile/>
   <tile/>
   <tile/>
   <tile/>
   <tile/>
   <tile/>
   <tile/>
   <tile/>
   <tile/>
   <tile/>
   <tile/>
   <tile/>
   <tile/>
   <tile/>
   <tile/>
   <tile/>
   <tile/>
   <tile/>
   <tile/>
   <tile/>
   <tile/>
   <tile/>
   <tile/>
   <tile/>
   <tile/>
   <tile/>
   <tile/>
   <tile/>
   <tile/>
   <tile/>
   <tile/>
   <tile/>
   <tile/>
   <tile/>
   <tile/>
   <tile/>
   <tile/>
   <tile/>
   <tile/>
   <tile/>
   <tile/>
   <tile/>
   <tile/>
   <tile/>
   <tile/>
   <tile/>
   <tile/>
   <tile/>
   <tile/>
   <tile/>
   <tile/>
   <tile/>
   <tile/>
   <tile/>
   <tile/>
   <tile/>
   <tile/>
   <tile/>
   <tile/>
   <tile/>
   <tile/>
   <tile/>
   <tile/>
   <tile/>
   <tile/>
   <tile/>
   <tile/>
   <tile/>
   <tile/>
   <tile/>
   <tile/>
   <tile/>
   <tile/>
   <tile/>
   <tile/>
   <tile/>
   <tile/>
   <tile/>
   <tile/>
   <tile/>
   <tile/>
   <tile/>
   <tile/>
   <tile/>
   <tile/>
   <tile/>
   <tile/>
   <tile/>
   <tile/>
   <tile/>
   <tile/>
   <tile/>
   <tile/>
   <tile/>
   <tile/>
   <tile/>
   <tile/>
   <tile/>
   <tile/>
   <tile/>
   <tile/>
   <tile/>
   <tile/>
   <tile/>
   <tile/>
   <tile/>
   <tile/>
   <tile/>
   <tile/>
   <tile/>
   <tile/>
   <tile/>
   <tile/>
   <tile/>
   <tile/>
   <tile/>
   <tile/>
   <tile/>
   <tile/>
   <tile/>
   <tile/>
   <tile/>
   <tile/>
   <tile/>
   <tile/>
   <tile/>
   <tile/>
   <tile/>
   <tile/>
   <tile/>
   <tile/>
   <tile/>
   <tile/>
   <tile/>
   <tile/>
   <tile/>
   <tile/>
   <tile/>
   <tile/>
   <tile/>
   <tile/>
   <tile/>
   <tile/>
   <tile/>
   <tile/>
   <tile/>
   <tile/>
   <tile/>
   <tile/>
   <tile/>
   <tile/>
   <tile/>
   <tile/>
   <tile/>
   <tile/>
   <tile/>
   <tile/>
   <tile/>
   <tile/>
   <tile/>
   <tile/>
   <tile/>
   <tile/>
   <tile/>
   <tile/>
   <tile/>
   <tile/>
   <tile/>
   <tile/>
   <tile/>
   <tile/>
   <tile/>
   <tile/>
   <tile/>
   <tile/>
   <tile/>
   <tile/>
   <tile/>
   <tile/>
   <tile/>
   <tile/>
   <tile/>
   <tile/>
   <tile/>
   <tile/>
   <tile/>
   <tile/>
   <tile/>
   <tile/>
   <tile/>
   <tile/>
   <tile/>
   <tile/>
   <tile/>
   <tile/>
   <tile/>
   <tile/>
   <tile/>
   <tile/>
   <tile/>
   <tile/>
   <tile/>
   <tile/>
   <tile/>
   <tile/>
   <tile/>
   <tile/>
   <tile/>
   <tile/>
   <tile/>
   <tile/>
   <tile/>
   <tile/>
   <tile/>
   <tile/>
   <tile/>
   <tile/>
   <tile/>
   <tile/>
   <tile/>
   <tile/>
   <tile/>
   <tile/>
   <tile/>
   <tile/>
   <tile/>
   <tile/>
   <tile/>
   <tile/>
   <tile/>
   <tile/>
   <tile/>
   <tile/>
   <tile/>
   <tile/>
   <tile/>
   <tile/>
   <tile/>
   <tile/>
   <tile/>
   <tile/>
   <tile/>
   <tile/>
   <tile/>
   <tile/>
   <tile/>
   <tile/>
   <tile/>
   <tile/>
   <tile/>
   <tile/>
   <tile/>
   <tile/>
   <tile/>
   <tile/>
   <tile/>
   <tile/>
   <tile/>
   <tile/>
   <tile/>
   <tile/>
   <tile/>
   <tile/>
   <tile/>
   <tile/>
   <tile/>
   <tile/>
   <tile/>
   <tile/>
   <tile/>
   <tile/>
   <tile/>
   <tile/>
   <tile/>
   <tile/>
   <tile/>
   <tile/>
   <tile/>
   <tile/>
   <tile/>
   <tile/>
   <tile/>
   <tile/>
   <tile/>
   <tile/>
   <tile/>
   <tile/>
   <tile/>
   <tile/>
   <tile/>
   <tile/>
   <tile/>
   <tile/>
   <tile/>
   <tile/>
   <tile/>
   <tile/>
   <tile/>
   <tile/>
   <tile/>
   <tile/>
   <tile/>
   <tile/>
   <tile/>
   <tile/>
   <tile/>
   <tile/>
   <tile/>
   <tile/>
   <tile/>
   <tile/>
   <tile/>
   <tile/>
   <tile/>
   <tile/>
   <tile/>
   <tile/>
   <tile/>
   <tile/>
   <tile gid="852"/>
   <tile gid="853"/>
   <tile gid="853"/>
   <tile gid="853"/>
   <tile gid="853"/>
   <tile gid="853"/>
   <tile gid="853"/>
   <tile gid="853"/>
   <tile gid="853"/>
   <tile gid="853"/>
   <tile gid="853"/>
   <tile gid="853"/>
   <tile gid="853"/>
   <tile gid="853"/>
   <tile gid="853"/>
   <tile gid="853"/>
   <tile gid="853"/>
   <tile gid="853"/>
   <tile gid="853"/>
   <tile gid="854"/>
   <tile/>
   <tile/>
   <tile/>
   <tile/>
   <tile/>
   <tile/>
   <tile/>
   <tile gid="852"/>
   <tile gid="853"/>
   <tile gid="853"/>
   <tile gid="853"/>
   <tile gid="853"/>
   <tile gid="853"/>
   <tile gid="853"/>
   <tile gid="853"/>
   <tile gid="853"/>
   <tile gid="853"/>
   <tile gid="853"/>
   <tile gid="853"/>
   <tile gid="853"/>
   <tile gid="853"/>
   <tile gid="853"/>
   <tile gid="853"/>
   <tile gid="853"/>
   <tile gid="853"/>
   <tile gid="854"/>
   <tile/>
   <tile/>
   <tile/>
   <tile/>
   <tile/>
   <tile/>
   <tile/>
   <tile/>
   <tile/>
   <tile/>
   <tile/>
   <tile/>
   <tile/>
   <tile/>
   <tile/>
   <tile/>
   <tile/>
   <tile/>
   <tile/>
   <tile/>
   <tile/>
   <tile/>
   <tile/>
   <tile/>
   <tile/>
   <tile/>
   <tile/>
   <tile/>
   <tile/>
   <tile/>
   <tile/>
   <tile/>
   <tile/>
   <tile/>
   <tile/>
   <tile/>
   <tile/>
   <tile/>
   <tile/>
   <tile/>
   <tile/>
   <tile/>
   <tile/>
   <tile/>
   <tile/>
   <tile/>
   <tile/>
   <tile/>
   <tile/>
   <tile/>
   <tile/>
   <tile/>
   <tile/>
   <tile/>
   <tile/>
   <tile/>
   <tile/>
   <tile/>
   <tile/>
   <tile/>
   <tile/>
   <tile/>
   <tile/>
   <tile/>
   <tile/>
   <tile/>
   <tile/>
   <tile/>
   <tile/>
   <tile/>
   <tile/>
   <tile/>
   <tile/>
   <tile/>
   <tile/>
   <tile/>
   <tile/>
   <tile/>
   <tile/>
   <tile/>
   <tile/>
   <tile/>
   <tile/>
   <tile/>
   <tile/>
   <tile/>
   <tile/>
   <tile/>
   <tile/>
   <tile/>
   <tile/>
   <tile/>
   <tile/>
   <tile/>
   <tile/>
   <tile/>
   <tile/>
   <tile/>
   <tile/>
   <tile/>
   <tile/>
   <tile/>
   <tile/>
   <tile/>
   <tile/>
   <tile/>
   <tile/>
   <tile/>
   <tile/>
   <tile/>
   <tile/>
   <tile/>
   <tile/>
   <tile/>
   <tile/>
   <tile/>
   <tile/>
   <tile/>
   <tile/>
   <tile/>
   <tile/>
   <tile/>
   <tile/>
   <tile/>
   <tile/>
   <tile/>
   <tile/>
   <tile/>
   <tile/>
   <tile/>
   <tile/>
   <tile/>
   <tile/>
   <tile/>
   <tile/>
   <tile/>
   <tile/>
   <tile/>
   <tile/>
   <tile/>
   <tile/>
   <tile/>
   <tile/>
   <tile/>
   <tile/>
   <tile/>
   <tile/>
   <tile/>
   <tile/>
   <tile/>
   <tile/>
   <tile/>
   <tile/>
   <tile/>
   <tile/>
   <tile/>
   <tile/>
   <tile/>
   <tile/>
   <tile/>
   <tile/>
   <tile/>
   <tile/>
   <tile/>
   <tile/>
   <tile/>
   <tile/>
   <tile/>
   <tile/>
   <tile/>
   <tile/>
   <tile/>
   <tile/>
   <tile/>
   <tile/>
   <tile/>
   <tile/>
   <tile/>
   <tile/>
   <tile/>
   <tile/>
   <tile/>
   <tile/>
   <tile/>
   <tile/>
   <tile/>
   <tile/>
   <tile/>
   <tile/>
   <tile/>
   <tile/>
   <tile/>
   <tile/>
   <tile/>
   <tile/>
   <tile/>
   <tile/>
   <tile/>
   <tile/>
   <tile/>
   <tile/>
   <tile/>
   <tile/>
   <tile/>
   <tile/>
   <tile/>
   <tile/>
   <tile/>
   <tile/>
   <tile/>
   <tile/>
   <tile/>
   <tile/>
   <tile/>
   <tile/>
   <tile/>
   <tile/>
   <tile/>
   <tile/>
   <tile/>
   <tile/>
   <tile/>
   <tile/>
   <tile/>
   <tile/>
   <tile/>
   <tile/>
   <tile/>
   <tile/>
   <tile/>
   <tile/>
   <tile/>
   <tile/>
   <tile/>
   <tile/>
   <tile/>
   <tile/>
   <tile/>
   <tile/>
   <tile/>
   <tile/>
   <tile/>
   <tile/>
   <tile/>
   <tile/>
   <tile/>
   <tile/>
   <tile/>
   <tile/>
   <tile/>
   <tile/>
   <tile/>
   <tile/>
   <tile/>
   <tile/>
   <tile/>
   <tile/>
   <tile/>
   <tile/>
   <tile/>
   <tile/>
   <tile/>
   <tile/>
   <tile/>
   <tile/>
   <tile/>
   <tile/>
   <tile/>
   <tile/>
   <tile/>
   <tile/>
   <tile/>
   <tile/>
   <tile/>
   <tile/>
   <tile/>
   <tile/>
   <tile/>
   <tile/>
   <tile/>
   <tile/>
   <tile/>
   <tile/>
   <tile/>
   <tile/>
   <tile/>
   <tile/>
   <tile/>
   <tile/>
   <tile/>
   <tile/>
   <tile/>
   <tile/>
   <tile/>
   <tile/>
   <tile/>
   <tile/>
   <tile/>
   <tile/>
   <tile/>
   <tile/>
   <tile/>
   <tile/>
   <tile/>
   <tile/>
   <tile/>
   <tile/>
   <tile/>
   <tile/>
   <tile/>
   <tile/>
   <tile/>
   <tile/>
   <tile/>
   <tile/>
   <tile/>
   <tile/>
   <tile/>
   <tile/>
   <tile/>
   <tile/>
   <tile/>
   <tile/>
   <tile/>
   <tile/>
   <tile/>
   <tile/>
   <tile/>
   <tile/>
   <tile/>
   <tile/>
   <tile/>
   <tile/>
   <tile/>
   <tile/>
   <tile/>
   <tile/>
   <tile/>
   <tile/>
   <tile/>
   <tile/>
   <tile/>
   <tile/>
   <tile/>
   <tile/>
   <tile/>
   <tile/>
   <tile/>
   <tile/>
   <tile/>
   <tile/>
   <tile/>
   <tile/>
   <tile/>
   <tile/>
   <tile/>
   <tile/>
   <tile/>
   <tile/>
   <tile/>
   <tile/>
   <tile/>
   <tile/>
   <tile/>
   <tile/>
   <tile/>
   <tile/>
   <tile/>
   <tile/>
   <tile/>
   <tile/>
   <tile/>
   <tile/>
   <tile/>
   <tile/>
   <tile/>
   <tile/>
   <tile/>
   <tile/>
   <tile/>
   <tile/>
   <tile/>
   <tile/>
   <tile/>
   <tile/>
   <tile/>
   <tile/>
   <tile/>
   <tile/>
   <tile/>
   <tile/>
   <tile/>
   <tile/>
   <tile/>
   <tile/>
   <tile/>
   <tile/>
   <tile/>
   <tile/>
   <tile/>
   <tile/>
   <tile/>
   <tile/>
   <tile/>
   <tile/>
   <tile/>
   <tile/>
   <tile/>
   <tile/>
   <tile/>
   <tile/>
   <tile/>
   <tile/>
   <tile/>
   <tile/>
   <tile/>
   <tile/>
   <tile/>
   <tile/>
   <tile/>
   <tile/>
   <tile/>
   <tile/>
   <tile/>
   <tile/>
   <tile/>
   <tile/>
   <tile/>
   <tile/>
   <tile/>
   <tile/>
   <tile/>
   <tile/>
   <tile/>
   <tile/>
   <tile/>
   <tile/>
   <tile/>
   <tile/>
   <tile/>
   <tile/>
   <tile/>
   <tile/>
   <tile/>
   <tile/>
   <tile/>
   <tile/>
   <tile/>
   <tile/>
   <tile/>
   <tile/>
   <tile/>
   <tile/>
   <tile/>
   <tile/>
   <tile/>
   <tile/>
   <tile/>
   <tile/>
   <tile/>
   <tile/>
   <tile/>
   <tile/>
   <tile/>
   <tile/>
   <tile/>
   <tile/>
   <tile/>
   <tile/>
   <tile/>
   <tile/>
   <tile/>
   <tile/>
   <tile/>
   <tile/>
   <tile/>
   <tile/>
   <tile/>
   <tile/>
   <tile/>
   <tile/>
   <tile/>
   <tile/>
   <tile/>
   <tile/>
   <tile/>
   <tile/>
   <tile/>
   <tile/>
   <tile/>
   <tile/>
   <tile/>
   <tile/>
   <tile/>
   <tile/>
   <tile/>
   <tile/>
   <tile/>
   <tile/>
   <tile/>
   <tile/>
   <tile/>
   <tile/>
   <tile/>
   <tile/>
   <tile/>
   <tile/>
   <tile/>
   <tile/>
   <tile/>
   <tile/>
   <tile/>
   <tile/>
   <tile/>
   <tile/>
   <tile/>
   <tile/>
   <tile/>
   <tile/>
   <tile/>
   <tile/>
   <tile/>
   <tile/>
   <tile/>
   <tile/>
   <tile/>
   <tile/>
   <tile/>
   <tile/>
   <tile/>
   <tile/>
   <tile/>
   <tile/>
   <tile/>
   <tile/>
   <tile/>
   <tile/>
   <tile/>
   <tile/>
   <tile/>
   <tile/>
   <tile/>
   <tile/>
   <tile/>
   <tile/>
   <tile/>
   <tile/>
   <tile/>
   <tile/>
   <tile/>
   <tile/>
   <tile/>
   <tile/>
   <tile/>
   <tile/>
   <tile/>
   <tile/>
   <tile/>
   <tile/>
   <tile/>
   <tile/>
   <tile/>
   <tile/>
   <tile/>
   <tile/>
   <tile/>
   <tile/>
   <tile/>
   <tile/>
   <tile/>
   <tile/>
   <tile/>
   <tile/>
   <tile/>
   <tile/>
   <tile/>
   <tile/>
   <tile/>
   <tile/>
   <tile/>
   <tile/>
   <tile/>
   <tile/>
   <tile/>
   <tile/>
   <tile/>
   <tile/>
   <tile/>
   <tile/>
   <tile/>
   <tile/>
   <tile/>
   <tile/>
   <tile/>
   <tile/>
   <tile/>
   <tile/>
   <tile/>
   <tile/>
   <tile/>
   <tile/>
   <tile/>
   <tile/>
   <tile/>
   <tile/>
   <tile/>
   <tile/>
   <tile/>
   <tile/>
   <tile/>
   <tile/>
   <tile/>
   <tile/>
   <tile/>
   <tile/>
   <tile/>
   <tile/>
   <tile/>
   <tile/>
   <tile/>
   <tile/>
   <tile/>
   <tile/>
   <tile/>
   <tile/>
   <tile/>
   <tile/>
   <tile/>
   <tile/>
   <tile/>
   <tile/>
   <tile/>
   <tile/>
   <tile/>
   <tile/>
   <tile/>
   <tile/>
   <tile/>
   <tile/>
   <tile/>
   <tile/>
   <tile/>
   <tile/>
   <tile/>
   <tile/>
   <tile/>
   <tile/>
   <tile/>
   <tile/>
   <tile/>
   <tile/>
   <tile/>
   <tile/>
   <tile/>
   <tile/>
   <tile/>
   <tile/>
   <tile/>
   <tile/>
   <tile/>
   <tile/>
   <tile/>
   <tile/>
   <tile/>
   <tile/>
   <tile/>
   <tile/>
   <tile/>
   <tile/>
   <tile/>
   <tile/>
   <tile/>
   <tile/>
   <tile/>
   <tile/>
   <tile/>
   <tile/>
   <tile/>
   <tile/>
   <tile/>
   <tile/>
   <tile/>
   <tile/>
   <tile/>
   <tile/>
   <tile/>
   <tile/>
   <tile/>
   <tile/>
   <tile/>
   <tile/>
   <tile/>
   <tile/>
   <tile/>
   <tile/>
   <tile/>
   <tile/>
   <tile/>
   <tile/>
   <tile/>
   <tile/>
   <tile/>
   <tile/>
   <tile/>
   <tile/>
   <tile/>
   <tile/>
   <tile/>
   <tile/>
   <tile/>
   <tile/>
   <tile/>
   <tile/>
   <tile/>
   <tile/>
   <tile/>
   <tile/>
   <tile/>
   <tile/>
   <tile/>
   <tile/>
   <tile/>
   <tile/>
   <tile/>
   <tile/>
   <tile/>
   <tile/>
   <tile/>
   <tile/>
   <tile/>
   <tile/>
   <tile/>
   <tile/>
   <tile/>
   <tile/>
   <tile/>
   <tile/>
   <tile/>
   <tile/>
   <tile/>
   <tile/>
   <tile/>
   <tile/>
   <tile/>
   <tile/>
   <tile/>
   <tile/>
   <tile/>
   <tile/>
   <tile/>
   <tile/>
   <tile/>
   <tile/>
   <tile/>
   <tile/>
   <tile/>
   <tile/>
   <tile/>
   <tile/>
   <tile/>
   <tile/>
   <tile/>
   <tile/>
   <tile/>
   <tile/>
   <tile/>
   <tile/>
   <tile/>
   <tile/>
   <tile/>
   <tile/>
   <tile/>
   <tile/>
   <tile/>
   <tile/>
   <tile/>
   <tile/>
   <tile/>
   <tile/>
   <tile/>
   <tile/>
   <tile/>
   <tile/>
   <tile/>
   <tile/>
   <tile/>
   <tile/>
   <tile/>
   <tile/>
   <tile/>
   <tile/>
   <tile/>
   <tile/>
   <tile/>
   <tile/>
   <tile/>
   <tile/>
   <tile/>
   <tile/>
   <tile/>
   <tile/>
   <tile/>
   <tile/>
   <tile/>
   <tile/>
   <tile/>
   <tile/>
   <tile/>
   <tile/>
   <tile/>
   <tile/>
   <tile/>
   <tile/>
   <tile/>
   <tile/>
   <tile/>
   <tile/>
   <tile/>
   <tile/>
   <tile/>
   <tile/>
   <tile/>
   <tile/>
   <tile/>
   <tile/>
   <tile/>
   <tile/>
   <tile/>
   <tile/>
   <tile/>
   <tile/>
   <tile/>
   <tile/>
   <tile/>
   <tile/>
   <tile/>
   <tile/>
   <tile/>
   <tile/>
   <tile/>
   <tile/>
   <tile/>
   <tile/>
   <tile/>
   <tile/>
   <tile/>
   <tile/>
   <tile/>
   <tile/>
   <tile/>
   <tile/>
   <tile/>
   <tile/>
   <tile/>
   <tile/>
   <tile/>
   <tile/>
   <tile/>
   <tile/>
   <tile/>
   <tile/>
   <tile/>
   <tile/>
   <tile/>
   <tile/>
   <tile/>
   <tile/>
   <tile/>
   <tile/>
   <tile/>
   <tile/>
   <tile/>
   <tile/>
   <tile/>
   <tile/>
   <tile/>
   <tile/>
   <tile/>
   <tile/>
   <tile/>
   <tile/>
   <tile/>
   <tile/>
   <tile/>
   <tile/>
   <tile/>
   <tile/>
   <tile/>
   <tile/>
   <tile/>
   <tile/>
   <tile/>
   <tile/>
   <tile/>
   <tile/>
   <tile/>
   <tile/>
   <tile/>
   <tile/>
   <tile/>
   <tile/>
   <tile/>
   <tile/>
   <tile/>
   <tile/>
   <tile/>
   <tile/>
   <tile/>
   <tile/>
   <tile/>
   <tile/>
   <tile/>
   <tile/>
   <tile/>
   <tile/>
   <tile/>
   <tile/>
   <tile/>
   <tile/>
   <tile/>
   <tile/>
   <tile/>
   <tile/>
   <tile/>
   <tile/>
   <tile/>
   <tile/>
   <tile/>
   <tile/>
   <tile/>
   <tile/>
   <tile/>
   <tile/>
   <tile/>
   <tile/>
   <tile/>
   <tile/>
   <tile/>
   <tile/>
   <tile/>
   <tile/>
   <tile/>
   <tile/>
   <tile/>
   <tile/>
   <tile/>
   <tile/>
   <tile/>
   <tile/>
   <tile/>
   <tile/>
   <tile/>
   <tile/>
   <tile/>
   <tile/>
   <tile/>
   <tile/>
   <tile/>
   <tile/>
   <tile/>
   <tile/>
   <tile/>
   <tile/>
   <tile/>
   <tile/>
   <tile/>
   <tile/>
   <tile/>
   <tile/>
   <tile/>
   <tile/>
   <tile/>
   <tile/>
   <tile/>
   <tile/>
   <tile/>
   <tile/>
   <tile/>
   <tile/>
   <tile/>
   <tile/>
   <tile/>
   <tile/>
   <tile/>
   <tile/>
   <tile/>
   <tile/>
   <tile/>
   <tile/>
   <tile/>
   <tile/>
   <tile/>
   <tile/>
   <tile/>
   <tile/>
   <tile/>
   <tile/>
   <tile/>
   <tile/>
   <tile/>
   <tile/>
   <tile/>
   <tile/>
   <tile/>
   <tile/>
   <tile/>
   <tile/>
   <tile/>
   <tile/>
   <tile/>
   <tile/>
   <tile/>
   <tile/>
   <tile/>
   <tile/>
   <tile/>
   <tile/>
   <tile/>
   <tile/>
   <tile/>
   <tile/>
   <tile/>
   <tile/>
   <tile/>
   <tile/>
   <tile/>
   <tile/>
   <tile/>
   <tile/>
   <tile/>
   <tile/>
   <tile/>
   <tile/>
   <tile/>
   <tile/>
   <tile/>
   <tile/>
   <tile/>
   <tile/>
   <tile/>
   <tile/>
   <tile/>
   <tile/>
   <tile/>
   <tile/>
   <tile/>
   <tile/>
   <tile/>
   <tile/>
   <tile/>
   <tile/>
   <tile/>
   <tile/>
   <tile/>
   <tile/>
   <tile/>
   <tile/>
   <tile/>
   <tile/>
   <tile/>
   <tile/>
   <tile/>
   <tile/>
   <tile/>
   <tile/>
   <tile/>
   <tile/>
   <tile/>
   <tile/>
   <tile/>
   <tile/>
   <tile/>
   <tile/>
   <tile/>
   <tile/>
   <tile/>
   <tile/>
   <tile/>
   <tile/>
   <tile/>
   <tile/>
   <tile/>
   <tile/>
   <tile/>
   <tile/>
   <tile/>
   <tile/>
   <tile/>
   <tile/>
   <tile/>
   <tile/>
   <tile/>
   <tile/>
   <tile/>
   <tile/>
   <tile/>
   <tile/>
   <tile/>
   <tile/>
   <tile/>
   <tile/>
   <tile/>
   <tile/>
   <tile/>
   <tile/>
   <tile/>
   <tile/>
   <tile/>
   <tile/>
   <tile/>
   <tile/>
   <tile/>
   <tile/>
   <tile/>
   <tile/>
   <tile/>
   <tile/>
   <tile/>
   <tile/>
   <tile/>
   <tile/>
   <tile/>
   <tile/>
   <tile/>
   <tile/>
   <tile/>
   <tile/>
   <tile/>
   <tile/>
   <tile/>
   <tile/>
   <tile/>
   <tile/>
   <tile/>
   <tile/>
   <tile/>
   <tile/>
   <tile/>
   <tile/>
   <tile/>
   <tile/>
   <tile/>
   <tile/>
   <tile/>
   <tile/>
   <tile/>
   <tile/>
   <tile/>
   <tile/>
   <tile/>
   <tile/>
   <tile/>
   <tile/>
   <tile/>
   <tile/>
   <tile/>
   <tile/>
   <tile/>
   <tile/>
   <tile/>
   <tile/>
   <tile/>
   <tile/>
   <tile/>
   <tile/>
   <tile/>
   <tile/>
   <tile/>
   <tile/>
   <tile/>
   <tile/>
   <tile/>
   <tile/>
   <tile/>
   <tile/>
   <tile/>
   <tile/>
   <tile/>
   <tile/>
   <tile/>
   <tile/>
   <tile/>
   <tile/>
   <tile/>
   <tile/>
   <tile/>
   <tile/>
   <tile/>
   <tile/>
   <tile/>
   <tile/>
   <tile/>
   <tile/>
   <tile/>
   <tile/>
   <tile/>
   <tile/>
   <tile/>
   <tile/>
   <tile/>
   <tile/>
   <tile/>
   <tile/>
   <tile/>
   <tile/>
   <tile/>
   <tile/>
   <tile/>
   <tile/>
   <tile/>
   <tile/>
   <tile/>
   <tile/>
   <tile/>
   <tile/>
   <tile/>
   <tile/>
   <tile/>
   <tile/>
   <tile/>
   <tile/>
   <tile/>
   <tile/>
   <tile/>
   <tile/>
   <tile/>
   <tile/>
   <tile/>
   <tile/>
   <tile/>
   <tile/>
   <tile/>
   <tile/>
   <tile/>
   <tile/>
   <tile/>
   <tile/>
   <tile/>
   <tile/>
   <tile/>
   <tile/>
   <tile/>
   <tile/>
   <tile/>
   <tile/>
   <tile/>
   <tile/>
   <tile/>
   <tile/>
   <tile/>
   <tile/>
   <tile/>
   <tile/>
   <tile/>
   <tile gid="1671"/>
   <tile gid="1671"/>
   <tile gid="1671"/>
   <tile gid="1671"/>
   <tile gid="1671"/>
   <tile gid="1671"/>
   <tile gid="1671"/>
   <tile gid="1671"/>
   <tile gid="1671"/>
   <tile gid="1671"/>
   <tile gid="1671"/>
   <tile gid="1671"/>
   <tile gid="1671"/>
   <tile gid="1671"/>
   <tile gid="1671"/>
   <tile gid="1671"/>
   <tile gid="1671"/>
   <tile gid="1671"/>
   <tile gid="1671"/>
   <tile gid="1671"/>
   <tile gid="1671"/>
   <tile gid="1671"/>
   <tile gid="1671"/>
   <tile gid="1671"/>
   <tile gid="1671"/>
   <tile gid="1671"/>
   <tile gid="1671"/>
   <tile gid="1671"/>
   <tile gid="1671"/>
   <tile gid="1671"/>
   <tile gid="1671"/>
   <tile gid="1671"/>
   <tile gid="1671"/>
   <tile gid="1671"/>
   <tile gid="1671"/>
   <tile gid="1671"/>
   <tile gid="1671"/>
   <tile gid="1671"/>
   <tile gid="1671"/>
   <tile gid="1671"/>
   <tile gid="1671"/>
   <tile gid="1671"/>
   <tile gid="1671"/>
   <tile gid="1671"/>
   <tile gid="1671"/>
   <tile gid="1671"/>
   <tile/>
   <tile/>
   <tile/>
   <tile/>
   <tile/>
   <tile/>
   <tile/>
   <tile/>
   <tile/>
   <tile/>
   <tile/>
   <tile/>
   <tile/>
   <tile/>
   <tile/>
   <tile/>
   <tile/>
   <tile/>
   <tile/>
   <tile/>
   <tile/>
   <tile/>
   <tile/>
   <tile/>
   <tile/>
   <tile/>
   <tile/>
   <tile/>
   <tile/>
   <tile/>
   <tile/>
   <tile/>
   <tile/>
   <tile/>
   <tile/>
   <tile/>
   <tile/>
   <tile/>
   <tile/>
   <tile/>
   <tile/>
   <tile/>
   <tile/>
   <tile/>
   <tile/>
   <tile/>
   <tile/>
   <tile/>
   <tile/>
   <tile/>
   <tile/>
   <tile/>
   <tile/>
   <tile/>
   <tile/>
   <tile/>
   <tile/>
   <tile/>
   <tile/>
   <tile/>
   <tile/>
   <tile/>
   <tile/>
   <tile/>
   <tile/>
   <tile/>
   <tile/>
   <tile/>
   <tile/>
   <tile/>
   <tile/>
   <tile/>
   <tile/>
   <tile/>
   <tile/>
   <tile/>
   <tile/>
   <tile/>
   <tile/>
   <tile/>
   <tile/>
   <tile/>
   <tile/>
   <tile/>
   <tile/>
   <tile/>
   <tile/>
   <tile/>
   <tile/>
   <tile/>
   <tile/>
   <tile/>
   <tile/>
   <tile/>
   <tile/>
   <tile/>
   <tile/>
   <tile/>
   <tile/>
   <tile/>
   <tile/>
   <tile/>
  </data>
 </layer>
</map>
