<?xml version="1.0" encoding="UTF-8"?>
<map version="1.10" tiledversion="1.11.2" orientation="orthogonal" renderorder="right-down" width="45" height="40" tilewidth="32" tileheight="32" infinite="0" nextlayerid="8" nextobjectid="53">
 <tileset firstgid="1" name="tmw_desert_spacing" tilewidth="32" tileheight="32" spacing="1" margin="1" tilecount="48" columns="8">
  <image source="../Tilesets/tmw_desert_spacing.png" width="265" height="199"/>
 </tileset>
 <tileset firstgid="49" name="MapMetadata" tilewidth="32" tileheight="32" spacing="1" margin="1" tilecount="2" columns="2">
  <image source="../Tilesets/MapMetadata.png" width="67" height="34"/>
 </tileset>
 <layer id="1" name="Map" width="45" height="40">
  <properties>
   <property name="Draw" type="bool" value="true"/>
  </properties>
  <data>
   <tile gid="10"/>
   <tile gid="10"/>
   <tile gid="10"/>
   <tile gid="10"/>
   <tile gid="10"/>
   <tile gid="10"/>
   <tile gid="10"/>
   <tile gid="10"/>
   <tile gid="10"/>
   <tile gid="10"/>
   <tile gid="10"/>
   <tile gid="10"/>
   <tile gid="10"/>
   <tile gid="10"/>
   <tile gid="10"/>
   <tile gid="10"/>
   <tile gid="10"/>
   <tile gid="10"/>
   <tile gid="10"/>
   <tile gid="10"/>
   <tile gid="10"/>
   <tile gid="10"/>
   <tile gid="10"/>
   <tile gid="10"/>
   <tile gid="10"/>
   <tile gid="10"/>
   <tile gid="10"/>
   <tile gid="10"/>
   <tile gid="10"/>
   <tile gid="10"/>
   <tile gid="10"/>
   <tile gid="10"/>
   <tile gid="10"/>
   <tile gid="10"/>
   <tile gid="10"/>
   <tile gid="10"/>
   <tile gid="10"/>
   <tile gid="10"/>
   <tile gid="10"/>
   <tile gid="10"/>
   <tile gid="10"/>
   <tile gid="10"/>
   <tile gid="10"/>
   <tile gid="10"/>
   <tile gid="10"/>
   <tile gid="10"/>
   <tile gid="10"/>
   <tile gid="10"/>
   <tile gid="10"/>
   <tile gid="10"/>
   <tile gid="10"/>
   <tile gid="10"/>
   <tile gid="10"/>
   <tile gid="10"/>
   <tile gid="10"/>
   <tile gid="10"/>
   <tile gid="10"/>
   <tile gid="10"/>
   <tile gid="10"/>
   <tile gid="10"/>
   <tile gid="10"/>
   <tile gid="10"/>
   <tile gid="10"/>
   <tile gid="10"/>
   <tile gid="10"/>
   <tile gid="10"/>
   <tile gid="10"/>
   <tile gid="10"/>
   <tile gid="10"/>
   <tile gid="10"/>
   <tile gid="10"/>
   <tile gid="10"/>
   <tile gid="10"/>
   <tile gid="10"/>
   <tile gid="10"/>
   <tile gid="10"/>
   <tile gid="10"/>
   <tile gid="10"/>
   <tile gid="10"/>
   <tile gid="10"/>
   <tile gid="10"/>
   <tile gid="10"/>
   <tile gid="10"/>
   <tile gid="10"/>
   <tile gid="10"/>
   <tile gid="10"/>
   <tile gid="10"/>
   <tile gid="10"/>
   <tile gid="10"/>
   <tile gid="10"/>
   <tile gid="10"/>
   <tile gid="10"/>
   <tile gid="34"/>
   <tile gid="34"/>
   <tile gid="34"/>
   <tile gid="34"/>
   <tile gid="34"/>
   <tile gid="34"/>
   <tile gid="34"/>
   <tile gid="34"/>
   <tile gid="34"/>
   <tile gid="34"/>
   <tile gid="34"/>
   <tile gid="34"/>
   <tile gid="34"/>
   <tile gid="34"/>
   <tile gid="34"/>
   <tile gid="34"/>
   <tile gid="34"/>
   <tile gid="34"/>
   <tile gid="30"/>
   <tile gid="30"/>
   <tile gid="30"/>
   <tile gid="30"/>
   <tile gid="30"/>
   <tile gid="34"/>
   <tile gid="34"/>
   <tile gid="34"/>
   <tile gid="34"/>
   <tile gid="34"/>
   <tile gid="34"/>
   <tile gid="34"/>
   <tile gid="34"/>
   <tile gid="34"/>
   <tile gid="34"/>
   <tile gid="34"/>
   <tile gid="34"/>
   <tile gid="34"/>
   <tile gid="34"/>
   <tile gid="34"/>
   <tile gid="34"/>
   <tile gid="34"/>
   <tile gid="34"/>
   <tile gid="10"/>
   <tile gid="10"/>
   <tile gid="10"/>
   <tile gid="10"/>
   <tile gid="34"/>
   <tile gid="34"/>
   <tile gid="34"/>
   <tile gid="34"/>
   <tile gid="34"/>
   <tile gid="34"/>
   <tile gid="34"/>
   <tile gid="34"/>
   <tile gid="34"/>
   <tile gid="34"/>
   <tile gid="34"/>
   <tile gid="34"/>
   <tile gid="34"/>
   <tile gid="34"/>
   <tile gid="34"/>
   <tile gid="34"/>
   <tile gid="34"/>
   <tile gid="34"/>
   <tile gid="30"/>
   <tile gid="30"/>
   <tile gid="30"/>
   <tile gid="30"/>
   <tile gid="30"/>
   <tile gid="34"/>
   <tile gid="34"/>
   <tile gid="34"/>
   <tile gid="34"/>
   <tile gid="34"/>
   <tile gid="34"/>
   <tile gid="34"/>
   <tile gid="34"/>
   <tile gid="34"/>
   <tile gid="34"/>
   <tile gid="34"/>
   <tile gid="34"/>
   <tile gid="34"/>
   <tile gid="34"/>
   <tile gid="34"/>
   <tile gid="34"/>
   <tile gid="34"/>
   <tile gid="34"/>
   <tile gid="10"/>
   <tile gid="10"/>
   <tile gid="10"/>
   <tile gid="10"/>
   <tile gid="34"/>
   <tile gid="34"/>
   <tile gid="34"/>
   <tile gid="34"/>
   <tile gid="34"/>
   <tile gid="34"/>
   <tile gid="34"/>
   <tile gid="34"/>
   <tile gid="34"/>
   <tile gid="34"/>
   <tile gid="34"/>
   <tile gid="34"/>
   <tile gid="34"/>
   <tile gid="34"/>
   <tile gid="34"/>
   <tile gid="34"/>
   <tile gid="34"/>
   <tile gid="34"/>
   <tile gid="30"/>
   <tile gid="30"/>
   <tile gid="30"/>
   <tile gid="30"/>
   <tile gid="30"/>
   <tile gid="34"/>
   <tile gid="34"/>
   <tile gid="34"/>
   <tile gid="34"/>
   <tile gid="34"/>
   <tile gid="34"/>
   <tile gid="34"/>
   <tile gid="34"/>
   <tile gid="34"/>
   <tile gid="34"/>
   <tile gid="34"/>
   <tile gid="34"/>
   <tile gid="34"/>
   <tile gid="34"/>
   <tile gid="34"/>
   <tile gid="34"/>
   <tile gid="34"/>
   <tile gid="34"/>
   <tile gid="10"/>
   <tile gid="10"/>
   <tile gid="10"/>
   <tile gid="10"/>
   <tile gid="34"/>
   <tile gid="34"/>
   <tile gid="34"/>
   <tile gid="34"/>
   <tile gid="34"/>
   <tile gid="34"/>
   <tile gid="34"/>
   <tile gid="34"/>
   <tile gid="34"/>
   <tile gid="34"/>
   <tile gid="34"/>
   <tile gid="34"/>
   <tile gid="34"/>
   <tile gid="34"/>
   <tile gid="34"/>
   <tile gid="34"/>
   <tile gid="34"/>
   <tile gid="34"/>
   <tile gid="30"/>
   <tile gid="30"/>
   <tile gid="30"/>
   <tile gid="30"/>
   <tile gid="30"/>
   <tile gid="34"/>
   <tile gid="34"/>
   <tile gid="34"/>
   <tile gid="34"/>
   <tile gid="34"/>
   <tile gid="34"/>
   <tile gid="34"/>
   <tile gid="34"/>
   <tile gid="34"/>
   <tile gid="34"/>
   <tile gid="34"/>
   <tile gid="34"/>
   <tile gid="34"/>
   <tile gid="34"/>
   <tile gid="34"/>
   <tile gid="34"/>
   <tile gid="34"/>
   <tile gid="34"/>
   <tile gid="10"/>
   <tile gid="10"/>
   <tile gid="10"/>
   <tile gid="10"/>
   <tile gid="34"/>
   <tile gid="34"/>
   <tile gid="34"/>
   <tile gid="34"/>
   <tile gid="34"/>
   <tile gid="34"/>
   <tile gid="34"/>
   <tile gid="34"/>
   <tile gid="34"/>
   <tile gid="34"/>
   <tile gid="34"/>
   <tile gid="34"/>
   <tile gid="34"/>
   <tile gid="34"/>
   <tile gid="34"/>
   <tile gid="34"/>
   <tile gid="34"/>
   <tile gid="34"/>
   <tile gid="30"/>
   <tile gid="30"/>
   <tile gid="30"/>
   <tile gid="30"/>
   <tile gid="30"/>
   <tile gid="34"/>
   <tile gid="34"/>
   <tile gid="34"/>
   <tile gid="34"/>
   <tile gid="34"/>
   <tile gid="34"/>
   <tile gid="34"/>
   <tile gid="34"/>
   <tile gid="34"/>
   <tile gid="34"/>
   <tile gid="34"/>
   <tile gid="34"/>
   <tile gid="34"/>
   <tile gid="34"/>
   <tile gid="34"/>
   <tile gid="34"/>
   <tile gid="34"/>
   <tile gid="34"/>
   <tile gid="10"/>
   <tile gid="10"/>
   <tile gid="10"/>
   <tile gid="10"/>
   <tile gid="34"/>
   <tile gid="34"/>
   <tile gid="34"/>
   <tile gid="34"/>
   <tile gid="34"/>
   <tile gid="34"/>
   <tile gid="34"/>
   <tile gid="34"/>
   <tile gid="34"/>
   <tile gid="34"/>
   <tile gid="34"/>
   <tile gid="34"/>
   <tile gid="34"/>
   <tile gid="34"/>
   <tile gid="34"/>
   <tile gid="34"/>
   <tile gid="34"/>
   <tile gid="34"/>
   <tile gid="30"/>
   <tile gid="30"/>
   <tile gid="30"/>
   <tile gid="30"/>
   <tile gid="30"/>
   <tile gid="34"/>
   <tile gid="34"/>
   <tile gid="34"/>
   <tile gid="34"/>
   <tile gid="34"/>
   <tile gid="34"/>
   <tile gid="34"/>
   <tile gid="34"/>
   <tile gid="34"/>
   <tile gid="34"/>
   <tile gid="34"/>
   <tile gid="34"/>
   <tile gid="34"/>
   <tile gid="34"/>
   <tile gid="34"/>
   <tile gid="34"/>
   <tile gid="34"/>
   <tile gid="34"/>
   <tile gid="10"/>
   <tile gid="10"/>
   <tile gid="10"/>
   <tile gid="10"/>
   <tile gid="34"/>
   <tile gid="34"/>
   <tile gid="34"/>
   <tile gid="34"/>
   <tile gid="34"/>
   <tile gid="34"/>
   <tile gid="34"/>
   <tile gid="34"/>
   <tile gid="34"/>
   <tile gid="34"/>
   <tile gid="34"/>
   <tile gid="34"/>
   <tile gid="34"/>
   <tile gid="34"/>
   <tile gid="34"/>
   <tile gid="34"/>
   <tile gid="34"/>
   <tile gid="34"/>
   <tile gid="30"/>
   <tile gid="30"/>
   <tile gid="30"/>
   <tile gid="30"/>
   <tile gid="30"/>
   <tile gid="34"/>
   <tile gid="34"/>
   <tile gid="34"/>
   <tile gid="34"/>
   <tile gid="34"/>
   <tile gid="34"/>
   <tile gid="34"/>
   <tile gid="34"/>
   <tile gid="34"/>
   <tile gid="34"/>
   <tile gid="34"/>
   <tile gid="34"/>
   <tile gid="34"/>
   <tile gid="34"/>
   <tile gid="34"/>
   <tile gid="34"/>
   <tile gid="34"/>
   <tile gid="34"/>
   <tile gid="10"/>
   <tile gid="10"/>
   <tile gid="10"/>
   <tile gid="10"/>
   <tile gid="34"/>
   <tile gid="34"/>
   <tile gid="34"/>
   <tile gid="34"/>
   <tile gid="34"/>
   <tile gid="34"/>
   <tile gid="34"/>
   <tile gid="34"/>
   <tile gid="34"/>
   <tile gid="34"/>
   <tile gid="34"/>
   <tile gid="34"/>
   <tile gid="34"/>
   <tile gid="34"/>
   <tile gid="34"/>
   <tile gid="34"/>
   <tile gid="34"/>
   <tile gid="34"/>
   <tile gid="30"/>
   <tile gid="30"/>
   <tile gid="30"/>
   <tile gid="30"/>
   <tile gid="30"/>
   <tile gid="34"/>
   <tile gid="34"/>
   <tile gid="34"/>
   <tile gid="34"/>
   <tile gid="34"/>
   <tile gid="34"/>
   <tile gid="34"/>
   <tile gid="34"/>
   <tile gid="34"/>
   <tile gid="34"/>
   <tile gid="34"/>
   <tile gid="34"/>
   <tile gid="34"/>
   <tile gid="34"/>
   <tile gid="34"/>
   <tile gid="34"/>
   <tile gid="34"/>
   <tile gid="34"/>
   <tile gid="10"/>
   <tile gid="10"/>
   <tile gid="10"/>
   <tile gid="10"/>
   <tile gid="34"/>
   <tile gid="34"/>
   <tile gid="34"/>
   <tile gid="34"/>
   <tile gid="34"/>
   <tile gid="34"/>
   <tile gid="34"/>
   <tile gid="34"/>
   <tile gid="34"/>
   <tile gid="34"/>
   <tile gid="34"/>
   <tile gid="34"/>
   <tile gid="34"/>
   <tile gid="34"/>
   <tile gid="34"/>
   <tile gid="34"/>
   <tile gid="34"/>
   <tile gid="30"/>
   <tile gid="30"/>
   <tile gid="30"/>
   <tile gid="30"/>
   <tile gid="30"/>
   <tile gid="30"/>
   <tile gid="30"/>
   <tile gid="34"/>
   <tile gid="34"/>
   <tile gid="34"/>
   <tile gid="34"/>
   <tile gid="34"/>
   <tile gid="34"/>
   <tile gid="34"/>
   <tile gid="34"/>
   <tile gid="34"/>
   <tile gid="34"/>
   <tile gid="34"/>
   <tile gid="34"/>
   <tile gid="34"/>
   <tile gid="34"/>
   <tile gid="34"/>
   <tile gid="34"/>
   <tile gid="34"/>
   <tile gid="10"/>
   <tile gid="10"/>
   <tile gid="10"/>
   <tile gid="10"/>
   <tile gid="34"/>
   <tile gid="34"/>
   <tile gid="34"/>
   <tile gid="34"/>
   <tile gid="34"/>
   <tile gid="49"/>
   <tile gid="49"/>
   <tile gid="34"/>
   <tile gid="34"/>
   <tile gid="34"/>
   <tile gid="34"/>
   <tile gid="34"/>
   <tile gid="34"/>
   <tile gid="34"/>
   <tile gid="34"/>
   <tile gid="34"/>
   <tile gid="30"/>
   <tile gid="30"/>
   <tile gid="30"/>
   <tile gid="30"/>
   <tile gid="30"/>
   <tile gid="30"/>
   <tile gid="30"/>
   <tile gid="30"/>
   <tile gid="30"/>
   <tile gid="34"/>
   <tile gid="34"/>
   <tile gid="34"/>
   <tile gid="34"/>
   <tile gid="34"/>
   <tile gid="34"/>
   <tile gid="34"/>
   <tile gid="34"/>
   <tile gid="34"/>
   <tile gid="49"/>
   <tile gid="49"/>
   <tile gid="34"/>
   <tile gid="34"/>
   <tile gid="34"/>
   <tile gid="34"/>
   <tile gid="34"/>
   <tile gid="10"/>
   <tile gid="10"/>
   <tile gid="10"/>
   <tile gid="10"/>
   <tile gid="34"/>
   <tile gid="34"/>
   <tile gid="34"/>
   <tile gid="34"/>
   <tile gid="34"/>
   <tile gid="49"/>
   <tile gid="49"/>
   <tile gid="34"/>
   <tile gid="34"/>
   <tile gid="34"/>
   <tile gid="34"/>
   <tile gid="34"/>
   <tile gid="34"/>
   <tile gid="30"/>
   <tile gid="30"/>
   <tile gid="30"/>
   <tile gid="30"/>
   <tile gid="30"/>
   <tile gid="30"/>
   <tile gid="30"/>
   <tile gid="30"/>
   <tile gid="30"/>
   <tile gid="30"/>
   <tile gid="30"/>
   <tile gid="30"/>
   <tile gid="30"/>
   <tile gid="30"/>
   <tile gid="30"/>
   <tile gid="34"/>
   <tile gid="34"/>
   <tile gid="34"/>
   <tile gid="34"/>
   <tile gid="34"/>
   <tile gid="34"/>
   <tile gid="49"/>
   <tile gid="49"/>
   <tile gid="34"/>
   <tile gid="34"/>
   <tile gid="34"/>
   <tile gid="34"/>
   <tile gid="34"/>
   <tile gid="10"/>
   <tile gid="10"/>
   <tile gid="10"/>
   <tile gid="10"/>
   <tile gid="34"/>
   <tile gid="34"/>
   <tile gid="34"/>
   <tile gid="34"/>
   <tile gid="34"/>
   <tile gid="49"/>
   <tile gid="49"/>
   <tile gid="34"/>
   <tile gid="34"/>
   <tile gid="34"/>
   <tile gid="34"/>
   <tile gid="34"/>
   <tile gid="30"/>
   <tile gid="30"/>
   <tile gid="30"/>
   <tile gid="30"/>
   <tile gid="30"/>
   <tile gid="30"/>
   <tile gid="30"/>
   <tile gid="30"/>
   <tile gid="30"/>
   <tile gid="30"/>
   <tile gid="30"/>
   <tile gid="30"/>
   <tile gid="30"/>
   <tile gid="30"/>
   <tile gid="30"/>
   <tile gid="30"/>
   <tile gid="30"/>
   <tile gid="34"/>
   <tile gid="34"/>
   <tile gid="34"/>
   <tile gid="34"/>
   <tile gid="34"/>
   <tile gid="49"/>
   <tile gid="49"/>
   <tile gid="34"/>
   <tile gid="34"/>
   <tile gid="34"/>
   <tile gid="34"/>
   <tile gid="34"/>
   <tile gid="10"/>
   <tile gid="10"/>
   <tile gid="10"/>
   <tile gid="10"/>
   <tile gid="30"/>
   <tile gid="30"/>
   <tile gid="30"/>
   <tile gid="30"/>
   <tile gid="30"/>
   <tile gid="30"/>
   <tile gid="30"/>
   <tile gid="30"/>
   <tile gid="30"/>
   <tile gid="30"/>
   <tile gid="30"/>
   <tile gid="30"/>
   <tile gid="30"/>
   <tile gid="30"/>
   <tile gid="30"/>
   <tile gid="30"/>
   <tile gid="30"/>
   <tile gid="30"/>
   <tile gid="30"/>
   <tile gid="30"/>
   <tile gid="30"/>
   <tile gid="30"/>
   <tile gid="30"/>
   <tile gid="30"/>
   <tile gid="30"/>
   <tile gid="30"/>
   <tile gid="30"/>
   <tile gid="30"/>
   <tile gid="30"/>
   <tile gid="30"/>
   <tile gid="30"/>
   <tile gid="30"/>
   <tile gid="30"/>
   <tile gid="30"/>
   <tile gid="30"/>
   <tile gid="30"/>
   <tile gid="30"/>
   <tile gid="30"/>
   <tile gid="30"/>
   <tile gid="30"/>
   <tile gid="30"/>
   <tile gid="10"/>
   <tile gid="10"/>
   <tile gid="10"/>
   <tile gid="10"/>
   <tile gid="30"/>
   <tile gid="30"/>
   <tile gid="30"/>
   <tile gid="30"/>
   <tile gid="30"/>
   <tile gid="30"/>
   <tile gid="30"/>
   <tile gid="30"/>
   <tile gid="30"/>
   <tile gid="30"/>
   <tile gid="30"/>
   <tile gid="30"/>
   <tile gid="30"/>
   <tile gid="30"/>
   <tile gid="30"/>
   <tile gid="30"/>
   <tile gid="30"/>
   <tile gid="30"/>
   <tile gid="30"/>
   <tile gid="30"/>
   <tile gid="30"/>
   <tile gid="30"/>
   <tile gid="30"/>
   <tile gid="30"/>
   <tile gid="30"/>
   <tile gid="30"/>
   <tile gid="30"/>
   <tile gid="30"/>
   <tile gid="30"/>
   <tile gid="30"/>
   <tile gid="30"/>
   <tile gid="30"/>
   <tile gid="30"/>
   <tile gid="30"/>
   <tile gid="30"/>
   <tile gid="30"/>
   <tile gid="30"/>
   <tile gid="30"/>
   <tile gid="30"/>
   <tile gid="30"/>
   <tile gid="30"/>
   <tile gid="10"/>
   <tile gid="10"/>
   <tile gid="10"/>
   <tile gid="10"/>
   <tile gid="30"/>
   <tile gid="30"/>
   <tile gid="30"/>
   <tile gid="30"/>
   <tile gid="30"/>
   <tile gid="30"/>
   <tile gid="30"/>
   <tile gid="30"/>
   <tile gid="30"/>
   <tile gid="30"/>
   <tile gid="30"/>
   <tile gid="30"/>
   <tile gid="30"/>
   <tile gid="30"/>
   <tile gid="30"/>
   <tile gid="10"/>
   <tile gid="10"/>
   <tile gid="10"/>
   <tile gid="10"/>
   <tile gid="10"/>
   <tile gid="10"/>
   <tile gid="10"/>
   <tile gid="10"/>
   <tile gid="10"/>
   <tile gid="10"/>
   <tile gid="10"/>
   <tile gid="30"/>
   <tile gid="30"/>
   <tile gid="30"/>
   <tile gid="30"/>
   <tile gid="30"/>
   <tile gid="30"/>
   <tile gid="30"/>
   <tile gid="30"/>
   <tile gid="30"/>
   <tile gid="30"/>
   <tile gid="30"/>
   <tile gid="30"/>
   <tile gid="30"/>
   <tile gid="30"/>
   <tile gid="30"/>
   <tile gid="10"/>
   <tile gid="10"/>
   <tile gid="10"/>
   <tile gid="10"/>
   <tile gid="30"/>
   <tile gid="30"/>
   <tile gid="30"/>
   <tile gid="30"/>
   <tile gid="30"/>
   <tile gid="30"/>
   <tile gid="30"/>
   <tile gid="30"/>
   <tile gid="30"/>
   <tile gid="30"/>
   <tile gid="30"/>
   <tile gid="30"/>
   <tile gid="30"/>
   <tile gid="30"/>
   <tile gid="30"/>
   <tile gid="10"/>
   <tile gid="34"/>
   <tile gid="34"/>
   <tile gid="34"/>
   <tile gid="34"/>
   <tile gid="34"/>
   <tile gid="34"/>
   <tile gid="34"/>
   <tile gid="34"/>
   <tile gid="34"/>
   <tile gid="10"/>
   <tile gid="30"/>
   <tile gid="30"/>
   <tile gid="30"/>
   <tile gid="30"/>
   <tile gid="30"/>
   <tile gid="30"/>
   <tile gid="30"/>
   <tile gid="30"/>
   <tile gid="30"/>
   <tile gid="30"/>
   <tile gid="30"/>
   <tile gid="30"/>
   <tile gid="30"/>
   <tile gid="30"/>
   <tile gid="30"/>
   <tile gid="10"/>
   <tile gid="10"/>
   <tile gid="10"/>
   <tile gid="10"/>
   <tile gid="30"/>
   <tile gid="30"/>
   <tile gid="30"/>
   <tile gid="30"/>
   <tile gid="30"/>
   <tile gid="30"/>
   <tile gid="30"/>
   <tile gid="30"/>
   <tile gid="30"/>
   <tile gid="30"/>
   <tile gid="30"/>
   <tile gid="30"/>
   <tile gid="30"/>
   <tile gid="30"/>
   <tile gid="30"/>
   <tile gid="10"/>
   <tile gid="34"/>
   <tile gid="34"/>
   <tile gid="34"/>
   <tile gid="34"/>
   <tile gid="34"/>
   <tile gid="34"/>
   <tile gid="34"/>
   <tile gid="34"/>
   <tile gid="34"/>
   <tile gid="10"/>
   <tile gid="30"/>
   <tile gid="30"/>
   <tile gid="30"/>
   <tile gid="30"/>
   <tile gid="30"/>
   <tile gid="30"/>
   <tile gid="30"/>
   <tile gid="30"/>
   <tile gid="30"/>
   <tile gid="30"/>
   <tile gid="30"/>
   <tile gid="30"/>
   <tile gid="30"/>
   <tile gid="30"/>
   <tile gid="30"/>
   <tile gid="10"/>
   <tile gid="10"/>
   <tile gid="10"/>
   <tile gid="10"/>
   <tile gid="30"/>
   <tile gid="30"/>
   <tile gid="30"/>
   <tile gid="30"/>
   <tile gid="30"/>
   <tile gid="30"/>
   <tile gid="30"/>
   <tile gid="30"/>
   <tile gid="30"/>
   <tile gid="30"/>
   <tile gid="30"/>
   <tile gid="30"/>
   <tile gid="30"/>
   <tile gid="30"/>
   <tile gid="10"/>
   <tile gid="10"/>
   <tile gid="34"/>
   <tile gid="34"/>
   <tile gid="34"/>
   <tile gid="34"/>
   <tile gid="34"/>
   <tile gid="34"/>
   <tile gid="34"/>
   <tile gid="34"/>
   <tile gid="34"/>
   <tile gid="10"/>
   <tile gid="10"/>
   <tile gid="30"/>
   <tile gid="30"/>
   <tile gid="30"/>
   <tile gid="30"/>
   <tile gid="30"/>
   <tile gid="30"/>
   <tile gid="30"/>
   <tile gid="30"/>
   <tile gid="30"/>
   <tile gid="30"/>
   <tile gid="30"/>
   <tile gid="30"/>
   <tile gid="30"/>
   <tile gid="30"/>
   <tile gid="10"/>
   <tile gid="10"/>
   <tile gid="10"/>
   <tile gid="10"/>
   <tile gid="30"/>
   <tile gid="30"/>
   <tile gid="30"/>
   <tile gid="30"/>
   <tile gid="30"/>
   <tile gid="30"/>
   <tile gid="30"/>
   <tile gid="30"/>
   <tile gid="30"/>
   <tile gid="30"/>
   <tile gid="30"/>
   <tile gid="30"/>
   <tile gid="30"/>
   <tile gid="10"/>
   <tile gid="10"/>
   <tile gid="10"/>
   <tile gid="30"/>
   <tile gid="30"/>
   <tile gid="30"/>
   <tile gid="30"/>
   <tile gid="30"/>
   <tile gid="30"/>
   <tile gid="30"/>
   <tile gid="30"/>
   <tile gid="30"/>
   <tile gid="10"/>
   <tile gid="10"/>
   <tile gid="10"/>
   <tile gid="30"/>
   <tile gid="30"/>
   <tile gid="30"/>
   <tile gid="30"/>
   <tile gid="30"/>
   <tile gid="30"/>
   <tile gid="30"/>
   <tile gid="30"/>
   <tile gid="30"/>
   <tile gid="30"/>
   <tile gid="30"/>
   <tile gid="30"/>
   <tile gid="30"/>
   <tile gid="10"/>
   <tile gid="10"/>
   <tile gid="10"/>
   <tile gid="10"/>
   <tile gid="10"/>
   <tile gid="10"/>
   <tile gid="10"/>
   <tile gid="10"/>
   <tile gid="10"/>
   <tile gid="10"/>
   <tile gid="10"/>
   <tile gid="10"/>
   <tile gid="30"/>
   <tile gid="30"/>
   <tile gid="30"/>
   <tile gid="30"/>
   <tile gid="10"/>
   <tile gid="10"/>
   <tile gid="10"/>
   <tile gid="34"/>
   <tile gid="30"/>
   <tile gid="30"/>
   <tile gid="30"/>
   <tile gid="30"/>
   <tile gid="30"/>
   <tile gid="30"/>
   <tile gid="30"/>
   <tile gid="30"/>
   <tile gid="30"/>
   <tile gid="34"/>
   <tile gid="10"/>
   <tile gid="10"/>
   <tile gid="10"/>
   <tile gid="30"/>
   <tile gid="30"/>
   <tile gid="30"/>
   <tile gid="30"/>
   <tile gid="10"/>
   <tile gid="10"/>
   <tile gid="10"/>
   <tile gid="10"/>
   <tile gid="10"/>
   <tile gid="10"/>
   <tile gid="10"/>
   <tile gid="10"/>
   <tile gid="10"/>
   <tile gid="10"/>
   <tile gid="10"/>
   <tile gid="10"/>
   <tile gid="10"/>
   <tile gid="10"/>
   <tile gid="10"/>
   <tile gid="10"/>
   <tile gid="10"/>
   <tile gid="10"/>
   <tile gid="10"/>
   <tile gid="10"/>
   <tile gid="46"/>
   <tile gid="46"/>
   <tile gid="46"/>
   <tile gid="46"/>
   <tile gid="10"/>
   <tile gid="10"/>
   <tile gid="34"/>
   <tile gid="34"/>
   <tile gid="30"/>
   <tile gid="30"/>
   <tile gid="30"/>
   <tile gid="30"/>
   <tile gid="30"/>
   <tile gid="30"/>
   <tile gid="30"/>
   <tile gid="30"/>
   <tile gid="30"/>
   <tile gid="34"/>
   <tile gid="34"/>
   <tile gid="10"/>
   <tile gid="10"/>
   <tile gid="46"/>
   <tile gid="46"/>
   <tile gid="46"/>
   <tile gid="46"/>
   <tile gid="10"/>
   <tile gid="10"/>
   <tile gid="10"/>
   <tile gid="10"/>
   <tile gid="10"/>
   <tile gid="10"/>
   <tile gid="10"/>
   <tile gid="10"/>
   <tile gid="10"/>
   <tile gid="10"/>
   <tile gid="10"/>
   <tile gid="10"/>
   <tile gid="34"/>
   <tile gid="34"/>
   <tile gid="34"/>
   <tile gid="34"/>
   <tile gid="34"/>
   <tile gid="34"/>
   <tile gid="34"/>
   <tile gid="34"/>
   <tile gid="46"/>
   <tile gid="46"/>
   <tile gid="46"/>
   <tile gid="46"/>
   <tile gid="34"/>
   <tile gid="34"/>
   <tile gid="34"/>
   <tile gid="34"/>
   <tile gid="30"/>
   <tile gid="30"/>
   <tile gid="30"/>
   <tile gid="30"/>
   <tile gid="30"/>
   <tile gid="30"/>
   <tile gid="30"/>
   <tile gid="30"/>
   <tile gid="30"/>
   <tile gid="34"/>
   <tile gid="34"/>
   <tile gid="34"/>
   <tile gid="34"/>
   <tile gid="46"/>
   <tile gid="46"/>
   <tile gid="46"/>
   <tile gid="46"/>
   <tile gid="34"/>
   <tile gid="34"/>
   <tile gid="34"/>
   <tile gid="34"/>
   <tile gid="34"/>
   <tile gid="34"/>
   <tile gid="34"/>
   <tile gid="34"/>
   <tile gid="10"/>
   <tile gid="10"/>
   <tile gid="10"/>
   <tile gid="10"/>
   <tile gid="34"/>
   <tile gid="34"/>
   <tile gid="34"/>
   <tile gid="34"/>
   <tile gid="34"/>
   <tile gid="34"/>
   <tile gid="34"/>
   <tile gid="34"/>
   <tile gid="46"/>
   <tile gid="46"/>
   <tile gid="46"/>
   <tile gid="46"/>
   <tile gid="34"/>
   <tile gid="34"/>
   <tile gid="34"/>
   <tile gid="30"/>
   <tile gid="30"/>
   <tile gid="30"/>
   <tile gid="30"/>
   <tile gid="30"/>
   <tile gid="30"/>
   <tile gid="30"/>
   <tile gid="30"/>
   <tile gid="30"/>
   <tile gid="30"/>
   <tile gid="30"/>
   <tile gid="34"/>
   <tile gid="34"/>
   <tile gid="34"/>
   <tile gid="46"/>
   <tile gid="46"/>
   <tile gid="46"/>
   <tile gid="46"/>
   <tile gid="34"/>
   <tile gid="34"/>
   <tile gid="34"/>
   <tile gid="34"/>
   <tile gid="34"/>
   <tile gid="34"/>
   <tile gid="34"/>
   <tile gid="34"/>
   <tile gid="10"/>
   <tile gid="10"/>
   <tile gid="10"/>
   <tile gid="10"/>
   <tile gid="34"/>
   <tile gid="34"/>
   <tile gid="34"/>
   <tile gid="34"/>
   <tile gid="34"/>
   <tile gid="34"/>
   <tile gid="34"/>
   <tile gid="34"/>
   <tile gid="46"/>
   <tile gid="46"/>
   <tile gid="46"/>
   <tile gid="46"/>
   <tile gid="34"/>
   <tile gid="34"/>
   <tile gid="30"/>
   <tile gid="30"/>
   <tile gid="30"/>
   <tile gid="30"/>
   <tile gid="30"/>
   <tile gid="30"/>
   <tile gid="30"/>
   <tile gid="30"/>
   <tile gid="30"/>
   <tile gid="30"/>
   <tile gid="30"/>
   <tile gid="30"/>
   <tile gid="30"/>
   <tile gid="34"/>
   <tile gid="34"/>
   <tile gid="46"/>
   <tile gid="46"/>
   <tile gid="46"/>
   <tile gid="46"/>
   <tile gid="34"/>
   <tile gid="34"/>
   <tile gid="34"/>
   <tile gid="34"/>
   <tile gid="34"/>
   <tile gid="34"/>
   <tile gid="34"/>
   <tile gid="34"/>
   <tile gid="10"/>
   <tile gid="10"/>
   <tile gid="10"/>
   <tile gid="10"/>
   <tile gid="30"/>
   <tile gid="30"/>
   <tile gid="30"/>
   <tile gid="30"/>
   <tile gid="30"/>
   <tile gid="30"/>
   <tile gid="30"/>
   <tile gid="30"/>
   <tile gid="30"/>
   <tile gid="30"/>
   <tile gid="30"/>
   <tile gid="30"/>
   <tile gid="30"/>
   <tile gid="30"/>
   <tile gid="30"/>
   <tile gid="30"/>
   <tile gid="30"/>
   <tile gid="30"/>
   <tile gid="30"/>
   <tile gid="30"/>
   <tile gid="30"/>
   <tile gid="30"/>
   <tile gid="30"/>
   <tile gid="30"/>
   <tile gid="30"/>
   <tile gid="30"/>
   <tile gid="30"/>
   <tile gid="30"/>
   <tile gid="30"/>
   <tile gid="30"/>
   <tile gid="30"/>
   <tile gid="30"/>
   <tile gid="30"/>
   <tile gid="30"/>
   <tile gid="30"/>
   <tile gid="30"/>
   <tile gid="30"/>
   <tile gid="30"/>
   <tile gid="30"/>
   <tile gid="30"/>
   <tile gid="30"/>
   <tile gid="10"/>
   <tile gid="10"/>
   <tile gid="10"/>
   <tile gid="10"/>
   <tile gid="30"/>
   <tile gid="30"/>
   <tile gid="30"/>
   <tile gid="30"/>
   <tile gid="30"/>
   <tile gid="30"/>
   <tile gid="30"/>
   <tile gid="30"/>
   <tile gid="30"/>
   <tile gid="30"/>
   <tile gid="30"/>
   <tile gid="30"/>
   <tile gid="30"/>
   <tile gid="30"/>
   <tile gid="30"/>
   <tile gid="30"/>
   <tile gid="30"/>
   <tile gid="30"/>
   <tile gid="30"/>
   <tile gid="30"/>
   <tile gid="30"/>
   <tile gid="30"/>
   <tile gid="30"/>
   <tile gid="30"/>
   <tile gid="30"/>
   <tile gid="30"/>
   <tile gid="30"/>
   <tile gid="30"/>
   <tile gid="30"/>
   <tile gid="30"/>
   <tile gid="30"/>
   <tile gid="30"/>
   <tile gid="30"/>
   <tile gid="30"/>
   <tile gid="30"/>
   <tile gid="30"/>
   <tile gid="30"/>
   <tile gid="30"/>
   <tile gid="30"/>
   <tile gid="30"/>
   <tile gid="30"/>
   <tile gid="10"/>
   <tile gid="10"/>
   <tile gid="10"/>
   <tile gid="10"/>
   <tile gid="30"/>
   <tile gid="30"/>
   <tile gid="30"/>
   <tile gid="30"/>
   <tile gid="30"/>
   <tile gid="30"/>
   <tile gid="30"/>
   <tile gid="30"/>
   <tile gid="30"/>
   <tile gid="30"/>
   <tile gid="30"/>
   <tile gid="30"/>
   <tile gid="30"/>
   <tile gid="30"/>
   <tile gid="30"/>
   <tile gid="30"/>
   <tile gid="30"/>
   <tile gid="30"/>
   <tile gid="30"/>
   <tile gid="30"/>
   <tile gid="30"/>
   <tile gid="30"/>
   <tile gid="30"/>
   <tile gid="30"/>
   <tile gid="30"/>
   <tile gid="30"/>
   <tile gid="30"/>
   <tile gid="30"/>
   <tile gid="30"/>
   <tile gid="30"/>
   <tile gid="30"/>
   <tile gid="30"/>
   <tile gid="30"/>
   <tile gid="30"/>
   <tile gid="30"/>
   <tile gid="30"/>
   <tile gid="30"/>
   <tile gid="30"/>
   <tile gid="30"/>
   <tile gid="30"/>
   <tile gid="30"/>
   <tile gid="10"/>
   <tile gid="10"/>
   <tile gid="10"/>
   <tile gid="10"/>
   <tile gid="30"/>
   <tile gid="30"/>
   <tile gid="30"/>
   <tile gid="30"/>
   <tile gid="30"/>
   <tile gid="30"/>
   <tile gid="30"/>
   <tile gid="30"/>
   <tile gid="30"/>
   <tile gid="30"/>
   <tile gid="30"/>
   <tile gid="30"/>
   <tile gid="30"/>
   <tile gid="30"/>
   <tile gid="30"/>
   <tile gid="30"/>
   <tile gid="30"/>
   <tile gid="30"/>
   <tile gid="30"/>
   <tile gid="30"/>
   <tile gid="30"/>
   <tile gid="30"/>
   <tile gid="30"/>
   <tile gid="30"/>
   <tile gid="30"/>
   <tile gid="30"/>
   <tile gid="30"/>
   <tile gid="30"/>
   <tile gid="30"/>
   <tile gid="30"/>
   <tile gid="30"/>
   <tile gid="30"/>
   <tile gid="30"/>
   <tile gid="30"/>
   <tile gid="30"/>
   <tile gid="30"/>
   <tile gid="30"/>
   <tile gid="30"/>
   <tile gid="30"/>
   <tile gid="30"/>
   <tile gid="30"/>
   <tile gid="10"/>
   <tile gid="10"/>
   <tile gid="10"/>
   <tile gid="10"/>
   <tile gid="30"/>
   <tile gid="30"/>
   <tile gid="30"/>
   <tile gid="30"/>
   <tile gid="30"/>
   <tile gid="30"/>
   <tile gid="30"/>
   <tile gid="30"/>
   <tile gid="30"/>
   <tile gid="30"/>
   <tile gid="30"/>
   <tile gid="30"/>
   <tile gid="30"/>
   <tile gid="30"/>
   <tile gid="30"/>
   <tile gid="30"/>
   <tile gid="30"/>
   <tile gid="30"/>
   <tile gid="30"/>
   <tile gid="30"/>
   <tile gid="30"/>
   <tile gid="30"/>
   <tile gid="30"/>
   <tile gid="30"/>
   <tile gid="30"/>
   <tile gid="30"/>
   <tile gid="30"/>
   <tile gid="30"/>
   <tile gid="30"/>
   <tile gid="30"/>
   <tile gid="30"/>
   <tile gid="30"/>
   <tile gid="30"/>
   <tile gid="30"/>
   <tile gid="30"/>
   <tile gid="30"/>
   <tile gid="30"/>
   <tile gid="30"/>
   <tile gid="30"/>
   <tile gid="30"/>
   <tile gid="30"/>
   <tile gid="10"/>
   <tile gid="10"/>
   <tile gid="10"/>
   <tile gid="10"/>
   <tile gid="30"/>
   <tile gid="30"/>
   <tile gid="30"/>
   <tile gid="30"/>
   <tile gid="30"/>
   <tile gid="30"/>
   <tile gid="30"/>
   <tile gid="30"/>
   <tile gid="30"/>
   <tile gid="30"/>
   <tile gid="30"/>
   <tile gid="30"/>
   <tile gid="30"/>
   <tile gid="30"/>
   <tile gid="30"/>
   <tile gid="30"/>
   <tile gid="30"/>
   <tile gid="30"/>
   <tile gid="30"/>
   <tile gid="30"/>
   <tile gid="30"/>
   <tile gid="30"/>
   <tile gid="30"/>
   <tile gid="30"/>
   <tile gid="30"/>
   <tile gid="30"/>
   <tile gid="30"/>
   <tile gid="30"/>
   <tile gid="30"/>
   <tile gid="30"/>
   <tile gid="30"/>
   <tile gid="30"/>
   <tile gid="30"/>
   <tile gid="30"/>
   <tile gid="30"/>
   <tile gid="30"/>
   <tile gid="30"/>
   <tile gid="30"/>
   <tile gid="30"/>
   <tile gid="30"/>
   <tile gid="30"/>
   <tile gid="10"/>
   <tile gid="10"/>
   <tile gid="10"/>
   <tile gid="10"/>
   <tile gid="30"/>
   <tile gid="30"/>
   <tile gid="30"/>
   <tile gid="30"/>
   <tile gid="30"/>
   <tile gid="30"/>
   <tile gid="30"/>
   <tile gid="30"/>
   <tile gid="30"/>
   <tile gid="30"/>
   <tile gid="30"/>
   <tile gid="30"/>
   <tile gid="30"/>
   <tile gid="30"/>
   <tile gid="30"/>
   <tile gid="30"/>
   <tile gid="30"/>
   <tile gid="30"/>
   <tile gid="30"/>
   <tile gid="30"/>
   <tile gid="30"/>
   <tile gid="30"/>
   <tile gid="30"/>
   <tile gid="30"/>
   <tile gid="30"/>
   <tile gid="30"/>
   <tile gid="30"/>
   <tile gid="30"/>
   <tile gid="30"/>
   <tile gid="30"/>
   <tile gid="30"/>
   <tile gid="30"/>
   <tile gid="30"/>
   <tile gid="30"/>
   <tile gid="30"/>
   <tile gid="30"/>
   <tile gid="30"/>
   <tile gid="30"/>
   <tile gid="30"/>
   <tile gid="30"/>
   <tile gid="30"/>
   <tile gid="10"/>
   <tile gid="10"/>
   <tile gid="10"/>
   <tile gid="49"/>
   <tile gid="30"/>
   <tile gid="30"/>
   <tile gid="30"/>
   <tile gid="30"/>
   <tile gid="30"/>
   <tile gid="30"/>
   <tile gid="30"/>
   <tile gid="30"/>
   <tile gid="30"/>
   <tile gid="30"/>
   <tile gid="30"/>
   <tile gid="30"/>
   <tile gid="30"/>
   <tile gid="30"/>
   <tile gid="30"/>
   <tile gid="30"/>
   <tile gid="30"/>
   <tile gid="30"/>
   <tile gid="30"/>
   <tile gid="30"/>
   <tile gid="30"/>
   <tile gid="30"/>
   <tile gid="30"/>
   <tile gid="30"/>
   <tile gid="30"/>
   <tile gid="30"/>
   <tile gid="30"/>
   <tile gid="30"/>
   <tile gid="30"/>
   <tile gid="30"/>
   <tile gid="30"/>
   <tile gid="30"/>
   <tile gid="30"/>
   <tile gid="30"/>
   <tile gid="30"/>
   <tile gid="30"/>
   <tile gid="30"/>
   <tile gid="30"/>
   <tile gid="30"/>
   <tile gid="30"/>
   <tile gid="30"/>
   <tile gid="10"/>
   <tile gid="10"/>
   <tile gid="10"/>
   <tile gid="49"/>
   <tile gid="30"/>
   <tile gid="30"/>
   <tile gid="30"/>
   <tile gid="30"/>
   <tile gid="30"/>
   <tile gid="30"/>
   <tile gid="30"/>
   <tile gid="30"/>
   <tile gid="30"/>
   <tile gid="30"/>
   <tile gid="30"/>
   <tile gid="30"/>
   <tile gid="30"/>
   <tile gid="30"/>
   <tile gid="30"/>
   <tile gid="30"/>
   <tile gid="30"/>
   <tile gid="30"/>
   <tile gid="30"/>
   <tile gid="30"/>
   <tile gid="30"/>
   <tile gid="30"/>
   <tile gid="30"/>
   <tile gid="30"/>
   <tile gid="30"/>
   <tile gid="30"/>
   <tile gid="30"/>
   <tile gid="30"/>
   <tile gid="30"/>
   <tile gid="30"/>
   <tile gid="30"/>
   <tile gid="30"/>
   <tile gid="30"/>
   <tile gid="30"/>
   <tile gid="30"/>
   <tile gid="30"/>
   <tile gid="30"/>
   <tile gid="30"/>
   <tile gid="30"/>
   <tile gid="30"/>
   <tile gid="30"/>
   <tile gid="10"/>
   <tile gid="10"/>
   <tile gid="10"/>
   <tile gid="49"/>
   <tile gid="30"/>
   <tile gid="30"/>
   <tile gid="30"/>
   <tile gid="30"/>
   <tile gid="30"/>
   <tile gid="30"/>
   <tile gid="30"/>
   <tile gid="30"/>
   <tile gid="30"/>
   <tile gid="30"/>
   <tile gid="30"/>
   <tile gid="30"/>
   <tile gid="30"/>
   <tile gid="30"/>
   <tile gid="30"/>
   <tile gid="30"/>
   <tile gid="30"/>
   <tile gid="30"/>
   <tile gid="30"/>
   <tile gid="30"/>
   <tile gid="30"/>
   <tile gid="30"/>
   <tile gid="30"/>
   <tile gid="30"/>
   <tile gid="30"/>
   <tile gid="30"/>
   <tile gid="30"/>
   <tile gid="30"/>
   <tile gid="30"/>
   <tile gid="30"/>
   <tile gid="30"/>
   <tile gid="30"/>
   <tile gid="30"/>
   <tile gid="30"/>
   <tile gid="30"/>
   <tile gid="30"/>
   <tile gid="30"/>
   <tile gid="30"/>
   <tile gid="30"/>
   <tile gid="30"/>
   <tile gid="30"/>
   <tile gid="10"/>
   <tile gid="10"/>
   <tile gid="10"/>
   <tile gid="10"/>
   <tile gid="30"/>
   <tile gid="30"/>
   <tile gid="30"/>
   <tile gid="30"/>
   <tile gid="30"/>
   <tile gid="30"/>
   <tile gid="30"/>
   <tile gid="30"/>
   <tile gid="30"/>
   <tile gid="30"/>
   <tile gid="30"/>
   <tile gid="30"/>
   <tile gid="30"/>
   <tile gid="30"/>
   <tile gid="30"/>
   <tile gid="30"/>
   <tile gid="30"/>
   <tile gid="30"/>
   <tile gid="30"/>
   <tile gid="30"/>
   <tile gid="30"/>
   <tile gid="30"/>
   <tile gid="30"/>
   <tile gid="30"/>
   <tile gid="30"/>
   <tile gid="30"/>
   <tile gid="30"/>
   <tile gid="30"/>
   <tile gid="30"/>
   <tile gid="30"/>
   <tile gid="30"/>
   <tile gid="30"/>
   <tile gid="30"/>
   <tile gid="30"/>
   <tile gid="30"/>
   <tile gid="30"/>
   <tile gid="30"/>
   <tile gid="30"/>
   <tile gid="30"/>
   <tile gid="30"/>
   <tile gid="30"/>
   <tile gid="10"/>
   <tile gid="10"/>
   <tile gid="10"/>
   <tile gid="10"/>
   <tile gid="30"/>
   <tile gid="30"/>
   <tile gid="30"/>
   <tile gid="30"/>
   <tile gid="30"/>
   <tile gid="30"/>
   <tile gid="30"/>
   <tile gid="30"/>
   <tile gid="30"/>
   <tile gid="30"/>
   <tile gid="30"/>
   <tile gid="30"/>
   <tile gid="30"/>
   <tile gid="30"/>
   <tile gid="30"/>
   <tile gid="30"/>
   <tile gid="30"/>
   <tile gid="30"/>
   <tile gid="30"/>
   <tile gid="30"/>
   <tile gid="30"/>
   <tile gid="30"/>
   <tile gid="30"/>
   <tile gid="30"/>
   <tile gid="30"/>
   <tile gid="30"/>
   <tile gid="30"/>
   <tile gid="30"/>
   <tile gid="30"/>
   <tile gid="30"/>
   <tile gid="30"/>
   <tile gid="30"/>
   <tile gid="30"/>
   <tile gid="30"/>
   <tile gid="30"/>
   <tile gid="30"/>
   <tile gid="30"/>
   <tile gid="30"/>
   <tile gid="30"/>
   <tile gid="30"/>
   <tile gid="30"/>
   <tile gid="10"/>
   <tile gid="10"/>
   <tile gid="10"/>
   <tile gid="10"/>
   <tile gid="10"/>
   <tile gid="10"/>
   <tile gid="10"/>
   <tile gid="10"/>
   <tile gid="10"/>
   <tile gid="10"/>
   <tile gid="10"/>
   <tile gid="10"/>
   <tile gid="10"/>
   <tile gid="10"/>
   <tile gid="10"/>
   <tile gid="10"/>
   <tile gid="10"/>
   <tile gid="10"/>
   <tile gid="10"/>
   <tile gid="10"/>
   <tile gid="10"/>
   <tile gid="10"/>
   <tile gid="10"/>
   <tile gid="10"/>
   <tile gid="10"/>
   <tile gid="10"/>
   <tile gid="10"/>
   <tile gid="10"/>
   <tile gid="10"/>
   <tile gid="10"/>
   <tile gid="10"/>
   <tile gid="10"/>
   <tile gid="10"/>
   <tile gid="10"/>
   <tile gid="10"/>
   <tile gid="10"/>
   <tile gid="10"/>
   <tile gid="10"/>
   <tile gid="10"/>
   <tile gid="10"/>
   <tile gid="10"/>
   <tile gid="10"/>
   <tile gid="10"/>
   <tile gid="10"/>
   <tile gid="10"/>
   <tile gid="10"/>
   <tile gid="10"/>
   <tile gid="10"/>
   <tile gid="10"/>
   <tile gid="10"/>
   <tile gid="10"/>
   <tile gid="10"/>
   <tile gid="10"/>
   <tile gid="10"/>
   <tile gid="10"/>
   <tile gid="10"/>
   <tile gid="10"/>
   <tile gid="10"/>
   <tile gid="10"/>
   <tile gid="10"/>
   <tile gid="10"/>
   <tile gid="10"/>
   <tile gid="10"/>
   <tile gid="10"/>
   <tile gid="10"/>
   <tile gid="10"/>
   <tile gid="10"/>
   <tile gid="10"/>
   <tile gid="10"/>
   <tile gid="10"/>
   <tile gid="10"/>
   <tile gid="10"/>
   <tile gid="10"/>
   <tile gid="10"/>
   <tile gid="10"/>
   <tile gid="10"/>
   <tile gid="10"/>
   <tile gid="10"/>
   <tile gid="10"/>
   <tile gid="10"/>
   <tile gid="10"/>
   <tile gid="10"/>
   <tile gid="10"/>
   <tile gid="10"/>
   <tile gid="10"/>
   <tile gid="10"/>
   <tile gid="10"/>
   <tile gid="10"/>
   <tile gid="10"/>
   <tile gid="10"/>
   <tile gid="10"/>
   <tile gid="10"/>
  </data>
 </layer>
 <layer id="3" name="Navigation" width="45" height="40">
  <properties>
   <property name="Draw" type="bool" value="false"/>
   <property name="Navigation" type="bool" value="true"/>
  </properties>
  <data>
   <tile/>
   <tile/>
   <tile/>
   <tile/>
   <tile/>
   <tile/>
   <tile/>
   <tile/>
   <tile/>
   <tile/>
   <tile/>
   <tile/>
   <tile/>
   <tile/>
   <tile/>
   <tile/>
   <tile/>
   <tile/>
   <tile/>
   <tile/>
   <tile/>
   <tile/>
   <tile/>
   <tile/>
   <tile/>
   <tile/>
   <tile/>
   <tile/>
   <tile/>
   <tile/>
   <tile/>
   <tile/>
   <tile/>
   <tile/>
   <tile/>
   <tile/>
   <tile/>
   <tile/>
   <tile/>
   <tile/>
   <tile/>
   <tile/>
   <tile/>
   <tile/>
   <tile/>
   <tile/>
   <tile/>
   <tile/>
   <tile/>
   <tile/>
   <tile/>
   <tile/>
   <tile/>
   <tile/>
   <tile/>
   <tile/>
   <tile/>
   <tile/>
   <tile/>
   <tile/>
   <tile/>
   <tile/>
   <tile/>
   <tile/>
   <tile/>
   <tile/>
   <tile/>
   <tile/>
   <tile/>
   <tile/>
   <tile/>
   <tile/>
   <tile/>
   <tile/>
   <tile/>
   <tile/>
   <tile/>
   <tile/>
   <tile/>
   <tile/>
   <tile/>
   <tile/>
   <tile/>
   <tile/>
   <tile/>
   <tile/>
   <tile/>
   <tile/>
   <tile/>
   <tile/>
   <tile/>
   <tile/>
   <tile/>
   <tile/>
   <tile/>
   <tile/>
   <tile/>
   <tile/>
   <tile/>
   <tile/>
   <tile/>
   <tile/>
   <tile/>
   <tile/>
   <tile/>
   <tile/>
   <tile/>
   <tile/>
   <tile/>
   <tile/>
   <tile/>
   <tile/>
   <tile/>
   <tile/>
   <tile/>
   <tile/>
   <tile/>
   <tile/>
   <tile/>
   <tile/>
   <tile/>
   <tile/>
   <tile/>
   <tile/>
   <tile/>
   <tile/>
   <tile/>
   <tile/>
   <tile/>
   <tile/>
   <tile/>
   <tile/>
   <tile/>
   <tile/>
   <tile/>
   <tile/>
   <tile/>
   <tile/>
   <tile/>
   <tile/>
   <tile/>
   <tile/>
   <tile/>
   <tile/>
   <tile/>
   <tile/>
   <tile/>
   <tile/>
   <tile/>
   <tile/>
   <tile/>
   <tile/>
   <tile/>
   <tile/>
   <tile/>
   <tile/>
   <tile/>
   <tile/>
   <tile/>
   <tile/>
   <tile/>
   <tile/>
   <tile/>
   <tile/>
   <tile/>
   <tile/>
   <tile/>
   <tile/>
   <tile/>
   <tile/>
   <tile/>
   <tile/>
   <tile/>
   <tile/>
   <tile/>
   <tile/>
   <tile/>
   <tile/>
   <tile/>
   <tile/>
   <tile/>
   <tile/>
   <tile/>
   <tile/>
   <tile/>
   <tile/>
   <tile/>
   <tile/>
   <tile/>
   <tile/>
   <tile/>
   <tile/>
   <tile/>
   <tile/>
   <tile/>
   <tile/>
   <tile/>
   <tile/>
   <tile/>
   <tile/>
   <tile/>
   <tile/>
   <tile/>
   <tile/>
   <tile/>
   <tile/>
   <tile/>
   <tile/>
   <tile/>
   <tile/>
   <tile/>
   <tile/>
   <tile/>
   <tile/>
   <tile/>
   <tile/>
   <tile/>
   <tile/>
   <tile/>
   <tile/>
   <tile/>
   <tile/>
   <tile/>
   <tile/>
   <tile/>
   <tile/>
   <tile/>
   <tile/>
   <tile/>
   <tile/>
   <tile/>
   <tile/>
   <tile/>
   <tile/>
   <tile/>
   <tile/>
   <tile/>
   <tile/>
   <tile/>
   <tile/>
   <tile/>
   <tile/>
   <tile/>
   <tile/>
   <tile/>
   <tile/>
   <tile/>
   <tile/>
   <tile/>
   <tile/>
   <tile/>
   <tile/>
   <tile/>
   <tile/>
   <tile/>
   <tile/>
   <tile/>
   <tile/>
   <tile/>
   <tile/>
   <tile/>
   <tile/>
   <tile/>
   <tile/>
   <tile/>
   <tile/>
   <tile/>
   <tile/>
   <tile/>
   <tile/>
   <tile/>
   <tile/>
   <tile/>
   <tile/>
   <tile/>
   <tile/>
   <tile/>
   <tile/>
   <tile/>
   <tile/>
   <tile/>
   <tile/>
   <tile/>
   <tile/>
   <tile/>
   <tile/>
   <tile/>
   <tile/>
   <tile/>
   <tile/>
   <tile/>
   <tile/>
   <tile/>
   <tile/>
   <tile/>
   <tile/>
   <tile/>
   <tile/>
   <tile/>
   <tile/>
   <tile/>
   <tile/>
   <tile/>
   <tile/>
   <tile/>
   <tile/>
   <tile/>
   <tile/>
   <tile/>
   <tile/>
   <tile/>
   <tile/>
   <tile/>
   <tile/>
   <tile/>
   <tile/>
   <tile/>
   <tile/>
   <tile/>
   <tile/>
   <tile/>
   <tile/>
   <tile/>
   <tile/>
   <tile/>
   <tile/>
   <tile/>
   <tile/>
   <tile/>
   <tile/>
   <tile/>
   <tile/>
   <tile/>
   <tile/>
   <tile/>
   <tile/>
   <tile/>
   <tile/>
   <tile/>
   <tile/>
   <tile/>
   <tile/>
   <tile/>
   <tile/>
   <tile/>
   <tile/>
   <tile/>
   <tile/>
   <tile/>
   <tile/>
   <tile/>
   <tile/>
   <tile/>
   <tile/>
   <tile/>
   <tile/>
   <tile/>
   <tile/>
   <tile/>
   <tile/>
   <tile/>
   <tile/>
   <tile/>
   <tile/>
   <tile/>
   <tile/>
   <tile/>
   <tile/>
   <tile/>
   <tile/>
   <tile/>
   <tile/>
   <tile/>
   <tile/>
   <tile/>
   <tile/>
   <tile/>
   <tile/>
   <tile/>
   <tile/>
   <tile/>
   <tile/>
   <tile/>
   <tile/>
   <tile/>
   <tile/>
   <tile/>
   <tile/>
   <tile/>
   <tile/>
   <tile/>
   <tile/>
   <tile/>
   <tile/>
   <tile/>
   <tile/>
   <tile/>
   <tile/>
   <tile/>
   <tile/>
   <tile/>
   <tile/>
   <tile/>
   <tile/>
   <tile/>
   <tile/>
   <tile/>
   <tile/>
   <tile/>
   <tile/>
   <tile/>
   <tile/>
   <tile/>
   <tile/>
   <tile/>
   <tile/>
   <tile/>
   <tile/>
   <tile/>
   <tile/>
   <tile/>
   <tile/>
   <tile/>
   <tile/>
   <tile/>
   <tile/>
   <tile/>
   <tile/>
   <tile/>
   <tile/>
   <tile/>
   <tile/>
   <tile/>
   <tile/>
   <tile/>
   <tile/>
   <tile/>
   <tile/>
   <tile/>
   <tile/>
   <tile/>
   <tile/>
   <tile/>
   <tile/>
   <tile/>
   <tile/>
   <tile/>
   <tile/>
   <tile/>
   <tile/>
   <tile/>
   <tile/>
   <tile/>
   <tile/>
   <tile/>
   <tile/>
   <tile/>
   <tile/>
   <tile/>
   <tile/>
   <tile/>
   <tile/>
   <tile/>
   <tile/>
   <tile/>
   <tile/>
   <tile/>
   <tile/>
   <tile/>
   <tile/>
   <tile/>
   <tile/>
   <tile/>
   <tile/>
   <tile/>
   <tile/>
   <tile/>
   <tile/>
   <tile/>
   <tile/>
   <tile/>
   <tile/>
   <tile/>
   <tile/>
   <tile/>
   <tile/>
   <tile/>
   <tile/>
   <tile/>
   <tile/>
   <tile/>
   <tile/>
   <tile/>
   <tile/>
   <tile/>
   <tile/>
   <tile/>
   <tile/>
   <tile/>
   <tile/>
   <tile/>
   <tile/>
   <tile/>
   <tile/>
   <tile/>
   <tile/>
   <tile/>
   <tile/>
   <tile/>
   <tile/>
   <tile/>
   <tile/>
   <tile/>
   <tile/>
   <tile/>
   <tile/>
   <tile/>
   <tile/>
   <tile/>
   <tile/>
   <tile/>
   <tile/>
   <tile/>
   <tile/>
   <tile/>
   <tile/>
   <tile/>
   <tile/>
   <tile/>
   <tile/>
   <tile/>
   <tile/>
   <tile/>
   <tile/>
   <tile/>
   <tile/>
   <tile/>
   <tile/>
   <tile/>
   <tile/>
   <tile/>
   <tile/>
   <tile/>
   <tile/>
   <tile/>
   <tile/>
   <tile/>
   <tile/>
   <tile/>
   <tile/>
   <tile/>
   <tile/>
   <tile/>
   <tile/>
   <tile/>
   <tile/>
   <tile/>
   <tile/>
   <tile/>
   <tile/>
   <tile/>
   <tile/>
   <tile/>
   <tile/>
   <tile/>
   <tile/>
   <tile/>
   <tile/>
   <tile/>
   <tile/>
   <tile/>
   <tile/>
   <tile/>
   <tile/>
   <tile/>
   <tile/>
   <tile/>
   <tile/>
   <tile/>
   <tile/>
   <tile/>
   <tile/>
   <tile/>
   <tile/>
   <tile/>
   <tile/>
   <tile/>
   <tile/>
   <tile/>
   <tile/>
   <tile/>
   <tile/>
   <tile/>
   <tile/>
   <tile/>
   <tile/>
   <tile/>
   <tile/>
   <tile/>
   <tile/>
   <tile/>
   <tile/>
   <tile/>
   <tile/>
   <tile/>
   <tile/>
   <tile/>
   <tile/>
   <tile/>
   <tile/>
   <tile/>
   <tile/>
   <tile/>
   <tile/>
   <tile/>
   <tile/>
   <tile/>
   <tile/>
   <tile/>
   <tile/>
   <tile/>
   <tile/>
   <tile/>
   <tile/>
   <tile/>
   <tile/>
   <tile/>
   <tile/>
   <tile/>
   <tile/>
   <tile/>
   <tile/>
   <tile/>
   <tile/>
   <tile/>
   <tile/>
   <tile/>
   <tile/>
   <tile/>
   <tile/>
   <tile/>
   <tile/>
   <tile/>
   <tile/>
   <tile/>
   <tile/>
   <tile/>
   <tile/>
   <tile/>
   <tile/>
   <tile/>
   <tile/>
   <tile/>
   <tile/>
   <tile/>
   <tile/>
   <tile/>
   <tile/>
   <tile/>
   <tile/>
   <tile/>
   <tile/>
   <tile/>
   <tile/>
   <tile/>
   <tile/>
   <tile/>
   <tile/>
   <tile/>
   <tile/>
   <tile/>
   <tile/>
   <tile/>
   <tile/>
   <tile/>
   <tile/>
   <tile/>
   <tile/>
   <tile/>
   <tile/>
   <tile/>
   <tile/>
   <tile/>
   <tile/>
   <tile/>
   <tile/>
   <tile/>
   <tile/>
   <tile/>
   <tile/>
   <tile/>
   <tile/>
   <tile/>
   <tile/>
   <tile/>
   <tile/>
   <tile/>
   <tile/>
   <tile/>
   <tile/>
   <tile/>
   <tile/>
   <tile/>
   <tile/>
   <tile/>
   <tile/>
   <tile/>
   <tile/>
   <tile/>
   <tile/>
   <tile/>
   <tile/>
   <tile/>
   <tile/>
   <tile/>
   <tile/>
   <tile/>
   <tile/>
   <tile/>
   <tile/>
   <tile/>
   <tile/>
   <tile/>
   <tile/>
   <tile/>
   <tile/>
   <tile/>
   <tile/>
   <tile/>
   <tile/>
   <tile/>
   <tile/>
   <tile/>
   <tile/>
   <tile/>
   <tile/>
   <tile/>
   <tile/>
   <tile/>
   <tile/>
   <tile/>
   <tile/>
   <tile/>
   <tile/>
   <tile/>
   <tile/>
   <tile/>
   <tile/>
   <tile/>
   <tile/>
   <tile/>
   <tile/>
   <tile/>
   <tile/>
   <tile/>
   <tile/>
   <tile/>
   <tile/>
   <tile/>
   <tile/>
   <tile/>
   <tile/>
   <tile/>
   <tile/>
   <tile/>
   <tile/>
   <tile/>
   <tile/>
   <tile/>
   <tile/>
   <tile/>
   <tile/>
   <tile/>
   <tile/>
   <tile/>
   <tile/>
   <tile/>
   <tile/>
   <tile/>
   <tile/>
   <tile/>
   <tile/>
   <tile/>
   <tile/>
   <tile/>
   <tile/>
   <tile/>
   <tile/>
   <tile/>
   <tile/>
   <tile/>
   <tile/>
   <tile/>
   <tile/>
   <tile/>
   <tile/>
   <tile/>
   <tile/>
   <tile/>
   <tile/>
   <tile/>
   <tile/>
   <tile/>
   <tile/>
   <tile/>
   <tile/>
   <tile/>
   <tile/>
   <tile/>
   <tile/>
   <tile/>
   <tile/>
   <tile/>
   <tile/>
   <tile/>
   <tile/>
   <tile/>
   <tile/>
   <tile/>
   <tile/>
   <tile/>
   <tile/>
   <tile/>
   <tile/>
   <tile/>
   <tile/>
   <tile/>
   <tile/>
   <tile/>
   <tile/>
   <tile/>
   <tile/>
   <tile/>
   <tile/>
   <tile/>
   <tile/>
   <tile/>
   <tile/>
   <tile/>
   <tile/>
   <tile/>
   <tile/>
   <tile/>
   <tile/>
   <tile/>
   <tile/>
   <tile/>
   <tile/>
   <tile/>
   <tile/>
   <tile/>
   <tile/>
   <tile/>
   <tile/>
   <tile/>
   <tile/>
   <tile/>
   <tile/>
   <tile/>
   <tile/>
   <tile/>
   <tile/>
   <tile/>
   <tile/>
   <tile/>
   <tile/>
   <tile/>
   <tile/>
   <tile/>
   <tile/>
   <tile/>
   <tile/>
   <tile gid="49"/>
   <tile gid="49"/>
   <tile gid="49"/>
   <tile gid="49"/>
   <tile gid="49"/>
   <tile gid="49"/>
   <tile gid="49"/>
   <tile gid="49"/>
   <tile gid="49"/>
   <tile gid="49"/>
   <tile gid="49"/>
   <tile/>
   <tile/>
   <tile/>
   <tile/>
   <tile/>
   <tile/>
   <tile/>
   <tile/>
   <tile/>
   <tile/>
   <tile/>
   <tile/>
   <tile/>
   <tile/>
   <tile/>
   <tile/>
   <tile/>
   <tile/>
   <tile/>
   <tile/>
   <tile/>
   <tile/>
   <tile/>
   <tile/>
   <tile/>
   <tile/>
   <tile/>
   <tile/>
   <tile/>
   <tile/>
   <tile/>
   <tile/>
   <tile/>
   <tile/>
   <tile gid="49"/>
   <tile/>
   <tile/>
   <tile/>
   <tile/>
   <tile/>
   <tile/>
   <tile/>
   <tile/>
   <tile/>
   <tile gid="49"/>
   <tile/>
   <tile/>
   <tile/>
   <tile/>
   <tile/>
   <tile/>
   <tile/>
   <tile/>
   <tile/>
   <tile/>
   <tile/>
   <tile/>
   <tile/>
   <tile/>
   <tile/>
   <tile/>
   <tile/>
   <tile/>
   <tile/>
   <tile/>
   <tile/>
   <tile/>
   <tile/>
   <tile/>
   <tile/>
   <tile/>
   <tile/>
   <tile/>
   <tile/>
   <tile/>
   <tile/>
   <tile/>
   <tile/>
   <tile/>
   <tile gid="49"/>
   <tile/>
   <tile/>
   <tile/>
   <tile/>
   <tile/>
   <tile/>
   <tile/>
   <tile/>
   <tile/>
   <tile gid="49"/>
   <tile/>
   <tile/>
   <tile/>
   <tile/>
   <tile/>
   <tile/>
   <tile/>
   <tile/>
   <tile/>
   <tile/>
   <tile/>
   <tile/>
   <tile/>
   <tile/>
   <tile/>
   <tile/>
   <tile/>
   <tile/>
   <tile/>
   <tile/>
   <tile/>
   <tile/>
   <tile/>
   <tile/>
   <tile/>
   <tile/>
   <tile/>
   <tile/>
   <tile/>
   <tile/>
   <tile/>
   <tile/>
   <tile/>
   <tile/>
   <tile gid="49"/>
   <tile/>
   <tile/>
   <tile/>
   <tile/>
   <tile/>
   <tile/>
   <tile/>
   <tile/>
   <tile/>
   <tile gid="49"/>
   <tile/>
   <tile/>
   <tile/>
   <tile/>
   <tile/>
   <tile/>
   <tile/>
   <tile/>
   <tile/>
   <tile/>
   <tile/>
   <tile/>
   <tile/>
   <tile/>
   <tile/>
   <tile/>
   <tile/>
   <tile/>
   <tile/>
   <tile/>
   <tile/>
   <tile/>
   <tile/>
   <tile/>
   <tile/>
   <tile/>
   <tile/>
   <tile/>
   <tile/>
   <tile/>
   <tile/>
   <tile/>
   <tile/>
   <tile gid="49"/>
   <tile gid="49"/>
   <tile/>
   <tile/>
   <tile/>
   <tile/>
   <tile/>
   <tile/>
   <tile/>
   <tile/>
   <tile/>
   <tile gid="49"/>
   <tile gid="49"/>
   <tile/>
   <tile/>
   <tile/>
   <tile/>
   <tile/>
   <tile/>
   <tile/>
   <tile/>
   <tile/>
   <tile/>
   <tile/>
   <tile/>
   <tile/>
   <tile/>
   <tile/>
   <tile/>
   <tile/>
   <tile/>
   <tile/>
   <tile/>
   <tile/>
   <tile/>
   <tile/>
   <tile/>
   <tile/>
   <tile/>
   <tile/>
   <tile/>
   <tile/>
   <tile/>
   <tile/>
   <tile gid="49"/>
   <tile gid="49"/>
   <tile/>
   <tile/>
   <tile/>
   <tile/>
   <tile/>
   <tile/>
   <tile/>
   <tile/>
   <tile/>
   <tile/>
   <tile/>
   <tile gid="49"/>
   <tile gid="49"/>
   <tile/>
   <tile/>
   <tile/>
   <tile/>
   <tile/>
   <tile/>
   <tile/>
   <tile/>
   <tile/>
   <tile/>
   <tile/>
   <tile/>
   <tile/>
   <tile/>
   <tile/>
   <tile/>
   <tile gid="49"/>
   <tile gid="49"/>
   <tile gid="49"/>
   <tile gid="49"/>
   <tile gid="49"/>
   <tile gid="49"/>
   <tile gid="49"/>
   <tile gid="49"/>
   <tile gid="49"/>
   <tile gid="49"/>
   <tile gid="49"/>
   <tile gid="49"/>
   <tile gid="49"/>
   <tile gid="49"/>
   <tile gid="49"/>
   <tile/>
   <tile/>
   <tile/>
   <tile/>
   <tile/>
   <tile/>
   <tile/>
   <tile/>
   <tile/>
   <tile/>
   <tile/>
   <tile/>
   <tile/>
   <tile gid="49"/>
   <tile gid="49"/>
   <tile gid="49"/>
   <tile gid="49"/>
   <tile gid="49"/>
   <tile gid="49"/>
   <tile gid="49"/>
   <tile gid="49"/>
   <tile gid="49"/>
   <tile gid="49"/>
   <tile gid="49"/>
   <tile gid="49"/>
   <tile gid="49"/>
   <tile gid="49"/>
   <tile gid="49"/>
   <tile/>
   <tile/>
   <tile gid="49"/>
   <tile/>
   <tile/>
   <tile/>
   <tile/>
   <tile/>
   <tile/>
   <tile/>
   <tile/>
   <tile/>
   <tile/>
   <tile/>
   <tile/>
   <tile/>
   <tile/>
   <tile/>
   <tile/>
   <tile/>
   <tile/>
   <tile/>
   <tile/>
   <tile/>
   <tile/>
   <tile/>
   <tile/>
   <tile/>
   <tile/>
   <tile/>
   <tile/>
   <tile/>
   <tile/>
   <tile/>
   <tile/>
   <tile/>
   <tile/>
   <tile/>
   <tile/>
   <tile/>
   <tile/>
   <tile/>
   <tile/>
   <tile/>
   <tile gid="49"/>
   <tile/>
   <tile/>
   <tile gid="49"/>
   <tile/>
   <tile/>
   <tile/>
   <tile/>
   <tile/>
   <tile/>
   <tile/>
   <tile/>
   <tile/>
   <tile/>
   <tile/>
   <tile/>
   <tile/>
   <tile/>
   <tile/>
   <tile/>
   <tile/>
   <tile/>
   <tile/>
   <tile/>
   <tile/>
   <tile/>
   <tile/>
   <tile/>
   <tile/>
   <tile/>
   <tile/>
   <tile/>
   <tile/>
   <tile/>
   <tile/>
   <tile/>
   <tile/>
   <tile/>
   <tile/>
   <tile/>
   <tile/>
   <tile/>
   <tile/>
   <tile/>
   <tile/>
   <tile gid="49"/>
   <tile/>
   <tile/>
   <tile gid="49"/>
   <tile/>
   <tile/>
   <tile/>
   <tile/>
   <tile/>
   <tile/>
   <tile/>
   <tile/>
   <tile/>
   <tile/>
   <tile/>
   <tile/>
   <tile/>
   <tile/>
   <tile/>
   <tile/>
   <tile/>
   <tile/>
   <tile/>
   <tile/>
   <tile/>
   <tile/>
   <tile/>
   <tile/>
   <tile/>
   <tile/>
   <tile/>
   <tile/>
   <tile/>
   <tile/>
   <tile/>
   <tile/>
   <tile/>
   <tile/>
   <tile/>
   <tile/>
   <tile/>
   <tile/>
   <tile/>
   <tile/>
   <tile/>
   <tile gid="49"/>
   <tile/>
   <tile/>
   <tile gid="49"/>
   <tile/>
   <tile/>
   <tile/>
   <tile/>
   <tile/>
   <tile/>
   <tile/>
   <tile/>
   <tile/>
   <tile/>
   <tile/>
   <tile/>
   <tile/>
   <tile/>
   <tile/>
   <tile/>
   <tile/>
   <tile/>
   <tile/>
   <tile/>
   <tile/>
   <tile/>
   <tile/>
   <tile/>
   <tile/>
   <tile/>
   <tile/>
   <tile/>
   <tile/>
   <tile/>
   <tile/>
   <tile/>
   <tile/>
   <tile/>
   <tile/>
   <tile/>
   <tile/>
   <tile/>
   <tile/>
   <tile/>
   <tile/>
   <tile gid="49"/>
   <tile/>
   <tile/>
   <tile gid="49"/>
   <tile/>
   <tile/>
   <tile/>
   <tile/>
   <tile/>
   <tile/>
   <tile/>
   <tile/>
   <tile/>
   <tile/>
   <tile/>
   <tile/>
   <tile/>
   <tile/>
   <tile/>
   <tile/>
   <tile/>
   <tile/>
   <tile/>
   <tile/>
   <tile/>
   <tile/>
   <tile/>
   <tile/>
   <tile/>
   <tile/>
   <tile/>
   <tile/>
   <tile/>
   <tile/>
   <tile/>
   <tile/>
   <tile/>
   <tile/>
   <tile/>
   <tile/>
   <tile/>
   <tile/>
   <tile/>
   <tile/>
   <tile/>
   <tile gid="49"/>
   <tile/>
   <tile/>
   <tile gid="49"/>
   <tile/>
   <tile/>
   <tile/>
   <tile/>
   <tile/>
   <tile/>
   <tile/>
   <tile/>
   <tile/>
   <tile/>
   <tile/>
   <tile/>
   <tile/>
   <tile/>
   <tile/>
   <tile/>
   <tile/>
   <tile/>
   <tile/>
   <tile/>
   <tile/>
   <tile/>
   <tile/>
   <tile/>
   <tile/>
   <tile/>
   <tile/>
   <tile/>
   <tile/>
   <tile/>
   <tile/>
   <tile/>
   <tile/>
   <tile/>
   <tile/>
   <tile/>
   <tile/>
   <tile/>
   <tile/>
   <tile/>
   <tile/>
   <tile gid="49"/>
   <tile/>
   <tile/>
   <tile gid="49"/>
   <tile/>
   <tile/>
   <tile/>
   <tile/>
   <tile/>
   <tile/>
   <tile/>
   <tile/>
   <tile/>
   <tile/>
   <tile/>
   <tile/>
   <tile/>
   <tile/>
   <tile/>
   <tile/>
   <tile/>
   <tile/>
   <tile/>
   <tile/>
   <tile/>
   <tile/>
   <tile/>
   <tile/>
   <tile/>
   <tile/>
   <tile/>
   <tile/>
   <tile/>
   <tile/>
   <tile/>
   <tile/>
   <tile/>
   <tile/>
   <tile/>
   <tile/>
   <tile/>
   <tile/>
   <tile/>
   <tile/>
   <tile/>
   <tile gid="49"/>
   <tile/>
   <tile/>
   <tile gid="49"/>
   <tile/>
   <tile/>
   <tile/>
   <tile/>
   <tile/>
   <tile/>
   <tile/>
   <tile/>
   <tile/>
   <tile/>
   <tile/>
   <tile/>
   <tile/>
   <tile/>
   <tile/>
   <tile/>
   <tile/>
   <tile/>
   <tile/>
   <tile/>
   <tile/>
   <tile/>
   <tile/>
   <tile/>
   <tile/>
   <tile/>
   <tile/>
   <tile/>
   <tile/>
   <tile/>
   <tile/>
   <tile/>
   <tile/>
   <tile/>
   <tile/>
   <tile/>
   <tile/>
   <tile/>
   <tile/>
   <tile/>
   <tile/>
   <tile gid="49"/>
   <tile/>
   <tile/>
   <tile gid="49"/>
   <tile/>
   <tile/>
   <tile/>
   <tile/>
   <tile/>
   <tile/>
   <tile/>
   <tile/>
   <tile/>
   <tile/>
   <tile/>
   <tile/>
   <tile/>
   <tile/>
   <tile/>
   <tile/>
   <tile/>
   <tile/>
   <tile/>
   <tile/>
   <tile/>
   <tile/>
   <tile/>
   <tile/>
   <tile/>
   <tile/>
   <tile/>
   <tile/>
   <tile/>
   <tile/>
   <tile/>
   <tile/>
   <tile/>
   <tile/>
   <tile/>
   <tile/>
   <tile/>
   <tile/>
   <tile/>
   <tile/>
   <tile/>
   <tile gid="49"/>
   <tile/>
   <tile/>
   <tile gid="49"/>
   <tile/>
   <tile/>
   <tile/>
   <tile/>
   <tile/>
   <tile/>
   <tile/>
   <tile/>
   <tile/>
   <tile/>
   <tile/>
   <tile/>
   <tile/>
   <tile/>
   <tile/>
   <tile/>
   <tile/>
   <tile/>
   <tile/>
   <tile/>
   <tile/>
   <tile/>
   <tile/>
   <tile/>
   <tile/>
   <tile/>
   <tile/>
   <tile/>
   <tile/>
   <tile/>
   <tile/>
   <tile/>
   <tile/>
   <tile/>
   <tile/>
   <tile/>
   <tile/>
   <tile/>
   <tile/>
   <tile/>
   <tile/>
   <tile gid="49"/>
   <tile/>
   <tile/>
   <tile gid="49"/>
   <tile/>
   <tile/>
   <tile/>
   <tile/>
   <tile/>
   <tile/>
   <tile/>
   <tile/>
   <tile/>
   <tile/>
   <tile/>
   <tile/>
   <tile/>
   <tile/>
   <tile/>
   <tile/>
   <tile/>
   <tile/>
   <tile/>
   <tile/>
   <tile/>
   <tile/>
   <tile/>
   <tile/>
   <tile/>
   <tile/>
   <tile/>
   <tile/>
   <tile/>
   <tile/>
   <tile/>
   <tile/>
   <tile/>
   <tile/>
   <tile/>
   <tile/>
   <tile/>
   <tile/>
   <tile/>
   <tile/>
   <tile/>
   <tile gid="49"/>
   <tile/>
   <tile/>
   <tile gid="49"/>
   <tile/>
   <tile/>
   <tile/>
   <tile/>
   <tile/>
   <tile/>
   <tile/>
   <tile/>
   <tile/>
   <tile/>
   <tile/>
   <tile/>
   <tile/>
   <tile/>
   <tile/>
   <tile/>
   <tile/>
   <tile/>
   <tile/>
   <tile/>
   <tile/>
   <tile/>
   <tile/>
   <tile/>
   <tile/>
   <tile/>
   <tile/>
   <tile/>
   <tile/>
   <tile/>
   <tile/>
   <tile/>
   <tile/>
   <tile/>
   <tile/>
   <tile/>
   <tile/>
   <tile/>
   <tile/>
   <tile/>
   <tile/>
   <tile gid="49"/>
   <tile/>
   <tile/>
   <tile gid="49"/>
   <tile gid="49"/>
   <tile gid="49"/>
   <tile gid="49"/>
   <tile gid="49"/>
   <tile gid="49"/>
   <tile gid="49"/>
   <tile gid="49"/>
   <tile gid="49"/>
   <tile gid="49"/>
   <tile gid="49"/>
   <tile gid="49"/>
   <tile gid="49"/>
   <tile gid="49"/>
   <tile gid="49"/>
   <tile gid="49"/>
   <tile gid="49"/>
   <tile gid="49"/>
   <tile gid="49"/>
   <tile gid="49"/>
   <tile gid="49"/>
   <tile gid="49"/>
   <tile gid="49"/>
   <tile gid="49"/>
   <tile gid="49"/>
   <tile gid="49"/>
   <tile gid="49"/>
   <tile gid="49"/>
   <tile gid="49"/>
   <tile gid="49"/>
   <tile gid="49"/>
   <tile gid="49"/>
   <tile gid="49"/>
   <tile gid="49"/>
   <tile gid="49"/>
   <tile gid="49"/>
   <tile gid="49"/>
   <tile gid="49"/>
   <tile gid="49"/>
   <tile gid="49"/>
   <tile gid="49"/>
   <tile gid="49"/>
   <tile gid="49"/>
   <tile/>
   <tile/>
   <tile/>
   <tile/>
   <tile/>
   <tile/>
   <tile/>
   <tile/>
   <tile/>
   <tile/>
   <tile/>
   <tile/>
   <tile/>
   <tile/>
   <tile/>
   <tile/>
   <tile/>
   <tile/>
   <tile/>
   <tile/>
   <tile/>
   <tile/>
   <tile/>
   <tile/>
   <tile/>
   <tile/>
   <tile/>
   <tile/>
   <tile/>
   <tile/>
   <tile/>
   <tile/>
   <tile/>
   <tile/>
   <tile/>
   <tile/>
   <tile/>
   <tile/>
   <tile/>
   <tile/>
   <tile/>
   <tile/>
   <tile/>
   <tile/>
   <tile/>
   <tile/>
  </data>
 </layer>
 <objectgroup id="5" name="Collision">
  <properties>
   <property name="Collision" type="bool" value="true"/>
   <property name="Draw" type="bool" value="false"/>
  </properties>
  <object id="5" x="0" y="1216" width="1440" height="64"/>
  <object id="6" x="0" y="0" width="1440" height="64"/>
  <object id="8" x="1376" y="64" width="64" height="1152"/>
  <object id="9" x="1120" y="672" width="256" height="160"/>
  <object id="10" x="928" y="672" width="64" height="160"/>
  <object id="11" x="64" y="672" width="256" height="160"/>
  <object id="13" x="64" y="320" width="160" height="128"/>
  <object id="14" x="288" y="320" width="160" height="128"/>
  <object id="15" x="224" y="320" width="64" height="32"/>
  <object id="16" x="1216" y="320" width="160" height="128"/>
  <object id="17" x="1152" y="320" width="64" height="32"/>
  <object id="18" x="992" y="320" width="160" height="128"/>
  <object id="19" x="800" y="64" width="64" height="256"/>
  <object id="20" x="576" y="64" width="64" height="256"/>
  <object id="21" x="448" y="320" width="128" height="64"/>
  <object id="22" x="864" y="320" width="128" height="64"/>
  <object id="23" x="960" y="384" width="32" height="32"/>
  <object id="24" x="832" y="320" width="32" height="32"/>
  <object id="25" x="576" y="320" width="32" height="32"/>
  <object id="26" x="448" y="384" width="32" height="32"/>
  <object id="27" x="448" y="672" width="64" height="160"/>
  <object id="28" x="544" y="512" width="352" height="128"/>
  <object id="29" x="864" y="640" width="64" height="128"/>
  <object id="30" x="512" y="640" width="64" height="128"/>
  <object id="33" x="512" y="608" width="32" height="32"/>
  <object id="34" x="480" y="640" width="32" height="32"/>
  <object id="35" x="512" y="768" width="32" height="32"/>
  <object id="36" x="896" y="608" width="32" height="32"/>
  <object id="37" x="928" y="640" width="32" height="32"/>
  <object id="38" x="896" y="768" width="32" height="32"/>
  <object id="43" x="0" y="1056" width="32" height="96"/>
  <object id="44" x="0" y="1152" width="64" height="64"/>
  <object id="45" x="0" y="63" width="64" height="993"/>
 </objectgroup>
 <objectgroup id="6" name="Teleport">
  <object id="39" x="32" y="1056" width="32" height="96">
   <properties>
    <property name="targetMap" value="azotea.tmx"/>
   </properties>
  </object>
  <object id="41" x="224" y="352" width="64" height="96">
   <properties>
    <property name="targetMap" value="Sala1.tmx"/>
   </properties>
  </object>
  <object id="49" x="1152" y="352" width="64" height="96">
   <properties>
    <property name="targetMap" value="RestaurantDungeon.tmx"/>
   </properties>
  </object>
 </objectgroup>
 <objectgroup id="7" name="Checkpoints">
  <object id="50" x="224" y="448" width="64" height="32"/>
  <object id="51" x="1152" y="448" width="64" height="32"/>
  <object id="52" x="64" y="1056" width="32" height="96"/>
 </objectgroup>
 <objectgroup id="4" name="Entities">
  <object id="1" name="Enemy2" type="Enemy" x="429.333" y="1037.33">
   <properties>
    <property name="Enemy_ID" type="int" value="2"/>
    <property name="active" type="bool" value="true"/>
    <property name="fight_ID" type="int" value="2"/>
    <property name="texturePath" value="Assets/Maps/Tilesets/x.png"/>
   </properties>
   <point/>
  </object>
  <object id="2" name="Enemy3" type="Enemy" x="765.333" y="730.667">
   <properties>
    <property name="Enemy_ID" type="int" value="3"/>
    <property name="active" type="bool" value="true"/>
    <property name="fight_ID" type="int" value="2"/>
    <property name="texturePath" value="Assets/Maps/Tilesets/x.png"/>
   </properties>
   <point/>
  </object>
  <object id="3" name="Enemy4" type="Enemy" x="1213.33" y="1085.33">
   <properties>
    <property name="Enemy_ID" type="int" value="4"/>
    <property name="active" type="bool" value="true"/>
    <property name="fight_ID" type="int" value="2"/>
    <property name="texturePath" value="Assets/Maps/Tilesets/x.png"/>
   </properties>
   <point/>
  </object>
  <object id="4" name="Player" type="Player" x="128" y="1120">
   <properties>
    <property name="magicPoints" type="int" value="50"/>
   </properties>
   <point/>
  </object>
  <object id="46" name="Scared_NPC" type="NPC" x="796.083" y="1054.59">
   <properties>
    <property name="NPC_ID" value="3"/>
    <property name="active" type="bool" value="true"/>
    <property name="currentDialogueTree" type="int" value="0"/>
    <property name="texturePath" value="Assets/Textures/goldCoin.png"/>
   </properties>
   <point/>
  </object>
  <object id="48" name="Blocked_NPC" type="NPC" x="663.892" y="810.771">
   <properties>
    <property name="NPC_ID" value="4"/>
    <property name="active" type="bool" value="true"/>
    <property name="currentDialogueTree" type="int" value="0"/>
    <property name="texturePath" value="Assets/Textures/goldCoin.png"/>
   </properties>
   <point/>
  </object>
 </objectgroup>
</map>
