<?xml version="1.0" encoding="UTF-8"?>
<map version="1.10" tiledversion="1.11.2" orientation="orthogonal" renderorder="right-down" width="100" height="125" tilewidth="32" tileheight="32" infinite="0" nextlayerid="7" nextobjectid="178">
 <tileset firstgid="1" name="tmw_desert_spacing" tilewidth="32" tileheight="32" spacing="1" margin="1" tilecount="48" columns="8">
  <image source="../Tilesets/tmw_desert_spacing.png" width="265" height="199"/>
 </tileset>
 <tileset firstgid="49" name="MapMetadata" tilewidth="32" tileheight="32" spacing="1" margin="1" tilecount="2" columns="2">
  <image source="../Tilesets/MapMetadata.png" width="67" height="34"/>
 </tileset>
 <layer id="1" name="Map" width="100" height="125">
  <properties>
   <property name="Draw" type="bool" value="true"/>
  </properties>
  <data>
   <tile gid="34"/>
   <tile gid="34"/>
   <tile gid="34"/>
   <tile gid="34"/>
   <tile gid="34"/>
   <tile gid="34"/>
   <tile gid="34"/>
   <tile gid="34"/>
   <tile gid="34"/>
   <tile gid="34"/>
   <tile gid="34"/>
   <tile gid="34"/>
   <tile gid="34"/>
   <tile gid="34"/>
   <tile gid="34"/>
   <tile gid="34"/>
   <tile gid="34"/>
   <tile gid="34"/>
   <tile gid="34"/>
   <tile gid="34"/>
   <tile gid="34"/>
   <tile gid="34"/>
   <tile gid="34"/>
   <tile gid="34"/>
   <tile gid="34"/>
   <tile gid="34"/>
   <tile gid="34"/>
   <tile gid="34"/>
   <tile gid="34"/>
   <tile gid="34"/>
   <tile gid="34"/>
   <tile gid="34"/>
   <tile gid="34"/>
   <tile gid="34"/>
   <tile gid="34"/>
   <tile gid="34"/>
   <tile gid="34"/>
   <tile gid="34"/>
   <tile gid="34"/>
   <tile gid="34"/>
   <tile gid="34"/>
   <tile gid="34"/>
   <tile gid="34"/>
   <tile gid="34"/>
   <tile gid="34"/>
   <tile gid="34"/>
   <tile gid="34"/>
   <tile gid="34"/>
   <tile gid="34"/>
   <tile gid="34"/>
   <tile gid="34"/>
   <tile gid="34"/>
   <tile gid="34"/>
   <tile gid="34"/>
   <tile gid="34"/>
   <tile gid="34"/>
   <tile gid="34"/>
   <tile gid="34"/>
   <tile gid="34"/>
   <tile gid="34"/>
   <tile gid="34"/>
   <tile gid="34"/>
   <tile gid="34"/>
   <tile gid="34"/>
   <tile gid="34"/>
   <tile gid="34"/>
   <tile gid="34"/>
   <tile gid="34"/>
   <tile gid="34"/>
   <tile gid="34"/>
   <tile gid="34"/>
   <tile gid="34"/>
   <tile gid="34"/>
   <tile gid="34"/>
   <tile gid="34"/>
   <tile gid="34"/>
   <tile gid="34"/>
   <tile gid="34"/>
   <tile gid="34"/>
   <tile gid="34"/>
   <tile gid="34"/>
   <tile gid="34"/>
   <tile gid="34"/>
   <tile gid="34"/>
   <tile gid="34"/>
   <tile gid="34"/>
   <tile gid="34"/>
   <tile gid="34"/>
   <tile gid="34"/>
   <tile gid="34"/>
   <tile gid="34"/>
   <tile gid="34"/>
   <tile gid="34"/>
   <tile gid="34"/>
   <tile gid="34"/>
   <tile gid="34"/>
   <tile gid="34"/>
   <tile gid="34"/>
   <tile gid="34"/>
   <tile gid="34"/>
   <tile gid="34"/>
   <tile gid="34"/>
   <tile gid="34"/>
   <tile gid="34"/>
   <tile gid="34"/>
   <tile gid="34"/>
   <tile gid="34"/>
   <tile gid="34"/>
   <tile gid="34"/>
   <tile gid="34"/>
   <tile gid="34"/>
   <tile gid="34"/>
   <tile gid="34"/>
   <tile gid="34"/>
   <tile gid="34"/>
   <tile gid="34"/>
   <tile gid="34"/>
   <tile gid="34"/>
   <tile gid="34"/>
   <tile gid="34"/>
   <tile gid="34"/>
   <tile gid="34"/>
   <tile gid="34"/>
   <tile gid="34"/>
   <tile gid="34"/>
   <tile gid="34"/>
   <tile gid="34"/>
   <tile gid="34"/>
   <tile gid="34"/>
   <tile gid="34"/>
   <tile gid="34"/>
   <tile gid="34"/>
   <tile gid="34"/>
   <tile gid="34"/>
   <tile gid="34"/>
   <tile gid="34"/>
   <tile gid="34"/>
   <tile gid="34"/>
   <tile gid="34"/>
   <tile gid="34"/>
   <tile gid="34"/>
   <tile gid="34"/>
   <tile gid="34"/>
   <tile gid="34"/>
   <tile gid="34"/>
   <tile gid="34"/>
   <tile gid="34"/>
   <tile gid="34"/>
   <tile gid="34"/>
   <tile gid="34"/>
   <tile gid="34"/>
   <tile gid="34"/>
   <tile gid="34"/>
   <tile gid="34"/>
   <tile gid="34"/>
   <tile gid="34"/>
   <tile gid="34"/>
   <tile gid="34"/>
   <tile gid="34"/>
   <tile gid="34"/>
   <tile gid="34"/>
   <tile gid="34"/>
   <tile gid="34"/>
   <tile gid="34"/>
   <tile gid="34"/>
   <tile gid="34"/>
   <tile gid="34"/>
   <tile gid="34"/>
   <tile gid="34"/>
   <tile gid="34"/>
   <tile gid="34"/>
   <tile gid="34"/>
   <tile gid="34"/>
   <tile gid="34"/>
   <tile gid="34"/>
   <tile gid="34"/>
   <tile gid="34"/>
   <tile gid="34"/>
   <tile gid="34"/>
   <tile gid="34"/>
   <tile gid="34"/>
   <tile gid="34"/>
   <tile gid="34"/>
   <tile gid="34"/>
   <tile gid="34"/>
   <tile gid="34"/>
   <tile gid="34"/>
   <tile gid="34"/>
   <tile gid="34"/>
   <tile gid="34"/>
   <tile gid="34"/>
   <tile gid="34"/>
   <tile gid="34"/>
   <tile gid="34"/>
   <tile gid="34"/>
   <tile gid="34"/>
   <tile gid="34"/>
   <tile gid="34"/>
   <tile gid="34"/>
   <tile gid="34"/>
   <tile gid="34"/>
   <tile gid="34"/>
   <tile gid="34"/>
   <tile gid="34"/>
   <tile gid="34"/>
   <tile gid="34"/>
   <tile gid="34"/>
   <tile gid="34"/>
   <tile gid="34"/>
   <tile gid="34"/>
   <tile gid="34"/>
   <tile gid="34"/>
   <tile gid="34"/>
   <tile gid="34"/>
   <tile gid="34"/>
   <tile gid="34"/>
   <tile gid="34"/>
   <tile gid="34"/>
   <tile gid="34"/>
   <tile gid="34"/>
   <tile gid="34"/>
   <tile gid="34"/>
   <tile gid="34"/>
   <tile gid="34"/>
   <tile gid="34"/>
   <tile gid="34"/>
   <tile gid="34"/>
   <tile gid="34"/>
   <tile gid="34"/>
   <tile gid="34"/>
   <tile gid="34"/>
   <tile gid="34"/>
   <tile gid="34"/>
   <tile gid="34"/>
   <tile gid="34"/>
   <tile gid="34"/>
   <tile gid="34"/>
   <tile gid="49"/>
   <tile gid="49"/>
   <tile gid="49"/>
   <tile gid="34"/>
   <tile gid="34"/>
   <tile gid="34"/>
   <tile gid="34"/>
   <tile gid="34"/>
   <tile gid="34"/>
   <tile gid="34"/>
   <tile gid="34"/>
   <tile gid="34"/>
   <tile gid="34"/>
   <tile gid="34"/>
   <tile gid="34"/>
   <tile gid="34"/>
   <tile gid="34"/>
   <tile gid="34"/>
   <tile gid="34"/>
   <tile gid="34"/>
   <tile gid="34"/>
   <tile gid="34"/>
   <tile gid="34"/>
   <tile gid="34"/>
   <tile gid="34"/>
   <tile gid="34"/>
   <tile gid="34"/>
   <tile gid="34"/>
   <tile gid="34"/>
   <tile gid="34"/>
   <tile gid="34"/>
   <tile gid="34"/>
   <tile gid="34"/>
   <tile gid="34"/>
   <tile gid="34"/>
   <tile gid="34"/>
   <tile gid="34"/>
   <tile gid="34"/>
   <tile gid="34"/>
   <tile gid="34"/>
   <tile gid="34"/>
   <tile gid="34"/>
   <tile gid="34"/>
   <tile gid="34"/>
   <tile gid="34"/>
   <tile gid="34"/>
   <tile gid="34"/>
   <tile gid="34"/>
   <tile gid="34"/>
   <tile gid="34"/>
   <tile gid="34"/>
   <tile gid="34"/>
   <tile gid="34"/>
   <tile gid="34"/>
   <tile gid="34"/>
   <tile gid="34"/>
   <tile gid="34"/>
   <tile gid="34"/>
   <tile gid="34"/>
   <tile gid="34"/>
   <tile gid="34"/>
   <tile gid="34"/>
   <tile gid="34"/>
   <tile gid="34"/>
   <tile gid="34"/>
   <tile gid="34"/>
   <tile gid="30"/>
   <tile gid="30"/>
   <tile gid="30"/>
   <tile gid="30"/>
   <tile gid="30"/>
   <tile gid="30"/>
   <tile gid="30"/>
   <tile gid="30"/>
   <tile gid="30"/>
   <tile gid="30"/>
   <tile gid="30"/>
   <tile gid="30"/>
   <tile gid="30"/>
   <tile gid="30"/>
   <tile gid="30"/>
   <tile gid="30"/>
   <tile gid="30"/>
   <tile gid="30"/>
   <tile gid="30"/>
   <tile gid="30"/>
   <tile gid="30"/>
   <tile gid="34"/>
   <tile gid="34"/>
   <tile gid="34"/>
   <tile gid="30"/>
   <tile gid="30"/>
   <tile gid="30"/>
   <tile gid="30"/>
   <tile gid="30"/>
   <tile gid="30"/>
   <tile gid="30"/>
   <tile gid="30"/>
   <tile gid="30"/>
   <tile gid="30"/>
   <tile gid="30"/>
   <tile gid="30"/>
   <tile gid="30"/>
   <tile gid="30"/>
   <tile gid="30"/>
   <tile gid="30"/>
   <tile gid="30"/>
   <tile gid="30"/>
   <tile gid="30"/>
   <tile gid="30"/>
   <tile gid="30"/>
   <tile gid="34"/>
   <tile gid="34"/>
   <tile gid="34"/>
   <tile gid="34"/>
   <tile gid="34"/>
   <tile gid="34"/>
   <tile gid="34"/>
   <tile gid="34"/>
   <tile gid="34"/>
   <tile gid="34"/>
   <tile gid="34"/>
   <tile gid="34"/>
   <tile gid="34"/>
   <tile gid="34"/>
   <tile gid="34"/>
   <tile gid="34"/>
   <tile gid="34"/>
   <tile gid="34"/>
   <tile gid="34"/>
   <tile gid="34"/>
   <tile gid="34"/>
   <tile gid="34"/>
   <tile gid="34"/>
   <tile gid="34"/>
   <tile gid="34"/>
   <tile gid="34"/>
   <tile gid="34"/>
   <tile gid="34"/>
   <tile gid="30"/>
   <tile gid="30"/>
   <tile gid="30"/>
   <tile gid="30"/>
   <tile gid="30"/>
   <tile gid="30"/>
   <tile gid="30"/>
   <tile gid="30"/>
   <tile gid="30"/>
   <tile gid="30"/>
   <tile gid="30"/>
   <tile gid="36"/>
   <tile gid="37"/>
   <tile gid="30"/>
   <tile gid="30"/>
   <tile gid="30"/>
   <tile gid="30"/>
   <tile gid="30"/>
   <tile gid="30"/>
   <tile gid="30"/>
   <tile gid="30"/>
   <tile gid="34"/>
   <tile gid="34"/>
   <tile gid="34"/>
   <tile gid="34"/>
   <tile gid="34"/>
   <tile gid="34"/>
   <tile gid="30"/>
   <tile gid="30"/>
   <tile gid="30"/>
   <tile gid="30"/>
   <tile gid="30"/>
   <tile gid="30"/>
   <tile gid="30"/>
   <tile gid="30"/>
   <tile gid="30"/>
   <tile gid="30"/>
   <tile gid="30"/>
   <tile gid="30"/>
   <tile gid="30"/>
   <tile gid="30"/>
   <tile gid="30"/>
   <tile gid="30"/>
   <tile gid="30"/>
   <tile gid="30"/>
   <tile gid="30"/>
   <tile gid="30"/>
   <tile gid="30"/>
   <tile gid="34"/>
   <tile gid="34"/>
   <tile gid="34"/>
   <tile gid="30"/>
   <tile gid="30"/>
   <tile gid="30"/>
   <tile gid="30"/>
   <tile gid="30"/>
   <tile gid="30"/>
   <tile gid="30"/>
   <tile gid="30"/>
   <tile gid="30"/>
   <tile gid="30"/>
   <tile gid="30"/>
   <tile gid="30"/>
   <tile gid="30"/>
   <tile gid="30"/>
   <tile gid="30"/>
   <tile gid="30"/>
   <tile gid="30"/>
   <tile gid="30"/>
   <tile gid="30"/>
   <tile gid="30"/>
   <tile gid="30"/>
   <tile gid="34"/>
   <tile gid="34"/>
   <tile gid="34"/>
   <tile gid="34"/>
   <tile gid="34"/>
   <tile gid="34"/>
   <tile gid="34"/>
   <tile gid="34"/>
   <tile gid="34"/>
   <tile gid="34"/>
   <tile gid="34"/>
   <tile gid="34"/>
   <tile gid="34"/>
   <tile gid="34"/>
   <tile gid="34"/>
   <tile gid="34"/>
   <tile gid="34"/>
   <tile gid="34"/>
   <tile gid="34"/>
   <tile gid="34"/>
   <tile gid="34"/>
   <tile gid="34"/>
   <tile gid="34"/>
   <tile gid="34"/>
   <tile gid="34"/>
   <tile gid="34"/>
   <tile gid="34"/>
   <tile gid="34"/>
   <tile gid="30"/>
   <tile gid="30"/>
   <tile gid="30"/>
   <tile gid="30"/>
   <tile gid="30"/>
   <tile gid="30"/>
   <tile gid="30"/>
   <tile gid="30"/>
   <tile gid="30"/>
   <tile gid="30"/>
   <tile gid="30"/>
   <tile gid="44"/>
   <tile gid="45"/>
   <tile gid="30"/>
   <tile gid="30"/>
   <tile gid="30"/>
   <tile gid="30"/>
   <tile gid="30"/>
   <tile gid="30"/>
   <tile gid="30"/>
   <tile gid="30"/>
   <tile gid="34"/>
   <tile gid="34"/>
   <tile gid="34"/>
   <tile gid="34"/>
   <tile gid="34"/>
   <tile gid="34"/>
   <tile gid="30"/>
   <tile gid="30"/>
   <tile gid="30"/>
   <tile gid="30"/>
   <tile gid="30"/>
   <tile gid="30"/>
   <tile gid="30"/>
   <tile gid="30"/>
   <tile gid="30"/>
   <tile gid="30"/>
   <tile gid="30"/>
   <tile gid="30"/>
   <tile gid="30"/>
   <tile gid="30"/>
   <tile gid="30"/>
   <tile gid="30"/>
   <tile gid="30"/>
   <tile gid="30"/>
   <tile gid="30"/>
   <tile gid="30"/>
   <tile gid="30"/>
   <tile gid="34"/>
   <tile gid="34"/>
   <tile gid="34"/>
   <tile gid="30"/>
   <tile gid="30"/>
   <tile gid="30"/>
   <tile gid="30"/>
   <tile gid="30"/>
   <tile gid="30"/>
   <tile gid="30"/>
   <tile gid="30"/>
   <tile gid="30"/>
   <tile gid="30"/>
   <tile gid="30"/>
   <tile gid="30"/>
   <tile gid="30"/>
   <tile gid="30"/>
   <tile gid="30"/>
   <tile gid="30"/>
   <tile gid="30"/>
   <tile gid="30"/>
   <tile gid="30"/>
   <tile gid="30"/>
   <tile gid="30"/>
   <tile gid="34"/>
   <tile gid="34"/>
   <tile gid="34"/>
   <tile gid="34"/>
   <tile gid="34"/>
   <tile gid="34"/>
   <tile gid="34"/>
   <tile gid="34"/>
   <tile gid="34"/>
   <tile gid="34"/>
   <tile gid="34"/>
   <tile gid="34"/>
   <tile gid="34"/>
   <tile gid="34"/>
   <tile gid="34"/>
   <tile gid="34"/>
   <tile gid="34"/>
   <tile gid="34"/>
   <tile gid="34"/>
   <tile gid="34"/>
   <tile gid="34"/>
   <tile gid="34"/>
   <tile gid="34"/>
   <tile gid="34"/>
   <tile gid="34"/>
   <tile gid="34"/>
   <tile gid="34"/>
   <tile gid="34"/>
   <tile gid="30"/>
   <tile gid="30"/>
   <tile gid="30"/>
   <tile gid="30"/>
   <tile gid="30"/>
   <tile gid="30"/>
   <tile gid="30"/>
   <tile gid="30"/>
   <tile gid="30"/>
   <tile gid="30"/>
   <tile gid="30"/>
   <tile gid="30"/>
   <tile gid="30"/>
   <tile gid="30"/>
   <tile gid="30"/>
   <tile gid="30"/>
   <tile gid="30"/>
   <tile gid="30"/>
   <tile gid="30"/>
   <tile gid="30"/>
   <tile gid="30"/>
   <tile gid="34"/>
   <tile gid="34"/>
   <tile gid="34"/>
   <tile gid="34"/>
   <tile gid="34"/>
   <tile gid="34"/>
   <tile gid="30"/>
   <tile gid="30"/>
   <tile gid="30"/>
   <tile gid="30"/>
   <tile gid="30"/>
   <tile gid="30"/>
   <tile gid="30"/>
   <tile gid="30"/>
   <tile gid="30"/>
   <tile gid="30"/>
   <tile gid="30"/>
   <tile gid="30"/>
   <tile gid="30"/>
   <tile gid="30"/>
   <tile gid="30"/>
   <tile gid="30"/>
   <tile gid="30"/>
   <tile gid="30"/>
   <tile gid="30"/>
   <tile gid="30"/>
   <tile gid="30"/>
   <tile gid="34"/>
   <tile gid="34"/>
   <tile gid="34"/>
   <tile gid="30"/>
   <tile gid="30"/>
   <tile gid="30"/>
   <tile gid="30"/>
   <tile gid="30"/>
   <tile gid="30"/>
   <tile gid="30"/>
   <tile gid="30"/>
   <tile gid="30"/>
   <tile gid="30"/>
   <tile gid="30"/>
   <tile gid="30"/>
   <tile gid="30"/>
   <tile gid="30"/>
   <tile gid="30"/>
   <tile gid="30"/>
   <tile gid="30"/>
   <tile gid="30"/>
   <tile gid="30"/>
   <tile gid="30"/>
   <tile gid="30"/>
   <tile gid="34"/>
   <tile gid="34"/>
   <tile gid="34"/>
   <tile gid="34"/>
   <tile gid="34"/>
   <tile gid="34"/>
   <tile gid="34"/>
   <tile gid="34"/>
   <tile gid="34"/>
   <tile gid="34"/>
   <tile gid="34"/>
   <tile gid="34"/>
   <tile gid="34"/>
   <tile gid="34"/>
   <tile gid="34"/>
   <tile gid="34"/>
   <tile gid="34"/>
   <tile gid="34"/>
   <tile gid="34"/>
   <tile gid="34"/>
   <tile gid="34"/>
   <tile gid="34"/>
   <tile gid="34"/>
   <tile gid="34"/>
   <tile gid="34"/>
   <tile gid="34"/>
   <tile gid="34"/>
   <tile gid="34"/>
   <tile gid="30"/>
   <tile gid="30"/>
   <tile gid="30"/>
   <tile gid="30"/>
   <tile gid="30"/>
   <tile gid="30"/>
   <tile gid="30"/>
   <tile gid="30"/>
   <tile gid="30"/>
   <tile gid="30"/>
   <tile gid="30"/>
   <tile gid="30"/>
   <tile gid="30"/>
   <tile gid="30"/>
   <tile gid="30"/>
   <tile gid="30"/>
   <tile gid="30"/>
   <tile gid="30"/>
   <tile gid="30"/>
   <tile gid="30"/>
   <tile gid="30"/>
   <tile gid="34"/>
   <tile gid="34"/>
   <tile gid="34"/>
   <tile gid="34"/>
   <tile gid="34"/>
   <tile gid="34"/>
   <tile gid="30"/>
   <tile gid="30"/>
   <tile gid="30"/>
   <tile gid="30"/>
   <tile gid="30"/>
   <tile gid="30"/>
   <tile gid="30"/>
   <tile gid="30"/>
   <tile gid="30"/>
   <tile gid="30"/>
   <tile gid="30"/>
   <tile gid="30"/>
   <tile gid="30"/>
   <tile gid="30"/>
   <tile gid="30"/>
   <tile gid="30"/>
   <tile gid="30"/>
   <tile gid="30"/>
   <tile gid="30"/>
   <tile gid="30"/>
   <tile gid="30"/>
   <tile gid="34"/>
   <tile gid="34"/>
   <tile gid="34"/>
   <tile gid="30"/>
   <tile gid="30"/>
   <tile gid="30"/>
   <tile gid="30"/>
   <tile gid="30"/>
   <tile gid="30"/>
   <tile gid="30"/>
   <tile gid="30"/>
   <tile gid="30"/>
   <tile gid="30"/>
   <tile gid="30"/>
   <tile gid="30"/>
   <tile gid="30"/>
   <tile gid="30"/>
   <tile gid="30"/>
   <tile gid="30"/>
   <tile gid="30"/>
   <tile gid="30"/>
   <tile gid="30"/>
   <tile gid="30"/>
   <tile gid="30"/>
   <tile gid="34"/>
   <tile gid="34"/>
   <tile gid="34"/>
   <tile gid="34"/>
   <tile gid="34"/>
   <tile gid="34"/>
   <tile gid="34"/>
   <tile gid="34"/>
   <tile gid="34"/>
   <tile gid="34"/>
   <tile gid="34"/>
   <tile gid="34"/>
   <tile gid="34"/>
   <tile gid="34"/>
   <tile gid="34"/>
   <tile gid="34"/>
   <tile gid="34"/>
   <tile gid="34"/>
   <tile gid="34"/>
   <tile gid="34"/>
   <tile gid="34"/>
   <tile gid="34"/>
   <tile gid="34"/>
   <tile gid="34"/>
   <tile gid="34"/>
   <tile gid="34"/>
   <tile gid="34"/>
   <tile gid="34"/>
   <tile gid="30"/>
   <tile gid="30"/>
   <tile gid="30"/>
   <tile gid="30"/>
   <tile gid="30"/>
   <tile gid="30"/>
   <tile gid="30"/>
   <tile gid="30"/>
   <tile gid="30"/>
   <tile gid="30"/>
   <tile gid="30"/>
   <tile gid="30"/>
   <tile gid="30"/>
   <tile gid="30"/>
   <tile gid="30"/>
   <tile gid="30"/>
   <tile gid="30"/>
   <tile gid="30"/>
   <tile gid="30"/>
   <tile gid="30"/>
   <tile gid="30"/>
   <tile gid="34"/>
   <tile gid="34"/>
   <tile gid="34"/>
   <tile gid="34"/>
   <tile gid="34"/>
   <tile gid="34"/>
   <tile gid="30"/>
   <tile gid="30"/>
   <tile gid="30"/>
   <tile gid="30"/>
   <tile gid="30"/>
   <tile gid="30"/>
   <tile gid="30"/>
   <tile gid="30"/>
   <tile gid="30"/>
   <tile gid="30"/>
   <tile gid="30"/>
   <tile gid="30"/>
   <tile gid="30"/>
   <tile gid="30"/>
   <tile gid="30"/>
   <tile gid="30"/>
   <tile gid="30"/>
   <tile gid="30"/>
   <tile gid="30"/>
   <tile gid="30"/>
   <tile gid="30"/>
   <tile gid="34"/>
   <tile gid="34"/>
   <tile gid="34"/>
   <tile gid="30"/>
   <tile gid="30"/>
   <tile gid="30"/>
   <tile gid="30"/>
   <tile gid="30"/>
   <tile gid="30"/>
   <tile gid="30"/>
   <tile gid="30"/>
   <tile gid="30"/>
   <tile gid="30"/>
   <tile gid="30"/>
   <tile gid="30"/>
   <tile gid="30"/>
   <tile gid="30"/>
   <tile gid="30"/>
   <tile gid="30"/>
   <tile gid="30"/>
   <tile gid="30"/>
   <tile gid="30"/>
   <tile gid="30"/>
   <tile gid="30"/>
   <tile gid="34"/>
   <tile gid="34"/>
   <tile gid="34"/>
   <tile gid="34"/>
   <tile gid="34"/>
   <tile gid="34"/>
   <tile gid="34"/>
   <tile gid="34"/>
   <tile gid="34"/>
   <tile gid="34"/>
   <tile gid="34"/>
   <tile gid="34"/>
   <tile gid="34"/>
   <tile gid="34"/>
   <tile gid="34"/>
   <tile gid="34"/>
   <tile gid="34"/>
   <tile gid="34"/>
   <tile gid="34"/>
   <tile gid="34"/>
   <tile gid="34"/>
   <tile gid="34"/>
   <tile gid="34"/>
   <tile gid="34"/>
   <tile gid="34"/>
   <tile gid="34"/>
   <tile gid="34"/>
   <tile gid="34"/>
   <tile gid="30"/>
   <tile gid="30"/>
   <tile gid="30"/>
   <tile gid="30"/>
   <tile gid="30"/>
   <tile gid="30"/>
   <tile gid="30"/>
   <tile gid="30"/>
   <tile gid="30"/>
   <tile gid="30"/>
   <tile gid="30"/>
   <tile gid="30"/>
   <tile gid="30"/>
   <tile gid="30"/>
   <tile gid="30"/>
   <tile gid="30"/>
   <tile gid="30"/>
   <tile gid="30"/>
   <tile gid="30"/>
   <tile gid="30"/>
   <tile gid="30"/>
   <tile gid="34"/>
   <tile gid="34"/>
   <tile gid="34"/>
   <tile gid="34"/>
   <tile gid="34"/>
   <tile gid="34"/>
   <tile gid="30"/>
   <tile gid="30"/>
   <tile gid="30"/>
   <tile gid="30"/>
   <tile gid="30"/>
   <tile gid="30"/>
   <tile gid="30"/>
   <tile gid="30"/>
   <tile gid="30"/>
   <tile gid="30"/>
   <tile gid="30"/>
   <tile gid="30"/>
   <tile gid="30"/>
   <tile gid="30"/>
   <tile gid="30"/>
   <tile gid="30"/>
   <tile gid="30"/>
   <tile gid="30"/>
   <tile gid="30"/>
   <tile gid="30"/>
   <tile gid="30"/>
   <tile gid="34"/>
   <tile gid="34"/>
   <tile gid="34"/>
   <tile gid="30"/>
   <tile gid="30"/>
   <tile gid="30"/>
   <tile gid="30"/>
   <tile gid="30"/>
   <tile gid="30"/>
   <tile gid="30"/>
   <tile gid="30"/>
   <tile gid="30"/>
   <tile gid="30"/>
   <tile gid="30"/>
   <tile gid="30"/>
   <tile gid="30"/>
   <tile gid="30"/>
   <tile gid="30"/>
   <tile gid="30"/>
   <tile gid="30"/>
   <tile gid="30"/>
   <tile gid="30"/>
   <tile gid="30"/>
   <tile gid="30"/>
   <tile gid="34"/>
   <tile gid="34"/>
   <tile gid="34"/>
   <tile gid="34"/>
   <tile gid="34"/>
   <tile gid="34"/>
   <tile gid="34"/>
   <tile gid="34"/>
   <tile gid="34"/>
   <tile gid="34"/>
   <tile gid="34"/>
   <tile gid="34"/>
   <tile gid="34"/>
   <tile gid="34"/>
   <tile gid="34"/>
   <tile gid="34"/>
   <tile gid="34"/>
   <tile gid="34"/>
   <tile gid="34"/>
   <tile gid="34"/>
   <tile gid="34"/>
   <tile gid="34"/>
   <tile gid="34"/>
   <tile gid="34"/>
   <tile gid="34"/>
   <tile gid="34"/>
   <tile gid="34"/>
   <tile gid="34"/>
   <tile gid="30"/>
   <tile gid="30"/>
   <tile gid="30"/>
   <tile gid="30"/>
   <tile gid="30"/>
   <tile gid="30"/>
   <tile gid="30"/>
   <tile gid="30"/>
   <tile gid="30"/>
   <tile gid="30"/>
   <tile gid="30"/>
   <tile gid="30"/>
   <tile gid="30"/>
   <tile gid="30"/>
   <tile gid="30"/>
   <tile gid="30"/>
   <tile gid="30"/>
   <tile gid="30"/>
   <tile gid="30"/>
   <tile gid="30"/>
   <tile gid="30"/>
   <tile gid="34"/>
   <tile gid="34"/>
   <tile gid="34"/>
   <tile gid="34"/>
   <tile gid="34"/>
   <tile gid="34"/>
   <tile gid="30"/>
   <tile gid="30"/>
   <tile gid="30"/>
   <tile gid="30"/>
   <tile gid="30"/>
   <tile gid="30"/>
   <tile gid="30"/>
   <tile gid="30"/>
   <tile gid="30"/>
   <tile gid="30"/>
   <tile gid="30"/>
   <tile gid="30"/>
   <tile gid="30"/>
   <tile gid="30"/>
   <tile gid="30"/>
   <tile gid="30"/>
   <tile gid="30"/>
   <tile gid="30"/>
   <tile gid="30"/>
   <tile gid="30"/>
   <tile gid="30"/>
   <tile gid="34"/>
   <tile gid="34"/>
   <tile gid="34"/>
   <tile gid="30"/>
   <tile gid="30"/>
   <tile gid="30"/>
   <tile gid="30"/>
   <tile gid="30"/>
   <tile gid="30"/>
   <tile gid="30"/>
   <tile gid="30"/>
   <tile gid="30"/>
   <tile gid="30"/>
   <tile gid="30"/>
   <tile gid="30"/>
   <tile gid="30"/>
   <tile gid="30"/>
   <tile gid="30"/>
   <tile gid="30"/>
   <tile gid="30"/>
   <tile gid="30"/>
   <tile gid="30"/>
   <tile gid="30"/>
   <tile gid="30"/>
   <tile gid="34"/>
   <tile gid="34"/>
   <tile gid="34"/>
   <tile gid="34"/>
   <tile gid="34"/>
   <tile gid="34"/>
   <tile gid="34"/>
   <tile gid="34"/>
   <tile gid="34"/>
   <tile gid="34"/>
   <tile gid="34"/>
   <tile gid="34"/>
   <tile gid="34"/>
   <tile gid="34"/>
   <tile gid="34"/>
   <tile gid="34"/>
   <tile gid="34"/>
   <tile gid="34"/>
   <tile gid="34"/>
   <tile gid="34"/>
   <tile gid="34"/>
   <tile gid="34"/>
   <tile gid="34"/>
   <tile gid="34"/>
   <tile gid="34"/>
   <tile gid="34"/>
   <tile gid="34"/>
   <tile gid="34"/>
   <tile gid="30"/>
   <tile gid="30"/>
   <tile gid="30"/>
   <tile gid="30"/>
   <tile gid="30"/>
   <tile gid="30"/>
   <tile gid="30"/>
   <tile gid="30"/>
   <tile gid="30"/>
   <tile gid="30"/>
   <tile gid="30"/>
   <tile gid="30"/>
   <tile gid="30"/>
   <tile gid="30"/>
   <tile gid="30"/>
   <tile gid="30"/>
   <tile gid="30"/>
   <tile gid="30"/>
   <tile gid="30"/>
   <tile gid="30"/>
   <tile gid="30"/>
   <tile gid="34"/>
   <tile gid="34"/>
   <tile gid="34"/>
   <tile gid="34"/>
   <tile gid="34"/>
   <tile gid="34"/>
   <tile gid="30"/>
   <tile gid="30"/>
   <tile gid="30"/>
   <tile gid="30"/>
   <tile gid="30"/>
   <tile gid="30"/>
   <tile gid="30"/>
   <tile gid="30"/>
   <tile gid="30"/>
   <tile gid="30"/>
   <tile gid="30"/>
   <tile gid="30"/>
   <tile gid="30"/>
   <tile gid="30"/>
   <tile gid="30"/>
   <tile gid="30"/>
   <tile gid="30"/>
   <tile gid="30"/>
   <tile gid="30"/>
   <tile gid="30"/>
   <tile gid="30"/>
   <tile gid="34"/>
   <tile gid="34"/>
   <tile gid="34"/>
   <tile gid="30"/>
   <tile gid="30"/>
   <tile gid="30"/>
   <tile gid="30"/>
   <tile gid="30"/>
   <tile gid="30"/>
   <tile gid="30"/>
   <tile gid="30"/>
   <tile gid="30"/>
   <tile gid="30"/>
   <tile gid="30"/>
   <tile gid="30"/>
   <tile gid="30"/>
   <tile gid="30"/>
   <tile gid="30"/>
   <tile gid="30"/>
   <tile gid="30"/>
   <tile gid="30"/>
   <tile gid="30"/>
   <tile gid="30"/>
   <tile gid="30"/>
   <tile gid="34"/>
   <tile gid="34"/>
   <tile gid="34"/>
   <tile gid="34"/>
   <tile gid="34"/>
   <tile gid="34"/>
   <tile gid="34"/>
   <tile gid="34"/>
   <tile gid="34"/>
   <tile gid="34"/>
   <tile gid="34"/>
   <tile gid="34"/>
   <tile gid="34"/>
   <tile gid="34"/>
   <tile gid="34"/>
   <tile gid="34"/>
   <tile gid="34"/>
   <tile gid="34"/>
   <tile gid="34"/>
   <tile gid="34"/>
   <tile gid="34"/>
   <tile gid="34"/>
   <tile gid="34"/>
   <tile gid="34"/>
   <tile gid="34"/>
   <tile gid="34"/>
   <tile gid="34"/>
   <tile gid="34"/>
   <tile gid="30"/>
   <tile gid="30"/>
   <tile gid="30"/>
   <tile gid="30"/>
   <tile gid="30"/>
   <tile gid="30"/>
   <tile gid="30"/>
   <tile gid="30"/>
   <tile gid="30"/>
   <tile gid="30"/>
   <tile gid="30"/>
   <tile gid="30"/>
   <tile gid="30"/>
   <tile gid="30"/>
   <tile gid="30"/>
   <tile gid="30"/>
   <tile gid="30"/>
   <tile gid="30"/>
   <tile gid="30"/>
   <tile gid="30"/>
   <tile gid="30"/>
   <tile gid="34"/>
   <tile gid="34"/>
   <tile gid="34"/>
   <tile gid="34"/>
   <tile gid="34"/>
   <tile gid="34"/>
   <tile gid="30"/>
   <tile gid="30"/>
   <tile gid="30"/>
   <tile gid="30"/>
   <tile gid="30"/>
   <tile gid="30"/>
   <tile gid="30"/>
   <tile gid="30"/>
   <tile gid="30"/>
   <tile gid="30"/>
   <tile gid="30"/>
   <tile gid="30"/>
   <tile gid="30"/>
   <tile gid="30"/>
   <tile gid="30"/>
   <tile gid="30"/>
   <tile gid="30"/>
   <tile gid="30"/>
   <tile gid="30"/>
   <tile gid="30"/>
   <tile gid="30"/>
   <tile gid="30"/>
   <tile gid="40"/>
   <tile gid="30"/>
   <tile gid="30"/>
   <tile gid="30"/>
   <tile gid="30"/>
   <tile gid="30"/>
   <tile gid="30"/>
   <tile gid="30"/>
   <tile gid="30"/>
   <tile gid="30"/>
   <tile gid="30"/>
   <tile gid="30"/>
   <tile gid="30"/>
   <tile gid="30"/>
   <tile gid="30"/>
   <tile gid="30"/>
   <tile gid="30"/>
   <tile gid="30"/>
   <tile gid="30"/>
   <tile gid="30"/>
   <tile gid="30"/>
   <tile gid="30"/>
   <tile gid="30"/>
   <tile gid="49"/>
   <tile gid="34"/>
   <tile gid="34"/>
   <tile gid="34"/>
   <tile gid="34"/>
   <tile gid="34"/>
   <tile gid="34"/>
   <tile gid="34"/>
   <tile gid="34"/>
   <tile gid="34"/>
   <tile gid="34"/>
   <tile gid="34"/>
   <tile gid="34"/>
   <tile gid="34"/>
   <tile gid="34"/>
   <tile gid="34"/>
   <tile gid="34"/>
   <tile gid="34"/>
   <tile gid="34"/>
   <tile gid="34"/>
   <tile gid="34"/>
   <tile gid="34"/>
   <tile gid="34"/>
   <tile gid="34"/>
   <tile gid="34"/>
   <tile gid="34"/>
   <tile gid="34"/>
   <tile gid="34"/>
   <tile gid="30"/>
   <tile gid="30"/>
   <tile gid="30"/>
   <tile gid="30"/>
   <tile gid="30"/>
   <tile gid="30"/>
   <tile gid="30"/>
   <tile gid="30"/>
   <tile gid="30"/>
   <tile gid="30"/>
   <tile gid="30"/>
   <tile gid="30"/>
   <tile gid="30"/>
   <tile gid="30"/>
   <tile gid="30"/>
   <tile gid="30"/>
   <tile gid="30"/>
   <tile gid="30"/>
   <tile gid="30"/>
   <tile gid="30"/>
   <tile gid="30"/>
   <tile gid="34"/>
   <tile gid="34"/>
   <tile gid="34"/>
   <tile gid="34"/>
   <tile gid="34"/>
   <tile gid="34"/>
   <tile gid="30"/>
   <tile gid="30"/>
   <tile gid="30"/>
   <tile gid="30"/>
   <tile gid="30"/>
   <tile gid="30"/>
   <tile gid="30"/>
   <tile gid="30"/>
   <tile gid="30"/>
   <tile gid="30"/>
   <tile gid="30"/>
   <tile gid="30"/>
   <tile gid="30"/>
   <tile gid="30"/>
   <tile gid="30"/>
   <tile gid="30"/>
   <tile gid="30"/>
   <tile gid="30"/>
   <tile gid="30"/>
   <tile gid="30"/>
   <tile gid="30"/>
   <tile gid="30"/>
   <tile gid="40"/>
   <tile gid="30"/>
   <tile gid="30"/>
   <tile gid="30"/>
   <tile gid="30"/>
   <tile gid="30"/>
   <tile gid="30"/>
   <tile gid="30"/>
   <tile gid="30"/>
   <tile gid="30"/>
   <tile gid="30"/>
   <tile gid="30"/>
   <tile gid="30"/>
   <tile gid="30"/>
   <tile gid="30"/>
   <tile gid="30"/>
   <tile gid="30"/>
   <tile gid="30"/>
   <tile gid="30"/>
   <tile gid="30"/>
   <tile gid="30"/>
   <tile gid="30"/>
   <tile gid="30"/>
   <tile gid="49"/>
   <tile gid="34"/>
   <tile gid="34"/>
   <tile gid="34"/>
   <tile gid="34"/>
   <tile gid="34"/>
   <tile gid="34"/>
   <tile gid="34"/>
   <tile gid="34"/>
   <tile gid="34"/>
   <tile gid="34"/>
   <tile gid="34"/>
   <tile gid="34"/>
   <tile gid="34"/>
   <tile gid="34"/>
   <tile gid="34"/>
   <tile gid="34"/>
   <tile gid="34"/>
   <tile gid="34"/>
   <tile gid="34"/>
   <tile gid="34"/>
   <tile gid="34"/>
   <tile gid="34"/>
   <tile gid="34"/>
   <tile gid="34"/>
   <tile gid="34"/>
   <tile gid="34"/>
   <tile gid="34"/>
   <tile gid="30"/>
   <tile gid="30"/>
   <tile gid="30"/>
   <tile gid="30"/>
   <tile gid="30"/>
   <tile gid="30"/>
   <tile gid="30"/>
   <tile gid="30"/>
   <tile gid="30"/>
   <tile gid="30"/>
   <tile gid="30"/>
   <tile gid="30"/>
   <tile gid="30"/>
   <tile gid="30"/>
   <tile gid="30"/>
   <tile gid="30"/>
   <tile gid="30"/>
   <tile gid="30"/>
   <tile gid="30"/>
   <tile gid="30"/>
   <tile gid="30"/>
   <tile gid="34"/>
   <tile gid="34"/>
   <tile gid="34"/>
   <tile gid="34"/>
   <tile gid="34"/>
   <tile gid="34"/>
   <tile gid="30"/>
   <tile gid="30"/>
   <tile gid="30"/>
   <tile gid="30"/>
   <tile gid="30"/>
   <tile gid="30"/>
   <tile gid="30"/>
   <tile gid="30"/>
   <tile gid="30"/>
   <tile gid="30"/>
   <tile gid="30"/>
   <tile gid="30"/>
   <tile gid="30"/>
   <tile gid="30"/>
   <tile gid="30"/>
   <tile gid="30"/>
   <tile gid="30"/>
   <tile gid="30"/>
   <tile gid="30"/>
   <tile gid="30"/>
   <tile gid="30"/>
   <tile gid="30"/>
   <tile gid="40"/>
   <tile gid="30"/>
   <tile gid="30"/>
   <tile gid="30"/>
   <tile gid="30"/>
   <tile gid="30"/>
   <tile gid="30"/>
   <tile gid="30"/>
   <tile gid="30"/>
   <tile gid="30"/>
   <tile gid="30"/>
   <tile gid="30"/>
   <tile gid="30"/>
   <tile gid="30"/>
   <tile gid="30"/>
   <tile gid="30"/>
   <tile gid="30"/>
   <tile gid="30"/>
   <tile gid="30"/>
   <tile gid="30"/>
   <tile gid="30"/>
   <tile gid="30"/>
   <tile gid="30"/>
   <tile gid="49"/>
   <tile gid="34"/>
   <tile gid="34"/>
   <tile gid="34"/>
   <tile gid="34"/>
   <tile gid="34"/>
   <tile gid="34"/>
   <tile gid="34"/>
   <tile gid="34"/>
   <tile gid="34"/>
   <tile gid="34"/>
   <tile gid="34"/>
   <tile gid="34"/>
   <tile gid="34"/>
   <tile gid="34"/>
   <tile gid="34"/>
   <tile gid="34"/>
   <tile gid="34"/>
   <tile gid="34"/>
   <tile gid="34"/>
   <tile gid="34"/>
   <tile gid="34"/>
   <tile gid="34"/>
   <tile gid="34"/>
   <tile gid="34"/>
   <tile gid="34"/>
   <tile gid="34"/>
   <tile gid="34"/>
   <tile gid="30"/>
   <tile gid="30"/>
   <tile gid="30"/>
   <tile gid="30"/>
   <tile gid="30"/>
   <tile gid="30"/>
   <tile gid="30"/>
   <tile gid="30"/>
   <tile gid="30"/>
   <tile gid="30"/>
   <tile gid="30"/>
   <tile gid="30"/>
   <tile gid="30"/>
   <tile gid="30"/>
   <tile gid="30"/>
   <tile gid="30"/>
   <tile gid="30"/>
   <tile gid="30"/>
   <tile gid="30"/>
   <tile gid="30"/>
   <tile gid="30"/>
   <tile gid="34"/>
   <tile gid="34"/>
   <tile gid="34"/>
   <tile gid="34"/>
   <tile gid="34"/>
   <tile gid="34"/>
   <tile gid="30"/>
   <tile gid="30"/>
   <tile gid="30"/>
   <tile gid="30"/>
   <tile gid="30"/>
   <tile gid="30"/>
   <tile gid="30"/>
   <tile gid="30"/>
   <tile gid="30"/>
   <tile gid="30"/>
   <tile gid="30"/>
   <tile gid="30"/>
   <tile gid="30"/>
   <tile gid="30"/>
   <tile gid="30"/>
   <tile gid="30"/>
   <tile gid="30"/>
   <tile gid="30"/>
   <tile gid="30"/>
   <tile gid="30"/>
   <tile gid="30"/>
   <tile gid="34"/>
   <tile gid="34"/>
   <tile gid="34"/>
   <tile gid="30"/>
   <tile gid="30"/>
   <tile gid="30"/>
   <tile gid="30"/>
   <tile gid="30"/>
   <tile gid="30"/>
   <tile gid="30"/>
   <tile gid="30"/>
   <tile gid="30"/>
   <tile gid="30"/>
   <tile gid="30"/>
   <tile gid="30"/>
   <tile gid="30"/>
   <tile gid="30"/>
   <tile gid="30"/>
   <tile gid="30"/>
   <tile gid="30"/>
   <tile gid="30"/>
   <tile gid="30"/>
   <tile gid="30"/>
   <tile gid="30"/>
   <tile gid="34"/>
   <tile gid="34"/>
   <tile gid="34"/>
   <tile gid="34"/>
   <tile gid="34"/>
   <tile gid="34"/>
   <tile gid="34"/>
   <tile gid="34"/>
   <tile gid="34"/>
   <tile gid="34"/>
   <tile gid="34"/>
   <tile gid="34"/>
   <tile gid="34"/>
   <tile gid="34"/>
   <tile gid="34"/>
   <tile gid="34"/>
   <tile gid="34"/>
   <tile gid="34"/>
   <tile gid="34"/>
   <tile gid="34"/>
   <tile gid="34"/>
   <tile gid="34"/>
   <tile gid="34"/>
   <tile gid="34"/>
   <tile gid="34"/>
   <tile gid="34"/>
   <tile gid="34"/>
   <tile gid="34"/>
   <tile gid="30"/>
   <tile gid="30"/>
   <tile gid="30"/>
   <tile gid="30"/>
   <tile gid="30"/>
   <tile gid="30"/>
   <tile gid="30"/>
   <tile gid="30"/>
   <tile gid="30"/>
   <tile gid="30"/>
   <tile gid="30"/>
   <tile gid="30"/>
   <tile gid="30"/>
   <tile gid="30"/>
   <tile gid="30"/>
   <tile gid="30"/>
   <tile gid="30"/>
   <tile gid="30"/>
   <tile gid="30"/>
   <tile gid="30"/>
   <tile gid="30"/>
   <tile gid="34"/>
   <tile gid="34"/>
   <tile gid="34"/>
   <tile gid="34"/>
   <tile gid="34"/>
   <tile gid="34"/>
   <tile gid="30"/>
   <tile gid="30"/>
   <tile gid="30"/>
   <tile gid="30"/>
   <tile gid="30"/>
   <tile gid="30"/>
   <tile gid="30"/>
   <tile gid="30"/>
   <tile gid="30"/>
   <tile gid="30"/>
   <tile gid="30"/>
   <tile gid="30"/>
   <tile gid="30"/>
   <tile gid="30"/>
   <tile gid="30"/>
   <tile gid="30"/>
   <tile gid="30"/>
   <tile gid="30"/>
   <tile gid="30"/>
   <tile gid="30"/>
   <tile gid="30"/>
   <tile gid="34"/>
   <tile gid="34"/>
   <tile gid="34"/>
   <tile gid="30"/>
   <tile gid="30"/>
   <tile gid="30"/>
   <tile gid="30"/>
   <tile gid="30"/>
   <tile gid="30"/>
   <tile gid="30"/>
   <tile gid="30"/>
   <tile gid="30"/>
   <tile gid="30"/>
   <tile gid="30"/>
   <tile gid="30"/>
   <tile gid="30"/>
   <tile gid="30"/>
   <tile gid="30"/>
   <tile gid="30"/>
   <tile gid="30"/>
   <tile gid="30"/>
   <tile gid="30"/>
   <tile gid="30"/>
   <tile gid="30"/>
   <tile gid="34"/>
   <tile gid="34"/>
   <tile gid="34"/>
   <tile gid="34"/>
   <tile gid="34"/>
   <tile gid="34"/>
   <tile gid="34"/>
   <tile gid="34"/>
   <tile gid="34"/>
   <tile gid="34"/>
   <tile gid="34"/>
   <tile gid="34"/>
   <tile gid="34"/>
   <tile gid="34"/>
   <tile gid="34"/>
   <tile gid="34"/>
   <tile gid="34"/>
   <tile gid="34"/>
   <tile gid="34"/>
   <tile gid="34"/>
   <tile gid="34"/>
   <tile gid="34"/>
   <tile gid="34"/>
   <tile gid="34"/>
   <tile gid="34"/>
   <tile gid="34"/>
   <tile gid="34"/>
   <tile gid="34"/>
   <tile gid="30"/>
   <tile gid="30"/>
   <tile gid="30"/>
   <tile gid="30"/>
   <tile gid="30"/>
   <tile gid="30"/>
   <tile gid="30"/>
   <tile gid="30"/>
   <tile gid="30"/>
   <tile gid="30"/>
   <tile gid="30"/>
   <tile gid="30"/>
   <tile gid="30"/>
   <tile gid="30"/>
   <tile gid="30"/>
   <tile gid="30"/>
   <tile gid="30"/>
   <tile gid="30"/>
   <tile gid="30"/>
   <tile gid="30"/>
   <tile gid="30"/>
   <tile gid="34"/>
   <tile gid="34"/>
   <tile gid="34"/>
   <tile gid="34"/>
   <tile gid="34"/>
   <tile gid="34"/>
   <tile gid="30"/>
   <tile gid="30"/>
   <tile gid="30"/>
   <tile gid="30"/>
   <tile gid="30"/>
   <tile gid="30"/>
   <tile gid="30"/>
   <tile gid="30"/>
   <tile gid="30"/>
   <tile gid="30"/>
   <tile gid="30"/>
   <tile gid="30"/>
   <tile gid="30"/>
   <tile gid="30"/>
   <tile gid="30"/>
   <tile gid="30"/>
   <tile gid="30"/>
   <tile gid="30"/>
   <tile gid="30"/>
   <tile gid="30"/>
   <tile gid="30"/>
   <tile gid="34"/>
   <tile gid="34"/>
   <tile gid="34"/>
   <tile gid="30"/>
   <tile gid="30"/>
   <tile gid="30"/>
   <tile gid="30"/>
   <tile gid="30"/>
   <tile gid="30"/>
   <tile gid="30"/>
   <tile gid="30"/>
   <tile gid="30"/>
   <tile gid="30"/>
   <tile gid="30"/>
   <tile gid="30"/>
   <tile gid="30"/>
   <tile gid="30"/>
   <tile gid="30"/>
   <tile gid="30"/>
   <tile gid="30"/>
   <tile gid="30"/>
   <tile gid="30"/>
   <tile gid="30"/>
   <tile gid="30"/>
   <tile gid="34"/>
   <tile gid="34"/>
   <tile gid="34"/>
   <tile gid="34"/>
   <tile gid="34"/>
   <tile gid="34"/>
   <tile gid="34"/>
   <tile gid="34"/>
   <tile gid="34"/>
   <tile gid="34"/>
   <tile gid="34"/>
   <tile gid="34"/>
   <tile gid="34"/>
   <tile gid="34"/>
   <tile gid="34"/>
   <tile gid="34"/>
   <tile gid="34"/>
   <tile gid="34"/>
   <tile gid="34"/>
   <tile gid="34"/>
   <tile gid="34"/>
   <tile gid="34"/>
   <tile gid="34"/>
   <tile gid="34"/>
   <tile gid="34"/>
   <tile gid="34"/>
   <tile gid="34"/>
   <tile gid="34"/>
   <tile gid="30"/>
   <tile gid="30"/>
   <tile gid="30"/>
   <tile gid="30"/>
   <tile gid="30"/>
   <tile gid="30"/>
   <tile gid="30"/>
   <tile gid="30"/>
   <tile gid="30"/>
   <tile gid="30"/>
   <tile gid="30"/>
   <tile gid="30"/>
   <tile gid="30"/>
   <tile gid="30"/>
   <tile gid="30"/>
   <tile gid="30"/>
   <tile gid="30"/>
   <tile gid="30"/>
   <tile gid="30"/>
   <tile gid="30"/>
   <tile gid="30"/>
   <tile gid="34"/>
   <tile gid="34"/>
   <tile gid="34"/>
   <tile gid="34"/>
   <tile gid="34"/>
   <tile gid="34"/>
   <tile gid="30"/>
   <tile gid="30"/>
   <tile gid="30"/>
   <tile gid="30"/>
   <tile gid="30"/>
   <tile gid="30"/>
   <tile gid="30"/>
   <tile gid="30"/>
   <tile gid="30"/>
   <tile gid="30"/>
   <tile gid="30"/>
   <tile gid="30"/>
   <tile gid="30"/>
   <tile gid="30"/>
   <tile gid="30"/>
   <tile gid="30"/>
   <tile gid="30"/>
   <tile gid="30"/>
   <tile gid="30"/>
   <tile gid="30"/>
   <tile gid="30"/>
   <tile gid="34"/>
   <tile gid="34"/>
   <tile gid="34"/>
   <tile gid="30"/>
   <tile gid="30"/>
   <tile gid="30"/>
   <tile gid="30"/>
   <tile gid="30"/>
   <tile gid="30"/>
   <tile gid="30"/>
   <tile gid="30"/>
   <tile gid="30"/>
   <tile gid="30"/>
   <tile gid="30"/>
   <tile gid="30"/>
   <tile gid="30"/>
   <tile gid="30"/>
   <tile gid="30"/>
   <tile gid="30"/>
   <tile gid="30"/>
   <tile gid="30"/>
   <tile gid="30"/>
   <tile gid="30"/>
   <tile gid="30"/>
   <tile gid="34"/>
   <tile gid="34"/>
   <tile gid="34"/>
   <tile gid="34"/>
   <tile gid="34"/>
   <tile gid="34"/>
   <tile gid="34"/>
   <tile gid="34"/>
   <tile gid="34"/>
   <tile gid="34"/>
   <tile gid="34"/>
   <tile gid="34"/>
   <tile gid="34"/>
   <tile gid="34"/>
   <tile gid="34"/>
   <tile gid="34"/>
   <tile gid="34"/>
   <tile gid="34"/>
   <tile gid="34"/>
   <tile gid="34"/>
   <tile gid="34"/>
   <tile gid="34"/>
   <tile gid="34"/>
   <tile gid="34"/>
   <tile gid="34"/>
   <tile gid="34"/>
   <tile gid="34"/>
   <tile gid="34"/>
   <tile gid="30"/>
   <tile gid="30"/>
   <tile gid="30"/>
   <tile gid="30"/>
   <tile gid="30"/>
   <tile gid="30"/>
   <tile gid="30"/>
   <tile gid="30"/>
   <tile gid="30"/>
   <tile gid="30"/>
   <tile gid="30"/>
   <tile gid="30"/>
   <tile gid="30"/>
   <tile gid="30"/>
   <tile gid="30"/>
   <tile gid="30"/>
   <tile gid="30"/>
   <tile gid="30"/>
   <tile gid="30"/>
   <tile gid="30"/>
   <tile gid="30"/>
   <tile gid="34"/>
   <tile gid="34"/>
   <tile gid="34"/>
   <tile gid="34"/>
   <tile gid="34"/>
   <tile gid="34"/>
   <tile gid="30"/>
   <tile gid="30"/>
   <tile gid="30"/>
   <tile gid="30"/>
   <tile gid="30"/>
   <tile gid="30"/>
   <tile gid="30"/>
   <tile gid="30"/>
   <tile gid="30"/>
   <tile gid="30"/>
   <tile gid="30"/>
   <tile gid="30"/>
   <tile gid="30"/>
   <tile gid="30"/>
   <tile gid="30"/>
   <tile gid="30"/>
   <tile gid="30"/>
   <tile gid="30"/>
   <tile gid="30"/>
   <tile gid="30"/>
   <tile gid="30"/>
   <tile gid="34"/>
   <tile gid="34"/>
   <tile gid="34"/>
   <tile gid="30"/>
   <tile gid="30"/>
   <tile gid="30"/>
   <tile gid="30"/>
   <tile gid="30"/>
   <tile gid="30"/>
   <tile gid="30"/>
   <tile gid="30"/>
   <tile gid="30"/>
   <tile gid="30"/>
   <tile gid="30"/>
   <tile gid="30"/>
   <tile gid="30"/>
   <tile gid="30"/>
   <tile gid="30"/>
   <tile gid="30"/>
   <tile gid="30"/>
   <tile gid="30"/>
   <tile gid="30"/>
   <tile gid="30"/>
   <tile gid="30"/>
   <tile gid="34"/>
   <tile gid="34"/>
   <tile gid="34"/>
   <tile gid="34"/>
   <tile gid="34"/>
   <tile gid="34"/>
   <tile gid="34"/>
   <tile gid="34"/>
   <tile gid="34"/>
   <tile gid="34"/>
   <tile gid="34"/>
   <tile gid="34"/>
   <tile gid="34"/>
   <tile gid="34"/>
   <tile gid="34"/>
   <tile gid="34"/>
   <tile gid="34"/>
   <tile gid="34"/>
   <tile gid="34"/>
   <tile gid="34"/>
   <tile gid="34"/>
   <tile gid="34"/>
   <tile gid="34"/>
   <tile gid="34"/>
   <tile gid="34"/>
   <tile gid="34"/>
   <tile gid="34"/>
   <tile gid="34"/>
   <tile gid="30"/>
   <tile gid="30"/>
   <tile gid="30"/>
   <tile gid="30"/>
   <tile gid="30"/>
   <tile gid="30"/>
   <tile gid="30"/>
   <tile gid="30"/>
   <tile gid="30"/>
   <tile gid="30"/>
   <tile gid="30"/>
   <tile gid="30"/>
   <tile gid="30"/>
   <tile gid="30"/>
   <tile gid="30"/>
   <tile gid="30"/>
   <tile gid="30"/>
   <tile gid="30"/>
   <tile gid="30"/>
   <tile gid="30"/>
   <tile gid="30"/>
   <tile gid="34"/>
   <tile gid="34"/>
   <tile gid="34"/>
   <tile gid="34"/>
   <tile gid="34"/>
   <tile gid="34"/>
   <tile gid="30"/>
   <tile gid="30"/>
   <tile gid="30"/>
   <tile gid="30"/>
   <tile gid="30"/>
   <tile gid="30"/>
   <tile gid="30"/>
   <tile gid="30"/>
   <tile gid="30"/>
   <tile gid="30"/>
   <tile gid="30"/>
   <tile gid="30"/>
   <tile gid="30"/>
   <tile gid="30"/>
   <tile gid="30"/>
   <tile gid="30"/>
   <tile gid="30"/>
   <tile gid="30"/>
   <tile gid="30"/>
   <tile gid="30"/>
   <tile gid="30"/>
   <tile gid="34"/>
   <tile gid="34"/>
   <tile gid="34"/>
   <tile gid="30"/>
   <tile gid="30"/>
   <tile gid="30"/>
   <tile gid="30"/>
   <tile gid="30"/>
   <tile gid="30"/>
   <tile gid="30"/>
   <tile gid="30"/>
   <tile gid="30"/>
   <tile gid="30"/>
   <tile gid="30"/>
   <tile gid="30"/>
   <tile gid="30"/>
   <tile gid="30"/>
   <tile gid="30"/>
   <tile gid="30"/>
   <tile gid="30"/>
   <tile gid="30"/>
   <tile gid="30"/>
   <tile gid="30"/>
   <tile gid="30"/>
   <tile gid="34"/>
   <tile gid="34"/>
   <tile gid="34"/>
   <tile gid="34"/>
   <tile gid="34"/>
   <tile gid="34"/>
   <tile gid="34"/>
   <tile gid="34"/>
   <tile gid="34"/>
   <tile gid="34"/>
   <tile gid="34"/>
   <tile gid="34"/>
   <tile gid="34"/>
   <tile gid="34"/>
   <tile gid="34"/>
   <tile gid="34"/>
   <tile gid="34"/>
   <tile gid="34"/>
   <tile gid="34"/>
   <tile gid="34"/>
   <tile gid="34"/>
   <tile gid="34"/>
   <tile gid="34"/>
   <tile gid="34"/>
   <tile gid="34"/>
   <tile gid="34"/>
   <tile gid="34"/>
   <tile gid="34"/>
   <tile gid="30"/>
   <tile gid="30"/>
   <tile gid="30"/>
   <tile gid="30"/>
   <tile gid="30"/>
   <tile gid="30"/>
   <tile gid="30"/>
   <tile gid="30"/>
   <tile gid="30"/>
   <tile gid="30"/>
   <tile gid="30"/>
   <tile gid="30"/>
   <tile gid="30"/>
   <tile gid="30"/>
   <tile gid="30"/>
   <tile gid="30"/>
   <tile gid="30"/>
   <tile gid="30"/>
   <tile gid="30"/>
   <tile gid="30"/>
   <tile gid="30"/>
   <tile gid="34"/>
   <tile gid="34"/>
   <tile gid="34"/>
   <tile gid="34"/>
   <tile gid="34"/>
   <tile gid="34"/>
   <tile gid="30"/>
   <tile gid="30"/>
   <tile gid="30"/>
   <tile gid="30"/>
   <tile gid="30"/>
   <tile gid="30"/>
   <tile gid="30"/>
   <tile gid="30"/>
   <tile gid="30"/>
   <tile gid="30"/>
   <tile gid="30"/>
   <tile gid="30"/>
   <tile gid="30"/>
   <tile gid="30"/>
   <tile gid="30"/>
   <tile gid="30"/>
   <tile gid="30"/>
   <tile gid="30"/>
   <tile gid="30"/>
   <tile gid="30"/>
   <tile gid="30"/>
   <tile gid="34"/>
   <tile gid="34"/>
   <tile gid="34"/>
   <tile gid="30"/>
   <tile gid="30"/>
   <tile gid="30"/>
   <tile gid="30"/>
   <tile gid="30"/>
   <tile gid="30"/>
   <tile gid="30"/>
   <tile gid="30"/>
   <tile gid="30"/>
   <tile gid="30"/>
   <tile gid="30"/>
   <tile gid="30"/>
   <tile gid="30"/>
   <tile gid="30"/>
   <tile gid="30"/>
   <tile gid="30"/>
   <tile gid="30"/>
   <tile gid="30"/>
   <tile gid="30"/>
   <tile gid="30"/>
   <tile gid="30"/>
   <tile gid="34"/>
   <tile gid="34"/>
   <tile gid="34"/>
   <tile gid="34"/>
   <tile gid="34"/>
   <tile gid="34"/>
   <tile gid="34"/>
   <tile gid="34"/>
   <tile gid="34"/>
   <tile gid="34"/>
   <tile gid="34"/>
   <tile gid="34"/>
   <tile gid="34"/>
   <tile gid="34"/>
   <tile gid="34"/>
   <tile gid="34"/>
   <tile gid="34"/>
   <tile gid="34"/>
   <tile gid="34"/>
   <tile gid="34"/>
   <tile gid="34"/>
   <tile gid="34"/>
   <tile gid="34"/>
   <tile gid="34"/>
   <tile gid="34"/>
   <tile gid="34"/>
   <tile gid="34"/>
   <tile gid="34"/>
   <tile gid="30"/>
   <tile gid="30"/>
   <tile gid="30"/>
   <tile gid="30"/>
   <tile gid="30"/>
   <tile gid="30"/>
   <tile gid="30"/>
   <tile gid="30"/>
   <tile gid="30"/>
   <tile gid="30"/>
   <tile gid="30"/>
   <tile gid="30"/>
   <tile gid="30"/>
   <tile gid="30"/>
   <tile gid="30"/>
   <tile gid="30"/>
   <tile gid="30"/>
   <tile gid="30"/>
   <tile gid="30"/>
   <tile gid="30"/>
   <tile gid="30"/>
   <tile gid="34"/>
   <tile gid="34"/>
   <tile gid="34"/>
   <tile gid="34"/>
   <tile gid="34"/>
   <tile gid="34"/>
   <tile gid="30"/>
   <tile gid="30"/>
   <tile gid="30"/>
   <tile gid="30"/>
   <tile gid="30"/>
   <tile gid="30"/>
   <tile gid="30"/>
   <tile gid="30"/>
   <tile gid="30"/>
   <tile gid="30"/>
   <tile gid="30"/>
   <tile gid="30"/>
   <tile gid="30"/>
   <tile gid="30"/>
   <tile gid="30"/>
   <tile gid="30"/>
   <tile gid="30"/>
   <tile gid="30"/>
   <tile gid="30"/>
   <tile gid="30"/>
   <tile gid="30"/>
   <tile gid="34"/>
   <tile gid="34"/>
   <tile gid="34"/>
   <tile gid="30"/>
   <tile gid="30"/>
   <tile gid="30"/>
   <tile gid="30"/>
   <tile gid="30"/>
   <tile gid="30"/>
   <tile gid="30"/>
   <tile gid="30"/>
   <tile gid="30"/>
   <tile gid="30"/>
   <tile gid="30"/>
   <tile gid="30"/>
   <tile gid="30"/>
   <tile gid="30"/>
   <tile gid="30"/>
   <tile gid="30"/>
   <tile gid="30"/>
   <tile gid="30"/>
   <tile gid="30"/>
   <tile gid="30"/>
   <tile gid="30"/>
   <tile gid="34"/>
   <tile gid="34"/>
   <tile gid="34"/>
   <tile gid="34"/>
   <tile gid="34"/>
   <tile gid="34"/>
   <tile gid="34"/>
   <tile gid="34"/>
   <tile gid="34"/>
   <tile gid="34"/>
   <tile gid="34"/>
   <tile gid="34"/>
   <tile gid="34"/>
   <tile gid="34"/>
   <tile gid="34"/>
   <tile gid="34"/>
   <tile gid="34"/>
   <tile gid="34"/>
   <tile gid="34"/>
   <tile gid="34"/>
   <tile gid="34"/>
   <tile gid="34"/>
   <tile gid="34"/>
   <tile gid="34"/>
   <tile gid="34"/>
   <tile gid="34"/>
   <tile gid="34"/>
   <tile gid="34"/>
   <tile gid="30"/>
   <tile gid="30"/>
   <tile gid="30"/>
   <tile gid="30"/>
   <tile gid="30"/>
   <tile gid="30"/>
   <tile gid="30"/>
   <tile gid="30"/>
   <tile gid="30"/>
   <tile gid="30"/>
   <tile gid="30"/>
   <tile gid="30"/>
   <tile gid="30"/>
   <tile gid="30"/>
   <tile gid="30"/>
   <tile gid="30"/>
   <tile gid="30"/>
   <tile gid="30"/>
   <tile gid="30"/>
   <tile gid="30"/>
   <tile gid="30"/>
   <tile gid="34"/>
   <tile gid="34"/>
   <tile gid="34"/>
   <tile gid="34"/>
   <tile gid="34"/>
   <tile gid="34"/>
   <tile gid="30"/>
   <tile gid="30"/>
   <tile gid="30"/>
   <tile gid="30"/>
   <tile gid="30"/>
   <tile gid="30"/>
   <tile gid="30"/>
   <tile gid="30"/>
   <tile gid="30"/>
   <tile gid="30"/>
   <tile gid="30"/>
   <tile gid="30"/>
   <tile gid="30"/>
   <tile gid="30"/>
   <tile gid="30"/>
   <tile gid="30"/>
   <tile gid="30"/>
   <tile gid="30"/>
   <tile gid="30"/>
   <tile gid="30"/>
   <tile gid="30"/>
   <tile gid="34"/>
   <tile gid="34"/>
   <tile gid="34"/>
   <tile gid="30"/>
   <tile gid="30"/>
   <tile gid="30"/>
   <tile gid="30"/>
   <tile gid="30"/>
   <tile gid="30"/>
   <tile gid="30"/>
   <tile gid="30"/>
   <tile gid="30"/>
   <tile gid="30"/>
   <tile gid="30"/>
   <tile gid="30"/>
   <tile gid="30"/>
   <tile gid="30"/>
   <tile gid="30"/>
   <tile gid="30"/>
   <tile gid="30"/>
   <tile gid="30"/>
   <tile gid="30"/>
   <tile gid="30"/>
   <tile gid="30"/>
   <tile gid="34"/>
   <tile gid="34"/>
   <tile gid="34"/>
   <tile gid="34"/>
   <tile gid="34"/>
   <tile gid="34"/>
   <tile gid="34"/>
   <tile gid="34"/>
   <tile gid="34"/>
   <tile gid="34"/>
   <tile gid="34"/>
   <tile gid="34"/>
   <tile gid="34"/>
   <tile gid="34"/>
   <tile gid="34"/>
   <tile gid="34"/>
   <tile gid="34"/>
   <tile gid="34"/>
   <tile gid="34"/>
   <tile gid="34"/>
   <tile gid="34"/>
   <tile gid="34"/>
   <tile gid="34"/>
   <tile gid="34"/>
   <tile gid="34"/>
   <tile gid="34"/>
   <tile gid="34"/>
   <tile gid="34"/>
   <tile gid="30"/>
   <tile gid="30"/>
   <tile gid="30"/>
   <tile gid="30"/>
   <tile gid="30"/>
   <tile gid="30"/>
   <tile gid="30"/>
   <tile gid="30"/>
   <tile gid="30"/>
   <tile gid="30"/>
   <tile gid="30"/>
   <tile gid="30"/>
   <tile gid="30"/>
   <tile gid="30"/>
   <tile gid="30"/>
   <tile gid="30"/>
   <tile gid="30"/>
   <tile gid="30"/>
   <tile gid="30"/>
   <tile gid="30"/>
   <tile gid="30"/>
   <tile gid="34"/>
   <tile gid="34"/>
   <tile gid="34"/>
   <tile gid="34"/>
   <tile gid="34"/>
   <tile gid="34"/>
   <tile gid="30"/>
   <tile gid="30"/>
   <tile gid="30"/>
   <tile gid="30"/>
   <tile gid="30"/>
   <tile gid="30"/>
   <tile gid="30"/>
   <tile gid="30"/>
   <tile gid="30"/>
   <tile gid="30"/>
   <tile gid="30"/>
   <tile gid="30"/>
   <tile gid="30"/>
   <tile gid="30"/>
   <tile gid="30"/>
   <tile gid="30"/>
   <tile gid="30"/>
   <tile gid="30"/>
   <tile gid="30"/>
   <tile gid="30"/>
   <tile gid="30"/>
   <tile gid="34"/>
   <tile gid="34"/>
   <tile gid="34"/>
   <tile gid="30"/>
   <tile gid="30"/>
   <tile gid="30"/>
   <tile gid="30"/>
   <tile gid="30"/>
   <tile gid="30"/>
   <tile gid="30"/>
   <tile gid="30"/>
   <tile gid="30"/>
   <tile gid="30"/>
   <tile gid="30"/>
   <tile gid="30"/>
   <tile gid="30"/>
   <tile gid="30"/>
   <tile gid="30"/>
   <tile gid="30"/>
   <tile gid="30"/>
   <tile gid="30"/>
   <tile gid="30"/>
   <tile gid="30"/>
   <tile gid="30"/>
   <tile gid="34"/>
   <tile gid="34"/>
   <tile gid="34"/>
   <tile gid="34"/>
   <tile gid="34"/>
   <tile gid="34"/>
   <tile gid="34"/>
   <tile gid="34"/>
   <tile gid="34"/>
   <tile gid="34"/>
   <tile gid="34"/>
   <tile gid="34"/>
   <tile gid="34"/>
   <tile gid="34"/>
   <tile gid="34"/>
   <tile gid="34"/>
   <tile gid="34"/>
   <tile gid="34"/>
   <tile gid="34"/>
   <tile gid="34"/>
   <tile gid="34"/>
   <tile gid="34"/>
   <tile gid="34"/>
   <tile gid="34"/>
   <tile gid="34"/>
   <tile gid="34"/>
   <tile gid="34"/>
   <tile gid="34"/>
   <tile gid="30"/>
   <tile gid="30"/>
   <tile gid="30"/>
   <tile gid="30"/>
   <tile gid="30"/>
   <tile gid="30"/>
   <tile gid="30"/>
   <tile gid="30"/>
   <tile gid="30"/>
   <tile gid="30"/>
   <tile gid="30"/>
   <tile gid="30"/>
   <tile gid="30"/>
   <tile gid="30"/>
   <tile gid="30"/>
   <tile gid="30"/>
   <tile gid="30"/>
   <tile gid="30"/>
   <tile gid="30"/>
   <tile gid="30"/>
   <tile gid="30"/>
   <tile gid="34"/>
   <tile gid="34"/>
   <tile gid="34"/>
   <tile gid="34"/>
   <tile gid="34"/>
   <tile gid="34"/>
   <tile gid="30"/>
   <tile gid="30"/>
   <tile gid="30"/>
   <tile gid="30"/>
   <tile gid="30"/>
   <tile gid="30"/>
   <tile gid="30"/>
   <tile gid="30"/>
   <tile gid="30"/>
   <tile gid="30"/>
   <tile gid="30"/>
   <tile gid="30"/>
   <tile gid="30"/>
   <tile gid="30"/>
   <tile gid="30"/>
   <tile gid="30"/>
   <tile gid="30"/>
   <tile gid="30"/>
   <tile gid="30"/>
   <tile gid="30"/>
   <tile gid="30"/>
   <tile gid="34"/>
   <tile gid="34"/>
   <tile gid="34"/>
   <tile gid="30"/>
   <tile gid="30"/>
   <tile gid="30"/>
   <tile gid="30"/>
   <tile gid="30"/>
   <tile gid="30"/>
   <tile gid="30"/>
   <tile gid="30"/>
   <tile gid="30"/>
   <tile gid="30"/>
   <tile gid="30"/>
   <tile gid="30"/>
   <tile gid="30"/>
   <tile gid="30"/>
   <tile gid="30"/>
   <tile gid="30"/>
   <tile gid="30"/>
   <tile gid="30"/>
   <tile gid="30"/>
   <tile gid="30"/>
   <tile gid="30"/>
   <tile gid="34"/>
   <tile gid="34"/>
   <tile gid="34"/>
   <tile gid="34"/>
   <tile gid="34"/>
   <tile gid="34"/>
   <tile gid="34"/>
   <tile gid="34"/>
   <tile gid="34"/>
   <tile gid="34"/>
   <tile gid="34"/>
   <tile gid="34"/>
   <tile gid="34"/>
   <tile gid="34"/>
   <tile gid="34"/>
   <tile gid="34"/>
   <tile gid="34"/>
   <tile gid="34"/>
   <tile gid="34"/>
   <tile gid="34"/>
   <tile gid="34"/>
   <tile gid="34"/>
   <tile gid="34"/>
   <tile gid="34"/>
   <tile gid="34"/>
   <tile gid="34"/>
   <tile gid="34"/>
   <tile gid="34"/>
   <tile gid="30"/>
   <tile gid="30"/>
   <tile gid="30"/>
   <tile gid="30"/>
   <tile gid="30"/>
   <tile gid="30"/>
   <tile gid="30"/>
   <tile gid="30"/>
   <tile gid="30"/>
   <tile gid="30"/>
   <tile gid="30"/>
   <tile gid="30"/>
   <tile gid="30"/>
   <tile gid="30"/>
   <tile gid="30"/>
   <tile gid="30"/>
   <tile gid="30"/>
   <tile gid="30"/>
   <tile gid="30"/>
   <tile gid="30"/>
   <tile gid="30"/>
   <tile gid="34"/>
   <tile gid="34"/>
   <tile gid="34"/>
   <tile gid="34"/>
   <tile gid="34"/>
   <tile gid="34"/>
   <tile gid="34"/>
   <tile gid="34"/>
   <tile gid="34"/>
   <tile gid="34"/>
   <tile gid="34"/>
   <tile gid="34"/>
   <tile gid="34"/>
   <tile gid="34"/>
   <tile gid="30"/>
   <tile gid="30"/>
   <tile gid="30"/>
   <tile gid="34"/>
   <tile gid="34"/>
   <tile gid="34"/>
   <tile gid="34"/>
   <tile gid="34"/>
   <tile gid="34"/>
   <tile gid="34"/>
   <tile gid="34"/>
   <tile gid="34"/>
   <tile gid="34"/>
   <tile gid="34"/>
   <tile gid="34"/>
   <tile gid="34"/>
   <tile gid="34"/>
   <tile gid="34"/>
   <tile gid="34"/>
   <tile gid="34"/>
   <tile gid="34"/>
   <tile gid="34"/>
   <tile gid="30"/>
   <tile gid="30"/>
   <tile gid="30"/>
   <tile gid="34"/>
   <tile gid="34"/>
   <tile gid="34"/>
   <tile gid="34"/>
   <tile gid="34"/>
   <tile gid="34"/>
   <tile gid="34"/>
   <tile gid="34"/>
   <tile gid="34"/>
   <tile gid="34"/>
   <tile gid="34"/>
   <tile gid="34"/>
   <tile gid="34"/>
   <tile gid="34"/>
   <tile gid="34"/>
   <tile gid="34"/>
   <tile gid="34"/>
   <tile gid="34"/>
   <tile gid="34"/>
   <tile gid="34"/>
   <tile gid="34"/>
   <tile gid="34"/>
   <tile gid="34"/>
   <tile gid="34"/>
   <tile gid="34"/>
   <tile gid="34"/>
   <tile gid="34"/>
   <tile gid="34"/>
   <tile gid="34"/>
   <tile gid="34"/>
   <tile gid="34"/>
   <tile gid="34"/>
   <tile gid="34"/>
   <tile gid="34"/>
   <tile gid="34"/>
   <tile gid="34"/>
   <tile gid="34"/>
   <tile gid="34"/>
   <tile gid="34"/>
   <tile gid="34"/>
   <tile gid="34"/>
   <tile gid="34"/>
   <tile gid="34"/>
   <tile gid="34"/>
   <tile gid="34"/>
   <tile gid="34"/>
   <tile gid="34"/>
   <tile gid="30"/>
   <tile gid="30"/>
   <tile gid="34"/>
   <tile gid="34"/>
   <tile gid="34"/>
   <tile gid="34"/>
   <tile gid="34"/>
   <tile gid="34"/>
   <tile gid="34"/>
   <tile gid="34"/>
   <tile gid="34"/>
   <tile gid="34"/>
   <tile gid="34"/>
   <tile gid="34"/>
   <tile gid="34"/>
   <tile gid="34"/>
   <tile gid="34"/>
   <tile gid="34"/>
   <tile gid="34"/>
   <tile gid="34"/>
   <tile gid="34"/>
   <tile gid="34"/>
   <tile gid="34"/>
   <tile gid="34"/>
   <tile gid="34"/>
   <tile gid="34"/>
   <tile gid="34"/>
   <tile gid="34"/>
   <tile gid="30"/>
   <tile gid="30"/>
   <tile gid="30"/>
   <tile gid="34"/>
   <tile gid="34"/>
   <tile gid="34"/>
   <tile gid="34"/>
   <tile gid="34"/>
   <tile gid="34"/>
   <tile gid="34"/>
   <tile gid="34"/>
   <tile gid="34"/>
   <tile gid="34"/>
   <tile gid="34"/>
   <tile gid="34"/>
   <tile gid="34"/>
   <tile gid="34"/>
   <tile gid="34"/>
   <tile gid="34"/>
   <tile gid="34"/>
   <tile gid="34"/>
   <tile gid="34"/>
   <tile gid="30"/>
   <tile gid="30"/>
   <tile gid="30"/>
   <tile gid="34"/>
   <tile gid="34"/>
   <tile gid="34"/>
   <tile gid="34"/>
   <tile gid="34"/>
   <tile gid="34"/>
   <tile gid="34"/>
   <tile gid="34"/>
   <tile gid="34"/>
   <tile gid="34"/>
   <tile gid="34"/>
   <tile gid="34"/>
   <tile gid="34"/>
   <tile gid="34"/>
   <tile gid="34"/>
   <tile gid="34"/>
   <tile gid="34"/>
   <tile gid="34"/>
   <tile gid="34"/>
   <tile gid="34"/>
   <tile gid="34"/>
   <tile gid="34"/>
   <tile gid="34"/>
   <tile gid="34"/>
   <tile gid="34"/>
   <tile gid="34"/>
   <tile gid="34"/>
   <tile gid="34"/>
   <tile gid="34"/>
   <tile gid="34"/>
   <tile gid="34"/>
   <tile gid="34"/>
   <tile gid="34"/>
   <tile gid="34"/>
   <tile gid="34"/>
   <tile gid="34"/>
   <tile gid="34"/>
   <tile gid="34"/>
   <tile gid="34"/>
   <tile gid="34"/>
   <tile gid="34"/>
   <tile gid="34"/>
   <tile gid="34"/>
   <tile gid="34"/>
   <tile gid="34"/>
   <tile gid="34"/>
   <tile gid="34"/>
   <tile gid="34"/>
   <tile gid="34"/>
   <tile gid="34"/>
   <tile gid="34"/>
   <tile gid="34"/>
   <tile gid="34"/>
   <tile gid="34"/>
   <tile gid="34"/>
   <tile gid="34"/>
   <tile gid="34"/>
   <tile gid="34"/>
   <tile gid="34"/>
   <tile gid="34"/>
   <tile gid="34"/>
   <tile gid="34"/>
   <tile gid="34"/>
   <tile gid="34"/>
   <tile gid="34"/>
   <tile gid="34"/>
   <tile gid="34"/>
   <tile gid="34"/>
   <tile gid="34"/>
   <tile gid="34"/>
   <tile gid="34"/>
   <tile gid="34"/>
   <tile gid="34"/>
   <tile gid="34"/>
   <tile gid="34"/>
   <tile gid="30"/>
   <tile gid="30"/>
   <tile gid="30"/>
   <tile gid="34"/>
   <tile gid="34"/>
   <tile gid="34"/>
   <tile gid="34"/>
   <tile gid="34"/>
   <tile gid="34"/>
   <tile gid="34"/>
   <tile gid="34"/>
   <tile gid="34"/>
   <tile gid="34"/>
   <tile gid="34"/>
   <tile gid="34"/>
   <tile gid="34"/>
   <tile gid="34"/>
   <tile gid="34"/>
   <tile gid="34"/>
   <tile gid="34"/>
   <tile gid="34"/>
   <tile gid="34"/>
   <tile gid="30"/>
   <tile gid="30"/>
   <tile gid="30"/>
   <tile gid="34"/>
   <tile gid="34"/>
   <tile gid="34"/>
   <tile gid="34"/>
   <tile gid="34"/>
   <tile gid="34"/>
   <tile gid="34"/>
   <tile gid="34"/>
   <tile gid="34"/>
   <tile gid="34"/>
   <tile gid="34"/>
   <tile gid="34"/>
   <tile gid="34"/>
   <tile gid="34"/>
   <tile gid="34"/>
   <tile gid="34"/>
   <tile gid="34"/>
   <tile gid="34"/>
   <tile gid="34"/>
   <tile gid="34"/>
   <tile gid="34"/>
   <tile gid="34"/>
   <tile gid="34"/>
   <tile gid="34"/>
   <tile gid="34"/>
   <tile gid="34"/>
   <tile gid="34"/>
   <tile gid="34"/>
   <tile gid="34"/>
   <tile gid="34"/>
   <tile gid="34"/>
   <tile gid="34"/>
   <tile gid="34"/>
   <tile gid="34"/>
   <tile gid="34"/>
   <tile gid="34"/>
   <tile gid="34"/>
   <tile gid="34"/>
   <tile gid="34"/>
   <tile gid="34"/>
   <tile gid="34"/>
   <tile gid="34"/>
   <tile gid="34"/>
   <tile gid="34"/>
   <tile gid="34"/>
   <tile gid="34"/>
   <tile gid="34"/>
   <tile gid="34"/>
   <tile gid="34"/>
   <tile gid="34"/>
   <tile gid="34"/>
   <tile gid="34"/>
   <tile gid="34"/>
   <tile gid="34"/>
   <tile gid="34"/>
   <tile gid="34"/>
   <tile gid="34"/>
   <tile gid="34"/>
   <tile gid="34"/>
   <tile gid="34"/>
   <tile gid="34"/>
   <tile gid="34"/>
   <tile gid="34"/>
   <tile gid="34"/>
   <tile gid="34"/>
   <tile gid="34"/>
   <tile gid="34"/>
   <tile gid="30"/>
   <tile gid="30"/>
   <tile gid="30"/>
   <tile gid="30"/>
   <tile gid="30"/>
   <tile gid="30"/>
   <tile gid="30"/>
   <tile gid="30"/>
   <tile gid="30"/>
   <tile gid="30"/>
   <tile gid="30"/>
   <tile gid="30"/>
   <tile gid="30"/>
   <tile gid="30"/>
   <tile gid="30"/>
   <tile gid="30"/>
   <tile gid="30"/>
   <tile gid="30"/>
   <tile gid="30"/>
   <tile gid="30"/>
   <tile gid="30"/>
   <tile gid="34"/>
   <tile gid="34"/>
   <tile gid="34"/>
   <tile gid="30"/>
   <tile gid="30"/>
   <tile gid="30"/>
   <tile gid="30"/>
   <tile gid="30"/>
   <tile gid="30"/>
   <tile gid="30"/>
   <tile gid="30"/>
   <tile gid="30"/>
   <tile gid="30"/>
   <tile gid="30"/>
   <tile gid="30"/>
   <tile gid="30"/>
   <tile gid="30"/>
   <tile gid="30"/>
   <tile gid="30"/>
   <tile gid="30"/>
   <tile gid="30"/>
   <tile gid="30"/>
   <tile gid="30"/>
   <tile gid="30"/>
   <tile gid="34"/>
   <tile gid="34"/>
   <tile gid="34"/>
   <tile gid="30"/>
   <tile gid="30"/>
   <tile gid="30"/>
   <tile gid="30"/>
   <tile gid="30"/>
   <tile gid="30"/>
   <tile gid="30"/>
   <tile gid="30"/>
   <tile gid="30"/>
   <tile gid="30"/>
   <tile gid="30"/>
   <tile gid="30"/>
   <tile gid="30"/>
   <tile gid="30"/>
   <tile gid="30"/>
   <tile gid="34"/>
   <tile gid="34"/>
   <tile gid="34"/>
   <tile gid="30"/>
   <tile gid="30"/>
   <tile gid="30"/>
   <tile gid="30"/>
   <tile gid="30"/>
   <tile gid="30"/>
   <tile gid="30"/>
   <tile gid="30"/>
   <tile gid="30"/>
   <tile gid="15"/>
   <tile gid="15"/>
   <tile gid="30"/>
   <tile gid="30"/>
   <tile gid="30"/>
   <tile gid="30"/>
   <tile gid="30"/>
   <tile gid="30"/>
   <tile gid="30"/>
   <tile gid="30"/>
   <tile gid="30"/>
   <tile gid="30"/>
   <tile gid="30"/>
   <tile gid="30"/>
   <tile gid="30"/>
   <tile gid="30"/>
   <tile gid="30"/>
   <tile gid="30"/>
   <tile gid="30"/>
   <tile gid="34"/>
   <tile gid="34"/>
   <tile gid="34"/>
   <tile gid="34"/>
   <tile gid="34"/>
   <tile gid="34"/>
   <tile gid="30"/>
   <tile gid="30"/>
   <tile gid="30"/>
   <tile gid="30"/>
   <tile gid="30"/>
   <tile gid="30"/>
   <tile gid="30"/>
   <tile gid="30"/>
   <tile gid="30"/>
   <tile gid="30"/>
   <tile gid="30"/>
   <tile gid="30"/>
   <tile gid="30"/>
   <tile gid="30"/>
   <tile gid="30"/>
   <tile gid="30"/>
   <tile gid="30"/>
   <tile gid="30"/>
   <tile gid="30"/>
   <tile gid="30"/>
   <tile gid="30"/>
   <tile gid="34"/>
   <tile gid="34"/>
   <tile gid="34"/>
   <tile gid="30"/>
   <tile gid="30"/>
   <tile gid="30"/>
   <tile gid="30"/>
   <tile gid="30"/>
   <tile gid="30"/>
   <tile gid="30"/>
   <tile gid="30"/>
   <tile gid="30"/>
   <tile gid="30"/>
   <tile gid="30"/>
   <tile gid="30"/>
   <tile gid="30"/>
   <tile gid="30"/>
   <tile gid="30"/>
   <tile gid="30"/>
   <tile gid="30"/>
   <tile gid="30"/>
   <tile gid="30"/>
   <tile gid="30"/>
   <tile gid="30"/>
   <tile gid="34"/>
   <tile gid="34"/>
   <tile gid="34"/>
   <tile gid="30"/>
   <tile gid="30"/>
   <tile gid="30"/>
   <tile gid="30"/>
   <tile gid="30"/>
   <tile gid="30"/>
   <tile gid="30"/>
   <tile gid="30"/>
   <tile gid="30"/>
   <tile gid="30"/>
   <tile gid="30"/>
   <tile gid="30"/>
   <tile gid="30"/>
   <tile gid="30"/>
   <tile gid="30"/>
   <tile gid="34"/>
   <tile gid="34"/>
   <tile gid="34"/>
   <tile gid="30"/>
   <tile gid="30"/>
   <tile gid="30"/>
   <tile gid="30"/>
   <tile gid="30"/>
   <tile gid="30"/>
   <tile gid="30"/>
   <tile gid="30"/>
   <tile gid="30"/>
   <tile gid="15"/>
   <tile gid="15"/>
   <tile gid="30"/>
   <tile gid="30"/>
   <tile gid="30"/>
   <tile gid="30"/>
   <tile gid="30"/>
   <tile gid="30"/>
   <tile gid="30"/>
   <tile gid="30"/>
   <tile gid="30"/>
   <tile gid="30"/>
   <tile gid="30"/>
   <tile gid="30"/>
   <tile gid="30"/>
   <tile gid="30"/>
   <tile gid="30"/>
   <tile gid="30"/>
   <tile gid="30"/>
   <tile gid="34"/>
   <tile gid="34"/>
   <tile gid="34"/>
   <tile gid="34"/>
   <tile gid="34"/>
   <tile gid="34"/>
   <tile gid="30"/>
   <tile gid="30"/>
   <tile gid="30"/>
   <tile gid="30"/>
   <tile gid="30"/>
   <tile gid="30"/>
   <tile gid="30"/>
   <tile gid="30"/>
   <tile gid="30"/>
   <tile gid="30"/>
   <tile gid="30"/>
   <tile gid="30"/>
   <tile gid="30"/>
   <tile gid="30"/>
   <tile gid="30"/>
   <tile gid="30"/>
   <tile gid="30"/>
   <tile gid="30"/>
   <tile gid="30"/>
   <tile gid="30"/>
   <tile gid="30"/>
   <tile gid="34"/>
   <tile gid="34"/>
   <tile gid="34"/>
   <tile gid="30"/>
   <tile gid="30"/>
   <tile gid="30"/>
   <tile gid="30"/>
   <tile gid="30"/>
   <tile gid="30"/>
   <tile gid="30"/>
   <tile gid="30"/>
   <tile gid="30"/>
   <tile gid="30"/>
   <tile gid="30"/>
   <tile gid="30"/>
   <tile gid="30"/>
   <tile gid="30"/>
   <tile gid="30"/>
   <tile gid="30"/>
   <tile gid="30"/>
   <tile gid="30"/>
   <tile gid="30"/>
   <tile gid="30"/>
   <tile gid="30"/>
   <tile gid="34"/>
   <tile gid="34"/>
   <tile gid="34"/>
   <tile gid="30"/>
   <tile gid="30"/>
   <tile gid="30"/>
   <tile gid="30"/>
   <tile gid="30"/>
   <tile gid="30"/>
   <tile gid="30"/>
   <tile gid="30"/>
   <tile gid="30"/>
   <tile gid="30"/>
   <tile gid="30"/>
   <tile gid="30"/>
   <tile gid="30"/>
   <tile gid="30"/>
   <tile gid="30"/>
   <tile gid="34"/>
   <tile gid="34"/>
   <tile gid="34"/>
   <tile gid="30"/>
   <tile gid="30"/>
   <tile gid="30"/>
   <tile gid="30"/>
   <tile gid="30"/>
   <tile gid="30"/>
   <tile gid="30"/>
   <tile gid="30"/>
   <tile gid="30"/>
   <tile gid="15"/>
   <tile gid="15"/>
   <tile gid="30"/>
   <tile gid="30"/>
   <tile gid="30"/>
   <tile gid="30"/>
   <tile gid="30"/>
   <tile gid="30"/>
   <tile gid="30"/>
   <tile gid="30"/>
   <tile gid="30"/>
   <tile gid="30"/>
   <tile gid="30"/>
   <tile gid="30"/>
   <tile gid="30"/>
   <tile gid="30"/>
   <tile gid="30"/>
   <tile gid="30"/>
   <tile gid="30"/>
   <tile gid="34"/>
   <tile gid="34"/>
   <tile gid="34"/>
   <tile gid="34"/>
   <tile gid="34"/>
   <tile gid="34"/>
   <tile gid="30"/>
   <tile gid="30"/>
   <tile gid="30"/>
   <tile gid="30"/>
   <tile gid="30"/>
   <tile gid="30"/>
   <tile gid="30"/>
   <tile gid="30"/>
   <tile gid="30"/>
   <tile gid="30"/>
   <tile gid="30"/>
   <tile gid="30"/>
   <tile gid="30"/>
   <tile gid="30"/>
   <tile gid="30"/>
   <tile gid="30"/>
   <tile gid="30"/>
   <tile gid="30"/>
   <tile gid="30"/>
   <tile gid="30"/>
   <tile gid="30"/>
   <tile gid="34"/>
   <tile gid="34"/>
   <tile gid="34"/>
   <tile gid="30"/>
   <tile gid="30"/>
   <tile gid="30"/>
   <tile gid="30"/>
   <tile gid="30"/>
   <tile gid="30"/>
   <tile gid="30"/>
   <tile gid="30"/>
   <tile gid="30"/>
   <tile gid="30"/>
   <tile gid="30"/>
   <tile gid="30"/>
   <tile gid="30"/>
   <tile gid="30"/>
   <tile gid="30"/>
   <tile gid="30"/>
   <tile gid="30"/>
   <tile gid="30"/>
   <tile gid="30"/>
   <tile gid="30"/>
   <tile gid="30"/>
   <tile gid="34"/>
   <tile gid="34"/>
   <tile gid="34"/>
   <tile gid="30"/>
   <tile gid="30"/>
   <tile gid="30"/>
   <tile gid="30"/>
   <tile gid="30"/>
   <tile gid="30"/>
   <tile gid="30"/>
   <tile gid="30"/>
   <tile gid="30"/>
   <tile gid="30"/>
   <tile gid="30"/>
   <tile gid="30"/>
   <tile gid="30"/>
   <tile gid="30"/>
   <tile gid="30"/>
   <tile gid="34"/>
   <tile gid="34"/>
   <tile gid="34"/>
   <tile gid="30"/>
   <tile gid="30"/>
   <tile gid="30"/>
   <tile gid="30"/>
   <tile gid="30"/>
   <tile gid="30"/>
   <tile gid="30"/>
   <tile gid="30"/>
   <tile gid="30"/>
   <tile gid="15"/>
   <tile gid="15"/>
   <tile gid="30"/>
   <tile gid="30"/>
   <tile gid="30"/>
   <tile gid="30"/>
   <tile gid="30"/>
   <tile gid="30"/>
   <tile gid="30"/>
   <tile gid="30"/>
   <tile gid="30"/>
   <tile gid="30"/>
   <tile gid="30"/>
   <tile gid="30"/>
   <tile gid="30"/>
   <tile gid="30"/>
   <tile gid="30"/>
   <tile gid="30"/>
   <tile gid="30"/>
   <tile gid="34"/>
   <tile gid="34"/>
   <tile gid="34"/>
   <tile gid="34"/>
   <tile gid="34"/>
   <tile gid="34"/>
   <tile gid="30"/>
   <tile gid="30"/>
   <tile gid="30"/>
   <tile gid="30"/>
   <tile gid="30"/>
   <tile gid="30"/>
   <tile gid="30"/>
   <tile gid="30"/>
   <tile gid="30"/>
   <tile gid="30"/>
   <tile gid="30"/>
   <tile gid="30"/>
   <tile gid="30"/>
   <tile gid="30"/>
   <tile gid="30"/>
   <tile gid="30"/>
   <tile gid="30"/>
   <tile gid="30"/>
   <tile gid="30"/>
   <tile gid="30"/>
   <tile gid="30"/>
   <tile gid="34"/>
   <tile gid="34"/>
   <tile gid="34"/>
   <tile gid="30"/>
   <tile gid="30"/>
   <tile gid="30"/>
   <tile gid="30"/>
   <tile gid="30"/>
   <tile gid="30"/>
   <tile gid="30"/>
   <tile gid="30"/>
   <tile gid="30"/>
   <tile gid="30"/>
   <tile gid="30"/>
   <tile gid="30"/>
   <tile gid="30"/>
   <tile gid="30"/>
   <tile gid="30"/>
   <tile gid="30"/>
   <tile gid="30"/>
   <tile gid="30"/>
   <tile gid="30"/>
   <tile gid="30"/>
   <tile gid="30"/>
   <tile gid="34"/>
   <tile gid="34"/>
   <tile gid="34"/>
   <tile gid="30"/>
   <tile gid="30"/>
   <tile gid="30"/>
   <tile gid="30"/>
   <tile gid="30"/>
   <tile gid="30"/>
   <tile gid="30"/>
   <tile gid="30"/>
   <tile gid="30"/>
   <tile gid="30"/>
   <tile gid="30"/>
   <tile gid="30"/>
   <tile gid="30"/>
   <tile gid="30"/>
   <tile gid="30"/>
   <tile gid="34"/>
   <tile gid="34"/>
   <tile gid="34"/>
   <tile gid="30"/>
   <tile gid="30"/>
   <tile gid="30"/>
   <tile gid="30"/>
   <tile gid="30"/>
   <tile gid="30"/>
   <tile gid="30"/>
   <tile gid="30"/>
   <tile gid="30"/>
   <tile gid="15"/>
   <tile gid="15"/>
   <tile gid="30"/>
   <tile gid="30"/>
   <tile gid="30"/>
   <tile gid="30"/>
   <tile gid="30"/>
   <tile gid="30"/>
   <tile gid="30"/>
   <tile gid="30"/>
   <tile gid="30"/>
   <tile gid="30"/>
   <tile gid="30"/>
   <tile gid="30"/>
   <tile gid="30"/>
   <tile gid="30"/>
   <tile gid="30"/>
   <tile gid="30"/>
   <tile gid="30"/>
   <tile gid="34"/>
   <tile gid="34"/>
   <tile gid="34"/>
   <tile gid="34"/>
   <tile gid="34"/>
   <tile gid="34"/>
   <tile gid="30"/>
   <tile gid="30"/>
   <tile gid="30"/>
   <tile gid="30"/>
   <tile gid="30"/>
   <tile gid="30"/>
   <tile gid="30"/>
   <tile gid="30"/>
   <tile gid="30"/>
   <tile gid="30"/>
   <tile gid="30"/>
   <tile gid="30"/>
   <tile gid="30"/>
   <tile gid="30"/>
   <tile gid="30"/>
   <tile gid="30"/>
   <tile gid="30"/>
   <tile gid="30"/>
   <tile gid="30"/>
   <tile gid="30"/>
   <tile gid="30"/>
   <tile gid="34"/>
   <tile gid="34"/>
   <tile gid="34"/>
   <tile gid="30"/>
   <tile gid="30"/>
   <tile gid="30"/>
   <tile gid="30"/>
   <tile gid="30"/>
   <tile gid="30"/>
   <tile gid="30"/>
   <tile gid="30"/>
   <tile gid="30"/>
   <tile gid="30"/>
   <tile gid="30"/>
   <tile gid="30"/>
   <tile gid="30"/>
   <tile gid="30"/>
   <tile gid="30"/>
   <tile gid="30"/>
   <tile gid="30"/>
   <tile gid="30"/>
   <tile gid="30"/>
   <tile gid="30"/>
   <tile gid="30"/>
   <tile gid="30"/>
   <tile gid="30"/>
   <tile gid="30"/>
   <tile gid="30"/>
   <tile gid="30"/>
   <tile gid="30"/>
   <tile gid="30"/>
   <tile gid="30"/>
   <tile gid="30"/>
   <tile gid="30"/>
   <tile gid="30"/>
   <tile gid="30"/>
   <tile gid="30"/>
   <tile gid="30"/>
   <tile gid="30"/>
   <tile gid="30"/>
   <tile gid="30"/>
   <tile gid="30"/>
   <tile gid="34"/>
   <tile gid="34"/>
   <tile gid="34"/>
   <tile gid="30"/>
   <tile gid="30"/>
   <tile gid="30"/>
   <tile gid="30"/>
   <tile gid="30"/>
   <tile gid="30"/>
   <tile gid="30"/>
   <tile gid="30"/>
   <tile gid="30"/>
   <tile gid="15"/>
   <tile gid="15"/>
   <tile gid="30"/>
   <tile gid="30"/>
   <tile gid="30"/>
   <tile gid="30"/>
   <tile gid="30"/>
   <tile gid="30"/>
   <tile gid="30"/>
   <tile gid="30"/>
   <tile gid="30"/>
   <tile gid="30"/>
   <tile gid="30"/>
   <tile gid="30"/>
   <tile gid="30"/>
   <tile gid="30"/>
   <tile gid="30"/>
   <tile gid="30"/>
   <tile gid="30"/>
   <tile gid="34"/>
   <tile gid="34"/>
   <tile gid="34"/>
   <tile gid="34"/>
   <tile gid="34"/>
   <tile gid="34"/>
   <tile gid="30"/>
   <tile gid="30"/>
   <tile gid="30"/>
   <tile gid="30"/>
   <tile gid="30"/>
   <tile gid="30"/>
   <tile gid="30"/>
   <tile gid="30"/>
   <tile gid="30"/>
   <tile gid="30"/>
   <tile gid="30"/>
   <tile gid="30"/>
   <tile gid="30"/>
   <tile gid="30"/>
   <tile gid="30"/>
   <tile gid="30"/>
   <tile gid="30"/>
   <tile gid="30"/>
   <tile gid="30"/>
   <tile gid="30"/>
   <tile gid="30"/>
   <tile gid="34"/>
   <tile gid="34"/>
   <tile gid="34"/>
   <tile gid="30"/>
   <tile gid="30"/>
   <tile gid="30"/>
   <tile gid="30"/>
   <tile gid="30"/>
   <tile gid="30"/>
   <tile gid="30"/>
   <tile gid="30"/>
   <tile gid="30"/>
   <tile gid="30"/>
   <tile gid="30"/>
   <tile gid="30"/>
   <tile gid="30"/>
   <tile gid="30"/>
   <tile gid="30"/>
   <tile gid="30"/>
   <tile gid="30"/>
   <tile gid="30"/>
   <tile gid="30"/>
   <tile gid="30"/>
   <tile gid="30"/>
   <tile gid="30"/>
   <tile gid="30"/>
   <tile gid="30"/>
   <tile gid="30"/>
   <tile gid="30"/>
   <tile gid="30"/>
   <tile gid="30"/>
   <tile gid="30"/>
   <tile gid="30"/>
   <tile gid="30"/>
   <tile gid="30"/>
   <tile gid="30"/>
   <tile gid="30"/>
   <tile gid="30"/>
   <tile gid="30"/>
   <tile gid="30"/>
   <tile gid="30"/>
   <tile gid="30"/>
   <tile gid="34"/>
   <tile gid="34"/>
   <tile gid="34"/>
   <tile gid="30"/>
   <tile gid="30"/>
   <tile gid="30"/>
   <tile gid="30"/>
   <tile gid="30"/>
   <tile gid="30"/>
   <tile gid="30"/>
   <tile gid="30"/>
   <tile gid="30"/>
   <tile gid="34"/>
   <tile gid="34"/>
   <tile gid="30"/>
   <tile gid="30"/>
   <tile gid="30"/>
   <tile gid="30"/>
   <tile gid="30"/>
   <tile gid="30"/>
   <tile gid="30"/>
   <tile gid="30"/>
   <tile gid="30"/>
   <tile gid="30"/>
   <tile gid="30"/>
   <tile gid="30"/>
   <tile gid="30"/>
   <tile gid="30"/>
   <tile gid="30"/>
   <tile gid="30"/>
   <tile gid="30"/>
   <tile gid="34"/>
   <tile gid="34"/>
   <tile gid="34"/>
   <tile gid="34"/>
   <tile gid="34"/>
   <tile gid="34"/>
   <tile gid="30"/>
   <tile gid="30"/>
   <tile gid="30"/>
   <tile gid="30"/>
   <tile gid="30"/>
   <tile gid="30"/>
   <tile gid="30"/>
   <tile gid="30"/>
   <tile gid="30"/>
   <tile gid="30"/>
   <tile gid="30"/>
   <tile gid="30"/>
   <tile gid="30"/>
   <tile gid="30"/>
   <tile gid="30"/>
   <tile gid="30"/>
   <tile gid="30"/>
   <tile gid="30"/>
   <tile gid="30"/>
   <tile gid="30"/>
   <tile gid="30"/>
   <tile gid="34"/>
   <tile gid="34"/>
   <tile gid="34"/>
   <tile gid="30"/>
   <tile gid="30"/>
   <tile gid="30"/>
   <tile gid="30"/>
   <tile gid="30"/>
   <tile gid="30"/>
   <tile gid="30"/>
   <tile gid="30"/>
   <tile gid="30"/>
   <tile gid="30"/>
   <tile gid="30"/>
   <tile gid="30"/>
   <tile gid="30"/>
   <tile gid="30"/>
   <tile gid="30"/>
   <tile gid="30"/>
   <tile gid="30"/>
   <tile gid="30"/>
   <tile gid="30"/>
   <tile gid="30"/>
   <tile gid="30"/>
   <tile gid="30"/>
   <tile gid="30"/>
   <tile gid="30"/>
   <tile gid="30"/>
   <tile gid="30"/>
   <tile gid="30"/>
   <tile gid="30"/>
   <tile gid="30"/>
   <tile gid="30"/>
   <tile gid="30"/>
   <tile gid="30"/>
   <tile gid="30"/>
   <tile gid="30"/>
   <tile gid="30"/>
   <tile gid="30"/>
   <tile gid="30"/>
   <tile gid="30"/>
   <tile gid="30"/>
   <tile gid="34"/>
   <tile gid="34"/>
   <tile gid="34"/>
   <tile gid="30"/>
   <tile gid="30"/>
   <tile gid="30"/>
   <tile gid="30"/>
   <tile gid="30"/>
   <tile gid="30"/>
   <tile gid="30"/>
   <tile gid="30"/>
   <tile gid="30"/>
   <tile gid="34"/>
   <tile gid="34"/>
   <tile gid="30"/>
   <tile gid="30"/>
   <tile gid="30"/>
   <tile gid="30"/>
   <tile gid="30"/>
   <tile gid="30"/>
   <tile gid="30"/>
   <tile gid="30"/>
   <tile gid="30"/>
   <tile gid="30"/>
   <tile gid="30"/>
   <tile gid="30"/>
   <tile gid="30"/>
   <tile gid="30"/>
   <tile gid="30"/>
   <tile gid="30"/>
   <tile gid="30"/>
   <tile gid="34"/>
   <tile gid="34"/>
   <tile gid="34"/>
   <tile gid="34"/>
   <tile gid="34"/>
   <tile gid="34"/>
   <tile gid="30"/>
   <tile gid="30"/>
   <tile gid="30"/>
   <tile gid="30"/>
   <tile gid="30"/>
   <tile gid="30"/>
   <tile gid="30"/>
   <tile gid="30"/>
   <tile gid="30"/>
   <tile gid="30"/>
   <tile gid="30"/>
   <tile gid="30"/>
   <tile gid="30"/>
   <tile gid="30"/>
   <tile gid="30"/>
   <tile gid="30"/>
   <tile gid="30"/>
   <tile gid="30"/>
   <tile gid="30"/>
   <tile gid="30"/>
   <tile gid="30"/>
   <tile gid="34"/>
   <tile gid="34"/>
   <tile gid="34"/>
   <tile gid="30"/>
   <tile gid="30"/>
   <tile gid="30"/>
   <tile gid="30"/>
   <tile gid="30"/>
   <tile gid="30"/>
   <tile gid="30"/>
   <tile gid="30"/>
   <tile gid="30"/>
   <tile gid="30"/>
   <tile gid="30"/>
   <tile gid="30"/>
   <tile gid="30"/>
   <tile gid="30"/>
   <tile gid="30"/>
   <tile gid="30"/>
   <tile gid="30"/>
   <tile gid="30"/>
   <tile gid="30"/>
   <tile gid="30"/>
   <tile gid="30"/>
   <tile gid="34"/>
   <tile gid="34"/>
   <tile gid="34"/>
   <tile gid="30"/>
   <tile gid="30"/>
   <tile gid="30"/>
   <tile gid="30"/>
   <tile gid="30"/>
   <tile gid="30"/>
   <tile gid="30"/>
   <tile gid="30"/>
   <tile gid="30"/>
   <tile gid="30"/>
   <tile gid="30"/>
   <tile gid="30"/>
   <tile gid="30"/>
   <tile gid="30"/>
   <tile gid="30"/>
   <tile gid="34"/>
   <tile gid="34"/>
   <tile gid="34"/>
   <tile gid="30"/>
   <tile gid="30"/>
   <tile gid="30"/>
   <tile gid="30"/>
   <tile gid="30"/>
   <tile gid="30"/>
   <tile gid="30"/>
   <tile gid="30"/>
   <tile gid="30"/>
   <tile gid="15"/>
   <tile gid="15"/>
   <tile gid="30"/>
   <tile gid="30"/>
   <tile gid="30"/>
   <tile gid="30"/>
   <tile gid="30"/>
   <tile gid="30"/>
   <tile gid="30"/>
   <tile gid="30"/>
   <tile gid="30"/>
   <tile gid="30"/>
   <tile gid="30"/>
   <tile gid="30"/>
   <tile gid="30"/>
   <tile gid="30"/>
   <tile gid="30"/>
   <tile gid="30"/>
   <tile gid="30"/>
   <tile gid="34"/>
   <tile gid="34"/>
   <tile gid="34"/>
   <tile gid="34"/>
   <tile gid="34"/>
   <tile gid="34"/>
   <tile gid="30"/>
   <tile gid="30"/>
   <tile gid="30"/>
   <tile gid="30"/>
   <tile gid="30"/>
   <tile gid="30"/>
   <tile gid="30"/>
   <tile gid="30"/>
   <tile gid="30"/>
   <tile gid="30"/>
   <tile gid="30"/>
   <tile gid="30"/>
   <tile gid="30"/>
   <tile gid="30"/>
   <tile gid="30"/>
   <tile gid="30"/>
   <tile gid="30"/>
   <tile gid="30"/>
   <tile gid="30"/>
   <tile gid="30"/>
   <tile gid="30"/>
   <tile gid="34"/>
   <tile gid="34"/>
   <tile gid="34"/>
   <tile gid="30"/>
   <tile gid="30"/>
   <tile gid="30"/>
   <tile gid="30"/>
   <tile gid="30"/>
   <tile gid="30"/>
   <tile gid="30"/>
   <tile gid="30"/>
   <tile gid="30"/>
   <tile gid="30"/>
   <tile gid="30"/>
   <tile gid="30"/>
   <tile gid="30"/>
   <tile gid="30"/>
   <tile gid="30"/>
   <tile gid="30"/>
   <tile gid="30"/>
   <tile gid="30"/>
   <tile gid="30"/>
   <tile gid="30"/>
   <tile gid="30"/>
   <tile gid="34"/>
   <tile gid="34"/>
   <tile gid="34"/>
   <tile gid="30"/>
   <tile gid="30"/>
   <tile gid="30"/>
   <tile gid="30"/>
   <tile gid="30"/>
   <tile gid="30"/>
   <tile gid="30"/>
   <tile gid="30"/>
   <tile gid="30"/>
   <tile gid="30"/>
   <tile gid="30"/>
   <tile gid="30"/>
   <tile gid="30"/>
   <tile gid="30"/>
   <tile gid="30"/>
   <tile gid="34"/>
   <tile gid="34"/>
   <tile gid="34"/>
   <tile gid="30"/>
   <tile gid="30"/>
   <tile gid="30"/>
   <tile gid="30"/>
   <tile gid="30"/>
   <tile gid="30"/>
   <tile gid="30"/>
   <tile gid="30"/>
   <tile gid="30"/>
   <tile gid="15"/>
   <tile gid="15"/>
   <tile gid="30"/>
   <tile gid="30"/>
   <tile gid="30"/>
   <tile gid="30"/>
   <tile gid="30"/>
   <tile gid="30"/>
   <tile gid="30"/>
   <tile gid="30"/>
   <tile gid="30"/>
   <tile gid="30"/>
   <tile gid="30"/>
   <tile gid="30"/>
   <tile gid="30"/>
   <tile gid="30"/>
   <tile gid="30"/>
   <tile gid="30"/>
   <tile gid="30"/>
   <tile gid="34"/>
   <tile gid="34"/>
   <tile gid="34"/>
   <tile gid="34"/>
   <tile gid="34"/>
   <tile gid="34"/>
   <tile gid="30"/>
   <tile gid="30"/>
   <tile gid="30"/>
   <tile gid="30"/>
   <tile gid="30"/>
   <tile gid="30"/>
   <tile gid="30"/>
   <tile gid="30"/>
   <tile gid="30"/>
   <tile gid="30"/>
   <tile gid="30"/>
   <tile gid="30"/>
   <tile gid="30"/>
   <tile gid="30"/>
   <tile gid="30"/>
   <tile gid="30"/>
   <tile gid="30"/>
   <tile gid="30"/>
   <tile gid="30"/>
   <tile gid="30"/>
   <tile gid="30"/>
   <tile gid="34"/>
   <tile gid="34"/>
   <tile gid="34"/>
   <tile gid="30"/>
   <tile gid="30"/>
   <tile gid="30"/>
   <tile gid="30"/>
   <tile gid="30"/>
   <tile gid="30"/>
   <tile gid="30"/>
   <tile gid="30"/>
   <tile gid="30"/>
   <tile gid="30"/>
   <tile gid="30"/>
   <tile gid="30"/>
   <tile gid="30"/>
   <tile gid="30"/>
   <tile gid="30"/>
   <tile gid="30"/>
   <tile gid="30"/>
   <tile gid="30"/>
   <tile gid="30"/>
   <tile gid="30"/>
   <tile gid="30"/>
   <tile gid="34"/>
   <tile gid="34"/>
   <tile gid="34"/>
   <tile gid="30"/>
   <tile gid="30"/>
   <tile gid="30"/>
   <tile gid="30"/>
   <tile gid="30"/>
   <tile gid="30"/>
   <tile gid="30"/>
   <tile gid="30"/>
   <tile gid="30"/>
   <tile gid="30"/>
   <tile gid="30"/>
   <tile gid="30"/>
   <tile gid="30"/>
   <tile gid="30"/>
   <tile gid="30"/>
   <tile gid="34"/>
   <tile gid="34"/>
   <tile gid="34"/>
   <tile gid="30"/>
   <tile gid="30"/>
   <tile gid="30"/>
   <tile gid="30"/>
   <tile gid="30"/>
   <tile gid="30"/>
   <tile gid="30"/>
   <tile gid="30"/>
   <tile gid="30"/>
   <tile gid="15"/>
   <tile gid="15"/>
   <tile gid="30"/>
   <tile gid="30"/>
   <tile gid="30"/>
   <tile gid="30"/>
   <tile gid="30"/>
   <tile gid="30"/>
   <tile gid="30"/>
   <tile gid="30"/>
   <tile gid="30"/>
   <tile gid="30"/>
   <tile gid="30"/>
   <tile gid="30"/>
   <tile gid="30"/>
   <tile gid="30"/>
   <tile gid="30"/>
   <tile gid="30"/>
   <tile gid="30"/>
   <tile gid="34"/>
   <tile gid="34"/>
   <tile gid="34"/>
   <tile gid="34"/>
   <tile gid="34"/>
   <tile gid="34"/>
   <tile gid="30"/>
   <tile gid="30"/>
   <tile gid="30"/>
   <tile gid="30"/>
   <tile gid="30"/>
   <tile gid="30"/>
   <tile gid="30"/>
   <tile gid="30"/>
   <tile gid="30"/>
   <tile gid="30"/>
   <tile gid="30"/>
   <tile gid="30"/>
   <tile gid="30"/>
   <tile gid="30"/>
   <tile gid="30"/>
   <tile gid="30"/>
   <tile gid="30"/>
   <tile gid="30"/>
   <tile gid="30"/>
   <tile gid="30"/>
   <tile gid="30"/>
   <tile gid="34"/>
   <tile gid="34"/>
   <tile gid="34"/>
   <tile gid="30"/>
   <tile gid="30"/>
   <tile gid="30"/>
   <tile gid="30"/>
   <tile gid="30"/>
   <tile gid="30"/>
   <tile gid="30"/>
   <tile gid="30"/>
   <tile gid="30"/>
   <tile gid="30"/>
   <tile gid="30"/>
   <tile gid="30"/>
   <tile gid="30"/>
   <tile gid="30"/>
   <tile gid="30"/>
   <tile gid="30"/>
   <tile gid="30"/>
   <tile gid="30"/>
   <tile gid="30"/>
   <tile gid="30"/>
   <tile gid="30"/>
   <tile gid="34"/>
   <tile gid="34"/>
   <tile gid="34"/>
   <tile gid="30"/>
   <tile gid="30"/>
   <tile gid="30"/>
   <tile gid="30"/>
   <tile gid="30"/>
   <tile gid="30"/>
   <tile gid="30"/>
   <tile gid="30"/>
   <tile gid="30"/>
   <tile gid="30"/>
   <tile gid="30"/>
   <tile gid="30"/>
   <tile gid="30"/>
   <tile gid="30"/>
   <tile gid="30"/>
   <tile gid="34"/>
   <tile gid="34"/>
   <tile gid="34"/>
   <tile gid="30"/>
   <tile gid="30"/>
   <tile gid="30"/>
   <tile gid="30"/>
   <tile gid="32"/>
   <tile gid="32"/>
   <tile gid="34"/>
   <tile gid="34"/>
   <tile gid="34"/>
   <tile gid="34"/>
   <tile gid="34"/>
   <tile gid="34"/>
   <tile gid="34"/>
   <tile gid="34"/>
   <tile gid="34"/>
   <tile gid="34"/>
   <tile gid="34"/>
   <tile gid="34"/>
   <tile gid="34"/>
   <tile gid="34"/>
   <tile gid="34"/>
   <tile gid="34"/>
   <tile gid="30"/>
   <tile gid="30"/>
   <tile gid="30"/>
   <tile gid="34"/>
   <tile gid="34"/>
   <tile gid="34"/>
   <tile gid="34"/>
   <tile gid="34"/>
   <tile gid="34"/>
   <tile gid="34"/>
   <tile gid="34"/>
   <tile gid="34"/>
   <tile gid="30"/>
   <tile gid="30"/>
   <tile gid="30"/>
   <tile gid="30"/>
   <tile gid="30"/>
   <tile gid="30"/>
   <tile gid="30"/>
   <tile gid="30"/>
   <tile gid="30"/>
   <tile gid="30"/>
   <tile gid="30"/>
   <tile gid="30"/>
   <tile gid="30"/>
   <tile gid="30"/>
   <tile gid="30"/>
   <tile gid="30"/>
   <tile gid="30"/>
   <tile gid="30"/>
   <tile gid="30"/>
   <tile gid="30"/>
   <tile gid="30"/>
   <tile gid="34"/>
   <tile gid="34"/>
   <tile gid="34"/>
   <tile gid="30"/>
   <tile gid="30"/>
   <tile gid="30"/>
   <tile gid="30"/>
   <tile gid="30"/>
   <tile gid="30"/>
   <tile gid="30"/>
   <tile gid="30"/>
   <tile gid="30"/>
   <tile gid="30"/>
   <tile gid="30"/>
   <tile gid="30"/>
   <tile gid="30"/>
   <tile gid="30"/>
   <tile gid="30"/>
   <tile gid="30"/>
   <tile gid="30"/>
   <tile gid="30"/>
   <tile gid="30"/>
   <tile gid="30"/>
   <tile gid="30"/>
   <tile gid="34"/>
   <tile gid="34"/>
   <tile gid="34"/>
   <tile gid="30"/>
   <tile gid="30"/>
   <tile gid="30"/>
   <tile gid="30"/>
   <tile gid="30"/>
   <tile gid="30"/>
   <tile gid="30"/>
   <tile gid="30"/>
   <tile gid="30"/>
   <tile gid="30"/>
   <tile gid="30"/>
   <tile gid="30"/>
   <tile gid="30"/>
   <tile gid="30"/>
   <tile gid="30"/>
   <tile gid="34"/>
   <tile gid="34"/>
   <tile gid="34"/>
   <tile gid="30"/>
   <tile gid="30"/>
   <tile gid="30"/>
   <tile gid="30"/>
   <tile gid="32"/>
   <tile gid="32"/>
   <tile gid="34"/>
   <tile gid="34"/>
   <tile gid="34"/>
   <tile gid="34"/>
   <tile gid="34"/>
   <tile gid="34"/>
   <tile gid="34"/>
   <tile gid="34"/>
   <tile gid="34"/>
   <tile gid="34"/>
   <tile gid="34"/>
   <tile gid="34"/>
   <tile gid="34"/>
   <tile gid="34"/>
   <tile gid="34"/>
   <tile gid="34"/>
   <tile gid="30"/>
   <tile gid="30"/>
   <tile gid="30"/>
   <tile gid="34"/>
   <tile gid="34"/>
   <tile gid="34"/>
   <tile gid="34"/>
   <tile gid="34"/>
   <tile gid="34"/>
   <tile gid="34"/>
   <tile gid="34"/>
   <tile gid="34"/>
   <tile gid="30"/>
   <tile gid="30"/>
   <tile gid="30"/>
   <tile gid="30"/>
   <tile gid="30"/>
   <tile gid="30"/>
   <tile gid="30"/>
   <tile gid="30"/>
   <tile gid="30"/>
   <tile gid="30"/>
   <tile gid="30"/>
   <tile gid="30"/>
   <tile gid="30"/>
   <tile gid="30"/>
   <tile gid="30"/>
   <tile gid="30"/>
   <tile gid="30"/>
   <tile gid="30"/>
   <tile gid="30"/>
   <tile gid="30"/>
   <tile gid="30"/>
   <tile gid="34"/>
   <tile gid="34"/>
   <tile gid="34"/>
   <tile gid="30"/>
   <tile gid="30"/>
   <tile gid="30"/>
   <tile gid="30"/>
   <tile gid="30"/>
   <tile gid="30"/>
   <tile gid="30"/>
   <tile gid="30"/>
   <tile gid="30"/>
   <tile gid="30"/>
   <tile gid="30"/>
   <tile gid="30"/>
   <tile gid="30"/>
   <tile gid="30"/>
   <tile gid="30"/>
   <tile gid="30"/>
   <tile gid="30"/>
   <tile gid="30"/>
   <tile gid="30"/>
   <tile gid="30"/>
   <tile gid="30"/>
   <tile gid="34"/>
   <tile gid="34"/>
   <tile gid="34"/>
   <tile gid="30"/>
   <tile gid="30"/>
   <tile gid="30"/>
   <tile gid="30"/>
   <tile gid="30"/>
   <tile gid="30"/>
   <tile gid="30"/>
   <tile gid="30"/>
   <tile gid="30"/>
   <tile gid="30"/>
   <tile gid="30"/>
   <tile gid="30"/>
   <tile gid="30"/>
   <tile gid="30"/>
   <tile gid="30"/>
   <tile gid="34"/>
   <tile gid="34"/>
   <tile gid="34"/>
   <tile gid="30"/>
   <tile gid="30"/>
   <tile gid="30"/>
   <tile gid="30"/>
   <tile gid="30"/>
   <tile gid="30"/>
   <tile gid="30"/>
   <tile gid="30"/>
   <tile gid="30"/>
   <tile gid="34"/>
   <tile gid="34"/>
   <tile gid="34"/>
   <tile gid="34"/>
   <tile gid="34"/>
   <tile gid="34"/>
   <tile gid="34"/>
   <tile gid="34"/>
   <tile gid="34"/>
   <tile gid="34"/>
   <tile gid="34"/>
   <tile gid="34"/>
   <tile gid="34"/>
   <tile gid="30"/>
   <tile gid="30"/>
   <tile gid="30"/>
   <tile gid="34"/>
   <tile gid="34"/>
   <tile gid="34"/>
   <tile gid="34"/>
   <tile gid="34"/>
   <tile gid="34"/>
   <tile gid="34"/>
   <tile gid="34"/>
   <tile gid="34"/>
   <tile gid="30"/>
   <tile gid="30"/>
   <tile gid="30"/>
   <tile gid="30"/>
   <tile gid="30"/>
   <tile gid="30"/>
   <tile gid="30"/>
   <tile gid="30"/>
   <tile gid="30"/>
   <tile gid="30"/>
   <tile gid="30"/>
   <tile gid="30"/>
   <tile gid="30"/>
   <tile gid="30"/>
   <tile gid="30"/>
   <tile gid="30"/>
   <tile gid="30"/>
   <tile gid="30"/>
   <tile gid="30"/>
   <tile gid="30"/>
   <tile gid="30"/>
   <tile gid="34"/>
   <tile gid="34"/>
   <tile gid="34"/>
   <tile gid="30"/>
   <tile gid="30"/>
   <tile gid="30"/>
   <tile gid="30"/>
   <tile gid="30"/>
   <tile gid="30"/>
   <tile gid="30"/>
   <tile gid="30"/>
   <tile gid="30"/>
   <tile gid="30"/>
   <tile gid="30"/>
   <tile gid="30"/>
   <tile gid="30"/>
   <tile gid="30"/>
   <tile gid="30"/>
   <tile gid="30"/>
   <tile gid="30"/>
   <tile gid="30"/>
   <tile gid="30"/>
   <tile gid="30"/>
   <tile gid="30"/>
   <tile gid="34"/>
   <tile gid="34"/>
   <tile gid="34"/>
   <tile gid="30"/>
   <tile gid="30"/>
   <tile gid="30"/>
   <tile gid="30"/>
   <tile gid="30"/>
   <tile gid="30"/>
   <tile gid="30"/>
   <tile gid="30"/>
   <tile gid="30"/>
   <tile gid="30"/>
   <tile gid="30"/>
   <tile gid="30"/>
   <tile gid="30"/>
   <tile gid="30"/>
   <tile gid="30"/>
   <tile gid="34"/>
   <tile gid="34"/>
   <tile gid="34"/>
   <tile gid="30"/>
   <tile gid="30"/>
   <tile gid="30"/>
   <tile gid="30"/>
   <tile gid="30"/>
   <tile gid="30"/>
   <tile gid="30"/>
   <tile gid="30"/>
   <tile gid="30"/>
   <tile gid="34"/>
   <tile gid="34"/>
   <tile gid="34"/>
   <tile gid="30"/>
   <tile gid="30"/>
   <tile gid="30"/>
   <tile gid="30"/>
   <tile gid="30"/>
   <tile gid="30"/>
   <tile gid="30"/>
   <tile gid="30"/>
   <tile gid="30"/>
   <tile gid="30"/>
   <tile gid="30"/>
   <tile gid="30"/>
   <tile gid="30"/>
   <tile gid="30"/>
   <tile gid="30"/>
   <tile gid="30"/>
   <tile gid="34"/>
   <tile gid="34"/>
   <tile gid="34"/>
   <tile gid="34"/>
   <tile gid="34"/>
   <tile gid="34"/>
   <tile gid="30"/>
   <tile gid="30"/>
   <tile gid="30"/>
   <tile gid="30"/>
   <tile gid="30"/>
   <tile gid="30"/>
   <tile gid="30"/>
   <tile gid="30"/>
   <tile gid="30"/>
   <tile gid="30"/>
   <tile gid="30"/>
   <tile gid="30"/>
   <tile gid="30"/>
   <tile gid="30"/>
   <tile gid="30"/>
   <tile gid="30"/>
   <tile gid="30"/>
   <tile gid="30"/>
   <tile gid="30"/>
   <tile gid="30"/>
   <tile gid="30"/>
   <tile gid="34"/>
   <tile gid="34"/>
   <tile gid="34"/>
   <tile gid="30"/>
   <tile gid="30"/>
   <tile gid="30"/>
   <tile gid="30"/>
   <tile gid="30"/>
   <tile gid="30"/>
   <tile gid="30"/>
   <tile gid="30"/>
   <tile gid="30"/>
   <tile gid="30"/>
   <tile gid="30"/>
   <tile gid="30"/>
   <tile gid="30"/>
   <tile gid="30"/>
   <tile gid="30"/>
   <tile gid="30"/>
   <tile gid="30"/>
   <tile gid="30"/>
   <tile gid="30"/>
   <tile gid="30"/>
   <tile gid="30"/>
   <tile gid="34"/>
   <tile gid="34"/>
   <tile gid="34"/>
   <tile gid="30"/>
   <tile gid="30"/>
   <tile gid="30"/>
   <tile gid="30"/>
   <tile gid="30"/>
   <tile gid="30"/>
   <tile gid="30"/>
   <tile gid="30"/>
   <tile gid="30"/>
   <tile gid="30"/>
   <tile gid="30"/>
   <tile gid="30"/>
   <tile gid="30"/>
   <tile gid="30"/>
   <tile gid="30"/>
   <tile gid="34"/>
   <tile gid="34"/>
   <tile gid="34"/>
   <tile gid="30"/>
   <tile gid="30"/>
   <tile gid="30"/>
   <tile gid="30"/>
   <tile gid="30"/>
   <tile gid="30"/>
   <tile gid="30"/>
   <tile gid="30"/>
   <tile gid="30"/>
   <tile gid="34"/>
   <tile gid="34"/>
   <tile gid="34"/>
   <tile gid="30"/>
   <tile gid="30"/>
   <tile gid="30"/>
   <tile gid="30"/>
   <tile gid="30"/>
   <tile gid="30"/>
   <tile gid="30"/>
   <tile gid="30"/>
   <tile gid="30"/>
   <tile gid="30"/>
   <tile gid="30"/>
   <tile gid="30"/>
   <tile gid="30"/>
   <tile gid="30"/>
   <tile gid="30"/>
   <tile gid="30"/>
   <tile gid="34"/>
   <tile gid="34"/>
   <tile gid="34"/>
   <tile gid="34"/>
   <tile gid="34"/>
   <tile gid="34"/>
   <tile gid="30"/>
   <tile gid="30"/>
   <tile gid="30"/>
   <tile gid="30"/>
   <tile gid="30"/>
   <tile gid="30"/>
   <tile gid="30"/>
   <tile gid="30"/>
   <tile gid="30"/>
   <tile gid="30"/>
   <tile gid="30"/>
   <tile gid="30"/>
   <tile gid="30"/>
   <tile gid="30"/>
   <tile gid="30"/>
   <tile gid="30"/>
   <tile gid="30"/>
   <tile gid="30"/>
   <tile gid="30"/>
   <tile gid="30"/>
   <tile gid="30"/>
   <tile gid="34"/>
   <tile gid="34"/>
   <tile gid="34"/>
   <tile gid="30"/>
   <tile gid="30"/>
   <tile gid="30"/>
   <tile gid="30"/>
   <tile gid="30"/>
   <tile gid="30"/>
   <tile gid="30"/>
   <tile gid="30"/>
   <tile gid="30"/>
   <tile gid="30"/>
   <tile gid="30"/>
   <tile gid="30"/>
   <tile gid="30"/>
   <tile gid="30"/>
   <tile gid="30"/>
   <tile gid="30"/>
   <tile gid="30"/>
   <tile gid="30"/>
   <tile gid="30"/>
   <tile gid="30"/>
   <tile gid="30"/>
   <tile gid="34"/>
   <tile gid="34"/>
   <tile gid="34"/>
   <tile gid="30"/>
   <tile gid="30"/>
   <tile gid="30"/>
   <tile gid="30"/>
   <tile gid="30"/>
   <tile gid="30"/>
   <tile gid="30"/>
   <tile gid="30"/>
   <tile gid="30"/>
   <tile gid="30"/>
   <tile gid="30"/>
   <tile gid="30"/>
   <tile gid="30"/>
   <tile gid="30"/>
   <tile gid="30"/>
   <tile gid="34"/>
   <tile gid="34"/>
   <tile gid="34"/>
   <tile gid="30"/>
   <tile gid="30"/>
   <tile gid="30"/>
   <tile gid="30"/>
   <tile gid="30"/>
   <tile gid="30"/>
   <tile gid="30"/>
   <tile gid="30"/>
   <tile gid="30"/>
   <tile gid="34"/>
   <tile gid="34"/>
   <tile gid="34"/>
   <tile gid="30"/>
   <tile gid="30"/>
   <tile gid="30"/>
   <tile gid="30"/>
   <tile gid="30"/>
   <tile gid="30"/>
   <tile gid="30"/>
   <tile gid="30"/>
   <tile gid="30"/>
   <tile gid="30"/>
   <tile gid="30"/>
   <tile gid="30"/>
   <tile gid="30"/>
   <tile gid="30"/>
   <tile gid="30"/>
   <tile gid="30"/>
   <tile gid="34"/>
   <tile gid="34"/>
   <tile gid="34"/>
   <tile gid="34"/>
   <tile gid="34"/>
   <tile gid="34"/>
   <tile gid="30"/>
   <tile gid="30"/>
   <tile gid="30"/>
   <tile gid="30"/>
   <tile gid="30"/>
   <tile gid="30"/>
   <tile gid="30"/>
   <tile gid="30"/>
   <tile gid="30"/>
   <tile gid="30"/>
   <tile gid="30"/>
   <tile gid="30"/>
   <tile gid="30"/>
   <tile gid="30"/>
   <tile gid="30"/>
   <tile gid="30"/>
   <tile gid="30"/>
   <tile gid="30"/>
   <tile gid="30"/>
   <tile gid="30"/>
   <tile gid="30"/>
   <tile gid="34"/>
   <tile gid="34"/>
   <tile gid="34"/>
   <tile gid="30"/>
   <tile gid="30"/>
   <tile gid="30"/>
   <tile gid="30"/>
   <tile gid="30"/>
   <tile gid="30"/>
   <tile gid="30"/>
   <tile gid="30"/>
   <tile gid="30"/>
   <tile gid="30"/>
   <tile gid="30"/>
   <tile gid="30"/>
   <tile gid="30"/>
   <tile gid="30"/>
   <tile gid="30"/>
   <tile gid="30"/>
   <tile gid="30"/>
   <tile gid="30"/>
   <tile gid="30"/>
   <tile gid="30"/>
   <tile gid="30"/>
   <tile gid="34"/>
   <tile gid="34"/>
   <tile gid="34"/>
   <tile gid="30"/>
   <tile gid="30"/>
   <tile gid="30"/>
   <tile gid="30"/>
   <tile gid="30"/>
   <tile gid="30"/>
   <tile gid="30"/>
   <tile gid="30"/>
   <tile gid="30"/>
   <tile gid="30"/>
   <tile gid="30"/>
   <tile gid="30"/>
   <tile gid="30"/>
   <tile gid="30"/>
   <tile gid="30"/>
   <tile gid="34"/>
   <tile gid="34"/>
   <tile gid="34"/>
   <tile gid="30"/>
   <tile gid="30"/>
   <tile gid="30"/>
   <tile gid="30"/>
   <tile gid="30"/>
   <tile gid="30"/>
   <tile gid="30"/>
   <tile gid="30"/>
   <tile gid="30"/>
   <tile gid="34"/>
   <tile gid="34"/>
   <tile gid="34"/>
   <tile gid="30"/>
   <tile gid="30"/>
   <tile gid="30"/>
   <tile gid="30"/>
   <tile gid="30"/>
   <tile gid="30"/>
   <tile gid="30"/>
   <tile gid="30"/>
   <tile gid="30"/>
   <tile gid="30"/>
   <tile gid="30"/>
   <tile gid="30"/>
   <tile gid="30"/>
   <tile gid="30"/>
   <tile gid="30"/>
   <tile gid="30"/>
   <tile gid="34"/>
   <tile gid="34"/>
   <tile gid="34"/>
   <tile gid="34"/>
   <tile gid="34"/>
   <tile gid="34"/>
   <tile gid="30"/>
   <tile gid="30"/>
   <tile gid="30"/>
   <tile gid="30"/>
   <tile gid="30"/>
   <tile gid="30"/>
   <tile gid="30"/>
   <tile gid="30"/>
   <tile gid="30"/>
   <tile gid="30"/>
   <tile gid="30"/>
   <tile gid="30"/>
   <tile gid="30"/>
   <tile gid="30"/>
   <tile gid="30"/>
   <tile gid="30"/>
   <tile gid="30"/>
   <tile gid="30"/>
   <tile gid="30"/>
   <tile gid="30"/>
   <tile gid="30"/>
   <tile gid="34"/>
   <tile gid="34"/>
   <tile gid="34"/>
   <tile gid="30"/>
   <tile gid="30"/>
   <tile gid="30"/>
   <tile gid="30"/>
   <tile gid="30"/>
   <tile gid="30"/>
   <tile gid="30"/>
   <tile gid="30"/>
   <tile gid="30"/>
   <tile gid="30"/>
   <tile gid="30"/>
   <tile gid="30"/>
   <tile gid="30"/>
   <tile gid="30"/>
   <tile gid="30"/>
   <tile gid="30"/>
   <tile gid="30"/>
   <tile gid="30"/>
   <tile gid="30"/>
   <tile gid="30"/>
   <tile gid="30"/>
   <tile gid="34"/>
   <tile gid="34"/>
   <tile gid="34"/>
   <tile gid="30"/>
   <tile gid="30"/>
   <tile gid="30"/>
   <tile gid="30"/>
   <tile gid="30"/>
   <tile gid="30"/>
   <tile gid="30"/>
   <tile gid="30"/>
   <tile gid="30"/>
   <tile gid="30"/>
   <tile gid="30"/>
   <tile gid="30"/>
   <tile gid="30"/>
   <tile gid="30"/>
   <tile gid="30"/>
   <tile gid="34"/>
   <tile gid="34"/>
   <tile gid="34"/>
   <tile gid="30"/>
   <tile gid="30"/>
   <tile gid="30"/>
   <tile gid="30"/>
   <tile gid="30"/>
   <tile gid="30"/>
   <tile gid="30"/>
   <tile gid="30"/>
   <tile gid="30"/>
   <tile gid="34"/>
   <tile gid="34"/>
   <tile gid="34"/>
   <tile gid="30"/>
   <tile gid="30"/>
   <tile gid="30"/>
   <tile gid="30"/>
   <tile gid="30"/>
   <tile gid="30"/>
   <tile gid="30"/>
   <tile gid="30"/>
   <tile gid="30"/>
   <tile gid="30"/>
   <tile gid="30"/>
   <tile gid="30"/>
   <tile gid="30"/>
   <tile gid="30"/>
   <tile gid="30"/>
   <tile gid="30"/>
   <tile gid="34"/>
   <tile gid="34"/>
   <tile gid="34"/>
   <tile gid="34"/>
   <tile gid="34"/>
   <tile gid="34"/>
   <tile gid="30"/>
   <tile gid="30"/>
   <tile gid="30"/>
   <tile gid="30"/>
   <tile gid="30"/>
   <tile gid="30"/>
   <tile gid="30"/>
   <tile gid="30"/>
   <tile gid="30"/>
   <tile gid="30"/>
   <tile gid="30"/>
   <tile gid="30"/>
   <tile gid="30"/>
   <tile gid="30"/>
   <tile gid="30"/>
   <tile gid="30"/>
   <tile gid="30"/>
   <tile gid="30"/>
   <tile gid="30"/>
   <tile gid="30"/>
   <tile gid="30"/>
   <tile gid="34"/>
   <tile gid="34"/>
   <tile gid="34"/>
   <tile gid="30"/>
   <tile gid="30"/>
   <tile gid="30"/>
   <tile gid="30"/>
   <tile gid="30"/>
   <tile gid="30"/>
   <tile gid="30"/>
   <tile gid="30"/>
   <tile gid="30"/>
   <tile gid="30"/>
   <tile gid="30"/>
   <tile gid="30"/>
   <tile gid="30"/>
   <tile gid="30"/>
   <tile gid="30"/>
   <tile gid="30"/>
   <tile gid="30"/>
   <tile gid="30"/>
   <tile gid="30"/>
   <tile gid="30"/>
   <tile gid="30"/>
   <tile gid="34"/>
   <tile gid="34"/>
   <tile gid="34"/>
   <tile gid="30"/>
   <tile gid="30"/>
   <tile gid="30"/>
   <tile gid="30"/>
   <tile gid="30"/>
   <tile gid="30"/>
   <tile gid="30"/>
   <tile gid="30"/>
   <tile gid="30"/>
   <tile gid="30"/>
   <tile gid="30"/>
   <tile gid="39"/>
   <tile gid="30"/>
   <tile gid="30"/>
   <tile gid="30"/>
   <tile gid="34"/>
   <tile gid="34"/>
   <tile gid="34"/>
   <tile gid="30"/>
   <tile gid="30"/>
   <tile gid="30"/>
   <tile gid="30"/>
   <tile gid="30"/>
   <tile gid="30"/>
   <tile gid="32"/>
   <tile gid="32"/>
   <tile gid="30"/>
   <tile gid="34"/>
   <tile gid="34"/>
   <tile gid="34"/>
   <tile gid="30"/>
   <tile gid="30"/>
   <tile gid="30"/>
   <tile gid="30"/>
   <tile gid="30"/>
   <tile gid="30"/>
   <tile gid="30"/>
   <tile gid="30"/>
   <tile gid="30"/>
   <tile gid="30"/>
   <tile gid="30"/>
   <tile gid="30"/>
   <tile gid="30"/>
   <tile gid="30"/>
   <tile gid="30"/>
   <tile gid="30"/>
   <tile gid="34"/>
   <tile gid="34"/>
   <tile gid="34"/>
   <tile gid="34"/>
   <tile gid="34"/>
   <tile gid="34"/>
   <tile gid="30"/>
   <tile gid="30"/>
   <tile gid="30"/>
   <tile gid="30"/>
   <tile gid="30"/>
   <tile gid="30"/>
   <tile gid="30"/>
   <tile gid="30"/>
   <tile gid="30"/>
   <tile gid="30"/>
   <tile gid="30"/>
   <tile gid="30"/>
   <tile gid="30"/>
   <tile gid="30"/>
   <tile gid="30"/>
   <tile gid="30"/>
   <tile gid="30"/>
   <tile gid="30"/>
   <tile gid="30"/>
   <tile gid="30"/>
   <tile gid="30"/>
   <tile gid="34"/>
   <tile gid="34"/>
   <tile gid="34"/>
   <tile gid="30"/>
   <tile gid="30"/>
   <tile gid="30"/>
   <tile gid="30"/>
   <tile gid="30"/>
   <tile gid="30"/>
   <tile gid="30"/>
   <tile gid="30"/>
   <tile gid="30"/>
   <tile gid="30"/>
   <tile gid="30"/>
   <tile gid="30"/>
   <tile gid="30"/>
   <tile gid="30"/>
   <tile gid="30"/>
   <tile gid="30"/>
   <tile gid="30"/>
   <tile gid="30"/>
   <tile gid="30"/>
   <tile gid="30"/>
   <tile gid="30"/>
   <tile gid="34"/>
   <tile gid="34"/>
   <tile gid="34"/>
   <tile gid="30"/>
   <tile gid="30"/>
   <tile gid="30"/>
   <tile gid="30"/>
   <tile gid="30"/>
   <tile gid="30"/>
   <tile gid="30"/>
   <tile gid="30"/>
   <tile gid="30"/>
   <tile gid="30"/>
   <tile gid="30"/>
   <tile gid="30"/>
   <tile gid="30"/>
   <tile gid="30"/>
   <tile gid="30"/>
   <tile gid="34"/>
   <tile gid="34"/>
   <tile gid="34"/>
   <tile gid="30"/>
   <tile gid="30"/>
   <tile gid="30"/>
   <tile gid="30"/>
   <tile gid="30"/>
   <tile gid="30"/>
   <tile gid="32"/>
   <tile gid="32"/>
   <tile gid="30"/>
   <tile gid="34"/>
   <tile gid="34"/>
   <tile gid="34"/>
   <tile gid="30"/>
   <tile gid="30"/>
   <tile gid="30"/>
   <tile gid="30"/>
   <tile gid="30"/>
   <tile gid="30"/>
   <tile gid="30"/>
   <tile gid="30"/>
   <tile gid="30"/>
   <tile gid="30"/>
   <tile gid="30"/>
   <tile gid="30"/>
   <tile gid="30"/>
   <tile gid="30"/>
   <tile gid="30"/>
   <tile gid="30"/>
   <tile gid="34"/>
   <tile gid="34"/>
   <tile gid="34"/>
   <tile gid="34"/>
   <tile gid="34"/>
   <tile gid="34"/>
   <tile gid="30"/>
   <tile gid="30"/>
   <tile gid="30"/>
   <tile gid="30"/>
   <tile gid="30"/>
   <tile gid="30"/>
   <tile gid="30"/>
   <tile gid="30"/>
   <tile gid="30"/>
   <tile gid="30"/>
   <tile gid="30"/>
   <tile gid="30"/>
   <tile gid="30"/>
   <tile gid="30"/>
   <tile gid="30"/>
   <tile gid="30"/>
   <tile gid="30"/>
   <tile gid="30"/>
   <tile gid="30"/>
   <tile gid="30"/>
   <tile gid="30"/>
   <tile gid="34"/>
   <tile gid="34"/>
   <tile gid="34"/>
   <tile gid="30"/>
   <tile gid="30"/>
   <tile gid="30"/>
   <tile gid="30"/>
   <tile gid="30"/>
   <tile gid="30"/>
   <tile gid="30"/>
   <tile gid="30"/>
   <tile gid="30"/>
   <tile gid="30"/>
   <tile gid="30"/>
   <tile gid="30"/>
   <tile gid="30"/>
   <tile gid="30"/>
   <tile gid="30"/>
   <tile gid="30"/>
   <tile gid="30"/>
   <tile gid="30"/>
   <tile gid="30"/>
   <tile gid="30"/>
   <tile gid="30"/>
   <tile gid="34"/>
   <tile gid="34"/>
   <tile gid="34"/>
   <tile gid="30"/>
   <tile gid="30"/>
   <tile gid="30"/>
   <tile gid="30"/>
   <tile gid="30"/>
   <tile gid="30"/>
   <tile gid="30"/>
   <tile gid="30"/>
   <tile gid="30"/>
   <tile gid="30"/>
   <tile gid="30"/>
   <tile gid="30"/>
   <tile gid="30"/>
   <tile gid="30"/>
   <tile gid="30"/>
   <tile gid="34"/>
   <tile gid="34"/>
   <tile gid="34"/>
   <tile gid="30"/>
   <tile gid="30"/>
   <tile gid="30"/>
   <tile gid="30"/>
   <tile gid="30"/>
   <tile gid="30"/>
   <tile gid="30"/>
   <tile gid="30"/>
   <tile gid="30"/>
   <tile gid="34"/>
   <tile gid="34"/>
   <tile gid="34"/>
   <tile gid="30"/>
   <tile gid="30"/>
   <tile gid="30"/>
   <tile gid="30"/>
   <tile gid="30"/>
   <tile gid="30"/>
   <tile gid="30"/>
   <tile gid="30"/>
   <tile gid="30"/>
   <tile gid="30"/>
   <tile gid="30"/>
   <tile gid="30"/>
   <tile gid="30"/>
   <tile gid="30"/>
   <tile gid="30"/>
   <tile gid="30"/>
   <tile gid="34"/>
   <tile gid="34"/>
   <tile gid="34"/>
   <tile gid="34"/>
   <tile gid="34"/>
   <tile gid="34"/>
   <tile gid="30"/>
   <tile gid="30"/>
   <tile gid="30"/>
   <tile gid="30"/>
   <tile gid="30"/>
   <tile gid="30"/>
   <tile gid="30"/>
   <tile gid="30"/>
   <tile gid="30"/>
   <tile gid="30"/>
   <tile gid="30"/>
   <tile gid="30"/>
   <tile gid="30"/>
   <tile gid="30"/>
   <tile gid="30"/>
   <tile gid="30"/>
   <tile gid="30"/>
   <tile gid="30"/>
   <tile gid="30"/>
   <tile gid="30"/>
   <tile gid="30"/>
   <tile gid="34"/>
   <tile gid="34"/>
   <tile gid="34"/>
   <tile gid="30"/>
   <tile gid="30"/>
   <tile gid="30"/>
   <tile gid="30"/>
   <tile gid="30"/>
   <tile gid="30"/>
   <tile gid="30"/>
   <tile gid="30"/>
   <tile gid="30"/>
   <tile gid="30"/>
   <tile gid="30"/>
   <tile gid="30"/>
   <tile gid="30"/>
   <tile gid="30"/>
   <tile gid="30"/>
   <tile gid="30"/>
   <tile gid="30"/>
   <tile gid="30"/>
   <tile gid="30"/>
   <tile gid="30"/>
   <tile gid="30"/>
   <tile gid="34"/>
   <tile gid="34"/>
   <tile gid="34"/>
   <tile gid="30"/>
   <tile gid="30"/>
   <tile gid="30"/>
   <tile gid="30"/>
   <tile gid="30"/>
   <tile gid="30"/>
   <tile gid="30"/>
   <tile gid="30"/>
   <tile gid="30"/>
   <tile gid="30"/>
   <tile gid="30"/>
   <tile gid="30"/>
   <tile gid="30"/>
   <tile gid="30"/>
   <tile gid="30"/>
   <tile gid="34"/>
   <tile gid="34"/>
   <tile gid="34"/>
   <tile gid="30"/>
   <tile gid="30"/>
   <tile gid="30"/>
   <tile gid="30"/>
   <tile gid="30"/>
   <tile gid="30"/>
   <tile gid="30"/>
   <tile gid="30"/>
   <tile gid="30"/>
   <tile gid="34"/>
   <tile gid="34"/>
   <tile gid="34"/>
   <tile gid="30"/>
   <tile gid="30"/>
   <tile gid="30"/>
   <tile gid="30"/>
   <tile gid="30"/>
   <tile gid="30"/>
   <tile gid="30"/>
   <tile gid="30"/>
   <tile gid="30"/>
   <tile gid="30"/>
   <tile gid="30"/>
   <tile gid="30"/>
   <tile gid="30"/>
   <tile gid="30"/>
   <tile gid="30"/>
   <tile gid="30"/>
   <tile gid="34"/>
   <tile gid="34"/>
   <tile gid="34"/>
   <tile gid="34"/>
   <tile gid="34"/>
   <tile gid="34"/>
   <tile gid="34"/>
   <tile gid="34"/>
   <tile gid="34"/>
   <tile gid="34"/>
   <tile gid="34"/>
   <tile gid="34"/>
   <tile gid="34"/>
   <tile gid="34"/>
   <tile gid="34"/>
   <tile gid="34"/>
   <tile gid="34"/>
   <tile gid="34"/>
   <tile gid="34"/>
   <tile gid="30"/>
   <tile gid="30"/>
   <tile gid="30"/>
   <tile gid="34"/>
   <tile gid="34"/>
   <tile gid="34"/>
   <tile gid="34"/>
   <tile gid="34"/>
   <tile gid="34"/>
   <tile gid="34"/>
   <tile gid="34"/>
   <tile gid="34"/>
   <tile gid="34"/>
   <tile gid="34"/>
   <tile gid="34"/>
   <tile gid="34"/>
   <tile gid="34"/>
   <tile gid="30"/>
   <tile gid="30"/>
   <tile gid="30"/>
   <tile gid="34"/>
   <tile gid="34"/>
   <tile gid="34"/>
   <tile gid="34"/>
   <tile gid="34"/>
   <tile gid="34"/>
   <tile gid="34"/>
   <tile gid="34"/>
   <tile gid="34"/>
   <tile gid="34"/>
   <tile gid="34"/>
   <tile gid="34"/>
   <tile gid="34"/>
   <tile gid="34"/>
   <tile gid="34"/>
   <tile gid="34"/>
   <tile gid="34"/>
   <tile gid="34"/>
   <tile gid="34"/>
   <tile gid="34"/>
   <tile gid="34"/>
   <tile gid="34"/>
   <tile gid="34"/>
   <tile gid="34"/>
   <tile gid="34"/>
   <tile gid="34"/>
   <tile gid="34"/>
   <tile gid="34"/>
   <tile gid="34"/>
   <tile gid="34"/>
   <tile gid="34"/>
   <tile gid="34"/>
   <tile gid="34"/>
   <tile gid="34"/>
   <tile gid="34"/>
   <tile gid="34"/>
   <tile gid="30"/>
   <tile gid="30"/>
   <tile gid="30"/>
   <tile gid="34"/>
   <tile gid="34"/>
   <tile gid="34"/>
   <tile gid="34"/>
   <tile gid="34"/>
   <tile gid="34"/>
   <tile gid="30"/>
   <tile gid="30"/>
   <tile gid="30"/>
   <tile gid="30"/>
   <tile gid="30"/>
   <tile gid="30"/>
   <tile gid="30"/>
   <tile gid="30"/>
   <tile gid="30"/>
   <tile gid="30"/>
   <tile gid="30"/>
   <tile gid="30"/>
   <tile gid="30"/>
   <tile gid="30"/>
   <tile gid="30"/>
   <tile gid="30"/>
   <tile gid="34"/>
   <tile gid="34"/>
   <tile gid="34"/>
   <tile gid="34"/>
   <tile gid="34"/>
   <tile gid="34"/>
   <tile gid="34"/>
   <tile gid="34"/>
   <tile gid="34"/>
   <tile gid="34"/>
   <tile gid="34"/>
   <tile gid="34"/>
   <tile gid="34"/>
   <tile gid="34"/>
   <tile gid="34"/>
   <tile gid="34"/>
   <tile gid="34"/>
   <tile gid="34"/>
   <tile gid="34"/>
   <tile gid="30"/>
   <tile gid="30"/>
   <tile gid="30"/>
   <tile gid="34"/>
   <tile gid="34"/>
   <tile gid="34"/>
   <tile gid="34"/>
   <tile gid="34"/>
   <tile gid="34"/>
   <tile gid="34"/>
   <tile gid="34"/>
   <tile gid="34"/>
   <tile gid="34"/>
   <tile gid="34"/>
   <tile gid="34"/>
   <tile gid="34"/>
   <tile gid="34"/>
   <tile gid="30"/>
   <tile gid="30"/>
   <tile gid="30"/>
   <tile gid="34"/>
   <tile gid="34"/>
   <tile gid="34"/>
   <tile gid="34"/>
   <tile gid="34"/>
   <tile gid="34"/>
   <tile gid="34"/>
   <tile gid="34"/>
   <tile gid="34"/>
   <tile gid="34"/>
   <tile gid="34"/>
   <tile gid="34"/>
   <tile gid="34"/>
   <tile gid="34"/>
   <tile gid="34"/>
   <tile gid="34"/>
   <tile gid="34"/>
   <tile gid="34"/>
   <tile gid="34"/>
   <tile gid="34"/>
   <tile gid="34"/>
   <tile gid="34"/>
   <tile gid="34"/>
   <tile gid="34"/>
   <tile gid="34"/>
   <tile gid="34"/>
   <tile gid="34"/>
   <tile gid="34"/>
   <tile gid="34"/>
   <tile gid="34"/>
   <tile gid="34"/>
   <tile gid="34"/>
   <tile gid="34"/>
   <tile gid="34"/>
   <tile gid="34"/>
   <tile gid="34"/>
   <tile gid="30"/>
   <tile gid="30"/>
   <tile gid="30"/>
   <tile gid="34"/>
   <tile gid="34"/>
   <tile gid="34"/>
   <tile gid="34"/>
   <tile gid="34"/>
   <tile gid="34"/>
   <tile gid="30"/>
   <tile gid="30"/>
   <tile gid="30"/>
   <tile gid="30"/>
   <tile gid="30"/>
   <tile gid="30"/>
   <tile gid="30"/>
   <tile gid="30"/>
   <tile gid="30"/>
   <tile gid="30"/>
   <tile gid="30"/>
   <tile gid="30"/>
   <tile gid="30"/>
   <tile gid="30"/>
   <tile gid="30"/>
   <tile gid="30"/>
   <tile gid="34"/>
   <tile gid="34"/>
   <tile gid="34"/>
   <tile gid="34"/>
   <tile gid="34"/>
   <tile gid="34"/>
   <tile gid="34"/>
   <tile gid="34"/>
   <tile gid="34"/>
   <tile gid="34"/>
   <tile gid="34"/>
   <tile gid="34"/>
   <tile gid="34"/>
   <tile gid="34"/>
   <tile gid="34"/>
   <tile gid="34"/>
   <tile gid="34"/>
   <tile gid="34"/>
   <tile gid="34"/>
   <tile gid="30"/>
   <tile gid="30"/>
   <tile gid="30"/>
   <tile gid="34"/>
   <tile gid="34"/>
   <tile gid="34"/>
   <tile gid="34"/>
   <tile gid="34"/>
   <tile gid="34"/>
   <tile gid="34"/>
   <tile gid="34"/>
   <tile gid="34"/>
   <tile gid="34"/>
   <tile gid="34"/>
   <tile gid="34"/>
   <tile gid="34"/>
   <tile gid="34"/>
   <tile gid="30"/>
   <tile gid="30"/>
   <tile gid="30"/>
   <tile gid="34"/>
   <tile gid="34"/>
   <tile gid="34"/>
   <tile gid="34"/>
   <tile gid="34"/>
   <tile gid="34"/>
   <tile gid="34"/>
   <tile gid="34"/>
   <tile gid="34"/>
   <tile gid="34"/>
   <tile gid="34"/>
   <tile gid="34"/>
   <tile gid="34"/>
   <tile gid="34"/>
   <tile gid="34"/>
   <tile gid="34"/>
   <tile gid="34"/>
   <tile gid="34"/>
   <tile gid="34"/>
   <tile gid="34"/>
   <tile gid="34"/>
   <tile gid="34"/>
   <tile gid="34"/>
   <tile gid="34"/>
   <tile gid="34"/>
   <tile gid="34"/>
   <tile gid="34"/>
   <tile gid="34"/>
   <tile gid="34"/>
   <tile gid="34"/>
   <tile gid="34"/>
   <tile gid="34"/>
   <tile gid="34"/>
   <tile gid="34"/>
   <tile gid="34"/>
   <tile gid="34"/>
   <tile gid="30"/>
   <tile gid="30"/>
   <tile gid="30"/>
   <tile gid="34"/>
   <tile gid="34"/>
   <tile gid="34"/>
   <tile gid="34"/>
   <tile gid="34"/>
   <tile gid="34"/>
   <tile gid="30"/>
   <tile gid="30"/>
   <tile gid="30"/>
   <tile gid="30"/>
   <tile gid="30"/>
   <tile gid="30"/>
   <tile gid="30"/>
   <tile gid="30"/>
   <tile gid="30"/>
   <tile gid="30"/>
   <tile gid="30"/>
   <tile gid="30"/>
   <tile gid="30"/>
   <tile gid="30"/>
   <tile gid="30"/>
   <tile gid="30"/>
   <tile gid="34"/>
   <tile gid="34"/>
   <tile gid="34"/>
   <tile gid="34"/>
   <tile gid="34"/>
   <tile gid="34"/>
   <tile gid="30"/>
   <tile gid="30"/>
   <tile gid="30"/>
   <tile gid="30"/>
   <tile gid="30"/>
   <tile gid="30"/>
   <tile gid="30"/>
   <tile gid="30"/>
   <tile gid="30"/>
   <tile gid="30"/>
   <tile gid="30"/>
   <tile gid="30"/>
   <tile gid="30"/>
   <tile gid="30"/>
   <tile gid="30"/>
   <tile gid="30"/>
   <tile gid="30"/>
   <tile gid="30"/>
   <tile gid="30"/>
   <tile gid="30"/>
   <tile gid="30"/>
   <tile gid="34"/>
   <tile gid="34"/>
   <tile gid="34"/>
   <tile gid="30"/>
   <tile gid="30"/>
   <tile gid="30"/>
   <tile gid="30"/>
   <tile gid="30"/>
   <tile gid="30"/>
   <tile gid="30"/>
   <tile gid="30"/>
   <tile gid="30"/>
   <tile gid="30"/>
   <tile gid="30"/>
   <tile gid="30"/>
   <tile gid="30"/>
   <tile gid="30"/>
   <tile gid="30"/>
   <tile gid="30"/>
   <tile gid="30"/>
   <tile gid="30"/>
   <tile gid="30"/>
   <tile gid="30"/>
   <tile gid="30"/>
   <tile gid="30"/>
   <tile gid="30"/>
   <tile gid="30"/>
   <tile gid="30"/>
   <tile gid="30"/>
   <tile gid="30"/>
   <tile gid="30"/>
   <tile gid="30"/>
   <tile gid="30"/>
   <tile gid="30"/>
   <tile gid="30"/>
   <tile gid="30"/>
   <tile gid="30"/>
   <tile gid="30"/>
   <tile gid="30"/>
   <tile gid="30"/>
   <tile gid="30"/>
   <tile gid="30"/>
   <tile gid="30"/>
   <tile gid="30"/>
   <tile gid="30"/>
   <tile gid="30"/>
   <tile gid="30"/>
   <tile gid="30"/>
   <tile gid="30"/>
   <tile gid="30"/>
   <tile gid="30"/>
   <tile gid="30"/>
   <tile gid="30"/>
   <tile gid="30"/>
   <tile gid="34"/>
   <tile gid="34"/>
   <tile gid="34"/>
   <tile gid="30"/>
   <tile gid="30"/>
   <tile gid="30"/>
   <tile gid="30"/>
   <tile gid="30"/>
   <tile gid="30"/>
   <tile gid="30"/>
   <tile gid="30"/>
   <tile gid="30"/>
   <tile gid="30"/>
   <tile gid="30"/>
   <tile gid="30"/>
   <tile gid="30"/>
   <tile gid="30"/>
   <tile gid="30"/>
   <tile gid="30"/>
   <tile gid="34"/>
   <tile gid="34"/>
   <tile gid="34"/>
   <tile gid="34"/>
   <tile gid="34"/>
   <tile gid="34"/>
   <tile gid="30"/>
   <tile gid="30"/>
   <tile gid="30"/>
   <tile gid="30"/>
   <tile gid="30"/>
   <tile gid="30"/>
   <tile gid="30"/>
   <tile gid="30"/>
   <tile gid="30"/>
   <tile gid="30"/>
   <tile gid="30"/>
   <tile gid="30"/>
   <tile gid="30"/>
   <tile gid="30"/>
   <tile gid="30"/>
   <tile gid="30"/>
   <tile gid="30"/>
   <tile gid="30"/>
   <tile gid="30"/>
   <tile gid="30"/>
   <tile gid="30"/>
   <tile gid="34"/>
   <tile gid="34"/>
   <tile gid="34"/>
   <tile gid="30"/>
   <tile gid="30"/>
   <tile gid="30"/>
   <tile gid="30"/>
   <tile gid="30"/>
   <tile gid="30"/>
   <tile gid="30"/>
   <tile gid="30"/>
   <tile gid="30"/>
   <tile gid="30"/>
   <tile gid="30"/>
   <tile gid="30"/>
   <tile gid="30"/>
   <tile gid="30"/>
   <tile gid="30"/>
   <tile gid="30"/>
   <tile gid="30"/>
   <tile gid="30"/>
   <tile gid="30"/>
   <tile gid="30"/>
   <tile gid="30"/>
   <tile gid="30"/>
   <tile gid="30"/>
   <tile gid="30"/>
   <tile gid="30"/>
   <tile gid="30"/>
   <tile gid="30"/>
   <tile gid="30"/>
   <tile gid="30"/>
   <tile gid="30"/>
   <tile gid="30"/>
   <tile gid="30"/>
   <tile gid="30"/>
   <tile gid="30"/>
   <tile gid="30"/>
   <tile gid="30"/>
   <tile gid="30"/>
   <tile gid="30"/>
   <tile gid="30"/>
   <tile gid="30"/>
   <tile gid="30"/>
   <tile gid="30"/>
   <tile gid="30"/>
   <tile gid="30"/>
   <tile gid="30"/>
   <tile gid="30"/>
   <tile gid="30"/>
   <tile gid="30"/>
   <tile gid="30"/>
   <tile gid="30"/>
   <tile gid="30"/>
   <tile gid="34"/>
   <tile gid="34"/>
   <tile gid="34"/>
   <tile gid="30"/>
   <tile gid="30"/>
   <tile gid="30"/>
   <tile gid="30"/>
   <tile gid="30"/>
   <tile gid="30"/>
   <tile gid="30"/>
   <tile gid="30"/>
   <tile gid="30"/>
   <tile gid="30"/>
   <tile gid="30"/>
   <tile gid="30"/>
   <tile gid="30"/>
   <tile gid="30"/>
   <tile gid="30"/>
   <tile gid="30"/>
   <tile gid="34"/>
   <tile gid="34"/>
   <tile gid="34"/>
   <tile gid="34"/>
   <tile gid="34"/>
   <tile gid="34"/>
   <tile gid="30"/>
   <tile gid="30"/>
   <tile gid="30"/>
   <tile gid="30"/>
   <tile gid="30"/>
   <tile gid="30"/>
   <tile gid="30"/>
   <tile gid="30"/>
   <tile gid="30"/>
   <tile gid="30"/>
   <tile gid="30"/>
   <tile gid="30"/>
   <tile gid="30"/>
   <tile gid="30"/>
   <tile gid="30"/>
   <tile gid="30"/>
   <tile gid="30"/>
   <tile gid="30"/>
   <tile gid="30"/>
   <tile gid="30"/>
   <tile gid="30"/>
   <tile gid="34"/>
   <tile gid="34"/>
   <tile gid="34"/>
   <tile gid="30"/>
   <tile gid="30"/>
   <tile gid="30"/>
   <tile gid="30"/>
   <tile gid="30"/>
   <tile gid="30"/>
   <tile gid="30"/>
   <tile gid="30"/>
   <tile gid="30"/>
   <tile gid="30"/>
   <tile gid="30"/>
   <tile gid="30"/>
   <tile gid="30"/>
   <tile gid="30"/>
   <tile gid="30"/>
   <tile gid="30"/>
   <tile gid="30"/>
   <tile gid="30"/>
   <tile gid="30"/>
   <tile gid="30"/>
   <tile gid="30"/>
   <tile gid="30"/>
   <tile gid="30"/>
   <tile gid="30"/>
   <tile gid="30"/>
   <tile gid="30"/>
   <tile gid="30"/>
   <tile gid="30"/>
   <tile gid="30"/>
   <tile gid="30"/>
   <tile gid="30"/>
   <tile gid="30"/>
   <tile gid="30"/>
   <tile gid="30"/>
   <tile gid="30"/>
   <tile gid="30"/>
   <tile gid="30"/>
   <tile gid="30"/>
   <tile gid="30"/>
   <tile gid="30"/>
   <tile gid="30"/>
   <tile gid="30"/>
   <tile gid="30"/>
   <tile gid="30"/>
   <tile gid="30"/>
   <tile gid="30"/>
   <tile gid="30"/>
   <tile gid="30"/>
   <tile gid="30"/>
   <tile gid="30"/>
   <tile gid="30"/>
   <tile gid="34"/>
   <tile gid="34"/>
   <tile gid="34"/>
   <tile gid="30"/>
   <tile gid="30"/>
   <tile gid="30"/>
   <tile gid="30"/>
   <tile gid="30"/>
   <tile gid="30"/>
   <tile gid="30"/>
   <tile gid="30"/>
   <tile gid="30"/>
   <tile gid="30"/>
   <tile gid="30"/>
   <tile gid="30"/>
   <tile gid="30"/>
   <tile gid="30"/>
   <tile gid="30"/>
   <tile gid="30"/>
   <tile gid="34"/>
   <tile gid="34"/>
   <tile gid="34"/>
   <tile gid="34"/>
   <tile gid="34"/>
   <tile gid="34"/>
   <tile gid="30"/>
   <tile gid="30"/>
   <tile gid="30"/>
   <tile gid="30"/>
   <tile gid="30"/>
   <tile gid="30"/>
   <tile gid="30"/>
   <tile gid="30"/>
   <tile gid="30"/>
   <tile gid="30"/>
   <tile gid="30"/>
   <tile gid="30"/>
   <tile gid="30"/>
   <tile gid="30"/>
   <tile gid="30"/>
   <tile gid="30"/>
   <tile gid="30"/>
   <tile gid="30"/>
   <tile gid="30"/>
   <tile gid="30"/>
   <tile gid="30"/>
   <tile gid="34"/>
   <tile gid="34"/>
   <tile gid="34"/>
   <tile gid="30"/>
   <tile gid="30"/>
   <tile gid="30"/>
   <tile gid="30"/>
   <tile gid="30"/>
   <tile gid="30"/>
   <tile gid="30"/>
   <tile gid="30"/>
   <tile gid="30"/>
   <tile gid="30"/>
   <tile gid="30"/>
   <tile gid="30"/>
   <tile gid="30"/>
   <tile gid="30"/>
   <tile gid="30"/>
   <tile gid="30"/>
   <tile gid="30"/>
   <tile gid="30"/>
   <tile gid="30"/>
   <tile gid="30"/>
   <tile gid="30"/>
   <tile gid="30"/>
   <tile gid="30"/>
   <tile gid="30"/>
   <tile gid="30"/>
   <tile gid="30"/>
   <tile gid="30"/>
   <tile gid="30"/>
   <tile gid="30"/>
   <tile gid="30"/>
   <tile gid="30"/>
   <tile gid="30"/>
   <tile gid="30"/>
   <tile gid="30"/>
   <tile gid="30"/>
   <tile gid="30"/>
   <tile gid="30"/>
   <tile gid="30"/>
   <tile gid="30"/>
   <tile gid="30"/>
   <tile gid="30"/>
   <tile gid="30"/>
   <tile gid="30"/>
   <tile gid="30"/>
   <tile gid="30"/>
   <tile gid="30"/>
   <tile gid="30"/>
   <tile gid="30"/>
   <tile gid="30"/>
   <tile gid="30"/>
   <tile gid="30"/>
   <tile gid="34"/>
   <tile gid="34"/>
   <tile gid="34"/>
   <tile gid="30"/>
   <tile gid="30"/>
   <tile gid="30"/>
   <tile gid="30"/>
   <tile gid="30"/>
   <tile gid="30"/>
   <tile gid="30"/>
   <tile gid="30"/>
   <tile gid="30"/>
   <tile gid="30"/>
   <tile gid="30"/>
   <tile gid="30"/>
   <tile gid="30"/>
   <tile gid="30"/>
   <tile gid="30"/>
   <tile gid="30"/>
   <tile gid="34"/>
   <tile gid="34"/>
   <tile gid="34"/>
   <tile gid="34"/>
   <tile gid="34"/>
   <tile gid="34"/>
   <tile gid="30"/>
   <tile gid="30"/>
   <tile gid="30"/>
   <tile gid="30"/>
   <tile gid="30"/>
   <tile gid="30"/>
   <tile gid="30"/>
   <tile gid="30"/>
   <tile gid="30"/>
   <tile gid="30"/>
   <tile gid="30"/>
   <tile gid="30"/>
   <tile gid="30"/>
   <tile gid="30"/>
   <tile gid="30"/>
   <tile gid="30"/>
   <tile gid="30"/>
   <tile gid="30"/>
   <tile gid="30"/>
   <tile gid="30"/>
   <tile gid="30"/>
   <tile gid="34"/>
   <tile gid="34"/>
   <tile gid="34"/>
   <tile gid="30"/>
   <tile gid="30"/>
   <tile gid="30"/>
   <tile gid="30"/>
   <tile gid="30"/>
   <tile gid="30"/>
   <tile gid="30"/>
   <tile gid="30"/>
   <tile gid="30"/>
   <tile gid="30"/>
   <tile gid="30"/>
   <tile gid="30"/>
   <tile gid="30"/>
   <tile gid="30"/>
   <tile gid="30"/>
   <tile gid="30"/>
   <tile gid="30"/>
   <tile gid="30"/>
   <tile gid="30"/>
   <tile gid="30"/>
   <tile gid="30"/>
   <tile gid="30"/>
   <tile gid="30"/>
   <tile gid="30"/>
   <tile gid="30"/>
   <tile gid="30"/>
   <tile gid="30"/>
   <tile gid="30"/>
   <tile gid="30"/>
   <tile gid="30"/>
   <tile gid="30"/>
   <tile gid="30"/>
   <tile gid="30"/>
   <tile gid="30"/>
   <tile gid="30"/>
   <tile gid="30"/>
   <tile gid="30"/>
   <tile gid="30"/>
   <tile gid="30"/>
   <tile gid="30"/>
   <tile gid="30"/>
   <tile gid="30"/>
   <tile gid="30"/>
   <tile gid="30"/>
   <tile gid="30"/>
   <tile gid="30"/>
   <tile gid="30"/>
   <tile gid="30"/>
   <tile gid="30"/>
   <tile gid="30"/>
   <tile gid="30"/>
   <tile gid="34"/>
   <tile gid="34"/>
   <tile gid="34"/>
   <tile gid="30"/>
   <tile gid="30"/>
   <tile gid="30"/>
   <tile gid="30"/>
   <tile gid="30"/>
   <tile gid="30"/>
   <tile gid="30"/>
   <tile gid="30"/>
   <tile gid="30"/>
   <tile gid="30"/>
   <tile gid="30"/>
   <tile gid="30"/>
   <tile gid="30"/>
   <tile gid="30"/>
   <tile gid="30"/>
   <tile gid="30"/>
   <tile gid="34"/>
   <tile gid="34"/>
   <tile gid="34"/>
   <tile gid="34"/>
   <tile gid="34"/>
   <tile gid="34"/>
   <tile gid="30"/>
   <tile gid="30"/>
   <tile gid="30"/>
   <tile gid="30"/>
   <tile gid="30"/>
   <tile gid="30"/>
   <tile gid="30"/>
   <tile gid="30"/>
   <tile gid="30"/>
   <tile gid="30"/>
   <tile gid="30"/>
   <tile gid="30"/>
   <tile gid="30"/>
   <tile gid="30"/>
   <tile gid="30"/>
   <tile gid="30"/>
   <tile gid="30"/>
   <tile gid="30"/>
   <tile gid="30"/>
   <tile gid="30"/>
   <tile gid="30"/>
   <tile gid="34"/>
   <tile gid="34"/>
   <tile gid="34"/>
   <tile gid="30"/>
   <tile gid="30"/>
   <tile gid="30"/>
   <tile gid="30"/>
   <tile gid="30"/>
   <tile gid="30"/>
   <tile gid="30"/>
   <tile gid="30"/>
   <tile gid="30"/>
   <tile gid="30"/>
   <tile gid="30"/>
   <tile gid="30"/>
   <tile gid="30"/>
   <tile gid="30"/>
   <tile gid="30"/>
   <tile gid="30"/>
   <tile gid="30"/>
   <tile gid="30"/>
   <tile gid="30"/>
   <tile gid="30"/>
   <tile gid="30"/>
   <tile gid="30"/>
   <tile gid="30"/>
   <tile gid="30"/>
   <tile gid="30"/>
   <tile gid="30"/>
   <tile gid="30"/>
   <tile gid="30"/>
   <tile gid="30"/>
   <tile gid="30"/>
   <tile gid="30"/>
   <tile gid="30"/>
   <tile gid="30"/>
   <tile gid="30"/>
   <tile gid="30"/>
   <tile gid="30"/>
   <tile gid="30"/>
   <tile gid="30"/>
   <tile gid="30"/>
   <tile gid="30"/>
   <tile gid="30"/>
   <tile gid="30"/>
   <tile gid="30"/>
   <tile gid="30"/>
   <tile gid="30"/>
   <tile gid="30"/>
   <tile gid="30"/>
   <tile gid="30"/>
   <tile gid="30"/>
   <tile gid="30"/>
   <tile gid="30"/>
   <tile gid="34"/>
   <tile gid="34"/>
   <tile gid="34"/>
   <tile gid="30"/>
   <tile gid="30"/>
   <tile gid="30"/>
   <tile gid="30"/>
   <tile gid="30"/>
   <tile gid="30"/>
   <tile gid="30"/>
   <tile gid="30"/>
   <tile gid="30"/>
   <tile gid="30"/>
   <tile gid="30"/>
   <tile gid="30"/>
   <tile gid="30"/>
   <tile gid="30"/>
   <tile gid="30"/>
   <tile gid="30"/>
   <tile gid="34"/>
   <tile gid="34"/>
   <tile gid="34"/>
   <tile gid="34"/>
   <tile gid="34"/>
   <tile gid="34"/>
   <tile gid="30"/>
   <tile gid="30"/>
   <tile gid="30"/>
   <tile gid="30"/>
   <tile gid="30"/>
   <tile gid="30"/>
   <tile gid="30"/>
   <tile gid="30"/>
   <tile gid="30"/>
   <tile gid="30"/>
   <tile gid="30"/>
   <tile gid="30"/>
   <tile gid="30"/>
   <tile gid="30"/>
   <tile gid="30"/>
   <tile gid="30"/>
   <tile gid="30"/>
   <tile gid="30"/>
   <tile gid="30"/>
   <tile gid="30"/>
   <tile gid="30"/>
   <tile gid="34"/>
   <tile gid="34"/>
   <tile gid="34"/>
   <tile gid="30"/>
   <tile gid="30"/>
   <tile gid="30"/>
   <tile gid="30"/>
   <tile gid="30"/>
   <tile gid="30"/>
   <tile gid="30"/>
   <tile gid="30"/>
   <tile gid="30"/>
   <tile gid="30"/>
   <tile gid="30"/>
   <tile gid="30"/>
   <tile gid="30"/>
   <tile gid="30"/>
   <tile gid="30"/>
   <tile gid="30"/>
   <tile gid="30"/>
   <tile gid="30"/>
   <tile gid="30"/>
   <tile gid="30"/>
   <tile gid="30"/>
   <tile gid="30"/>
   <tile gid="30"/>
   <tile gid="30"/>
   <tile gid="30"/>
   <tile gid="30"/>
   <tile gid="30"/>
   <tile gid="30"/>
   <tile gid="30"/>
   <tile gid="30"/>
   <tile gid="30"/>
   <tile gid="30"/>
   <tile gid="30"/>
   <tile gid="30"/>
   <tile gid="30"/>
   <tile gid="30"/>
   <tile gid="30"/>
   <tile gid="30"/>
   <tile gid="30"/>
   <tile gid="30"/>
   <tile gid="30"/>
   <tile gid="30"/>
   <tile gid="30"/>
   <tile gid="30"/>
   <tile gid="30"/>
   <tile gid="30"/>
   <tile gid="30"/>
   <tile gid="30"/>
   <tile gid="30"/>
   <tile gid="30"/>
   <tile gid="30"/>
   <tile gid="34"/>
   <tile gid="34"/>
   <tile gid="34"/>
   <tile gid="30"/>
   <tile gid="30"/>
   <tile gid="30"/>
   <tile gid="30"/>
   <tile gid="30"/>
   <tile gid="30"/>
   <tile gid="30"/>
   <tile gid="30"/>
   <tile gid="30"/>
   <tile gid="30"/>
   <tile gid="30"/>
   <tile gid="30"/>
   <tile gid="30"/>
   <tile gid="30"/>
   <tile gid="30"/>
   <tile gid="30"/>
   <tile gid="34"/>
   <tile gid="34"/>
   <tile gid="34"/>
   <tile gid="34"/>
   <tile gid="34"/>
   <tile gid="34"/>
   <tile gid="30"/>
   <tile gid="30"/>
   <tile gid="30"/>
   <tile gid="30"/>
   <tile gid="30"/>
   <tile gid="30"/>
   <tile gid="30"/>
   <tile gid="30"/>
   <tile gid="30"/>
   <tile gid="30"/>
   <tile gid="30"/>
   <tile gid="30"/>
   <tile gid="30"/>
   <tile gid="30"/>
   <tile gid="30"/>
   <tile gid="30"/>
   <tile gid="30"/>
   <tile gid="30"/>
   <tile gid="30"/>
   <tile gid="30"/>
   <tile gid="30"/>
   <tile gid="34"/>
   <tile gid="34"/>
   <tile gid="34"/>
   <tile gid="30"/>
   <tile gid="30"/>
   <tile gid="30"/>
   <tile gid="30"/>
   <tile gid="30"/>
   <tile gid="30"/>
   <tile gid="30"/>
   <tile gid="30"/>
   <tile gid="30"/>
   <tile gid="30"/>
   <tile gid="30"/>
   <tile gid="30"/>
   <tile gid="30"/>
   <tile gid="30"/>
   <tile gid="30"/>
   <tile gid="30"/>
   <tile gid="30"/>
   <tile gid="30"/>
   <tile gid="30"/>
   <tile gid="30"/>
   <tile gid="30"/>
   <tile gid="30"/>
   <tile gid="30"/>
   <tile gid="30"/>
   <tile gid="30"/>
   <tile gid="30"/>
   <tile gid="30"/>
   <tile gid="30"/>
   <tile gid="30"/>
   <tile gid="30"/>
   <tile gid="30"/>
   <tile gid="30"/>
   <tile gid="30"/>
   <tile gid="30"/>
   <tile gid="30"/>
   <tile gid="30"/>
   <tile gid="30"/>
   <tile gid="30"/>
   <tile gid="30"/>
   <tile gid="30"/>
   <tile gid="30"/>
   <tile gid="30"/>
   <tile gid="30"/>
   <tile gid="30"/>
   <tile gid="30"/>
   <tile gid="30"/>
   <tile gid="30"/>
   <tile gid="30"/>
   <tile gid="30"/>
   <tile gid="30"/>
   <tile gid="30"/>
   <tile gid="34"/>
   <tile gid="34"/>
   <tile gid="34"/>
   <tile gid="30"/>
   <tile gid="30"/>
   <tile gid="30"/>
   <tile gid="30"/>
   <tile gid="30"/>
   <tile gid="30"/>
   <tile gid="30"/>
   <tile gid="30"/>
   <tile gid="30"/>
   <tile gid="30"/>
   <tile gid="30"/>
   <tile gid="30"/>
   <tile gid="30"/>
   <tile gid="30"/>
   <tile gid="30"/>
   <tile gid="30"/>
   <tile gid="34"/>
   <tile gid="34"/>
   <tile gid="34"/>
   <tile gid="34"/>
   <tile gid="34"/>
   <tile gid="34"/>
   <tile gid="30"/>
   <tile gid="30"/>
   <tile gid="30"/>
   <tile gid="30"/>
   <tile gid="30"/>
   <tile gid="30"/>
   <tile gid="30"/>
   <tile gid="30"/>
   <tile gid="30"/>
   <tile gid="30"/>
   <tile gid="30"/>
   <tile gid="30"/>
   <tile gid="30"/>
   <tile gid="30"/>
   <tile gid="30"/>
   <tile gid="30"/>
   <tile gid="30"/>
   <tile gid="30"/>
   <tile gid="30"/>
   <tile gid="30"/>
   <tile gid="30"/>
   <tile gid="34"/>
   <tile gid="34"/>
   <tile gid="34"/>
   <tile gid="30"/>
   <tile gid="30"/>
   <tile gid="30"/>
   <tile gid="30"/>
   <tile gid="30"/>
   <tile gid="30"/>
   <tile gid="30"/>
   <tile gid="30"/>
   <tile gid="30"/>
   <tile gid="30"/>
   <tile gid="30"/>
   <tile gid="30"/>
   <tile gid="30"/>
   <tile gid="30"/>
   <tile gid="30"/>
   <tile gid="30"/>
   <tile gid="30"/>
   <tile gid="30"/>
   <tile gid="30"/>
   <tile gid="30"/>
   <tile gid="30"/>
   <tile gid="30"/>
   <tile gid="30"/>
   <tile gid="30"/>
   <tile gid="30"/>
   <tile gid="30"/>
   <tile gid="30"/>
   <tile gid="30"/>
   <tile gid="30"/>
   <tile gid="30"/>
   <tile gid="30"/>
   <tile gid="30"/>
   <tile gid="30"/>
   <tile gid="30"/>
   <tile gid="30"/>
   <tile gid="30"/>
   <tile gid="30"/>
   <tile gid="30"/>
   <tile gid="30"/>
   <tile gid="30"/>
   <tile gid="30"/>
   <tile gid="30"/>
   <tile gid="30"/>
   <tile gid="30"/>
   <tile gid="30"/>
   <tile gid="30"/>
   <tile gid="30"/>
   <tile gid="30"/>
   <tile gid="30"/>
   <tile gid="30"/>
   <tile gid="30"/>
   <tile gid="34"/>
   <tile gid="34"/>
   <tile gid="34"/>
   <tile gid="30"/>
   <tile gid="30"/>
   <tile gid="30"/>
   <tile gid="30"/>
   <tile gid="30"/>
   <tile gid="30"/>
   <tile gid="30"/>
   <tile gid="30"/>
   <tile gid="30"/>
   <tile gid="30"/>
   <tile gid="30"/>
   <tile gid="30"/>
   <tile gid="30"/>
   <tile gid="30"/>
   <tile gid="30"/>
   <tile gid="30"/>
   <tile gid="34"/>
   <tile gid="34"/>
   <tile gid="34"/>
   <tile gid="34"/>
   <tile gid="34"/>
   <tile gid="34"/>
   <tile gid="30"/>
   <tile gid="30"/>
   <tile gid="30"/>
   <tile gid="30"/>
   <tile gid="30"/>
   <tile gid="30"/>
   <tile gid="30"/>
   <tile gid="30"/>
   <tile gid="30"/>
   <tile gid="30"/>
   <tile gid="30"/>
   <tile gid="30"/>
   <tile gid="30"/>
   <tile gid="30"/>
   <tile gid="30"/>
   <tile gid="30"/>
   <tile gid="30"/>
   <tile gid="30"/>
   <tile gid="30"/>
   <tile gid="30"/>
   <tile gid="30"/>
   <tile gid="34"/>
   <tile gid="34"/>
   <tile gid="34"/>
   <tile gid="30"/>
   <tile gid="30"/>
   <tile gid="30"/>
   <tile gid="30"/>
   <tile gid="30"/>
   <tile gid="30"/>
   <tile gid="30"/>
   <tile gid="30"/>
   <tile gid="30"/>
   <tile gid="30"/>
   <tile gid="30"/>
   <tile gid="30"/>
   <tile gid="30"/>
   <tile gid="30"/>
   <tile gid="30"/>
   <tile gid="30"/>
   <tile gid="30"/>
   <tile gid="30"/>
   <tile gid="30"/>
   <tile gid="30"/>
   <tile gid="30"/>
   <tile gid="30"/>
   <tile gid="30"/>
   <tile gid="30"/>
   <tile gid="30"/>
   <tile gid="30"/>
   <tile gid="30"/>
   <tile gid="30"/>
   <tile gid="30"/>
   <tile gid="30"/>
   <tile gid="30"/>
   <tile gid="30"/>
   <tile gid="30"/>
   <tile gid="30"/>
   <tile gid="30"/>
   <tile gid="30"/>
   <tile gid="30"/>
   <tile gid="30"/>
   <tile gid="30"/>
   <tile gid="30"/>
   <tile gid="30"/>
   <tile gid="30"/>
   <tile gid="30"/>
   <tile gid="30"/>
   <tile gid="30"/>
   <tile gid="30"/>
   <tile gid="30"/>
   <tile gid="30"/>
   <tile gid="30"/>
   <tile gid="30"/>
   <tile gid="30"/>
   <tile gid="34"/>
   <tile gid="34"/>
   <tile gid="34"/>
   <tile gid="30"/>
   <tile gid="30"/>
   <tile gid="30"/>
   <tile gid="30"/>
   <tile gid="30"/>
   <tile gid="30"/>
   <tile gid="30"/>
   <tile gid="30"/>
   <tile gid="30"/>
   <tile gid="30"/>
   <tile gid="30"/>
   <tile gid="30"/>
   <tile gid="30"/>
   <tile gid="30"/>
   <tile gid="30"/>
   <tile gid="30"/>
   <tile gid="34"/>
   <tile gid="34"/>
   <tile gid="34"/>
   <tile gid="34"/>
   <tile gid="34"/>
   <tile gid="34"/>
   <tile gid="30"/>
   <tile gid="30"/>
   <tile gid="30"/>
   <tile gid="30"/>
   <tile gid="30"/>
   <tile gid="30"/>
   <tile gid="30"/>
   <tile gid="30"/>
   <tile gid="30"/>
   <tile gid="30"/>
   <tile gid="30"/>
   <tile gid="30"/>
   <tile gid="30"/>
   <tile gid="30"/>
   <tile gid="30"/>
   <tile gid="30"/>
   <tile gid="30"/>
   <tile gid="30"/>
   <tile gid="30"/>
   <tile gid="30"/>
   <tile gid="30"/>
   <tile gid="34"/>
   <tile gid="34"/>
   <tile gid="34"/>
   <tile gid="30"/>
   <tile gid="30"/>
   <tile gid="30"/>
   <tile gid="30"/>
   <tile gid="30"/>
   <tile gid="30"/>
   <tile gid="30"/>
   <tile gid="30"/>
   <tile gid="30"/>
   <tile gid="30"/>
   <tile gid="30"/>
   <tile gid="30"/>
   <tile gid="30"/>
   <tile gid="30"/>
   <tile gid="30"/>
   <tile gid="30"/>
   <tile gid="30"/>
   <tile gid="30"/>
   <tile gid="30"/>
   <tile gid="30"/>
   <tile gid="30"/>
   <tile gid="30"/>
   <tile gid="30"/>
   <tile gid="30"/>
   <tile gid="30"/>
   <tile gid="30"/>
   <tile gid="30"/>
   <tile gid="30"/>
   <tile gid="30"/>
   <tile gid="30"/>
   <tile gid="30"/>
   <tile gid="30"/>
   <tile gid="30"/>
   <tile gid="30"/>
   <tile gid="30"/>
   <tile gid="30"/>
   <tile gid="30"/>
   <tile gid="30"/>
   <tile gid="30"/>
   <tile gid="30"/>
   <tile gid="30"/>
   <tile gid="30"/>
   <tile gid="30"/>
   <tile gid="30"/>
   <tile gid="30"/>
   <tile gid="30"/>
   <tile gid="30"/>
   <tile gid="30"/>
   <tile gid="30"/>
   <tile gid="30"/>
   <tile gid="30"/>
   <tile gid="34"/>
   <tile gid="34"/>
   <tile gid="34"/>
   <tile gid="30"/>
   <tile gid="30"/>
   <tile gid="30"/>
   <tile gid="30"/>
   <tile gid="30"/>
   <tile gid="30"/>
   <tile gid="30"/>
   <tile gid="30"/>
   <tile gid="30"/>
   <tile gid="30"/>
   <tile gid="30"/>
   <tile gid="30"/>
   <tile gid="30"/>
   <tile gid="30"/>
   <tile gid="30"/>
   <tile gid="30"/>
   <tile gid="34"/>
   <tile gid="34"/>
   <tile gid="34"/>
   <tile gid="34"/>
   <tile gid="34"/>
   <tile gid="34"/>
   <tile gid="30"/>
   <tile gid="30"/>
   <tile gid="30"/>
   <tile gid="30"/>
   <tile gid="30"/>
   <tile gid="30"/>
   <tile gid="30"/>
   <tile gid="30"/>
   <tile gid="30"/>
   <tile gid="30"/>
   <tile gid="30"/>
   <tile gid="30"/>
   <tile gid="30"/>
   <tile gid="30"/>
   <tile gid="30"/>
   <tile gid="30"/>
   <tile gid="30"/>
   <tile gid="30"/>
   <tile gid="30"/>
   <tile gid="30"/>
   <tile gid="30"/>
   <tile gid="34"/>
   <tile gid="34"/>
   <tile gid="34"/>
   <tile gid="30"/>
   <tile gid="30"/>
   <tile gid="30"/>
   <tile gid="30"/>
   <tile gid="30"/>
   <tile gid="30"/>
   <tile gid="30"/>
   <tile gid="30"/>
   <tile gid="30"/>
   <tile gid="30"/>
   <tile gid="30"/>
   <tile gid="30"/>
   <tile gid="30"/>
   <tile gid="30"/>
   <tile gid="30"/>
   <tile gid="30"/>
   <tile gid="30"/>
   <tile gid="30"/>
   <tile gid="30"/>
   <tile gid="30"/>
   <tile gid="30"/>
   <tile gid="30"/>
   <tile gid="30"/>
   <tile gid="30"/>
   <tile gid="30"/>
   <tile gid="30"/>
   <tile gid="30"/>
   <tile gid="30"/>
   <tile gid="30"/>
   <tile gid="30"/>
   <tile gid="30"/>
   <tile gid="30"/>
   <tile gid="30"/>
   <tile gid="30"/>
   <tile gid="30"/>
   <tile gid="30"/>
   <tile gid="30"/>
   <tile gid="30"/>
   <tile gid="30"/>
   <tile gid="30"/>
   <tile gid="30"/>
   <tile gid="30"/>
   <tile gid="30"/>
   <tile gid="30"/>
   <tile gid="30"/>
   <tile gid="30"/>
   <tile gid="30"/>
   <tile gid="30"/>
   <tile gid="30"/>
   <tile gid="30"/>
   <tile gid="30"/>
   <tile gid="34"/>
   <tile gid="34"/>
   <tile gid="34"/>
   <tile gid="30"/>
   <tile gid="30"/>
   <tile gid="30"/>
   <tile gid="30"/>
   <tile gid="30"/>
   <tile gid="30"/>
   <tile gid="30"/>
   <tile gid="30"/>
   <tile gid="30"/>
   <tile gid="30"/>
   <tile gid="30"/>
   <tile gid="30"/>
   <tile gid="30"/>
   <tile gid="30"/>
   <tile gid="30"/>
   <tile gid="30"/>
   <tile gid="34"/>
   <tile gid="34"/>
   <tile gid="34"/>
   <tile gid="34"/>
   <tile gid="34"/>
   <tile gid="34"/>
   <tile gid="30"/>
   <tile gid="30"/>
   <tile gid="30"/>
   <tile gid="30"/>
   <tile gid="30"/>
   <tile gid="30"/>
   <tile gid="30"/>
   <tile gid="30"/>
   <tile gid="30"/>
   <tile gid="30"/>
   <tile gid="30"/>
   <tile gid="30"/>
   <tile gid="30"/>
   <tile gid="30"/>
   <tile gid="30"/>
   <tile gid="30"/>
   <tile gid="30"/>
   <tile gid="30"/>
   <tile gid="30"/>
   <tile gid="30"/>
   <tile gid="30"/>
   <tile gid="34"/>
   <tile gid="34"/>
   <tile gid="34"/>
   <tile gid="30"/>
   <tile gid="30"/>
   <tile gid="30"/>
   <tile gid="30"/>
   <tile gid="30"/>
   <tile gid="30"/>
   <tile gid="30"/>
   <tile gid="30"/>
   <tile gid="30"/>
   <tile gid="30"/>
   <tile gid="30"/>
   <tile gid="30"/>
   <tile gid="30"/>
   <tile gid="30"/>
   <tile gid="30"/>
   <tile gid="30"/>
   <tile gid="30"/>
   <tile gid="30"/>
   <tile gid="30"/>
   <tile gid="30"/>
   <tile gid="30"/>
   <tile gid="30"/>
   <tile gid="30"/>
   <tile gid="30"/>
   <tile gid="30"/>
   <tile gid="30"/>
   <tile gid="30"/>
   <tile gid="30"/>
   <tile gid="30"/>
   <tile gid="30"/>
   <tile gid="30"/>
   <tile gid="30"/>
   <tile gid="30"/>
   <tile gid="30"/>
   <tile gid="30"/>
   <tile gid="30"/>
   <tile gid="30"/>
   <tile gid="30"/>
   <tile gid="30"/>
   <tile gid="30"/>
   <tile gid="30"/>
   <tile gid="30"/>
   <tile gid="30"/>
   <tile gid="30"/>
   <tile gid="30"/>
   <tile gid="30"/>
   <tile gid="30"/>
   <tile gid="30"/>
   <tile gid="30"/>
   <tile gid="30"/>
   <tile gid="30"/>
   <tile gid="34"/>
   <tile gid="34"/>
   <tile gid="34"/>
   <tile gid="30"/>
   <tile gid="30"/>
   <tile gid="30"/>
   <tile gid="30"/>
   <tile gid="30"/>
   <tile gid="30"/>
   <tile gid="30"/>
   <tile gid="30"/>
   <tile gid="30"/>
   <tile gid="30"/>
   <tile gid="30"/>
   <tile gid="30"/>
   <tile gid="30"/>
   <tile gid="30"/>
   <tile gid="30"/>
   <tile gid="30"/>
   <tile gid="34"/>
   <tile gid="34"/>
   <tile gid="34"/>
   <tile gid="34"/>
   <tile gid="34"/>
   <tile gid="34"/>
   <tile gid="30"/>
   <tile gid="30"/>
   <tile gid="30"/>
   <tile gid="30"/>
   <tile gid="30"/>
   <tile gid="30"/>
   <tile gid="30"/>
   <tile gid="30"/>
   <tile gid="30"/>
   <tile gid="30"/>
   <tile gid="30"/>
   <tile gid="30"/>
   <tile gid="30"/>
   <tile gid="30"/>
   <tile gid="30"/>
   <tile gid="30"/>
   <tile gid="30"/>
   <tile gid="30"/>
   <tile gid="30"/>
   <tile gid="30"/>
   <tile gid="30"/>
   <tile gid="34"/>
   <tile gid="34"/>
   <tile gid="34"/>
   <tile gid="30"/>
   <tile gid="30"/>
   <tile gid="30"/>
   <tile gid="30"/>
   <tile gid="30"/>
   <tile gid="30"/>
   <tile gid="30"/>
   <tile gid="30"/>
   <tile gid="30"/>
   <tile gid="30"/>
   <tile gid="30"/>
   <tile gid="30"/>
   <tile gid="30"/>
   <tile gid="30"/>
   <tile gid="30"/>
   <tile gid="30"/>
   <tile gid="30"/>
   <tile gid="30"/>
   <tile gid="30"/>
   <tile gid="30"/>
   <tile gid="30"/>
   <tile gid="30"/>
   <tile gid="30"/>
   <tile gid="30"/>
   <tile gid="30"/>
   <tile gid="30"/>
   <tile gid="30"/>
   <tile gid="30"/>
   <tile gid="30"/>
   <tile gid="30"/>
   <tile gid="30"/>
   <tile gid="30"/>
   <tile gid="30"/>
   <tile gid="30"/>
   <tile gid="30"/>
   <tile gid="30"/>
   <tile gid="30"/>
   <tile gid="30"/>
   <tile gid="30"/>
   <tile gid="30"/>
   <tile gid="30"/>
   <tile gid="30"/>
   <tile gid="30"/>
   <tile gid="30"/>
   <tile gid="30"/>
   <tile gid="30"/>
   <tile gid="30"/>
   <tile gid="30"/>
   <tile gid="30"/>
   <tile gid="30"/>
   <tile gid="30"/>
   <tile gid="34"/>
   <tile gid="34"/>
   <tile gid="34"/>
   <tile gid="30"/>
   <tile gid="30"/>
   <tile gid="30"/>
   <tile gid="30"/>
   <tile gid="30"/>
   <tile gid="30"/>
   <tile gid="30"/>
   <tile gid="30"/>
   <tile gid="30"/>
   <tile gid="30"/>
   <tile gid="30"/>
   <tile gid="30"/>
   <tile gid="30"/>
   <tile gid="30"/>
   <tile gid="30"/>
   <tile gid="30"/>
   <tile gid="34"/>
   <tile gid="34"/>
   <tile gid="34"/>
   <tile gid="34"/>
   <tile gid="34"/>
   <tile gid="34"/>
   <tile gid="30"/>
   <tile gid="30"/>
   <tile gid="30"/>
   <tile gid="30"/>
   <tile gid="30"/>
   <tile gid="30"/>
   <tile gid="30"/>
   <tile gid="30"/>
   <tile gid="30"/>
   <tile gid="30"/>
   <tile gid="30"/>
   <tile gid="30"/>
   <tile gid="30"/>
   <tile gid="30"/>
   <tile gid="30"/>
   <tile gid="30"/>
   <tile gid="30"/>
   <tile gid="30"/>
   <tile gid="30"/>
   <tile gid="46"/>
   <tile gid="30"/>
   <tile gid="34"/>
   <tile gid="34"/>
   <tile gid="34"/>
   <tile gid="30"/>
   <tile gid="30"/>
   <tile gid="30"/>
   <tile gid="30"/>
   <tile gid="30"/>
   <tile gid="30"/>
   <tile gid="30"/>
   <tile gid="30"/>
   <tile gid="30"/>
   <tile gid="30"/>
   <tile gid="30"/>
   <tile gid="30"/>
   <tile gid="30"/>
   <tile gid="30"/>
   <tile gid="30"/>
   <tile gid="30"/>
   <tile gid="30"/>
   <tile gid="30"/>
   <tile gid="30"/>
   <tile gid="30"/>
   <tile gid="30"/>
   <tile gid="30"/>
   <tile gid="30"/>
   <tile gid="30"/>
   <tile gid="30"/>
   <tile gid="30"/>
   <tile gid="30"/>
   <tile gid="30"/>
   <tile gid="30"/>
   <tile gid="30"/>
   <tile gid="30"/>
   <tile gid="30"/>
   <tile gid="30"/>
   <tile gid="30"/>
   <tile gid="30"/>
   <tile gid="30"/>
   <tile gid="30"/>
   <tile gid="30"/>
   <tile gid="30"/>
   <tile gid="30"/>
   <tile gid="30"/>
   <tile gid="30"/>
   <tile gid="30"/>
   <tile gid="30"/>
   <tile gid="30"/>
   <tile gid="30"/>
   <tile gid="30"/>
   <tile gid="30"/>
   <tile gid="30"/>
   <tile gid="30"/>
   <tile gid="30"/>
   <tile gid="34"/>
   <tile gid="34"/>
   <tile gid="34"/>
   <tile gid="30"/>
   <tile gid="30"/>
   <tile gid="30"/>
   <tile gid="30"/>
   <tile gid="30"/>
   <tile gid="30"/>
   <tile gid="30"/>
   <tile gid="30"/>
   <tile gid="30"/>
   <tile gid="30"/>
   <tile gid="30"/>
   <tile gid="30"/>
   <tile gid="30"/>
   <tile gid="30"/>
   <tile gid="30"/>
   <tile gid="30"/>
   <tile gid="34"/>
   <tile gid="34"/>
   <tile gid="34"/>
   <tile gid="34"/>
   <tile gid="34"/>
   <tile gid="34"/>
   <tile gid="30"/>
   <tile gid="30"/>
   <tile gid="30"/>
   <tile gid="30"/>
   <tile gid="30"/>
   <tile gid="30"/>
   <tile gid="30"/>
   <tile gid="30"/>
   <tile gid="30"/>
   <tile gid="30"/>
   <tile gid="30"/>
   <tile gid="30"/>
   <tile gid="30"/>
   <tile gid="30"/>
   <tile gid="30"/>
   <tile gid="30"/>
   <tile gid="30"/>
   <tile gid="30"/>
   <tile gid="30"/>
   <tile gid="30"/>
   <tile gid="30"/>
   <tile gid="34"/>
   <tile gid="34"/>
   <tile gid="34"/>
   <tile gid="30"/>
   <tile gid="30"/>
   <tile gid="30"/>
   <tile gid="30"/>
   <tile gid="30"/>
   <tile gid="30"/>
   <tile gid="30"/>
   <tile gid="30"/>
   <tile gid="30"/>
   <tile gid="30"/>
   <tile gid="30"/>
   <tile gid="30"/>
   <tile gid="30"/>
   <tile gid="30"/>
   <tile gid="30"/>
   <tile gid="30"/>
   <tile gid="30"/>
   <tile gid="30"/>
   <tile gid="30"/>
   <tile gid="30"/>
   <tile gid="30"/>
   <tile gid="30"/>
   <tile gid="30"/>
   <tile gid="30"/>
   <tile gid="30"/>
   <tile gid="30"/>
   <tile gid="30"/>
   <tile gid="30"/>
   <tile gid="30"/>
   <tile gid="30"/>
   <tile gid="30"/>
   <tile gid="30"/>
   <tile gid="30"/>
   <tile gid="30"/>
   <tile gid="30"/>
   <tile gid="30"/>
   <tile gid="30"/>
   <tile gid="30"/>
   <tile gid="30"/>
   <tile gid="30"/>
   <tile gid="30"/>
   <tile gid="30"/>
   <tile gid="30"/>
   <tile gid="30"/>
   <tile gid="30"/>
   <tile gid="30"/>
   <tile gid="30"/>
   <tile gid="30"/>
   <tile gid="30"/>
   <tile gid="30"/>
   <tile gid="30"/>
   <tile gid="34"/>
   <tile gid="34"/>
   <tile gid="34"/>
   <tile gid="30"/>
   <tile gid="30"/>
   <tile gid="30"/>
   <tile gid="30"/>
   <tile gid="30"/>
   <tile gid="30"/>
   <tile gid="30"/>
   <tile gid="30"/>
   <tile gid="30"/>
   <tile gid="30"/>
   <tile gid="30"/>
   <tile gid="30"/>
   <tile gid="30"/>
   <tile gid="30"/>
   <tile gid="30"/>
   <tile gid="30"/>
   <tile gid="34"/>
   <tile gid="34"/>
   <tile gid="34"/>
   <tile gid="34"/>
   <tile gid="34"/>
   <tile gid="34"/>
   <tile gid="34"/>
   <tile gid="34"/>
   <tile gid="34"/>
   <tile gid="34"/>
   <tile gid="34"/>
   <tile gid="34"/>
   <tile gid="34"/>
   <tile gid="34"/>
   <tile gid="34"/>
   <tile gid="34"/>
   <tile gid="34"/>
   <tile gid="34"/>
   <tile gid="34"/>
   <tile gid="34"/>
   <tile gid="34"/>
   <tile gid="34"/>
   <tile gid="34"/>
   <tile gid="34"/>
   <tile gid="34"/>
   <tile gid="34"/>
   <tile gid="34"/>
   <tile gid="34"/>
   <tile gid="34"/>
   <tile gid="34"/>
   <tile gid="34"/>
   <tile gid="34"/>
   <tile gid="34"/>
   <tile gid="34"/>
   <tile gid="34"/>
   <tile gid="34"/>
   <tile gid="30"/>
   <tile gid="30"/>
   <tile gid="30"/>
   <tile gid="34"/>
   <tile gid="34"/>
   <tile gid="34"/>
   <tile gid="34"/>
   <tile gid="34"/>
   <tile gid="34"/>
   <tile gid="34"/>
   <tile gid="34"/>
   <tile gid="34"/>
   <tile gid="34"/>
   <tile gid="34"/>
   <tile gid="34"/>
   <tile gid="34"/>
   <tile gid="34"/>
   <tile gid="34"/>
   <tile gid="34"/>
   <tile gid="34"/>
   <tile gid="34"/>
   <tile gid="34"/>
   <tile gid="34"/>
   <tile gid="34"/>
   <tile gid="34"/>
   <tile gid="34"/>
   <tile gid="34"/>
   <tile gid="34"/>
   <tile gid="34"/>
   <tile gid="34"/>
   <tile gid="34"/>
   <tile gid="34"/>
   <tile gid="34"/>
   <tile gid="34"/>
   <tile gid="34"/>
   <tile gid="34"/>
   <tile gid="34"/>
   <tile gid="34"/>
   <tile gid="34"/>
   <tile gid="34"/>
   <tile gid="34"/>
   <tile gid="34"/>
   <tile gid="34"/>
   <tile gid="34"/>
   <tile gid="34"/>
   <tile gid="34"/>
   <tile gid="34"/>
   <tile gid="34"/>
   <tile gid="34"/>
   <tile gid="34"/>
   <tile gid="34"/>
   <tile gid="34"/>
   <tile gid="30"/>
   <tile gid="30"/>
   <tile gid="30"/>
   <tile gid="34"/>
   <tile gid="34"/>
   <tile gid="34"/>
   <tile gid="34"/>
   <tile gid="34"/>
   <tile gid="34"/>
   <tile gid="34"/>
   <tile gid="34"/>
   <tile gid="34"/>
   <tile gid="34"/>
   <tile gid="34"/>
   <tile gid="34"/>
   <tile gid="34"/>
   <tile gid="34"/>
   <tile gid="34"/>
   <tile gid="34"/>
   <tile gid="34"/>
   <tile gid="34"/>
   <tile gid="34"/>
   <tile gid="34"/>
   <tile gid="34"/>
   <tile gid="34"/>
   <tile gid="34"/>
   <tile gid="34"/>
   <tile gid="34"/>
   <tile gid="34"/>
   <tile gid="34"/>
   <tile gid="34"/>
   <tile gid="34"/>
   <tile gid="34"/>
   <tile gid="34"/>
   <tile gid="34"/>
   <tile gid="34"/>
   <tile gid="34"/>
   <tile gid="34"/>
   <tile gid="34"/>
   <tile gid="34"/>
   <tile gid="34"/>
   <tile gid="34"/>
   <tile gid="34"/>
   <tile gid="34"/>
   <tile gid="34"/>
   <tile gid="34"/>
   <tile gid="34"/>
   <tile gid="34"/>
   <tile gid="30"/>
   <tile gid="30"/>
   <tile gid="30"/>
   <tile gid="34"/>
   <tile gid="34"/>
   <tile gid="34"/>
   <tile gid="34"/>
   <tile gid="34"/>
   <tile gid="34"/>
   <tile gid="34"/>
   <tile gid="34"/>
   <tile gid="34"/>
   <tile gid="34"/>
   <tile gid="34"/>
   <tile gid="34"/>
   <tile gid="34"/>
   <tile gid="34"/>
   <tile gid="34"/>
   <tile gid="34"/>
   <tile gid="34"/>
   <tile gid="34"/>
   <tile gid="34"/>
   <tile gid="34"/>
   <tile gid="34"/>
   <tile gid="34"/>
   <tile gid="34"/>
   <tile gid="34"/>
   <tile gid="34"/>
   <tile gid="34"/>
   <tile gid="34"/>
   <tile gid="34"/>
   <tile gid="34"/>
   <tile gid="34"/>
   <tile gid="34"/>
   <tile gid="34"/>
   <tile gid="34"/>
   <tile gid="34"/>
   <tile gid="34"/>
   <tile gid="34"/>
   <tile gid="34"/>
   <tile gid="34"/>
   <tile gid="34"/>
   <tile gid="34"/>
   <tile gid="34"/>
   <tile gid="34"/>
   <tile gid="34"/>
   <tile gid="34"/>
   <tile gid="34"/>
   <tile gid="34"/>
   <tile gid="34"/>
   <tile gid="34"/>
   <tile gid="34"/>
   <tile gid="30"/>
   <tile gid="30"/>
   <tile gid="30"/>
   <tile gid="34"/>
   <tile gid="34"/>
   <tile gid="34"/>
   <tile gid="34"/>
   <tile gid="34"/>
   <tile gid="34"/>
   <tile gid="34"/>
   <tile gid="34"/>
   <tile gid="34"/>
   <tile gid="34"/>
   <tile gid="34"/>
   <tile gid="34"/>
   <tile gid="34"/>
   <tile gid="34"/>
   <tile gid="34"/>
   <tile gid="34"/>
   <tile gid="34"/>
   <tile gid="34"/>
   <tile gid="34"/>
   <tile gid="34"/>
   <tile gid="34"/>
   <tile gid="34"/>
   <tile gid="34"/>
   <tile gid="34"/>
   <tile gid="34"/>
   <tile gid="34"/>
   <tile gid="34"/>
   <tile gid="34"/>
   <tile gid="34"/>
   <tile gid="34"/>
   <tile gid="34"/>
   <tile gid="34"/>
   <tile gid="34"/>
   <tile gid="34"/>
   <tile gid="34"/>
   <tile gid="34"/>
   <tile gid="34"/>
   <tile gid="34"/>
   <tile gid="34"/>
   <tile gid="34"/>
   <tile gid="34"/>
   <tile gid="34"/>
   <tile gid="34"/>
   <tile gid="34"/>
   <tile gid="34"/>
   <tile gid="30"/>
   <tile gid="30"/>
   <tile gid="30"/>
   <tile gid="34"/>
   <tile gid="34"/>
   <tile gid="34"/>
   <tile gid="34"/>
   <tile gid="34"/>
   <tile gid="34"/>
   <tile gid="34"/>
   <tile gid="34"/>
   <tile gid="34"/>
   <tile gid="34"/>
   <tile gid="34"/>
   <tile gid="34"/>
   <tile gid="34"/>
   <tile gid="34"/>
   <tile gid="34"/>
   <tile gid="34"/>
   <tile gid="34"/>
   <tile gid="34"/>
   <tile gid="34"/>
   <tile gid="34"/>
   <tile gid="34"/>
   <tile gid="34"/>
   <tile gid="34"/>
   <tile gid="34"/>
   <tile gid="34"/>
   <tile gid="34"/>
   <tile gid="34"/>
   <tile gid="34"/>
   <tile gid="34"/>
   <tile gid="34"/>
   <tile gid="34"/>
   <tile gid="34"/>
   <tile gid="34"/>
   <tile gid="34"/>
   <tile gid="34"/>
   <tile gid="34"/>
   <tile gid="34"/>
   <tile gid="34"/>
   <tile gid="34"/>
   <tile gid="34"/>
   <tile gid="34"/>
   <tile gid="34"/>
   <tile gid="34"/>
   <tile gid="34"/>
   <tile gid="34"/>
   <tile gid="34"/>
   <tile gid="34"/>
   <tile gid="34"/>
   <tile gid="34"/>
   <tile gid="30"/>
   <tile gid="30"/>
   <tile gid="30"/>
   <tile gid="34"/>
   <tile gid="34"/>
   <tile gid="34"/>
   <tile gid="34"/>
   <tile gid="34"/>
   <tile gid="34"/>
   <tile gid="34"/>
   <tile gid="34"/>
   <tile gid="34"/>
   <tile gid="34"/>
   <tile gid="34"/>
   <tile gid="34"/>
   <tile gid="34"/>
   <tile gid="34"/>
   <tile gid="34"/>
   <tile gid="30"/>
   <tile gid="30"/>
   <tile gid="30"/>
   <tile gid="30"/>
   <tile gid="30"/>
   <tile gid="30"/>
   <tile gid="30"/>
   <tile gid="30"/>
   <tile gid="30"/>
   <tile gid="30"/>
   <tile gid="30"/>
   <tile gid="30"/>
   <tile gid="30"/>
   <tile gid="30"/>
   <tile gid="30"/>
   <tile gid="30"/>
   <tile gid="30"/>
   <tile gid="30"/>
   <tile gid="30"/>
   <tile gid="30"/>
   <tile gid="30"/>
   <tile gid="30"/>
   <tile gid="30"/>
   <tile gid="30"/>
   <tile gid="30"/>
   <tile gid="30"/>
   <tile gid="30"/>
   <tile gid="30"/>
   <tile gid="30"/>
   <tile gid="30"/>
   <tile gid="30"/>
   <tile gid="30"/>
   <tile gid="30"/>
   <tile gid="30"/>
   <tile gid="30"/>
   <tile gid="30"/>
   <tile gid="30"/>
   <tile gid="30"/>
   <tile gid="30"/>
   <tile gid="30"/>
   <tile gid="30"/>
   <tile gid="30"/>
   <tile gid="30"/>
   <tile gid="30"/>
   <tile gid="30"/>
   <tile gid="34"/>
   <tile gid="34"/>
   <tile gid="34"/>
   <tile gid="34"/>
   <tile gid="34"/>
   <tile gid="34"/>
   <tile gid="34"/>
   <tile gid="34"/>
   <tile gid="34"/>
   <tile gid="34"/>
   <tile gid="34"/>
   <tile gid="34"/>
   <tile gid="34"/>
   <tile gid="34"/>
   <tile gid="34"/>
   <tile gid="34"/>
   <tile gid="34"/>
   <tile gid="34"/>
   <tile gid="34"/>
   <tile gid="34"/>
   <tile gid="34"/>
   <tile gid="34"/>
   <tile gid="34"/>
   <tile gid="34"/>
   <tile gid="34"/>
   <tile gid="34"/>
   <tile gid="34"/>
   <tile gid="34"/>
   <tile gid="30"/>
   <tile gid="30"/>
   <tile gid="30"/>
   <tile gid="30"/>
   <tile gid="30"/>
   <tile gid="30"/>
   <tile gid="30"/>
   <tile gid="30"/>
   <tile gid="30"/>
   <tile gid="30"/>
   <tile gid="30"/>
   <tile gid="30"/>
   <tile gid="30"/>
   <tile gid="30"/>
   <tile gid="30"/>
   <tile gid="30"/>
   <tile gid="30"/>
   <tile gid="30"/>
   <tile gid="30"/>
   <tile gid="30"/>
   <tile gid="30"/>
   <tile gid="34"/>
   <tile gid="34"/>
   <tile gid="34"/>
   <tile gid="34"/>
   <tile gid="34"/>
   <tile gid="34"/>
   <tile gid="30"/>
   <tile gid="36"/>
   <tile gid="37"/>
   <tile gid="30"/>
   <tile gid="30"/>
   <tile gid="30"/>
   <tile gid="30"/>
   <tile gid="30"/>
   <tile gid="30"/>
   <tile gid="30"/>
   <tile gid="30"/>
   <tile gid="30"/>
   <tile gid="30"/>
   <tile gid="30"/>
   <tile gid="30"/>
   <tile gid="30"/>
   <tile gid="30"/>
   <tile gid="30"/>
   <tile gid="30"/>
   <tile gid="30"/>
   <tile gid="30"/>
   <tile gid="30"/>
   <tile gid="30"/>
   <tile gid="30"/>
   <tile gid="30"/>
   <tile gid="30"/>
   <tile gid="30"/>
   <tile gid="30"/>
   <tile gid="30"/>
   <tile gid="30"/>
   <tile gid="30"/>
   <tile gid="30"/>
   <tile gid="30"/>
   <tile gid="30"/>
   <tile gid="30"/>
   <tile gid="30"/>
   <tile gid="30"/>
   <tile gid="30"/>
   <tile gid="30"/>
   <tile gid="30"/>
   <tile gid="30"/>
   <tile gid="30"/>
   <tile gid="30"/>
   <tile gid="30"/>
   <tile gid="30"/>
   <tile gid="34"/>
   <tile gid="34"/>
   <tile gid="34"/>
   <tile gid="34"/>
   <tile gid="34"/>
   <tile gid="34"/>
   <tile gid="34"/>
   <tile gid="34"/>
   <tile gid="34"/>
   <tile gid="34"/>
   <tile gid="34"/>
   <tile gid="34"/>
   <tile gid="34"/>
   <tile gid="34"/>
   <tile gid="34"/>
   <tile gid="34"/>
   <tile gid="34"/>
   <tile gid="34"/>
   <tile gid="34"/>
   <tile gid="34"/>
   <tile gid="34"/>
   <tile gid="34"/>
   <tile gid="34"/>
   <tile gid="34"/>
   <tile gid="34"/>
   <tile gid="34"/>
   <tile gid="34"/>
   <tile gid="34"/>
   <tile gid="30"/>
   <tile gid="30"/>
   <tile gid="30"/>
   <tile gid="30"/>
   <tile gid="30"/>
   <tile gid="30"/>
   <tile gid="30"/>
   <tile gid="30"/>
   <tile gid="30"/>
   <tile gid="30"/>
   <tile gid="30"/>
   <tile gid="30"/>
   <tile gid="30"/>
   <tile gid="30"/>
   <tile gid="30"/>
   <tile gid="30"/>
   <tile gid="30"/>
   <tile gid="30"/>
   <tile gid="30"/>
   <tile gid="30"/>
   <tile gid="30"/>
   <tile gid="34"/>
   <tile gid="34"/>
   <tile gid="34"/>
   <tile gid="34"/>
   <tile gid="34"/>
   <tile gid="34"/>
   <tile gid="30"/>
   <tile gid="44"/>
   <tile gid="45"/>
   <tile gid="30"/>
   <tile gid="30"/>
   <tile gid="30"/>
   <tile gid="30"/>
   <tile gid="30"/>
   <tile gid="30"/>
   <tile gid="30"/>
   <tile gid="30"/>
   <tile gid="30"/>
   <tile gid="30"/>
   <tile gid="30"/>
   <tile gid="30"/>
   <tile gid="30"/>
   <tile gid="30"/>
   <tile gid="30"/>
   <tile gid="30"/>
   <tile gid="30"/>
   <tile gid="30"/>
   <tile gid="30"/>
   <tile gid="30"/>
   <tile gid="30"/>
   <tile gid="30"/>
   <tile gid="30"/>
   <tile gid="30"/>
   <tile gid="30"/>
   <tile gid="30"/>
   <tile gid="30"/>
   <tile gid="30"/>
   <tile gid="30"/>
   <tile gid="30"/>
   <tile gid="30"/>
   <tile gid="30"/>
   <tile gid="30"/>
   <tile gid="30"/>
   <tile gid="30"/>
   <tile gid="30"/>
   <tile gid="30"/>
   <tile gid="30"/>
   <tile gid="30"/>
   <tile gid="30"/>
   <tile gid="30"/>
   <tile gid="30"/>
   <tile gid="34"/>
   <tile gid="34"/>
   <tile gid="34"/>
   <tile gid="34"/>
   <tile gid="34"/>
   <tile gid="34"/>
   <tile gid="34"/>
   <tile gid="34"/>
   <tile gid="34"/>
   <tile gid="34"/>
   <tile gid="34"/>
   <tile gid="34"/>
   <tile gid="34"/>
   <tile gid="34"/>
   <tile gid="34"/>
   <tile gid="34"/>
   <tile gid="34"/>
   <tile gid="34"/>
   <tile gid="34"/>
   <tile gid="34"/>
   <tile gid="34"/>
   <tile gid="34"/>
   <tile gid="34"/>
   <tile gid="34"/>
   <tile gid="34"/>
   <tile gid="34"/>
   <tile gid="34"/>
   <tile gid="34"/>
   <tile gid="30"/>
   <tile gid="30"/>
   <tile gid="30"/>
   <tile gid="30"/>
   <tile gid="30"/>
   <tile gid="30"/>
   <tile gid="30"/>
   <tile gid="30"/>
   <tile gid="30"/>
   <tile gid="30"/>
   <tile gid="30"/>
   <tile gid="30"/>
   <tile gid="30"/>
   <tile gid="30"/>
   <tile gid="30"/>
   <tile gid="30"/>
   <tile gid="30"/>
   <tile gid="30"/>
   <tile gid="30"/>
   <tile gid="30"/>
   <tile gid="30"/>
   <tile gid="34"/>
   <tile gid="34"/>
   <tile gid="34"/>
   <tile gid="34"/>
   <tile gid="34"/>
   <tile gid="34"/>
   <tile gid="30"/>
   <tile gid="30"/>
   <tile gid="30"/>
   <tile gid="30"/>
   <tile gid="30"/>
   <tile gid="30"/>
   <tile gid="30"/>
   <tile gid="30"/>
   <tile gid="30"/>
   <tile gid="30"/>
   <tile gid="30"/>
   <tile gid="30"/>
   <tile gid="30"/>
   <tile gid="30"/>
   <tile gid="30"/>
   <tile gid="30"/>
   <tile gid="30"/>
   <tile gid="30"/>
   <tile gid="30"/>
   <tile gid="30"/>
   <tile gid="30"/>
   <tile gid="30"/>
   <tile gid="30"/>
   <tile gid="30"/>
   <tile gid="30"/>
   <tile gid="30"/>
   <tile gid="30"/>
   <tile gid="30"/>
   <tile gid="30"/>
   <tile gid="30"/>
   <tile gid="30"/>
   <tile gid="30"/>
   <tile gid="30"/>
   <tile gid="30"/>
   <tile gid="30"/>
   <tile gid="30"/>
   <tile gid="30"/>
   <tile gid="30"/>
   <tile gid="30"/>
   <tile gid="30"/>
   <tile gid="30"/>
   <tile gid="30"/>
   <tile gid="30"/>
   <tile gid="30"/>
   <tile gid="30"/>
   <tile gid="34"/>
   <tile gid="34"/>
   <tile gid="34"/>
   <tile gid="34"/>
   <tile gid="34"/>
   <tile gid="34"/>
   <tile gid="34"/>
   <tile gid="34"/>
   <tile gid="34"/>
   <tile gid="34"/>
   <tile gid="34"/>
   <tile gid="34"/>
   <tile gid="34"/>
   <tile gid="34"/>
   <tile gid="34"/>
   <tile gid="34"/>
   <tile gid="34"/>
   <tile gid="34"/>
   <tile gid="34"/>
   <tile gid="34"/>
   <tile gid="34"/>
   <tile gid="34"/>
   <tile gid="34"/>
   <tile gid="34"/>
   <tile gid="34"/>
   <tile gid="34"/>
   <tile gid="34"/>
   <tile gid="34"/>
   <tile gid="30"/>
   <tile gid="30"/>
   <tile gid="30"/>
   <tile gid="30"/>
   <tile gid="30"/>
   <tile gid="30"/>
   <tile gid="30"/>
   <tile gid="30"/>
   <tile gid="30"/>
   <tile gid="30"/>
   <tile gid="30"/>
   <tile gid="30"/>
   <tile gid="30"/>
   <tile gid="30"/>
   <tile gid="30"/>
   <tile gid="30"/>
   <tile gid="30"/>
   <tile gid="30"/>
   <tile gid="30"/>
   <tile gid="30"/>
   <tile gid="30"/>
   <tile gid="34"/>
   <tile gid="34"/>
   <tile gid="34"/>
   <tile gid="34"/>
   <tile gid="34"/>
   <tile gid="34"/>
   <tile gid="30"/>
   <tile gid="30"/>
   <tile gid="30"/>
   <tile gid="30"/>
   <tile gid="30"/>
   <tile gid="30"/>
   <tile gid="30"/>
   <tile gid="30"/>
   <tile gid="30"/>
   <tile gid="30"/>
   <tile gid="30"/>
   <tile gid="30"/>
   <tile gid="30"/>
   <tile gid="30"/>
   <tile gid="30"/>
   <tile gid="30"/>
   <tile gid="30"/>
   <tile gid="30"/>
   <tile gid="30"/>
   <tile gid="30"/>
   <tile gid="30"/>
   <tile gid="30"/>
   <tile gid="30"/>
   <tile gid="30"/>
   <tile gid="30"/>
   <tile gid="30"/>
   <tile gid="30"/>
   <tile gid="30"/>
   <tile gid="30"/>
   <tile gid="30"/>
   <tile gid="30"/>
   <tile gid="30"/>
   <tile gid="30"/>
   <tile gid="30"/>
   <tile gid="30"/>
   <tile gid="30"/>
   <tile gid="30"/>
   <tile gid="30"/>
   <tile gid="30"/>
   <tile gid="30"/>
   <tile gid="30"/>
   <tile gid="30"/>
   <tile gid="30"/>
   <tile gid="30"/>
   <tile gid="30"/>
   <tile gid="34"/>
   <tile gid="34"/>
   <tile gid="34"/>
   <tile gid="34"/>
   <tile gid="34"/>
   <tile gid="34"/>
   <tile gid="34"/>
   <tile gid="34"/>
   <tile gid="34"/>
   <tile gid="34"/>
   <tile gid="34"/>
   <tile gid="34"/>
   <tile gid="34"/>
   <tile gid="34"/>
   <tile gid="34"/>
   <tile gid="34"/>
   <tile gid="34"/>
   <tile gid="34"/>
   <tile gid="34"/>
   <tile gid="34"/>
   <tile gid="34"/>
   <tile gid="34"/>
   <tile gid="34"/>
   <tile gid="34"/>
   <tile gid="34"/>
   <tile gid="34"/>
   <tile gid="34"/>
   <tile gid="34"/>
   <tile gid="30"/>
   <tile gid="30"/>
   <tile gid="30"/>
   <tile gid="30"/>
   <tile gid="30"/>
   <tile gid="30"/>
   <tile gid="30"/>
   <tile gid="30"/>
   <tile gid="30"/>
   <tile gid="30"/>
   <tile gid="30"/>
   <tile gid="30"/>
   <tile gid="30"/>
   <tile gid="30"/>
   <tile gid="30"/>
   <tile gid="30"/>
   <tile gid="30"/>
   <tile gid="30"/>
   <tile gid="30"/>
   <tile gid="30"/>
   <tile gid="30"/>
   <tile gid="34"/>
   <tile gid="34"/>
   <tile gid="34"/>
   <tile gid="34"/>
   <tile gid="34"/>
   <tile gid="34"/>
   <tile gid="30"/>
   <tile gid="30"/>
   <tile gid="30"/>
   <tile gid="30"/>
   <tile gid="30"/>
   <tile gid="30"/>
   <tile gid="30"/>
   <tile gid="30"/>
   <tile gid="30"/>
   <tile gid="30"/>
   <tile gid="30"/>
   <tile gid="30"/>
   <tile gid="30"/>
   <tile gid="30"/>
   <tile gid="30"/>
   <tile gid="30"/>
   <tile gid="30"/>
   <tile gid="30"/>
   <tile gid="30"/>
   <tile gid="30"/>
   <tile gid="30"/>
   <tile gid="30"/>
   <tile gid="30"/>
   <tile gid="30"/>
   <tile gid="30"/>
   <tile gid="30"/>
   <tile gid="30"/>
   <tile gid="30"/>
   <tile gid="30"/>
   <tile gid="30"/>
   <tile gid="30"/>
   <tile gid="30"/>
   <tile gid="30"/>
   <tile gid="30"/>
   <tile gid="30"/>
   <tile gid="30"/>
   <tile gid="30"/>
   <tile gid="30"/>
   <tile gid="30"/>
   <tile gid="30"/>
   <tile gid="30"/>
   <tile gid="30"/>
   <tile gid="30"/>
   <tile gid="30"/>
   <tile gid="30"/>
   <tile gid="34"/>
   <tile gid="34"/>
   <tile gid="34"/>
   <tile gid="34"/>
   <tile gid="34"/>
   <tile gid="34"/>
   <tile gid="34"/>
   <tile gid="34"/>
   <tile gid="34"/>
   <tile gid="34"/>
   <tile gid="34"/>
   <tile gid="34"/>
   <tile gid="34"/>
   <tile gid="34"/>
   <tile gid="34"/>
   <tile gid="34"/>
   <tile gid="34"/>
   <tile gid="34"/>
   <tile gid="34"/>
   <tile gid="34"/>
   <tile gid="34"/>
   <tile gid="34"/>
   <tile gid="34"/>
   <tile gid="34"/>
   <tile gid="34"/>
   <tile gid="34"/>
   <tile gid="34"/>
   <tile gid="34"/>
   <tile gid="30"/>
   <tile gid="30"/>
   <tile gid="30"/>
   <tile gid="30"/>
   <tile gid="30"/>
   <tile gid="30"/>
   <tile gid="30"/>
   <tile gid="30"/>
   <tile gid="30"/>
   <tile gid="30"/>
   <tile gid="30"/>
   <tile gid="30"/>
   <tile gid="30"/>
   <tile gid="30"/>
   <tile gid="30"/>
   <tile gid="30"/>
   <tile gid="30"/>
   <tile gid="30"/>
   <tile gid="30"/>
   <tile gid="30"/>
   <tile gid="30"/>
   <tile gid="34"/>
   <tile gid="34"/>
   <tile gid="34"/>
   <tile gid="34"/>
   <tile gid="34"/>
   <tile gid="34"/>
   <tile gid="30"/>
   <tile gid="30"/>
   <tile gid="30"/>
   <tile gid="30"/>
   <tile gid="30"/>
   <tile gid="30"/>
   <tile gid="30"/>
   <tile gid="30"/>
   <tile gid="30"/>
   <tile gid="30"/>
   <tile gid="30"/>
   <tile gid="30"/>
   <tile gid="30"/>
   <tile gid="30"/>
   <tile gid="30"/>
   <tile gid="30"/>
   <tile gid="30"/>
   <tile gid="30"/>
   <tile gid="30"/>
   <tile gid="30"/>
   <tile gid="30"/>
   <tile gid="30"/>
   <tile gid="30"/>
   <tile gid="30"/>
   <tile gid="30"/>
   <tile gid="30"/>
   <tile gid="30"/>
   <tile gid="30"/>
   <tile gid="30"/>
   <tile gid="30"/>
   <tile gid="30"/>
   <tile gid="30"/>
   <tile gid="30"/>
   <tile gid="30"/>
   <tile gid="30"/>
   <tile gid="30"/>
   <tile gid="30"/>
   <tile gid="30"/>
   <tile gid="30"/>
   <tile gid="30"/>
   <tile gid="30"/>
   <tile gid="30"/>
   <tile gid="30"/>
   <tile gid="30"/>
   <tile gid="30"/>
   <tile gid="34"/>
   <tile gid="34"/>
   <tile gid="34"/>
   <tile gid="34"/>
   <tile gid="34"/>
   <tile gid="34"/>
   <tile gid="34"/>
   <tile gid="34"/>
   <tile gid="34"/>
   <tile gid="34"/>
   <tile gid="34"/>
   <tile gid="34"/>
   <tile gid="34"/>
   <tile gid="34"/>
   <tile gid="34"/>
   <tile gid="34"/>
   <tile gid="34"/>
   <tile gid="34"/>
   <tile gid="34"/>
   <tile gid="34"/>
   <tile gid="34"/>
   <tile gid="34"/>
   <tile gid="34"/>
   <tile gid="34"/>
   <tile gid="34"/>
   <tile gid="34"/>
   <tile gid="34"/>
   <tile gid="34"/>
   <tile gid="30"/>
   <tile gid="30"/>
   <tile gid="30"/>
   <tile gid="30"/>
   <tile gid="30"/>
   <tile gid="30"/>
   <tile gid="30"/>
   <tile gid="30"/>
   <tile gid="30"/>
   <tile gid="30"/>
   <tile gid="30"/>
   <tile gid="30"/>
   <tile gid="30"/>
   <tile gid="30"/>
   <tile gid="30"/>
   <tile gid="30"/>
   <tile gid="30"/>
   <tile gid="30"/>
   <tile gid="30"/>
   <tile gid="30"/>
   <tile gid="30"/>
   <tile gid="34"/>
   <tile gid="34"/>
   <tile gid="34"/>
   <tile gid="34"/>
   <tile gid="34"/>
   <tile gid="34"/>
   <tile gid="30"/>
   <tile gid="30"/>
   <tile gid="30"/>
   <tile gid="30"/>
   <tile gid="30"/>
   <tile gid="30"/>
   <tile gid="30"/>
   <tile gid="30"/>
   <tile gid="30"/>
   <tile gid="30"/>
   <tile gid="30"/>
   <tile gid="30"/>
   <tile gid="30"/>
   <tile gid="30"/>
   <tile gid="30"/>
   <tile gid="30"/>
   <tile gid="30"/>
   <tile gid="30"/>
   <tile gid="30"/>
   <tile gid="30"/>
   <tile gid="30"/>
   <tile gid="30"/>
   <tile gid="30"/>
   <tile gid="30"/>
   <tile gid="30"/>
   <tile gid="30"/>
   <tile gid="30"/>
   <tile gid="30"/>
   <tile gid="30"/>
   <tile gid="30"/>
   <tile gid="30"/>
   <tile gid="30"/>
   <tile gid="30"/>
   <tile gid="30"/>
   <tile gid="30"/>
   <tile gid="30"/>
   <tile gid="30"/>
   <tile gid="30"/>
   <tile gid="30"/>
   <tile gid="30"/>
   <tile gid="30"/>
   <tile gid="30"/>
   <tile gid="30"/>
   <tile gid="30"/>
   <tile gid="30"/>
   <tile gid="34"/>
   <tile gid="34"/>
   <tile gid="34"/>
   <tile gid="34"/>
   <tile gid="34"/>
   <tile gid="34"/>
   <tile gid="34"/>
   <tile gid="34"/>
   <tile gid="34"/>
   <tile gid="34"/>
   <tile gid="34"/>
   <tile gid="34"/>
   <tile gid="34"/>
   <tile gid="34"/>
   <tile gid="34"/>
   <tile gid="34"/>
   <tile gid="34"/>
   <tile gid="34"/>
   <tile gid="34"/>
   <tile gid="34"/>
   <tile gid="34"/>
   <tile gid="34"/>
   <tile gid="34"/>
   <tile gid="34"/>
   <tile gid="34"/>
   <tile gid="34"/>
   <tile gid="34"/>
   <tile gid="34"/>
   <tile gid="30"/>
   <tile gid="30"/>
   <tile gid="30"/>
   <tile gid="30"/>
   <tile gid="30"/>
   <tile gid="30"/>
   <tile gid="30"/>
   <tile gid="30"/>
   <tile gid="30"/>
   <tile gid="30"/>
   <tile gid="30"/>
   <tile gid="30"/>
   <tile gid="30"/>
   <tile gid="30"/>
   <tile gid="30"/>
   <tile gid="30"/>
   <tile gid="30"/>
   <tile gid="30"/>
   <tile gid="30"/>
   <tile gid="30"/>
   <tile gid="30"/>
   <tile gid="34"/>
   <tile gid="34"/>
   <tile gid="34"/>
   <tile gid="34"/>
   <tile gid="34"/>
   <tile gid="34"/>
   <tile gid="30"/>
   <tile gid="30"/>
   <tile gid="30"/>
   <tile gid="30"/>
   <tile gid="30"/>
   <tile gid="30"/>
   <tile gid="30"/>
   <tile gid="30"/>
   <tile gid="30"/>
   <tile gid="30"/>
   <tile gid="30"/>
   <tile gid="30"/>
   <tile gid="30"/>
   <tile gid="30"/>
   <tile gid="30"/>
   <tile gid="30"/>
   <tile gid="30"/>
   <tile gid="30"/>
   <tile gid="30"/>
   <tile gid="30"/>
   <tile gid="30"/>
   <tile gid="30"/>
   <tile gid="30"/>
   <tile gid="30"/>
   <tile gid="30"/>
   <tile gid="30"/>
   <tile gid="30"/>
   <tile gid="30"/>
   <tile gid="30"/>
   <tile gid="30"/>
   <tile gid="30"/>
   <tile gid="30"/>
   <tile gid="30"/>
   <tile gid="30"/>
   <tile gid="30"/>
   <tile gid="30"/>
   <tile gid="30"/>
   <tile gid="30"/>
   <tile gid="30"/>
   <tile gid="30"/>
   <tile gid="30"/>
   <tile gid="30"/>
   <tile gid="30"/>
   <tile gid="30"/>
   <tile gid="30"/>
   <tile gid="34"/>
   <tile gid="34"/>
   <tile gid="34"/>
   <tile gid="34"/>
   <tile gid="34"/>
   <tile gid="34"/>
   <tile gid="34"/>
   <tile gid="34"/>
   <tile gid="34"/>
   <tile gid="34"/>
   <tile gid="34"/>
   <tile gid="34"/>
   <tile gid="34"/>
   <tile gid="34"/>
   <tile gid="34"/>
   <tile gid="34"/>
   <tile gid="34"/>
   <tile gid="34"/>
   <tile gid="34"/>
   <tile gid="34"/>
   <tile gid="34"/>
   <tile gid="34"/>
   <tile gid="34"/>
   <tile gid="34"/>
   <tile gid="34"/>
   <tile gid="34"/>
   <tile gid="34"/>
   <tile gid="34"/>
   <tile gid="30"/>
   <tile gid="30"/>
   <tile gid="30"/>
   <tile gid="30"/>
   <tile gid="30"/>
   <tile gid="30"/>
   <tile gid="30"/>
   <tile gid="30"/>
   <tile gid="30"/>
   <tile gid="30"/>
   <tile gid="30"/>
   <tile gid="30"/>
   <tile gid="30"/>
   <tile gid="30"/>
   <tile gid="30"/>
   <tile gid="30"/>
   <tile gid="30"/>
   <tile gid="30"/>
   <tile gid="30"/>
   <tile gid="30"/>
   <tile gid="30"/>
   <tile gid="34"/>
   <tile gid="34"/>
   <tile gid="34"/>
   <tile gid="34"/>
   <tile gid="34"/>
   <tile gid="34"/>
   <tile gid="30"/>
   <tile gid="30"/>
   <tile gid="30"/>
   <tile gid="30"/>
   <tile gid="30"/>
   <tile gid="30"/>
   <tile gid="30"/>
   <tile gid="30"/>
   <tile gid="30"/>
   <tile gid="30"/>
   <tile gid="30"/>
   <tile gid="30"/>
   <tile gid="30"/>
   <tile gid="30"/>
   <tile gid="30"/>
   <tile gid="30"/>
   <tile gid="30"/>
   <tile gid="30"/>
   <tile gid="30"/>
   <tile gid="30"/>
   <tile gid="30"/>
   <tile gid="30"/>
   <tile gid="30"/>
   <tile gid="30"/>
   <tile gid="30"/>
   <tile gid="30"/>
   <tile gid="30"/>
   <tile gid="30"/>
   <tile gid="30"/>
   <tile gid="30"/>
   <tile gid="30"/>
   <tile gid="30"/>
   <tile gid="30"/>
   <tile gid="30"/>
   <tile gid="30"/>
   <tile gid="30"/>
   <tile gid="30"/>
   <tile gid="30"/>
   <tile gid="30"/>
   <tile gid="30"/>
   <tile gid="30"/>
   <tile gid="30"/>
   <tile gid="30"/>
   <tile gid="30"/>
   <tile gid="30"/>
   <tile gid="34"/>
   <tile gid="34"/>
   <tile gid="34"/>
   <tile gid="34"/>
   <tile gid="34"/>
   <tile gid="34"/>
   <tile gid="34"/>
   <tile gid="34"/>
   <tile gid="34"/>
   <tile gid="34"/>
   <tile gid="34"/>
   <tile gid="34"/>
   <tile gid="34"/>
   <tile gid="34"/>
   <tile gid="34"/>
   <tile gid="34"/>
   <tile gid="34"/>
   <tile gid="34"/>
   <tile gid="34"/>
   <tile gid="34"/>
   <tile gid="34"/>
   <tile gid="34"/>
   <tile gid="34"/>
   <tile gid="34"/>
   <tile gid="34"/>
   <tile gid="34"/>
   <tile gid="34"/>
   <tile gid="34"/>
   <tile gid="30"/>
   <tile gid="30"/>
   <tile gid="30"/>
   <tile gid="30"/>
   <tile gid="30"/>
   <tile gid="30"/>
   <tile gid="30"/>
   <tile gid="30"/>
   <tile gid="30"/>
   <tile gid="30"/>
   <tile gid="30"/>
   <tile gid="30"/>
   <tile gid="30"/>
   <tile gid="30"/>
   <tile gid="30"/>
   <tile gid="30"/>
   <tile gid="30"/>
   <tile gid="30"/>
   <tile gid="30"/>
   <tile gid="30"/>
   <tile gid="30"/>
   <tile gid="34"/>
   <tile gid="34"/>
   <tile gid="34"/>
   <tile gid="34"/>
   <tile gid="34"/>
   <tile gid="34"/>
   <tile gid="30"/>
   <tile gid="30"/>
   <tile gid="30"/>
   <tile gid="30"/>
   <tile gid="30"/>
   <tile gid="30"/>
   <tile gid="30"/>
   <tile gid="30"/>
   <tile gid="30"/>
   <tile gid="30"/>
   <tile gid="30"/>
   <tile gid="30"/>
   <tile gid="30"/>
   <tile gid="30"/>
   <tile gid="30"/>
   <tile gid="30"/>
   <tile gid="30"/>
   <tile gid="30"/>
   <tile gid="30"/>
   <tile gid="30"/>
   <tile gid="30"/>
   <tile gid="30"/>
   <tile gid="30"/>
   <tile gid="30"/>
   <tile gid="30"/>
   <tile gid="30"/>
   <tile gid="30"/>
   <tile gid="30"/>
   <tile gid="30"/>
   <tile gid="30"/>
   <tile gid="30"/>
   <tile gid="30"/>
   <tile gid="30"/>
   <tile gid="30"/>
   <tile gid="30"/>
   <tile gid="30"/>
   <tile gid="30"/>
   <tile gid="30"/>
   <tile gid="30"/>
   <tile gid="30"/>
   <tile gid="30"/>
   <tile gid="30"/>
   <tile gid="30"/>
   <tile gid="30"/>
   <tile gid="30"/>
   <tile gid="34"/>
   <tile gid="34"/>
   <tile gid="34"/>
   <tile gid="34"/>
   <tile gid="34"/>
   <tile gid="34"/>
   <tile gid="34"/>
   <tile gid="34"/>
   <tile gid="34"/>
   <tile gid="34"/>
   <tile gid="34"/>
   <tile gid="34"/>
   <tile gid="34"/>
   <tile gid="34"/>
   <tile gid="34"/>
   <tile gid="34"/>
   <tile gid="34"/>
   <tile gid="34"/>
   <tile gid="34"/>
   <tile gid="34"/>
   <tile gid="34"/>
   <tile gid="34"/>
   <tile gid="34"/>
   <tile gid="34"/>
   <tile gid="34"/>
   <tile gid="34"/>
   <tile gid="34"/>
   <tile gid="34"/>
   <tile gid="30"/>
   <tile gid="30"/>
   <tile gid="30"/>
   <tile gid="30"/>
   <tile gid="30"/>
   <tile gid="30"/>
   <tile gid="30"/>
   <tile gid="30"/>
   <tile gid="30"/>
   <tile gid="30"/>
   <tile gid="30"/>
   <tile gid="30"/>
   <tile gid="30"/>
   <tile gid="30"/>
   <tile gid="30"/>
   <tile gid="30"/>
   <tile gid="30"/>
   <tile gid="30"/>
   <tile gid="30"/>
   <tile gid="30"/>
   <tile gid="30"/>
   <tile gid="34"/>
   <tile gid="34"/>
   <tile gid="34"/>
   <tile gid="34"/>
   <tile gid="34"/>
   <tile gid="34"/>
   <tile gid="30"/>
   <tile gid="30"/>
   <tile gid="30"/>
   <tile gid="30"/>
   <tile gid="30"/>
   <tile gid="30"/>
   <tile gid="30"/>
   <tile gid="30"/>
   <tile gid="30"/>
   <tile gid="30"/>
   <tile gid="30"/>
   <tile gid="30"/>
   <tile gid="30"/>
   <tile gid="30"/>
   <tile gid="30"/>
   <tile gid="30"/>
   <tile gid="30"/>
   <tile gid="30"/>
   <tile gid="30"/>
   <tile gid="30"/>
   <tile gid="30"/>
   <tile gid="30"/>
   <tile gid="30"/>
   <tile gid="30"/>
   <tile gid="30"/>
   <tile gid="30"/>
   <tile gid="30"/>
   <tile gid="30"/>
   <tile gid="30"/>
   <tile gid="30"/>
   <tile gid="30"/>
   <tile gid="30"/>
   <tile gid="30"/>
   <tile gid="30"/>
   <tile gid="30"/>
   <tile gid="30"/>
   <tile gid="30"/>
   <tile gid="30"/>
   <tile gid="30"/>
   <tile gid="30"/>
   <tile gid="30"/>
   <tile gid="30"/>
   <tile gid="30"/>
   <tile gid="30"/>
   <tile gid="30"/>
   <tile gid="34"/>
   <tile gid="34"/>
   <tile gid="34"/>
   <tile gid="34"/>
   <tile gid="34"/>
   <tile gid="34"/>
   <tile gid="34"/>
   <tile gid="34"/>
   <tile gid="34"/>
   <tile gid="34"/>
   <tile gid="34"/>
   <tile gid="34"/>
   <tile gid="34"/>
   <tile gid="34"/>
   <tile gid="34"/>
   <tile gid="34"/>
   <tile gid="34"/>
   <tile gid="34"/>
   <tile gid="34"/>
   <tile gid="34"/>
   <tile gid="34"/>
   <tile gid="34"/>
   <tile gid="34"/>
   <tile gid="34"/>
   <tile gid="34"/>
   <tile gid="34"/>
   <tile gid="34"/>
   <tile gid="34"/>
   <tile gid="30"/>
   <tile gid="30"/>
   <tile gid="30"/>
   <tile gid="30"/>
   <tile gid="30"/>
   <tile gid="30"/>
   <tile gid="30"/>
   <tile gid="30"/>
   <tile gid="30"/>
   <tile gid="30"/>
   <tile gid="30"/>
   <tile gid="30"/>
   <tile gid="30"/>
   <tile gid="30"/>
   <tile gid="30"/>
   <tile gid="30"/>
   <tile gid="30"/>
   <tile gid="30"/>
   <tile gid="30"/>
   <tile gid="30"/>
   <tile gid="30"/>
   <tile gid="34"/>
   <tile gid="34"/>
   <tile gid="34"/>
   <tile gid="34"/>
   <tile gid="34"/>
   <tile gid="34"/>
   <tile gid="30"/>
   <tile gid="30"/>
   <tile gid="30"/>
   <tile gid="30"/>
   <tile gid="30"/>
   <tile gid="30"/>
   <tile gid="30"/>
   <tile gid="30"/>
   <tile gid="30"/>
   <tile gid="30"/>
   <tile gid="30"/>
   <tile gid="30"/>
   <tile gid="30"/>
   <tile gid="30"/>
   <tile gid="30"/>
   <tile gid="30"/>
   <tile gid="30"/>
   <tile gid="30"/>
   <tile gid="30"/>
   <tile gid="30"/>
   <tile gid="30"/>
   <tile gid="30"/>
   <tile gid="30"/>
   <tile gid="30"/>
   <tile gid="30"/>
   <tile gid="30"/>
   <tile gid="30"/>
   <tile gid="30"/>
   <tile gid="30"/>
   <tile gid="30"/>
   <tile gid="30"/>
   <tile gid="30"/>
   <tile gid="30"/>
   <tile gid="30"/>
   <tile gid="30"/>
   <tile gid="30"/>
   <tile gid="30"/>
   <tile gid="30"/>
   <tile gid="30"/>
   <tile gid="30"/>
   <tile gid="30"/>
   <tile gid="30"/>
   <tile gid="30"/>
   <tile gid="30"/>
   <tile gid="30"/>
   <tile gid="34"/>
   <tile gid="34"/>
   <tile gid="34"/>
   <tile gid="34"/>
   <tile gid="34"/>
   <tile gid="34"/>
   <tile gid="34"/>
   <tile gid="34"/>
   <tile gid="34"/>
   <tile gid="34"/>
   <tile gid="34"/>
   <tile gid="30"/>
   <tile gid="30"/>
   <tile gid="30"/>
   <tile gid="30"/>
   <tile gid="30"/>
   <tile gid="30"/>
   <tile gid="30"/>
   <tile gid="30"/>
   <tile gid="30"/>
   <tile gid="30"/>
   <tile gid="30"/>
   <tile gid="30"/>
   <tile gid="30"/>
   <tile gid="30"/>
   <tile gid="30"/>
   <tile gid="40"/>
   <tile gid="30"/>
   <tile gid="30"/>
   <tile gid="30"/>
   <tile gid="30"/>
   <tile gid="30"/>
   <tile gid="30"/>
   <tile gid="30"/>
   <tile gid="30"/>
   <tile gid="30"/>
   <tile gid="30"/>
   <tile gid="30"/>
   <tile gid="30"/>
   <tile gid="30"/>
   <tile gid="30"/>
   <tile gid="30"/>
   <tile gid="30"/>
   <tile gid="30"/>
   <tile gid="30"/>
   <tile gid="30"/>
   <tile gid="30"/>
   <tile gid="30"/>
   <tile gid="30"/>
   <tile gid="34"/>
   <tile gid="34"/>
   <tile gid="34"/>
   <tile gid="34"/>
   <tile gid="34"/>
   <tile gid="34"/>
   <tile gid="30"/>
   <tile gid="30"/>
   <tile gid="30"/>
   <tile gid="30"/>
   <tile gid="30"/>
   <tile gid="30"/>
   <tile gid="30"/>
   <tile gid="30"/>
   <tile gid="30"/>
   <tile gid="30"/>
   <tile gid="30"/>
   <tile gid="30"/>
   <tile gid="30"/>
   <tile gid="30"/>
   <tile gid="30"/>
   <tile gid="30"/>
   <tile gid="30"/>
   <tile gid="30"/>
   <tile gid="30"/>
   <tile gid="30"/>
   <tile gid="30"/>
   <tile gid="30"/>
   <tile gid="30"/>
   <tile gid="30"/>
   <tile gid="30"/>
   <tile gid="30"/>
   <tile gid="30"/>
   <tile gid="30"/>
   <tile gid="30"/>
   <tile gid="30"/>
   <tile gid="30"/>
   <tile gid="30"/>
   <tile gid="30"/>
   <tile gid="30"/>
   <tile gid="30"/>
   <tile gid="30"/>
   <tile gid="30"/>
   <tile gid="30"/>
   <tile gid="30"/>
   <tile gid="30"/>
   <tile gid="30"/>
   <tile gid="30"/>
   <tile gid="30"/>
   <tile gid="30"/>
   <tile gid="30"/>
   <tile gid="34"/>
   <tile gid="34"/>
   <tile gid="34"/>
   <tile gid="34"/>
   <tile gid="34"/>
   <tile gid="34"/>
   <tile gid="34"/>
   <tile gid="34"/>
   <tile gid="34"/>
   <tile gid="34"/>
   <tile gid="34"/>
   <tile gid="30"/>
   <tile gid="30"/>
   <tile gid="30"/>
   <tile gid="30"/>
   <tile gid="30"/>
   <tile gid="30"/>
   <tile gid="30"/>
   <tile gid="30"/>
   <tile gid="30"/>
   <tile gid="30"/>
   <tile gid="30"/>
   <tile gid="30"/>
   <tile gid="30"/>
   <tile gid="30"/>
   <tile gid="30"/>
   <tile gid="40"/>
   <tile gid="30"/>
   <tile gid="30"/>
   <tile gid="30"/>
   <tile gid="30"/>
   <tile gid="30"/>
   <tile gid="30"/>
   <tile gid="30"/>
   <tile gid="30"/>
   <tile gid="30"/>
   <tile gid="30"/>
   <tile gid="30"/>
   <tile gid="30"/>
   <tile gid="30"/>
   <tile gid="30"/>
   <tile gid="30"/>
   <tile gid="30"/>
   <tile gid="30"/>
   <tile gid="30"/>
   <tile gid="30"/>
   <tile gid="30"/>
   <tile gid="30"/>
   <tile gid="30"/>
   <tile gid="34"/>
   <tile gid="34"/>
   <tile gid="34"/>
   <tile gid="34"/>
   <tile gid="34"/>
   <tile gid="34"/>
   <tile gid="30"/>
   <tile gid="30"/>
   <tile gid="30"/>
   <tile gid="30"/>
   <tile gid="30"/>
   <tile gid="30"/>
   <tile gid="30"/>
   <tile gid="30"/>
   <tile gid="30"/>
   <tile gid="30"/>
   <tile gid="30"/>
   <tile gid="30"/>
   <tile gid="30"/>
   <tile gid="30"/>
   <tile gid="30"/>
   <tile gid="30"/>
   <tile gid="30"/>
   <tile gid="30"/>
   <tile gid="30"/>
   <tile gid="30"/>
   <tile gid="30"/>
   <tile gid="30"/>
   <tile gid="30"/>
   <tile gid="30"/>
   <tile gid="30"/>
   <tile gid="30"/>
   <tile gid="30"/>
   <tile gid="30"/>
   <tile gid="30"/>
   <tile gid="30"/>
   <tile gid="30"/>
   <tile gid="30"/>
   <tile gid="30"/>
   <tile gid="30"/>
   <tile gid="30"/>
   <tile gid="30"/>
   <tile gid="30"/>
   <tile gid="30"/>
   <tile gid="30"/>
   <tile gid="30"/>
   <tile gid="30"/>
   <tile gid="30"/>
   <tile gid="30"/>
   <tile gid="30"/>
   <tile gid="30"/>
   <tile gid="34"/>
   <tile gid="34"/>
   <tile gid="34"/>
   <tile gid="34"/>
   <tile gid="34"/>
   <tile gid="34"/>
   <tile gid="34"/>
   <tile gid="34"/>
   <tile gid="34"/>
   <tile gid="34"/>
   <tile gid="34"/>
   <tile gid="30"/>
   <tile gid="30"/>
   <tile gid="30"/>
   <tile gid="30"/>
   <tile gid="30"/>
   <tile gid="30"/>
   <tile gid="30"/>
   <tile gid="30"/>
   <tile gid="30"/>
   <tile gid="30"/>
   <tile gid="30"/>
   <tile gid="30"/>
   <tile gid="30"/>
   <tile gid="30"/>
   <tile gid="30"/>
   <tile gid="40"/>
   <tile gid="30"/>
   <tile gid="30"/>
   <tile gid="30"/>
   <tile gid="30"/>
   <tile gid="30"/>
   <tile gid="30"/>
   <tile gid="30"/>
   <tile gid="30"/>
   <tile gid="30"/>
   <tile gid="30"/>
   <tile gid="30"/>
   <tile gid="30"/>
   <tile gid="30"/>
   <tile gid="30"/>
   <tile gid="30"/>
   <tile gid="30"/>
   <tile gid="30"/>
   <tile gid="30"/>
   <tile gid="30"/>
   <tile gid="30"/>
   <tile gid="30"/>
   <tile gid="30"/>
   <tile gid="34"/>
   <tile gid="34"/>
   <tile gid="34"/>
   <tile gid="34"/>
   <tile gid="34"/>
   <tile gid="34"/>
   <tile gid="30"/>
   <tile gid="30"/>
   <tile gid="30"/>
   <tile gid="30"/>
   <tile gid="30"/>
   <tile gid="30"/>
   <tile gid="30"/>
   <tile gid="30"/>
   <tile gid="30"/>
   <tile gid="30"/>
   <tile gid="30"/>
   <tile gid="30"/>
   <tile gid="30"/>
   <tile gid="30"/>
   <tile gid="30"/>
   <tile gid="30"/>
   <tile gid="30"/>
   <tile gid="30"/>
   <tile gid="30"/>
   <tile gid="30"/>
   <tile gid="30"/>
   <tile gid="30"/>
   <tile gid="30"/>
   <tile gid="30"/>
   <tile gid="30"/>
   <tile gid="30"/>
   <tile gid="30"/>
   <tile gid="30"/>
   <tile gid="30"/>
   <tile gid="30"/>
   <tile gid="30"/>
   <tile gid="30"/>
   <tile gid="30"/>
   <tile gid="30"/>
   <tile gid="30"/>
   <tile gid="30"/>
   <tile gid="30"/>
   <tile gid="30"/>
   <tile gid="30"/>
   <tile gid="30"/>
   <tile gid="30"/>
   <tile gid="30"/>
   <tile gid="30"/>
   <tile gid="30"/>
   <tile gid="30"/>
   <tile gid="34"/>
   <tile gid="34"/>
   <tile gid="34"/>
   <tile gid="34"/>
   <tile gid="34"/>
   <tile gid="34"/>
   <tile gid="34"/>
   <tile gid="34"/>
   <tile gid="34"/>
   <tile gid="34"/>
   <tile gid="34"/>
   <tile gid="30"/>
   <tile gid="30"/>
   <tile gid="30"/>
   <tile gid="34"/>
   <tile gid="34"/>
   <tile gid="34"/>
   <tile gid="34"/>
   <tile gid="34"/>
   <tile gid="34"/>
   <tile gid="34"/>
   <tile gid="34"/>
   <tile gid="34"/>
   <tile gid="34"/>
   <tile gid="34"/>
   <tile gid="34"/>
   <tile gid="34"/>
   <tile gid="34"/>
   <tile gid="30"/>
   <tile gid="30"/>
   <tile gid="30"/>
   <tile gid="30"/>
   <tile gid="30"/>
   <tile gid="30"/>
   <tile gid="30"/>
   <tile gid="30"/>
   <tile gid="30"/>
   <tile gid="30"/>
   <tile gid="30"/>
   <tile gid="30"/>
   <tile gid="30"/>
   <tile gid="30"/>
   <tile gid="30"/>
   <tile gid="30"/>
   <tile gid="30"/>
   <tile gid="30"/>
   <tile gid="30"/>
   <tile gid="30"/>
   <tile gid="30"/>
   <tile gid="34"/>
   <tile gid="34"/>
   <tile gid="34"/>
   <tile gid="34"/>
   <tile gid="34"/>
   <tile gid="34"/>
   <tile gid="30"/>
   <tile gid="30"/>
   <tile gid="30"/>
   <tile gid="30"/>
   <tile gid="30"/>
   <tile gid="30"/>
   <tile gid="30"/>
   <tile gid="30"/>
   <tile gid="30"/>
   <tile gid="30"/>
   <tile gid="30"/>
   <tile gid="30"/>
   <tile gid="30"/>
   <tile gid="30"/>
   <tile gid="30"/>
   <tile gid="30"/>
   <tile gid="30"/>
   <tile gid="30"/>
   <tile gid="30"/>
   <tile gid="30"/>
   <tile gid="30"/>
   <tile gid="30"/>
   <tile gid="30"/>
   <tile gid="30"/>
   <tile gid="30"/>
   <tile gid="30"/>
   <tile gid="30"/>
   <tile gid="30"/>
   <tile gid="30"/>
   <tile gid="30"/>
   <tile gid="30"/>
   <tile gid="30"/>
   <tile gid="30"/>
   <tile gid="30"/>
   <tile gid="30"/>
   <tile gid="30"/>
   <tile gid="30"/>
   <tile gid="30"/>
   <tile gid="30"/>
   <tile gid="30"/>
   <tile gid="30"/>
   <tile gid="30"/>
   <tile gid="30"/>
   <tile gid="30"/>
   <tile gid="30"/>
   <tile gid="34"/>
   <tile gid="34"/>
   <tile gid="34"/>
   <tile gid="34"/>
   <tile gid="34"/>
   <tile gid="34"/>
   <tile gid="34"/>
   <tile gid="34"/>
   <tile gid="34"/>
   <tile gid="34"/>
   <tile gid="34"/>
   <tile gid="30"/>
   <tile gid="30"/>
   <tile gid="30"/>
   <tile gid="34"/>
   <tile gid="34"/>
   <tile gid="34"/>
   <tile gid="34"/>
   <tile gid="34"/>
   <tile gid="34"/>
   <tile gid="34"/>
   <tile gid="34"/>
   <tile gid="34"/>
   <tile gid="34"/>
   <tile gid="34"/>
   <tile gid="34"/>
   <tile gid="34"/>
   <tile gid="34"/>
   <tile gid="30"/>
   <tile gid="30"/>
   <tile gid="30"/>
   <tile gid="30"/>
   <tile gid="30"/>
   <tile gid="30"/>
   <tile gid="30"/>
   <tile gid="30"/>
   <tile gid="30"/>
   <tile gid="30"/>
   <tile gid="30"/>
   <tile gid="30"/>
   <tile gid="30"/>
   <tile gid="30"/>
   <tile gid="30"/>
   <tile gid="30"/>
   <tile gid="30"/>
   <tile gid="30"/>
   <tile gid="30"/>
   <tile gid="30"/>
   <tile gid="30"/>
   <tile gid="34"/>
   <tile gid="34"/>
   <tile gid="34"/>
   <tile gid="34"/>
   <tile gid="34"/>
   <tile gid="34"/>
   <tile gid="30"/>
   <tile gid="30"/>
   <tile gid="30"/>
   <tile gid="30"/>
   <tile gid="30"/>
   <tile gid="30"/>
   <tile gid="30"/>
   <tile gid="30"/>
   <tile gid="30"/>
   <tile gid="30"/>
   <tile gid="30"/>
   <tile gid="30"/>
   <tile gid="30"/>
   <tile gid="30"/>
   <tile gid="30"/>
   <tile gid="30"/>
   <tile gid="30"/>
   <tile gid="30"/>
   <tile gid="30"/>
   <tile gid="30"/>
   <tile gid="30"/>
   <tile gid="30"/>
   <tile gid="30"/>
   <tile gid="30"/>
   <tile gid="30"/>
   <tile gid="30"/>
   <tile gid="30"/>
   <tile gid="30"/>
   <tile gid="30"/>
   <tile gid="30"/>
   <tile gid="30"/>
   <tile gid="30"/>
   <tile gid="30"/>
   <tile gid="30"/>
   <tile gid="30"/>
   <tile gid="30"/>
   <tile gid="30"/>
   <tile gid="30"/>
   <tile gid="30"/>
   <tile gid="30"/>
   <tile gid="30"/>
   <tile gid="30"/>
   <tile gid="30"/>
   <tile gid="30"/>
   <tile gid="30"/>
   <tile gid="34"/>
   <tile gid="34"/>
   <tile gid="34"/>
   <tile gid="34"/>
   <tile gid="34"/>
   <tile gid="34"/>
   <tile gid="34"/>
   <tile gid="34"/>
   <tile gid="34"/>
   <tile gid="34"/>
   <tile gid="34"/>
   <tile gid="30"/>
   <tile gid="30"/>
   <tile gid="30"/>
   <tile gid="34"/>
   <tile gid="34"/>
   <tile gid="34"/>
   <tile gid="34"/>
   <tile gid="34"/>
   <tile gid="34"/>
   <tile gid="34"/>
   <tile gid="34"/>
   <tile gid="34"/>
   <tile gid="34"/>
   <tile gid="34"/>
   <tile gid="34"/>
   <tile gid="34"/>
   <tile gid="34"/>
   <tile gid="30"/>
   <tile gid="30"/>
   <tile gid="30"/>
   <tile gid="30"/>
   <tile gid="30"/>
   <tile gid="30"/>
   <tile gid="30"/>
   <tile gid="30"/>
   <tile gid="30"/>
   <tile gid="30"/>
   <tile gid="30"/>
   <tile gid="30"/>
   <tile gid="30"/>
   <tile gid="30"/>
   <tile gid="30"/>
   <tile gid="30"/>
   <tile gid="30"/>
   <tile gid="30"/>
   <tile gid="30"/>
   <tile gid="30"/>
   <tile gid="30"/>
   <tile gid="34"/>
   <tile gid="34"/>
   <tile gid="34"/>
   <tile gid="34"/>
   <tile gid="34"/>
   <tile gid="34"/>
   <tile gid="30"/>
   <tile gid="30"/>
   <tile gid="30"/>
   <tile gid="30"/>
   <tile gid="30"/>
   <tile gid="30"/>
   <tile gid="30"/>
   <tile gid="30"/>
   <tile gid="30"/>
   <tile gid="30"/>
   <tile gid="30"/>
   <tile gid="30"/>
   <tile gid="30"/>
   <tile gid="30"/>
   <tile gid="30"/>
   <tile gid="30"/>
   <tile gid="30"/>
   <tile gid="30"/>
   <tile gid="30"/>
   <tile gid="30"/>
   <tile gid="30"/>
   <tile gid="30"/>
   <tile gid="30"/>
   <tile gid="30"/>
   <tile gid="30"/>
   <tile gid="30"/>
   <tile gid="30"/>
   <tile gid="30"/>
   <tile gid="30"/>
   <tile gid="30"/>
   <tile gid="30"/>
   <tile gid="30"/>
   <tile gid="30"/>
   <tile gid="30"/>
   <tile gid="30"/>
   <tile gid="30"/>
   <tile gid="30"/>
   <tile gid="30"/>
   <tile gid="30"/>
   <tile gid="30"/>
   <tile gid="30"/>
   <tile gid="30"/>
   <tile gid="30"/>
   <tile gid="30"/>
   <tile gid="30"/>
   <tile gid="34"/>
   <tile gid="34"/>
   <tile gid="34"/>
   <tile gid="34"/>
   <tile gid="34"/>
   <tile gid="34"/>
   <tile gid="34"/>
   <tile gid="34"/>
   <tile gid="34"/>
   <tile gid="34"/>
   <tile gid="34"/>
   <tile gid="30"/>
   <tile gid="30"/>
   <tile gid="30"/>
   <tile gid="34"/>
   <tile gid="34"/>
   <tile gid="34"/>
   <tile gid="34"/>
   <tile gid="34"/>
   <tile gid="34"/>
   <tile gid="34"/>
   <tile gid="34"/>
   <tile gid="34"/>
   <tile gid="34"/>
   <tile gid="34"/>
   <tile gid="34"/>
   <tile gid="34"/>
   <tile gid="34"/>
   <tile gid="30"/>
   <tile gid="30"/>
   <tile gid="30"/>
   <tile gid="30"/>
   <tile gid="30"/>
   <tile gid="30"/>
   <tile gid="30"/>
   <tile gid="30"/>
   <tile gid="30"/>
   <tile gid="30"/>
   <tile gid="30"/>
   <tile gid="30"/>
   <tile gid="30"/>
   <tile gid="30"/>
   <tile gid="30"/>
   <tile gid="30"/>
   <tile gid="30"/>
   <tile gid="30"/>
   <tile gid="30"/>
   <tile gid="30"/>
   <tile gid="30"/>
   <tile gid="34"/>
   <tile gid="34"/>
   <tile gid="34"/>
   <tile gid="34"/>
   <tile gid="34"/>
   <tile gid="34"/>
   <tile gid="30"/>
   <tile gid="30"/>
   <tile gid="30"/>
   <tile gid="30"/>
   <tile gid="30"/>
   <tile gid="30"/>
   <tile gid="30"/>
   <tile gid="30"/>
   <tile gid="30"/>
   <tile gid="30"/>
   <tile gid="30"/>
   <tile gid="30"/>
   <tile gid="30"/>
   <tile gid="30"/>
   <tile gid="30"/>
   <tile gid="30"/>
   <tile gid="30"/>
   <tile gid="30"/>
   <tile gid="30"/>
   <tile gid="30"/>
   <tile gid="30"/>
   <tile gid="30"/>
   <tile gid="30"/>
   <tile gid="30"/>
   <tile gid="30"/>
   <tile gid="30"/>
   <tile gid="30"/>
   <tile gid="30"/>
   <tile gid="30"/>
   <tile gid="30"/>
   <tile gid="30"/>
   <tile gid="30"/>
   <tile gid="30"/>
   <tile gid="30"/>
   <tile gid="30"/>
   <tile gid="30"/>
   <tile gid="30"/>
   <tile gid="30"/>
   <tile gid="30"/>
   <tile gid="30"/>
   <tile gid="30"/>
   <tile gid="30"/>
   <tile gid="30"/>
   <tile gid="30"/>
   <tile gid="30"/>
   <tile gid="34"/>
   <tile gid="34"/>
   <tile gid="34"/>
   <tile gid="34"/>
   <tile gid="34"/>
   <tile gid="34"/>
   <tile gid="34"/>
   <tile gid="34"/>
   <tile gid="34"/>
   <tile gid="34"/>
   <tile gid="34"/>
   <tile gid="30"/>
   <tile gid="30"/>
   <tile gid="30"/>
   <tile gid="34"/>
   <tile gid="34"/>
   <tile gid="34"/>
   <tile gid="34"/>
   <tile gid="34"/>
   <tile gid="34"/>
   <tile gid="34"/>
   <tile gid="34"/>
   <tile gid="34"/>
   <tile gid="34"/>
   <tile gid="34"/>
   <tile gid="34"/>
   <tile gid="34"/>
   <tile gid="34"/>
   <tile gid="30"/>
   <tile gid="30"/>
   <tile gid="30"/>
   <tile gid="30"/>
   <tile gid="30"/>
   <tile gid="30"/>
   <tile gid="30"/>
   <tile gid="30"/>
   <tile gid="30"/>
   <tile gid="30"/>
   <tile gid="30"/>
   <tile gid="30"/>
   <tile gid="30"/>
   <tile gid="30"/>
   <tile gid="30"/>
   <tile gid="30"/>
   <tile gid="30"/>
   <tile gid="30"/>
   <tile gid="30"/>
   <tile gid="30"/>
   <tile gid="30"/>
   <tile gid="34"/>
   <tile gid="34"/>
   <tile gid="34"/>
   <tile gid="34"/>
   <tile gid="34"/>
   <tile gid="34"/>
   <tile gid="30"/>
   <tile gid="30"/>
   <tile gid="30"/>
   <tile gid="30"/>
   <tile gid="30"/>
   <tile gid="30"/>
   <tile gid="30"/>
   <tile gid="30"/>
   <tile gid="30"/>
   <tile gid="30"/>
   <tile gid="30"/>
   <tile gid="30"/>
   <tile gid="30"/>
   <tile gid="30"/>
   <tile gid="30"/>
   <tile gid="30"/>
   <tile gid="30"/>
   <tile gid="30"/>
   <tile gid="30"/>
   <tile gid="30"/>
   <tile gid="30"/>
   <tile gid="30"/>
   <tile gid="30"/>
   <tile gid="30"/>
   <tile gid="30"/>
   <tile gid="30"/>
   <tile gid="30"/>
   <tile gid="30"/>
   <tile gid="30"/>
   <tile gid="30"/>
   <tile gid="30"/>
   <tile gid="30"/>
   <tile gid="30"/>
   <tile gid="30"/>
   <tile gid="30"/>
   <tile gid="30"/>
   <tile gid="30"/>
   <tile gid="30"/>
   <tile gid="30"/>
   <tile gid="30"/>
   <tile gid="30"/>
   <tile gid="30"/>
   <tile gid="30"/>
   <tile gid="30"/>
   <tile gid="30"/>
   <tile gid="34"/>
   <tile gid="34"/>
   <tile gid="34"/>
   <tile gid="34"/>
   <tile gid="34"/>
   <tile gid="34"/>
   <tile gid="34"/>
   <tile gid="34"/>
   <tile gid="34"/>
   <tile gid="34"/>
   <tile gid="34"/>
   <tile gid="30"/>
   <tile gid="30"/>
   <tile gid="30"/>
   <tile gid="34"/>
   <tile gid="34"/>
   <tile gid="34"/>
   <tile gid="34"/>
   <tile gid="34"/>
   <tile gid="34"/>
   <tile gid="34"/>
   <tile gid="34"/>
   <tile gid="34"/>
   <tile gid="34"/>
   <tile gid="34"/>
   <tile gid="34"/>
   <tile gid="34"/>
   <tile gid="34"/>
   <tile gid="30"/>
   <tile gid="30"/>
   <tile gid="30"/>
   <tile gid="30"/>
   <tile gid="30"/>
   <tile gid="30"/>
   <tile gid="30"/>
   <tile gid="30"/>
   <tile gid="30"/>
   <tile gid="30"/>
   <tile gid="30"/>
   <tile gid="30"/>
   <tile gid="30"/>
   <tile gid="30"/>
   <tile gid="30"/>
   <tile gid="30"/>
   <tile gid="30"/>
   <tile gid="30"/>
   <tile gid="30"/>
   <tile gid="30"/>
   <tile gid="30"/>
   <tile gid="34"/>
   <tile gid="34"/>
   <tile gid="34"/>
   <tile gid="34"/>
   <tile gid="34"/>
   <tile gid="34"/>
   <tile gid="30"/>
   <tile gid="30"/>
   <tile gid="30"/>
   <tile gid="30"/>
   <tile gid="30"/>
   <tile gid="30"/>
   <tile gid="30"/>
   <tile gid="30"/>
   <tile gid="30"/>
   <tile gid="30"/>
   <tile gid="30"/>
   <tile gid="30"/>
   <tile gid="30"/>
   <tile gid="30"/>
   <tile gid="30"/>
   <tile gid="30"/>
   <tile gid="30"/>
   <tile gid="30"/>
   <tile gid="30"/>
   <tile gid="30"/>
   <tile gid="30"/>
   <tile gid="30"/>
   <tile gid="30"/>
   <tile gid="30"/>
   <tile gid="30"/>
   <tile gid="30"/>
   <tile gid="30"/>
   <tile gid="30"/>
   <tile gid="30"/>
   <tile gid="30"/>
   <tile gid="30"/>
   <tile gid="30"/>
   <tile gid="30"/>
   <tile gid="30"/>
   <tile gid="30"/>
   <tile gid="30"/>
   <tile gid="30"/>
   <tile gid="30"/>
   <tile gid="30"/>
   <tile gid="30"/>
   <tile gid="30"/>
   <tile gid="30"/>
   <tile gid="30"/>
   <tile gid="30"/>
   <tile gid="30"/>
   <tile gid="34"/>
   <tile gid="34"/>
   <tile gid="34"/>
   <tile gid="34"/>
   <tile gid="34"/>
   <tile gid="34"/>
   <tile gid="34"/>
   <tile gid="34"/>
   <tile gid="34"/>
   <tile gid="34"/>
   <tile gid="34"/>
   <tile gid="30"/>
   <tile gid="30"/>
   <tile gid="30"/>
   <tile gid="34"/>
   <tile gid="34"/>
   <tile gid="34"/>
   <tile gid="34"/>
   <tile gid="34"/>
   <tile gid="34"/>
   <tile gid="34"/>
   <tile gid="34"/>
   <tile gid="34"/>
   <tile gid="34"/>
   <tile gid="34"/>
   <tile gid="34"/>
   <tile gid="34"/>
   <tile gid="34"/>
   <tile gid="30"/>
   <tile gid="30"/>
   <tile gid="30"/>
   <tile gid="30"/>
   <tile gid="30"/>
   <tile gid="30"/>
   <tile gid="30"/>
   <tile gid="30"/>
   <tile gid="30"/>
   <tile gid="30"/>
   <tile gid="30"/>
   <tile gid="30"/>
   <tile gid="30"/>
   <tile gid="30"/>
   <tile gid="30"/>
   <tile gid="30"/>
   <tile gid="30"/>
   <tile gid="30"/>
   <tile gid="30"/>
   <tile gid="30"/>
   <tile gid="30"/>
   <tile gid="34"/>
   <tile gid="34"/>
   <tile gid="34"/>
   <tile gid="34"/>
   <tile gid="34"/>
   <tile gid="34"/>
   <tile gid="30"/>
   <tile gid="30"/>
   <tile gid="30"/>
   <tile gid="30"/>
   <tile gid="30"/>
   <tile gid="30"/>
   <tile gid="30"/>
   <tile gid="30"/>
   <tile gid="30"/>
   <tile gid="30"/>
   <tile gid="30"/>
   <tile gid="30"/>
   <tile gid="30"/>
   <tile gid="30"/>
   <tile gid="30"/>
   <tile gid="30"/>
   <tile gid="30"/>
   <tile gid="30"/>
   <tile gid="30"/>
   <tile gid="30"/>
   <tile gid="30"/>
   <tile gid="30"/>
   <tile gid="30"/>
   <tile gid="30"/>
   <tile gid="30"/>
   <tile gid="30"/>
   <tile gid="30"/>
   <tile gid="30"/>
   <tile gid="30"/>
   <tile gid="30"/>
   <tile gid="30"/>
   <tile gid="30"/>
   <tile gid="30"/>
   <tile gid="30"/>
   <tile gid="30"/>
   <tile gid="30"/>
   <tile gid="30"/>
   <tile gid="30"/>
   <tile gid="30"/>
   <tile gid="30"/>
   <tile gid="30"/>
   <tile gid="30"/>
   <tile gid="30"/>
   <tile gid="30"/>
   <tile gid="30"/>
   <tile gid="34"/>
   <tile gid="34"/>
   <tile gid="34"/>
   <tile gid="34"/>
   <tile gid="34"/>
   <tile gid="34"/>
   <tile gid="34"/>
   <tile gid="34"/>
   <tile gid="34"/>
   <tile gid="34"/>
   <tile gid="34"/>
   <tile gid="30"/>
   <tile gid="30"/>
   <tile gid="30"/>
   <tile gid="34"/>
   <tile gid="34"/>
   <tile gid="34"/>
   <tile gid="34"/>
   <tile gid="34"/>
   <tile gid="34"/>
   <tile gid="34"/>
   <tile gid="34"/>
   <tile gid="34"/>
   <tile gid="34"/>
   <tile gid="34"/>
   <tile gid="34"/>
   <tile gid="34"/>
   <tile gid="34"/>
   <tile gid="30"/>
   <tile gid="30"/>
   <tile gid="30"/>
   <tile gid="30"/>
   <tile gid="30"/>
   <tile gid="30"/>
   <tile gid="30"/>
   <tile gid="30"/>
   <tile gid="30"/>
   <tile gid="30"/>
   <tile gid="30"/>
   <tile gid="30"/>
   <tile gid="30"/>
   <tile gid="30"/>
   <tile gid="30"/>
   <tile gid="30"/>
   <tile gid="30"/>
   <tile gid="30"/>
   <tile gid="30"/>
   <tile gid="30"/>
   <tile gid="30"/>
   <tile gid="34"/>
   <tile gid="34"/>
   <tile gid="34"/>
   <tile gid="34"/>
   <tile gid="34"/>
   <tile gid="34"/>
   <tile gid="34"/>
   <tile gid="34"/>
   <tile gid="34"/>
   <tile gid="34"/>
   <tile gid="34"/>
   <tile gid="34"/>
   <tile gid="34"/>
   <tile gid="34"/>
   <tile gid="34"/>
   <tile gid="34"/>
   <tile gid="34"/>
   <tile gid="34"/>
   <tile gid="34"/>
   <tile gid="34"/>
   <tile gid="34"/>
   <tile gid="34"/>
   <tile gid="34"/>
   <tile gid="34"/>
   <tile gid="34"/>
   <tile gid="34"/>
   <tile gid="34"/>
   <tile gid="34"/>
   <tile gid="34"/>
   <tile gid="34"/>
   <tile gid="34"/>
   <tile gid="34"/>
   <tile gid="34"/>
   <tile gid="34"/>
   <tile gid="34"/>
   <tile gid="34"/>
   <tile gid="34"/>
   <tile gid="34"/>
   <tile gid="34"/>
   <tile gid="34"/>
   <tile gid="34"/>
   <tile gid="34"/>
   <tile gid="34"/>
   <tile gid="34"/>
   <tile gid="34"/>
   <tile gid="34"/>
   <tile gid="34"/>
   <tile gid="34"/>
   <tile gid="34"/>
   <tile gid="34"/>
   <tile gid="34"/>
   <tile gid="34"/>
   <tile gid="34"/>
   <tile gid="34"/>
   <tile gid="34"/>
   <tile gid="34"/>
   <tile gid="34"/>
   <tile gid="34"/>
   <tile gid="34"/>
   <tile gid="34"/>
   <tile gid="34"/>
   <tile gid="34"/>
   <tile gid="30"/>
   <tile gid="30"/>
   <tile gid="30"/>
   <tile gid="34"/>
   <tile gid="34"/>
   <tile gid="34"/>
   <tile gid="34"/>
   <tile gid="34"/>
   <tile gid="34"/>
   <tile gid="34"/>
   <tile gid="34"/>
   <tile gid="34"/>
   <tile gid="34"/>
   <tile gid="34"/>
   <tile gid="34"/>
   <tile gid="34"/>
   <tile gid="34"/>
   <tile gid="34"/>
   <tile gid="34"/>
   <tile gid="34"/>
   <tile gid="34"/>
   <tile gid="34"/>
   <tile gid="34"/>
   <tile gid="34"/>
   <tile gid="34"/>
   <tile gid="34"/>
   <tile gid="34"/>
   <tile gid="34"/>
   <tile gid="34"/>
   <tile gid="34"/>
   <tile gid="34"/>
   <tile gid="34"/>
   <tile gid="34"/>
   <tile gid="34"/>
   <tile gid="34"/>
   <tile gid="34"/>
   <tile gid="34"/>
   <tile gid="34"/>
   <tile gid="34"/>
   <tile gid="34"/>
   <tile gid="34"/>
   <tile gid="34"/>
   <tile gid="34"/>
   <tile gid="34"/>
   <tile gid="34"/>
   <tile gid="34"/>
   <tile gid="34"/>
   <tile gid="34"/>
   <tile gid="34"/>
   <tile gid="34"/>
   <tile gid="34"/>
   <tile gid="34"/>
   <tile gid="34"/>
   <tile gid="34"/>
   <tile gid="34"/>
   <tile gid="34"/>
   <tile gid="34"/>
   <tile gid="34"/>
   <tile gid="34"/>
   <tile gid="34"/>
   <tile gid="34"/>
   <tile gid="34"/>
   <tile gid="34"/>
   <tile gid="34"/>
   <tile gid="34"/>
   <tile gid="34"/>
   <tile gid="34"/>
   <tile gid="34"/>
   <tile gid="34"/>
   <tile gid="34"/>
   <tile gid="34"/>
   <tile gid="34"/>
   <tile gid="34"/>
   <tile gid="34"/>
   <tile gid="34"/>
   <tile gid="34"/>
   <tile gid="34"/>
   <tile gid="34"/>
   <tile gid="34"/>
   <tile gid="34"/>
   <tile gid="34"/>
   <tile gid="34"/>
   <tile gid="34"/>
   <tile gid="34"/>
   <tile gid="34"/>
   <tile gid="34"/>
   <tile gid="34"/>
   <tile gid="34"/>
   <tile gid="34"/>
   <tile gid="34"/>
   <tile gid="34"/>
   <tile gid="34"/>
   <tile gid="34"/>
   <tile gid="34"/>
   <tile gid="34"/>
   <tile gid="34"/>
   <tile gid="34"/>
   <tile gid="34"/>
   <tile gid="34"/>
   <tile gid="34"/>
   <tile gid="30"/>
   <tile gid="30"/>
   <tile gid="30"/>
   <tile gid="34"/>
   <tile gid="34"/>
   <tile gid="34"/>
   <tile gid="34"/>
   <tile gid="34"/>
   <tile gid="34"/>
   <tile gid="34"/>
   <tile gid="34"/>
   <tile gid="34"/>
   <tile gid="34"/>
   <tile gid="34"/>
   <tile gid="34"/>
   <tile gid="34"/>
   <tile gid="34"/>
   <tile gid="34"/>
   <tile gid="34"/>
   <tile gid="34"/>
   <tile gid="34"/>
   <tile gid="34"/>
   <tile gid="34"/>
   <tile gid="34"/>
   <tile gid="34"/>
   <tile gid="34"/>
   <tile gid="34"/>
   <tile gid="34"/>
   <tile gid="34"/>
   <tile gid="34"/>
   <tile gid="34"/>
   <tile gid="34"/>
   <tile gid="34"/>
   <tile gid="34"/>
   <tile gid="34"/>
   <tile gid="34"/>
   <tile gid="34"/>
   <tile gid="34"/>
   <tile gid="34"/>
   <tile gid="34"/>
   <tile gid="34"/>
   <tile gid="34"/>
   <tile gid="34"/>
   <tile gid="34"/>
   <tile gid="34"/>
   <tile gid="34"/>
   <tile gid="34"/>
   <tile gid="34"/>
   <tile gid="34"/>
   <tile gid="34"/>
   <tile gid="34"/>
   <tile gid="34"/>
   <tile gid="34"/>
   <tile gid="34"/>
   <tile gid="34"/>
   <tile gid="34"/>
   <tile gid="34"/>
   <tile gid="34"/>
   <tile gid="34"/>
   <tile gid="34"/>
   <tile gid="34"/>
   <tile gid="34"/>
   <tile gid="34"/>
   <tile gid="34"/>
   <tile gid="34"/>
   <tile gid="34"/>
   <tile gid="34"/>
   <tile gid="34"/>
   <tile gid="34"/>
   <tile gid="34"/>
   <tile gid="34"/>
   <tile gid="34"/>
   <tile gid="34"/>
   <tile gid="34"/>
   <tile gid="34"/>
   <tile gid="34"/>
   <tile gid="34"/>
   <tile gid="34"/>
   <tile gid="34"/>
   <tile gid="34"/>
   <tile gid="34"/>
   <tile gid="34"/>
   <tile gid="34"/>
   <tile gid="34"/>
   <tile gid="34"/>
   <tile gid="34"/>
   <tile gid="34"/>
   <tile gid="34"/>
   <tile gid="34"/>
   <tile gid="34"/>
   <tile gid="34"/>
   <tile gid="34"/>
   <tile gid="34"/>
   <tile gid="34"/>
   <tile gid="34"/>
   <tile gid="34"/>
   <tile gid="34"/>
   <tile gid="34"/>
   <tile gid="34"/>
   <tile gid="34"/>
   <tile gid="30"/>
   <tile gid="30"/>
   <tile gid="30"/>
   <tile gid="34"/>
   <tile gid="34"/>
   <tile gid="34"/>
   <tile gid="34"/>
   <tile gid="34"/>
   <tile gid="34"/>
   <tile gid="34"/>
   <tile gid="34"/>
   <tile gid="34"/>
   <tile gid="34"/>
   <tile gid="34"/>
   <tile gid="34"/>
   <tile gid="34"/>
   <tile gid="34"/>
   <tile gid="34"/>
   <tile gid="34"/>
   <tile gid="34"/>
   <tile gid="34"/>
   <tile gid="34"/>
   <tile gid="34"/>
   <tile gid="34"/>
   <tile gid="34"/>
   <tile gid="34"/>
   <tile gid="34"/>
   <tile gid="34"/>
   <tile gid="34"/>
   <tile gid="34"/>
   <tile gid="34"/>
   <tile gid="34"/>
   <tile gid="34"/>
   <tile gid="34"/>
   <tile gid="34"/>
   <tile gid="34"/>
   <tile gid="34"/>
   <tile gid="34"/>
   <tile gid="34"/>
   <tile gid="34"/>
   <tile gid="34"/>
   <tile gid="34"/>
   <tile gid="34"/>
   <tile gid="34"/>
   <tile gid="34"/>
   <tile gid="34"/>
   <tile gid="34"/>
   <tile gid="34"/>
   <tile gid="34"/>
   <tile gid="34"/>
   <tile gid="34"/>
   <tile gid="34"/>
   <tile gid="34"/>
   <tile gid="34"/>
   <tile gid="34"/>
   <tile gid="34"/>
   <tile gid="34"/>
   <tile gid="34"/>
   <tile gid="34"/>
   <tile gid="34"/>
   <tile gid="34"/>
   <tile gid="34"/>
   <tile gid="34"/>
   <tile gid="34"/>
   <tile gid="34"/>
   <tile gid="34"/>
   <tile gid="34"/>
   <tile gid="34"/>
   <tile gid="34"/>
   <tile gid="34"/>
   <tile gid="34"/>
   <tile gid="34"/>
   <tile gid="34"/>
   <tile gid="34"/>
   <tile gid="34"/>
   <tile gid="34"/>
   <tile gid="34"/>
   <tile gid="34"/>
   <tile gid="34"/>
   <tile gid="34"/>
   <tile gid="34"/>
   <tile gid="34"/>
   <tile gid="34"/>
   <tile gid="34"/>
   <tile gid="34"/>
   <tile gid="34"/>
   <tile gid="34"/>
   <tile gid="34"/>
   <tile gid="34"/>
   <tile gid="34"/>
   <tile gid="34"/>
   <tile gid="34"/>
   <tile gid="34"/>
   <tile gid="34"/>
   <tile gid="34"/>
   <tile gid="34"/>
   <tile gid="34"/>
   <tile gid="34"/>
   <tile gid="34"/>
   <tile gid="34"/>
   <tile gid="30"/>
   <tile gid="30"/>
   <tile gid="30"/>
   <tile gid="34"/>
   <tile gid="34"/>
   <tile gid="34"/>
   <tile gid="34"/>
   <tile gid="34"/>
   <tile gid="34"/>
   <tile gid="34"/>
   <tile gid="34"/>
   <tile gid="34"/>
   <tile gid="34"/>
   <tile gid="34"/>
   <tile gid="34"/>
   <tile gid="34"/>
   <tile gid="34"/>
   <tile gid="34"/>
   <tile gid="34"/>
   <tile gid="34"/>
   <tile gid="34"/>
   <tile gid="34"/>
   <tile gid="34"/>
   <tile gid="34"/>
   <tile gid="34"/>
   <tile gid="34"/>
   <tile gid="34"/>
   <tile gid="34"/>
   <tile gid="34"/>
   <tile gid="34"/>
   <tile gid="34"/>
   <tile gid="34"/>
   <tile gid="34"/>
   <tile gid="34"/>
   <tile gid="34"/>
   <tile gid="34"/>
   <tile gid="34"/>
   <tile gid="34"/>
   <tile gid="34"/>
   <tile gid="34"/>
   <tile gid="34"/>
   <tile gid="34"/>
   <tile gid="34"/>
   <tile gid="34"/>
   <tile gid="34"/>
   <tile gid="34"/>
   <tile gid="34"/>
   <tile gid="34"/>
   <tile gid="34"/>
   <tile gid="34"/>
   <tile gid="34"/>
   <tile gid="34"/>
   <tile gid="34"/>
   <tile gid="34"/>
   <tile gid="34"/>
   <tile gid="34"/>
   <tile gid="34"/>
   <tile gid="34"/>
   <tile gid="34"/>
   <tile gid="34"/>
   <tile gid="34"/>
   <tile gid="34"/>
   <tile gid="34"/>
   <tile gid="34"/>
   <tile gid="34"/>
   <tile gid="34"/>
   <tile gid="34"/>
   <tile gid="34"/>
   <tile gid="34"/>
   <tile gid="34"/>
   <tile gid="34"/>
   <tile gid="34"/>
   <tile gid="34"/>
   <tile gid="34"/>
   <tile gid="34"/>
   <tile gid="34"/>
   <tile gid="34"/>
   <tile gid="34"/>
   <tile gid="34"/>
   <tile gid="34"/>
   <tile gid="34"/>
   <tile gid="34"/>
   <tile gid="34"/>
   <tile gid="34"/>
   <tile gid="34"/>
   <tile gid="34"/>
   <tile gid="34"/>
   <tile gid="34"/>
   <tile gid="34"/>
   <tile gid="34"/>
   <tile gid="34"/>
   <tile gid="34"/>
   <tile gid="34"/>
   <tile gid="34"/>
   <tile gid="34"/>
   <tile gid="34"/>
   <tile gid="34"/>
   <tile gid="34"/>
   <tile gid="34"/>
   <tile gid="34"/>
   <tile gid="30"/>
   <tile gid="30"/>
   <tile gid="30"/>
   <tile gid="34"/>
   <tile gid="34"/>
   <tile gid="34"/>
   <tile gid="34"/>
   <tile gid="34"/>
   <tile gid="34"/>
   <tile gid="34"/>
   <tile gid="34"/>
   <tile gid="34"/>
   <tile gid="34"/>
   <tile gid="34"/>
   <tile gid="34"/>
   <tile gid="34"/>
   <tile gid="34"/>
   <tile gid="34"/>
   <tile gid="34"/>
   <tile gid="34"/>
   <tile gid="34"/>
   <tile gid="34"/>
   <tile gid="34"/>
   <tile gid="34"/>
   <tile gid="34"/>
   <tile gid="34"/>
   <tile gid="34"/>
   <tile gid="34"/>
   <tile gid="34"/>
   <tile gid="34"/>
   <tile gid="34"/>
   <tile gid="34"/>
   <tile gid="34"/>
   <tile gid="34"/>
   <tile gid="34"/>
   <tile gid="34"/>
   <tile gid="34"/>
   <tile gid="34"/>
   <tile gid="34"/>
   <tile gid="34"/>
   <tile gid="34"/>
   <tile gid="34"/>
   <tile gid="34"/>
   <tile gid="34"/>
   <tile gid="34"/>
   <tile gid="34"/>
   <tile gid="34"/>
   <tile gid="34"/>
   <tile gid="34"/>
   <tile gid="34"/>
   <tile gid="34"/>
   <tile gid="34"/>
   <tile gid="34"/>
   <tile gid="34"/>
   <tile gid="34"/>
   <tile gid="34"/>
   <tile gid="34"/>
   <tile gid="34"/>
   <tile gid="34"/>
   <tile gid="34"/>
   <tile gid="34"/>
   <tile gid="34"/>
   <tile gid="34"/>
   <tile gid="34"/>
   <tile gid="34"/>
   <tile gid="34"/>
   <tile gid="34"/>
   <tile gid="34"/>
   <tile gid="34"/>
   <tile gid="34"/>
   <tile gid="34"/>
   <tile gid="34"/>
   <tile gid="34"/>
   <tile gid="34"/>
   <tile gid="34"/>
   <tile gid="34"/>
   <tile gid="34"/>
   <tile gid="34"/>
   <tile gid="34"/>
   <tile gid="34"/>
   <tile gid="34"/>
   <tile gid="34"/>
   <tile gid="34"/>
   <tile gid="34"/>
   <tile gid="34"/>
   <tile gid="34"/>
   <tile gid="34"/>
   <tile gid="34"/>
   <tile gid="34"/>
   <tile gid="34"/>
   <tile gid="34"/>
   <tile gid="34"/>
   <tile gid="34"/>
   <tile gid="34"/>
   <tile gid="34"/>
   <tile gid="34"/>
   <tile gid="34"/>
   <tile gid="34"/>
   <tile gid="34"/>
   <tile gid="34"/>
   <tile gid="30"/>
   <tile gid="30"/>
   <tile gid="30"/>
   <tile gid="34"/>
   <tile gid="34"/>
   <tile gid="34"/>
   <tile gid="34"/>
   <tile gid="34"/>
   <tile gid="34"/>
   <tile gid="34"/>
   <tile gid="34"/>
   <tile gid="34"/>
   <tile gid="34"/>
   <tile gid="34"/>
   <tile gid="34"/>
   <tile gid="34"/>
   <tile gid="34"/>
   <tile gid="34"/>
   <tile gid="34"/>
   <tile gid="34"/>
   <tile gid="34"/>
   <tile gid="34"/>
   <tile gid="34"/>
   <tile gid="34"/>
   <tile gid="34"/>
   <tile gid="34"/>
   <tile gid="34"/>
   <tile gid="34"/>
   <tile gid="34"/>
   <tile gid="34"/>
   <tile gid="34"/>
   <tile gid="34"/>
   <tile gid="34"/>
   <tile gid="34"/>
   <tile gid="34"/>
   <tile gid="34"/>
   <tile gid="34"/>
   <tile gid="34"/>
   <tile gid="34"/>
   <tile gid="34"/>
   <tile gid="34"/>
   <tile gid="34"/>
   <tile gid="34"/>
   <tile gid="34"/>
   <tile gid="34"/>
   <tile gid="34"/>
   <tile gid="34"/>
   <tile gid="34"/>
   <tile gid="34"/>
   <tile gid="34"/>
   <tile gid="34"/>
   <tile gid="34"/>
   <tile gid="34"/>
   <tile gid="34"/>
   <tile gid="34"/>
   <tile gid="34"/>
   <tile gid="34"/>
   <tile gid="34"/>
   <tile gid="34"/>
   <tile gid="34"/>
   <tile gid="34"/>
   <tile gid="34"/>
   <tile gid="34"/>
   <tile gid="34"/>
   <tile gid="34"/>
   <tile gid="34"/>
   <tile gid="34"/>
   <tile gid="34"/>
   <tile gid="30"/>
   <tile gid="30"/>
   <tile gid="30"/>
   <tile gid="30"/>
   <tile gid="30"/>
   <tile gid="30"/>
   <tile gid="30"/>
   <tile gid="30"/>
   <tile gid="30"/>
   <tile gid="30"/>
   <tile gid="30"/>
   <tile gid="30"/>
   <tile gid="30"/>
   <tile gid="30"/>
   <tile gid="30"/>
   <tile gid="30"/>
   <tile gid="30"/>
   <tile gid="30"/>
   <tile gid="30"/>
   <tile gid="30"/>
   <tile gid="30"/>
   <tile gid="30"/>
   <tile gid="30"/>
   <tile gid="30"/>
   <tile gid="30"/>
   <tile gid="30"/>
   <tile gid="30"/>
   <tile gid="30"/>
   <tile gid="30"/>
   <tile gid="30"/>
   <tile gid="30"/>
   <tile gid="30"/>
   <tile gid="30"/>
   <tile gid="30"/>
   <tile gid="30"/>
   <tile gid="30"/>
   <tile gid="30"/>
   <tile gid="30"/>
   <tile gid="30"/>
   <tile gid="30"/>
   <tile gid="30"/>
   <tile gid="30"/>
   <tile gid="30"/>
   <tile gid="30"/>
   <tile gid="30"/>
   <tile gid="30"/>
   <tile gid="30"/>
   <tile gid="30"/>
   <tile gid="30"/>
   <tile gid="30"/>
   <tile gid="30"/>
   <tile gid="30"/>
   <tile gid="30"/>
   <tile gid="30"/>
   <tile gid="30"/>
   <tile gid="30"/>
   <tile gid="30"/>
   <tile gid="30"/>
   <tile gid="30"/>
   <tile gid="30"/>
   <tile gid="30"/>
   <tile gid="30"/>
   <tile gid="30"/>
   <tile gid="30"/>
   <tile gid="30"/>
   <tile gid="30"/>
   <tile gid="30"/>
   <tile gid="30"/>
   <tile gid="30"/>
   <tile gid="30"/>
   <tile gid="34"/>
   <tile gid="34"/>
   <tile gid="34"/>
   <tile gid="34"/>
   <tile gid="34"/>
   <tile gid="34"/>
   <tile gid="34"/>
   <tile gid="34"/>
   <tile gid="34"/>
   <tile gid="34"/>
   <tile gid="34"/>
   <tile gid="34"/>
   <tile gid="34"/>
   <tile gid="34"/>
   <tile gid="34"/>
   <tile gid="34"/>
   <tile gid="34"/>
   <tile gid="34"/>
   <tile gid="34"/>
   <tile gid="34"/>
   <tile gid="34"/>
   <tile gid="34"/>
   <tile gid="34"/>
   <tile gid="34"/>
   <tile gid="34"/>
   <tile gid="34"/>
   <tile gid="34"/>
   <tile gid="34"/>
   <tile gid="34"/>
   <tile gid="34"/>
   <tile gid="30"/>
   <tile gid="30"/>
   <tile gid="30"/>
   <tile gid="30"/>
   <tile gid="30"/>
   <tile gid="30"/>
   <tile gid="30"/>
   <tile gid="30"/>
   <tile gid="30"/>
   <tile gid="30"/>
   <tile gid="30"/>
   <tile gid="30"/>
   <tile gid="30"/>
   <tile gid="30"/>
   <tile gid="30"/>
   <tile gid="30"/>
   <tile gid="30"/>
   <tile gid="30"/>
   <tile gid="30"/>
   <tile gid="30"/>
   <tile gid="30"/>
   <tile gid="30"/>
   <tile gid="30"/>
   <tile gid="30"/>
   <tile gid="30"/>
   <tile gid="30"/>
   <tile gid="30"/>
   <tile gid="30"/>
   <tile gid="30"/>
   <tile gid="30"/>
   <tile gid="30"/>
   <tile gid="30"/>
   <tile gid="30"/>
   <tile gid="30"/>
   <tile gid="30"/>
   <tile gid="30"/>
   <tile gid="30"/>
   <tile gid="30"/>
   <tile gid="30"/>
   <tile gid="30"/>
   <tile gid="30"/>
   <tile gid="30"/>
   <tile gid="30"/>
   <tile gid="30"/>
   <tile gid="30"/>
   <tile gid="30"/>
   <tile gid="30"/>
   <tile gid="30"/>
   <tile gid="30"/>
   <tile gid="30"/>
   <tile gid="30"/>
   <tile gid="30"/>
   <tile gid="30"/>
   <tile gid="30"/>
   <tile gid="30"/>
   <tile gid="30"/>
   <tile gid="30"/>
   <tile gid="30"/>
   <tile gid="30"/>
   <tile gid="30"/>
   <tile gid="30"/>
   <tile gid="30"/>
   <tile gid="30"/>
   <tile gid="30"/>
   <tile gid="30"/>
   <tile gid="30"/>
   <tile gid="30"/>
   <tile gid="30"/>
   <tile gid="30"/>
   <tile gid="30"/>
   <tile gid="34"/>
   <tile gid="34"/>
   <tile gid="34"/>
   <tile gid="34"/>
   <tile gid="34"/>
   <tile gid="34"/>
   <tile gid="34"/>
   <tile gid="34"/>
   <tile gid="34"/>
   <tile gid="34"/>
   <tile gid="34"/>
   <tile gid="34"/>
   <tile gid="34"/>
   <tile gid="34"/>
   <tile gid="34"/>
   <tile gid="34"/>
   <tile gid="34"/>
   <tile gid="34"/>
   <tile gid="34"/>
   <tile gid="34"/>
   <tile gid="34"/>
   <tile gid="34"/>
   <tile gid="34"/>
   <tile gid="34"/>
   <tile gid="34"/>
   <tile gid="34"/>
   <tile gid="34"/>
   <tile gid="34"/>
   <tile gid="34"/>
   <tile gid="34"/>
   <tile gid="30"/>
   <tile gid="30"/>
   <tile gid="30"/>
   <tile gid="30"/>
   <tile gid="30"/>
   <tile gid="30"/>
   <tile gid="30"/>
   <tile gid="30"/>
   <tile gid="30"/>
   <tile gid="30"/>
   <tile gid="30"/>
   <tile gid="30"/>
   <tile gid="30"/>
   <tile gid="30"/>
   <tile gid="30"/>
   <tile gid="30"/>
   <tile gid="30"/>
   <tile gid="30"/>
   <tile gid="30"/>
   <tile gid="30"/>
   <tile gid="30"/>
   <tile gid="30"/>
   <tile gid="30"/>
   <tile gid="30"/>
   <tile gid="30"/>
   <tile gid="30"/>
   <tile gid="30"/>
   <tile gid="30"/>
   <tile gid="30"/>
   <tile gid="30"/>
   <tile gid="30"/>
   <tile gid="30"/>
   <tile gid="30"/>
   <tile gid="30"/>
   <tile gid="30"/>
   <tile gid="30"/>
   <tile gid="30"/>
   <tile gid="30"/>
   <tile gid="30"/>
   <tile gid="30"/>
   <tile gid="30"/>
   <tile gid="30"/>
   <tile gid="30"/>
   <tile gid="30"/>
   <tile gid="30"/>
   <tile gid="30"/>
   <tile gid="30"/>
   <tile gid="30"/>
   <tile gid="30"/>
   <tile gid="30"/>
   <tile gid="30"/>
   <tile gid="30"/>
   <tile gid="30"/>
   <tile gid="30"/>
   <tile gid="30"/>
   <tile gid="30"/>
   <tile gid="30"/>
   <tile gid="30"/>
   <tile gid="30"/>
   <tile gid="30"/>
   <tile gid="30"/>
   <tile gid="30"/>
   <tile gid="30"/>
   <tile gid="30"/>
   <tile gid="30"/>
   <tile gid="30"/>
   <tile gid="30"/>
   <tile gid="30"/>
   <tile gid="30"/>
   <tile gid="30"/>
   <tile gid="34"/>
   <tile gid="34"/>
   <tile gid="34"/>
   <tile gid="34"/>
   <tile gid="34"/>
   <tile gid="34"/>
   <tile gid="34"/>
   <tile gid="34"/>
   <tile gid="34"/>
   <tile gid="34"/>
   <tile gid="34"/>
   <tile gid="34"/>
   <tile gid="34"/>
   <tile gid="34"/>
   <tile gid="34"/>
   <tile gid="34"/>
   <tile gid="34"/>
   <tile gid="34"/>
   <tile gid="34"/>
   <tile gid="34"/>
   <tile gid="34"/>
   <tile gid="34"/>
   <tile gid="34"/>
   <tile gid="34"/>
   <tile gid="34"/>
   <tile gid="34"/>
   <tile gid="34"/>
   <tile gid="34"/>
   <tile gid="34"/>
   <tile gid="34"/>
   <tile gid="30"/>
   <tile gid="30"/>
   <tile gid="30"/>
   <tile gid="30"/>
   <tile gid="30"/>
   <tile gid="30"/>
   <tile gid="30"/>
   <tile gid="30"/>
   <tile gid="30"/>
   <tile gid="30"/>
   <tile gid="30"/>
   <tile gid="30"/>
   <tile gid="30"/>
   <tile gid="30"/>
   <tile gid="30"/>
   <tile gid="30"/>
   <tile gid="30"/>
   <tile gid="30"/>
   <tile gid="30"/>
   <tile gid="30"/>
   <tile gid="30"/>
   <tile gid="30"/>
   <tile gid="30"/>
   <tile gid="30"/>
   <tile gid="30"/>
   <tile gid="30"/>
   <tile gid="30"/>
   <tile gid="30"/>
   <tile gid="30"/>
   <tile gid="30"/>
   <tile gid="30"/>
   <tile gid="30"/>
   <tile gid="30"/>
   <tile gid="30"/>
   <tile gid="30"/>
   <tile gid="30"/>
   <tile gid="30"/>
   <tile gid="30"/>
   <tile gid="30"/>
   <tile gid="30"/>
   <tile gid="30"/>
   <tile gid="30"/>
   <tile gid="30"/>
   <tile gid="30"/>
   <tile gid="30"/>
   <tile gid="30"/>
   <tile gid="30"/>
   <tile gid="30"/>
   <tile gid="30"/>
   <tile gid="30"/>
   <tile gid="30"/>
   <tile gid="30"/>
   <tile gid="30"/>
   <tile gid="30"/>
   <tile gid="30"/>
   <tile gid="30"/>
   <tile gid="30"/>
   <tile gid="30"/>
   <tile gid="30"/>
   <tile gid="30"/>
   <tile gid="30"/>
   <tile gid="30"/>
   <tile gid="30"/>
   <tile gid="30"/>
   <tile gid="30"/>
   <tile gid="30"/>
   <tile gid="30"/>
   <tile gid="30"/>
   <tile gid="30"/>
   <tile gid="30"/>
   <tile gid="34"/>
   <tile gid="34"/>
   <tile gid="34"/>
   <tile gid="34"/>
   <tile gid="34"/>
   <tile gid="34"/>
   <tile gid="34"/>
   <tile gid="34"/>
   <tile gid="34"/>
   <tile gid="34"/>
   <tile gid="34"/>
   <tile gid="34"/>
   <tile gid="34"/>
   <tile gid="34"/>
   <tile gid="34"/>
   <tile gid="34"/>
   <tile gid="34"/>
   <tile gid="34"/>
   <tile gid="34"/>
   <tile gid="34"/>
   <tile gid="34"/>
   <tile gid="34"/>
   <tile gid="34"/>
   <tile gid="34"/>
   <tile gid="34"/>
   <tile gid="34"/>
   <tile gid="34"/>
   <tile gid="34"/>
   <tile gid="34"/>
   <tile gid="34"/>
   <tile gid="30"/>
   <tile gid="30"/>
   <tile gid="30"/>
   <tile gid="30"/>
   <tile gid="30"/>
   <tile gid="30"/>
   <tile gid="30"/>
   <tile gid="30"/>
   <tile gid="30"/>
   <tile gid="30"/>
   <tile gid="30"/>
   <tile gid="30"/>
   <tile gid="30"/>
   <tile gid="30"/>
   <tile gid="30"/>
   <tile gid="30"/>
   <tile gid="30"/>
   <tile gid="30"/>
   <tile gid="30"/>
   <tile gid="30"/>
   <tile gid="30"/>
   <tile gid="30"/>
   <tile gid="30"/>
   <tile gid="30"/>
   <tile gid="30"/>
   <tile gid="30"/>
   <tile gid="30"/>
   <tile gid="30"/>
   <tile gid="30"/>
   <tile gid="30"/>
   <tile gid="30"/>
   <tile gid="30"/>
   <tile gid="30"/>
   <tile gid="30"/>
   <tile gid="30"/>
   <tile gid="30"/>
   <tile gid="30"/>
   <tile gid="30"/>
   <tile gid="30"/>
   <tile gid="30"/>
   <tile gid="30"/>
   <tile gid="30"/>
   <tile gid="30"/>
   <tile gid="30"/>
   <tile gid="30"/>
   <tile gid="30"/>
   <tile gid="30"/>
   <tile gid="30"/>
   <tile gid="30"/>
   <tile gid="30"/>
   <tile gid="30"/>
   <tile gid="30"/>
   <tile gid="30"/>
   <tile gid="30"/>
   <tile gid="30"/>
   <tile gid="30"/>
   <tile gid="30"/>
   <tile gid="30"/>
   <tile gid="30"/>
   <tile gid="30"/>
   <tile gid="30"/>
   <tile gid="30"/>
   <tile gid="30"/>
   <tile gid="30"/>
   <tile gid="30"/>
   <tile gid="30"/>
   <tile gid="30"/>
   <tile gid="30"/>
   <tile gid="30"/>
   <tile gid="30"/>
   <tile gid="34"/>
   <tile gid="34"/>
   <tile gid="34"/>
   <tile gid="34"/>
   <tile gid="34"/>
   <tile gid="34"/>
   <tile gid="34"/>
   <tile gid="34"/>
   <tile gid="34"/>
   <tile gid="34"/>
   <tile gid="34"/>
   <tile gid="34"/>
   <tile gid="34"/>
   <tile gid="34"/>
   <tile gid="34"/>
   <tile gid="34"/>
   <tile gid="34"/>
   <tile gid="34"/>
   <tile gid="34"/>
   <tile gid="34"/>
   <tile gid="34"/>
   <tile gid="34"/>
   <tile gid="34"/>
   <tile gid="34"/>
   <tile gid="34"/>
   <tile gid="34"/>
   <tile gid="34"/>
   <tile gid="34"/>
   <tile gid="34"/>
   <tile gid="34"/>
   <tile gid="30"/>
   <tile gid="30"/>
   <tile gid="30"/>
   <tile gid="30"/>
   <tile gid="30"/>
   <tile gid="30"/>
   <tile gid="30"/>
   <tile gid="30"/>
   <tile gid="30"/>
   <tile gid="30"/>
   <tile gid="30"/>
   <tile gid="30"/>
   <tile gid="30"/>
   <tile gid="30"/>
   <tile gid="30"/>
   <tile gid="30"/>
   <tile gid="30"/>
   <tile gid="30"/>
   <tile gid="30"/>
   <tile gid="30"/>
   <tile gid="30"/>
   <tile gid="30"/>
   <tile gid="30"/>
   <tile gid="30"/>
   <tile gid="30"/>
   <tile gid="30"/>
   <tile gid="30"/>
   <tile gid="30"/>
   <tile gid="30"/>
   <tile gid="30"/>
   <tile gid="30"/>
   <tile gid="30"/>
   <tile gid="30"/>
   <tile gid="30"/>
   <tile gid="30"/>
   <tile gid="30"/>
   <tile gid="30"/>
   <tile gid="30"/>
   <tile gid="30"/>
   <tile gid="30"/>
   <tile gid="30"/>
   <tile gid="30"/>
   <tile gid="30"/>
   <tile gid="30"/>
   <tile gid="30"/>
   <tile gid="30"/>
   <tile gid="30"/>
   <tile gid="30"/>
   <tile gid="30"/>
   <tile gid="30"/>
   <tile gid="30"/>
   <tile gid="30"/>
   <tile gid="30"/>
   <tile gid="30"/>
   <tile gid="30"/>
   <tile gid="30"/>
   <tile gid="30"/>
   <tile gid="30"/>
   <tile gid="30"/>
   <tile gid="30"/>
   <tile gid="30"/>
   <tile gid="30"/>
   <tile gid="30"/>
   <tile gid="30"/>
   <tile gid="30"/>
   <tile gid="30"/>
   <tile gid="30"/>
   <tile gid="30"/>
   <tile gid="30"/>
   <tile gid="30"/>
   <tile gid="34"/>
   <tile gid="34"/>
   <tile gid="34"/>
   <tile gid="34"/>
   <tile gid="34"/>
   <tile gid="34"/>
   <tile gid="34"/>
   <tile gid="34"/>
   <tile gid="34"/>
   <tile gid="34"/>
   <tile gid="34"/>
   <tile gid="34"/>
   <tile gid="34"/>
   <tile gid="34"/>
   <tile gid="34"/>
   <tile gid="34"/>
   <tile gid="34"/>
   <tile gid="34"/>
   <tile gid="34"/>
   <tile gid="34"/>
   <tile gid="34"/>
   <tile gid="34"/>
   <tile gid="34"/>
   <tile gid="34"/>
   <tile gid="34"/>
   <tile gid="34"/>
   <tile gid="34"/>
   <tile gid="34"/>
   <tile gid="34"/>
   <tile gid="34"/>
   <tile gid="30"/>
   <tile gid="30"/>
   <tile gid="30"/>
   <tile gid="30"/>
   <tile gid="30"/>
   <tile gid="30"/>
   <tile gid="30"/>
   <tile gid="30"/>
   <tile gid="30"/>
   <tile gid="30"/>
   <tile gid="30"/>
   <tile gid="30"/>
   <tile gid="30"/>
   <tile gid="30"/>
   <tile gid="30"/>
   <tile gid="30"/>
   <tile gid="30"/>
   <tile gid="30"/>
   <tile gid="30"/>
   <tile gid="30"/>
   <tile gid="30"/>
   <tile gid="30"/>
   <tile gid="30"/>
   <tile gid="30"/>
   <tile gid="30"/>
   <tile gid="30"/>
   <tile gid="30"/>
   <tile gid="30"/>
   <tile gid="30"/>
   <tile gid="30"/>
   <tile gid="30"/>
   <tile gid="30"/>
   <tile gid="30"/>
   <tile gid="30"/>
   <tile gid="30"/>
   <tile gid="30"/>
   <tile gid="30"/>
   <tile gid="30"/>
   <tile gid="30"/>
   <tile gid="30"/>
   <tile gid="30"/>
   <tile gid="30"/>
   <tile gid="30"/>
   <tile gid="30"/>
   <tile gid="30"/>
   <tile gid="30"/>
   <tile gid="30"/>
   <tile gid="30"/>
   <tile gid="30"/>
   <tile gid="30"/>
   <tile gid="30"/>
   <tile gid="30"/>
   <tile gid="30"/>
   <tile gid="30"/>
   <tile gid="30"/>
   <tile gid="30"/>
   <tile gid="30"/>
   <tile gid="30"/>
   <tile gid="30"/>
   <tile gid="30"/>
   <tile gid="30"/>
   <tile gid="30"/>
   <tile gid="30"/>
   <tile gid="30"/>
   <tile gid="30"/>
   <tile gid="30"/>
   <tile gid="30"/>
   <tile gid="30"/>
   <tile gid="30"/>
   <tile gid="30"/>
   <tile gid="34"/>
   <tile gid="34"/>
   <tile gid="34"/>
   <tile gid="34"/>
   <tile gid="34"/>
   <tile gid="34"/>
   <tile gid="34"/>
   <tile gid="34"/>
   <tile gid="34"/>
   <tile gid="34"/>
   <tile gid="34"/>
   <tile gid="34"/>
   <tile gid="34"/>
   <tile gid="34"/>
   <tile gid="34"/>
   <tile gid="34"/>
   <tile gid="34"/>
   <tile gid="34"/>
   <tile gid="34"/>
   <tile gid="34"/>
   <tile gid="34"/>
   <tile gid="34"/>
   <tile gid="34"/>
   <tile gid="34"/>
   <tile gid="34"/>
   <tile gid="34"/>
   <tile gid="34"/>
   <tile gid="34"/>
   <tile gid="34"/>
   <tile gid="34"/>
   <tile gid="30"/>
   <tile gid="30"/>
   <tile gid="30"/>
   <tile gid="30"/>
   <tile gid="30"/>
   <tile gid="30"/>
   <tile gid="30"/>
   <tile gid="30"/>
   <tile gid="30"/>
   <tile gid="30"/>
   <tile gid="30"/>
   <tile gid="30"/>
   <tile gid="30"/>
   <tile gid="30"/>
   <tile gid="30"/>
   <tile gid="30"/>
   <tile gid="30"/>
   <tile gid="30"/>
   <tile gid="30"/>
   <tile gid="30"/>
   <tile gid="30"/>
   <tile gid="30"/>
   <tile gid="30"/>
   <tile gid="30"/>
   <tile gid="30"/>
   <tile gid="30"/>
   <tile gid="30"/>
   <tile gid="30"/>
   <tile gid="30"/>
   <tile gid="30"/>
   <tile gid="30"/>
   <tile gid="30"/>
   <tile gid="30"/>
   <tile gid="30"/>
   <tile gid="30"/>
   <tile gid="30"/>
   <tile gid="30"/>
   <tile gid="30"/>
   <tile gid="30"/>
   <tile gid="30"/>
   <tile gid="30"/>
   <tile gid="30"/>
   <tile gid="30"/>
   <tile gid="30"/>
   <tile gid="30"/>
   <tile gid="30"/>
   <tile gid="30"/>
   <tile gid="30"/>
   <tile gid="30"/>
   <tile gid="30"/>
   <tile gid="30"/>
   <tile gid="30"/>
   <tile gid="30"/>
   <tile gid="30"/>
   <tile gid="30"/>
   <tile gid="30"/>
   <tile gid="30"/>
   <tile gid="30"/>
   <tile gid="30"/>
   <tile gid="30"/>
   <tile gid="30"/>
   <tile gid="30"/>
   <tile gid="30"/>
   <tile gid="30"/>
   <tile gid="30"/>
   <tile gid="30"/>
   <tile gid="30"/>
   <tile gid="30"/>
   <tile gid="30"/>
   <tile gid="30"/>
   <tile gid="34"/>
   <tile gid="34"/>
   <tile gid="34"/>
   <tile gid="34"/>
   <tile gid="34"/>
   <tile gid="34"/>
   <tile gid="34"/>
   <tile gid="34"/>
   <tile gid="34"/>
   <tile gid="34"/>
   <tile gid="34"/>
   <tile gid="34"/>
   <tile gid="34"/>
   <tile gid="34"/>
   <tile gid="34"/>
   <tile gid="34"/>
   <tile gid="34"/>
   <tile gid="34"/>
   <tile gid="34"/>
   <tile gid="34"/>
   <tile gid="34"/>
   <tile gid="34"/>
   <tile gid="34"/>
   <tile gid="34"/>
   <tile gid="34"/>
   <tile gid="34"/>
   <tile gid="34"/>
   <tile gid="34"/>
   <tile gid="34"/>
   <tile gid="34"/>
   <tile gid="30"/>
   <tile gid="30"/>
   <tile gid="30"/>
   <tile gid="30"/>
   <tile gid="30"/>
   <tile gid="30"/>
   <tile gid="30"/>
   <tile gid="30"/>
   <tile gid="30"/>
   <tile gid="30"/>
   <tile gid="30"/>
   <tile gid="30"/>
   <tile gid="30"/>
   <tile gid="30"/>
   <tile gid="30"/>
   <tile gid="30"/>
   <tile gid="30"/>
   <tile gid="30"/>
   <tile gid="30"/>
   <tile gid="30"/>
   <tile gid="30"/>
   <tile gid="30"/>
   <tile gid="30"/>
   <tile gid="30"/>
   <tile gid="30"/>
   <tile gid="30"/>
   <tile gid="30"/>
   <tile gid="30"/>
   <tile gid="30"/>
   <tile gid="30"/>
   <tile gid="30"/>
   <tile gid="30"/>
   <tile gid="30"/>
   <tile gid="30"/>
   <tile gid="30"/>
   <tile gid="30"/>
   <tile gid="30"/>
   <tile gid="30"/>
   <tile gid="30"/>
   <tile gid="30"/>
   <tile gid="30"/>
   <tile gid="30"/>
   <tile gid="30"/>
   <tile gid="30"/>
   <tile gid="30"/>
   <tile gid="30"/>
   <tile gid="30"/>
   <tile gid="30"/>
   <tile gid="30"/>
   <tile gid="30"/>
   <tile gid="30"/>
   <tile gid="30"/>
   <tile gid="30"/>
   <tile gid="30"/>
   <tile gid="30"/>
   <tile gid="30"/>
   <tile gid="30"/>
   <tile gid="30"/>
   <tile gid="30"/>
   <tile gid="30"/>
   <tile gid="30"/>
   <tile gid="30"/>
   <tile gid="30"/>
   <tile gid="30"/>
   <tile gid="30"/>
   <tile gid="30"/>
   <tile gid="30"/>
   <tile gid="30"/>
   <tile gid="30"/>
   <tile gid="30"/>
   <tile gid="34"/>
   <tile gid="34"/>
   <tile gid="34"/>
   <tile gid="34"/>
   <tile gid="34"/>
   <tile gid="34"/>
   <tile gid="34"/>
   <tile gid="34"/>
   <tile gid="34"/>
   <tile gid="34"/>
   <tile gid="34"/>
   <tile gid="34"/>
   <tile gid="34"/>
   <tile gid="34"/>
   <tile gid="34"/>
   <tile gid="34"/>
   <tile gid="34"/>
   <tile gid="34"/>
   <tile gid="34"/>
   <tile gid="34"/>
   <tile gid="34"/>
   <tile gid="34"/>
   <tile gid="34"/>
   <tile gid="34"/>
   <tile gid="34"/>
   <tile gid="34"/>
   <tile gid="34"/>
   <tile gid="34"/>
   <tile gid="34"/>
   <tile gid="34"/>
   <tile gid="30"/>
   <tile gid="30"/>
   <tile gid="30"/>
   <tile gid="30"/>
   <tile gid="30"/>
   <tile gid="30"/>
   <tile gid="30"/>
   <tile gid="30"/>
   <tile gid="30"/>
   <tile gid="30"/>
   <tile gid="30"/>
   <tile gid="30"/>
   <tile gid="30"/>
   <tile gid="30"/>
   <tile gid="30"/>
   <tile gid="30"/>
   <tile gid="30"/>
   <tile gid="30"/>
   <tile gid="30"/>
   <tile gid="30"/>
   <tile gid="30"/>
   <tile gid="30"/>
   <tile gid="30"/>
   <tile gid="30"/>
   <tile gid="30"/>
   <tile gid="30"/>
   <tile gid="30"/>
   <tile gid="30"/>
   <tile gid="30"/>
   <tile gid="30"/>
   <tile gid="30"/>
   <tile gid="30"/>
   <tile gid="30"/>
   <tile gid="30"/>
   <tile gid="30"/>
   <tile gid="30"/>
   <tile gid="30"/>
   <tile gid="30"/>
   <tile gid="30"/>
   <tile gid="30"/>
   <tile gid="30"/>
   <tile gid="30"/>
   <tile gid="30"/>
   <tile gid="30"/>
   <tile gid="30"/>
   <tile gid="30"/>
   <tile gid="30"/>
   <tile gid="30"/>
   <tile gid="30"/>
   <tile gid="30"/>
   <tile gid="30"/>
   <tile gid="30"/>
   <tile gid="30"/>
   <tile gid="30"/>
   <tile gid="30"/>
   <tile gid="30"/>
   <tile gid="30"/>
   <tile gid="30"/>
   <tile gid="30"/>
   <tile gid="30"/>
   <tile gid="30"/>
   <tile gid="30"/>
   <tile gid="30"/>
   <tile gid="30"/>
   <tile gid="30"/>
   <tile gid="30"/>
   <tile gid="30"/>
   <tile gid="30"/>
   <tile gid="30"/>
   <tile gid="30"/>
   <tile gid="34"/>
   <tile gid="34"/>
   <tile gid="34"/>
   <tile gid="34"/>
   <tile gid="34"/>
   <tile gid="34"/>
   <tile gid="34"/>
   <tile gid="34"/>
   <tile gid="34"/>
   <tile gid="34"/>
   <tile gid="34"/>
   <tile gid="34"/>
   <tile gid="34"/>
   <tile gid="34"/>
   <tile gid="34"/>
   <tile gid="34"/>
   <tile gid="34"/>
   <tile gid="34"/>
   <tile gid="34"/>
   <tile gid="34"/>
   <tile gid="34"/>
   <tile gid="34"/>
   <tile gid="34"/>
   <tile gid="34"/>
   <tile gid="34"/>
   <tile gid="34"/>
   <tile gid="34"/>
   <tile gid="34"/>
   <tile gid="34"/>
   <tile gid="34"/>
   <tile gid="30"/>
   <tile gid="30"/>
   <tile gid="30"/>
   <tile gid="30"/>
   <tile gid="30"/>
   <tile gid="30"/>
   <tile gid="30"/>
   <tile gid="30"/>
   <tile gid="30"/>
   <tile gid="30"/>
   <tile gid="30"/>
   <tile gid="30"/>
   <tile gid="30"/>
   <tile gid="30"/>
   <tile gid="30"/>
   <tile gid="30"/>
   <tile gid="30"/>
   <tile gid="30"/>
   <tile gid="30"/>
   <tile gid="30"/>
   <tile gid="30"/>
   <tile gid="30"/>
   <tile gid="30"/>
   <tile gid="30"/>
   <tile gid="30"/>
   <tile gid="30"/>
   <tile gid="30"/>
   <tile gid="30"/>
   <tile gid="30"/>
   <tile gid="30"/>
   <tile gid="30"/>
   <tile gid="30"/>
   <tile gid="30"/>
   <tile gid="30"/>
   <tile gid="30"/>
   <tile gid="30"/>
   <tile gid="30"/>
   <tile gid="30"/>
   <tile gid="30"/>
   <tile gid="30"/>
   <tile gid="30"/>
   <tile gid="30"/>
   <tile gid="30"/>
   <tile gid="30"/>
   <tile gid="30"/>
   <tile gid="30"/>
   <tile gid="30"/>
   <tile gid="30"/>
   <tile gid="30"/>
   <tile gid="30"/>
   <tile gid="30"/>
   <tile gid="30"/>
   <tile gid="30"/>
   <tile gid="30"/>
   <tile gid="30"/>
   <tile gid="30"/>
   <tile gid="30"/>
   <tile gid="30"/>
   <tile gid="30"/>
   <tile gid="30"/>
   <tile gid="30"/>
   <tile gid="30"/>
   <tile gid="30"/>
   <tile gid="30"/>
   <tile gid="30"/>
   <tile gid="30"/>
   <tile gid="30"/>
   <tile gid="30"/>
   <tile gid="30"/>
   <tile gid="30"/>
   <tile gid="34"/>
   <tile gid="34"/>
   <tile gid="34"/>
   <tile gid="34"/>
   <tile gid="34"/>
   <tile gid="34"/>
   <tile gid="34"/>
   <tile gid="34"/>
   <tile gid="34"/>
   <tile gid="34"/>
   <tile gid="34"/>
   <tile gid="34"/>
   <tile gid="34"/>
   <tile gid="34"/>
   <tile gid="34"/>
   <tile gid="34"/>
   <tile gid="34"/>
   <tile gid="34"/>
   <tile gid="34"/>
   <tile gid="34"/>
   <tile gid="34"/>
   <tile gid="34"/>
   <tile gid="34"/>
   <tile gid="34"/>
   <tile gid="34"/>
   <tile gid="34"/>
   <tile gid="34"/>
   <tile gid="34"/>
   <tile gid="34"/>
   <tile gid="34"/>
   <tile gid="30"/>
   <tile gid="30"/>
   <tile gid="30"/>
   <tile gid="30"/>
   <tile gid="30"/>
   <tile gid="30"/>
   <tile gid="30"/>
   <tile gid="30"/>
   <tile gid="30"/>
   <tile gid="30"/>
   <tile gid="30"/>
   <tile gid="30"/>
   <tile gid="30"/>
   <tile gid="30"/>
   <tile gid="30"/>
   <tile gid="30"/>
   <tile gid="30"/>
   <tile gid="30"/>
   <tile gid="30"/>
   <tile gid="30"/>
   <tile gid="30"/>
   <tile gid="30"/>
   <tile gid="30"/>
   <tile gid="30"/>
   <tile gid="30"/>
   <tile gid="30"/>
   <tile gid="30"/>
   <tile gid="30"/>
   <tile gid="30"/>
   <tile gid="30"/>
   <tile gid="30"/>
   <tile gid="30"/>
   <tile gid="30"/>
   <tile gid="30"/>
   <tile gid="30"/>
   <tile gid="30"/>
   <tile gid="30"/>
   <tile gid="30"/>
   <tile gid="30"/>
   <tile gid="30"/>
   <tile gid="30"/>
   <tile gid="30"/>
   <tile gid="30"/>
   <tile gid="30"/>
   <tile gid="30"/>
   <tile gid="30"/>
   <tile gid="30"/>
   <tile gid="30"/>
   <tile gid="30"/>
   <tile gid="30"/>
   <tile gid="30"/>
   <tile gid="30"/>
   <tile gid="30"/>
   <tile gid="30"/>
   <tile gid="30"/>
   <tile gid="30"/>
   <tile gid="30"/>
   <tile gid="30"/>
   <tile gid="30"/>
   <tile gid="30"/>
   <tile gid="30"/>
   <tile gid="30"/>
   <tile gid="30"/>
   <tile gid="30"/>
   <tile gid="30"/>
   <tile gid="30"/>
   <tile gid="30"/>
   <tile gid="30"/>
   <tile gid="30"/>
   <tile gid="30"/>
   <tile gid="34"/>
   <tile gid="34"/>
   <tile gid="34"/>
   <tile gid="34"/>
   <tile gid="34"/>
   <tile gid="34"/>
   <tile gid="34"/>
   <tile gid="34"/>
   <tile gid="34"/>
   <tile gid="34"/>
   <tile gid="34"/>
   <tile gid="34"/>
   <tile gid="34"/>
   <tile gid="34"/>
   <tile gid="34"/>
   <tile gid="34"/>
   <tile gid="34"/>
   <tile gid="34"/>
   <tile gid="34"/>
   <tile gid="34"/>
   <tile gid="34"/>
   <tile gid="34"/>
   <tile gid="34"/>
   <tile gid="34"/>
   <tile gid="34"/>
   <tile gid="34"/>
   <tile gid="34"/>
   <tile gid="34"/>
   <tile gid="34"/>
   <tile gid="34"/>
   <tile gid="30"/>
   <tile gid="30"/>
   <tile gid="30"/>
   <tile gid="30"/>
   <tile gid="30"/>
   <tile gid="30"/>
   <tile gid="30"/>
   <tile gid="30"/>
   <tile gid="30"/>
   <tile gid="30"/>
   <tile gid="30"/>
   <tile gid="30"/>
   <tile gid="30"/>
   <tile gid="30"/>
   <tile gid="30"/>
   <tile gid="30"/>
   <tile gid="30"/>
   <tile gid="30"/>
   <tile gid="30"/>
   <tile gid="30"/>
   <tile gid="30"/>
   <tile gid="30"/>
   <tile gid="30"/>
   <tile gid="30"/>
   <tile gid="30"/>
   <tile gid="30"/>
   <tile gid="30"/>
   <tile gid="30"/>
   <tile gid="30"/>
   <tile gid="30"/>
   <tile gid="30"/>
   <tile gid="30"/>
   <tile gid="30"/>
   <tile gid="30"/>
   <tile gid="30"/>
   <tile gid="30"/>
   <tile gid="30"/>
   <tile gid="30"/>
   <tile gid="30"/>
   <tile gid="30"/>
   <tile gid="30"/>
   <tile gid="30"/>
   <tile gid="30"/>
   <tile gid="30"/>
   <tile gid="30"/>
   <tile gid="30"/>
   <tile gid="30"/>
   <tile gid="30"/>
   <tile gid="30"/>
   <tile gid="30"/>
   <tile gid="30"/>
   <tile gid="30"/>
   <tile gid="30"/>
   <tile gid="30"/>
   <tile gid="30"/>
   <tile gid="30"/>
   <tile gid="30"/>
   <tile gid="30"/>
   <tile gid="30"/>
   <tile gid="30"/>
   <tile gid="30"/>
   <tile gid="30"/>
   <tile gid="30"/>
   <tile gid="30"/>
   <tile gid="30"/>
   <tile gid="30"/>
   <tile gid="30"/>
   <tile gid="30"/>
   <tile gid="30"/>
   <tile gid="30"/>
   <tile gid="34"/>
   <tile gid="34"/>
   <tile gid="34"/>
   <tile gid="34"/>
   <tile gid="34"/>
   <tile gid="34"/>
   <tile gid="34"/>
   <tile gid="34"/>
   <tile gid="34"/>
   <tile gid="34"/>
   <tile gid="34"/>
   <tile gid="34"/>
   <tile gid="34"/>
   <tile gid="34"/>
   <tile gid="34"/>
   <tile gid="34"/>
   <tile gid="34"/>
   <tile gid="34"/>
   <tile gid="34"/>
   <tile gid="34"/>
   <tile gid="34"/>
   <tile gid="34"/>
   <tile gid="34"/>
   <tile gid="34"/>
   <tile gid="34"/>
   <tile gid="34"/>
   <tile gid="34"/>
   <tile gid="34"/>
   <tile gid="34"/>
   <tile gid="34"/>
   <tile gid="30"/>
   <tile gid="30"/>
   <tile gid="30"/>
   <tile gid="30"/>
   <tile gid="30"/>
   <tile gid="30"/>
   <tile gid="30"/>
   <tile gid="30"/>
   <tile gid="30"/>
   <tile gid="30"/>
   <tile gid="30"/>
   <tile gid="30"/>
   <tile gid="30"/>
   <tile gid="30"/>
   <tile gid="30"/>
   <tile gid="30"/>
   <tile gid="30"/>
   <tile gid="30"/>
   <tile gid="30"/>
   <tile gid="30"/>
   <tile gid="30"/>
   <tile gid="30"/>
   <tile gid="30"/>
   <tile gid="30"/>
   <tile gid="30"/>
   <tile gid="30"/>
   <tile gid="30"/>
   <tile gid="30"/>
   <tile gid="30"/>
   <tile gid="30"/>
   <tile gid="30"/>
   <tile gid="30"/>
   <tile gid="30"/>
   <tile gid="30"/>
   <tile gid="30"/>
   <tile gid="30"/>
   <tile gid="30"/>
   <tile gid="30"/>
   <tile gid="30"/>
   <tile gid="30"/>
   <tile gid="30"/>
   <tile gid="30"/>
   <tile gid="30"/>
   <tile gid="30"/>
   <tile gid="30"/>
   <tile gid="30"/>
   <tile gid="30"/>
   <tile gid="30"/>
   <tile gid="30"/>
   <tile gid="30"/>
   <tile gid="30"/>
   <tile gid="30"/>
   <tile gid="30"/>
   <tile gid="30"/>
   <tile gid="30"/>
   <tile gid="30"/>
   <tile gid="30"/>
   <tile gid="30"/>
   <tile gid="30"/>
   <tile gid="30"/>
   <tile gid="30"/>
   <tile gid="30"/>
   <tile gid="30"/>
   <tile gid="30"/>
   <tile gid="30"/>
   <tile gid="30"/>
   <tile gid="30"/>
   <tile gid="30"/>
   <tile gid="30"/>
   <tile gid="30"/>
   <tile gid="34"/>
   <tile gid="34"/>
   <tile gid="34"/>
   <tile gid="34"/>
   <tile gid="34"/>
   <tile gid="34"/>
   <tile gid="34"/>
   <tile gid="34"/>
   <tile gid="34"/>
   <tile gid="34"/>
   <tile gid="34"/>
   <tile gid="34"/>
   <tile gid="34"/>
   <tile gid="34"/>
   <tile gid="34"/>
   <tile gid="34"/>
   <tile gid="34"/>
   <tile gid="34"/>
   <tile gid="34"/>
   <tile gid="34"/>
   <tile gid="34"/>
   <tile gid="34"/>
   <tile gid="34"/>
   <tile gid="34"/>
   <tile gid="34"/>
   <tile gid="34"/>
   <tile gid="34"/>
   <tile gid="34"/>
   <tile gid="34"/>
   <tile gid="34"/>
   <tile gid="30"/>
   <tile gid="30"/>
   <tile gid="30"/>
   <tile gid="30"/>
   <tile gid="30"/>
   <tile gid="30"/>
   <tile gid="30"/>
   <tile gid="30"/>
   <tile gid="30"/>
   <tile gid="30"/>
   <tile gid="30"/>
   <tile gid="30"/>
   <tile gid="30"/>
   <tile gid="30"/>
   <tile gid="30"/>
   <tile gid="30"/>
   <tile gid="30"/>
   <tile gid="30"/>
   <tile gid="30"/>
   <tile gid="30"/>
   <tile gid="30"/>
   <tile gid="30"/>
   <tile gid="30"/>
   <tile gid="30"/>
   <tile gid="30"/>
   <tile gid="30"/>
   <tile gid="30"/>
   <tile gid="30"/>
   <tile gid="30"/>
   <tile gid="30"/>
   <tile gid="30"/>
   <tile gid="30"/>
   <tile gid="30"/>
   <tile gid="30"/>
   <tile gid="30"/>
   <tile gid="30"/>
   <tile gid="30"/>
   <tile gid="30"/>
   <tile gid="30"/>
   <tile gid="30"/>
   <tile gid="30"/>
   <tile gid="30"/>
   <tile gid="30"/>
   <tile gid="30"/>
   <tile gid="30"/>
   <tile gid="30"/>
   <tile gid="30"/>
   <tile gid="30"/>
   <tile gid="30"/>
   <tile gid="30"/>
   <tile gid="30"/>
   <tile gid="30"/>
   <tile gid="30"/>
   <tile gid="30"/>
   <tile gid="30"/>
   <tile gid="30"/>
   <tile gid="30"/>
   <tile gid="30"/>
   <tile gid="30"/>
   <tile gid="30"/>
   <tile gid="30"/>
   <tile gid="30"/>
   <tile gid="30"/>
   <tile gid="30"/>
   <tile gid="30"/>
   <tile gid="30"/>
   <tile gid="30"/>
   <tile gid="30"/>
   <tile gid="30"/>
   <tile gid="30"/>
   <tile gid="34"/>
   <tile gid="34"/>
   <tile gid="34"/>
   <tile gid="34"/>
   <tile gid="34"/>
   <tile gid="34"/>
   <tile gid="34"/>
   <tile gid="34"/>
   <tile gid="34"/>
   <tile gid="34"/>
   <tile gid="34"/>
   <tile gid="34"/>
   <tile gid="34"/>
   <tile gid="34"/>
   <tile gid="34"/>
   <tile gid="34"/>
   <tile gid="34"/>
   <tile gid="34"/>
   <tile gid="34"/>
   <tile gid="34"/>
   <tile gid="34"/>
   <tile gid="34"/>
   <tile gid="34"/>
   <tile gid="34"/>
   <tile gid="34"/>
   <tile gid="34"/>
   <tile gid="34"/>
   <tile gid="34"/>
   <tile gid="34"/>
   <tile gid="34"/>
   <tile gid="30"/>
   <tile gid="30"/>
   <tile gid="30"/>
   <tile gid="30"/>
   <tile gid="30"/>
   <tile gid="30"/>
   <tile gid="30"/>
   <tile gid="30"/>
   <tile gid="30"/>
   <tile gid="30"/>
   <tile gid="30"/>
   <tile gid="30"/>
   <tile gid="30"/>
   <tile gid="30"/>
   <tile gid="30"/>
   <tile gid="30"/>
   <tile gid="30"/>
   <tile gid="30"/>
   <tile gid="30"/>
   <tile gid="30"/>
   <tile gid="30"/>
   <tile gid="30"/>
   <tile gid="30"/>
   <tile gid="30"/>
   <tile gid="30"/>
   <tile gid="30"/>
   <tile gid="30"/>
   <tile gid="30"/>
   <tile gid="30"/>
   <tile gid="30"/>
   <tile gid="30"/>
   <tile gid="30"/>
   <tile gid="30"/>
   <tile gid="30"/>
   <tile gid="30"/>
   <tile gid="30"/>
   <tile gid="30"/>
   <tile gid="30"/>
   <tile gid="30"/>
   <tile gid="30"/>
   <tile gid="30"/>
   <tile gid="30"/>
   <tile gid="30"/>
   <tile gid="30"/>
   <tile gid="30"/>
   <tile gid="30"/>
   <tile gid="30"/>
   <tile gid="30"/>
   <tile gid="30"/>
   <tile gid="30"/>
   <tile gid="30"/>
   <tile gid="30"/>
   <tile gid="30"/>
   <tile gid="30"/>
   <tile gid="30"/>
   <tile gid="30"/>
   <tile gid="30"/>
   <tile gid="30"/>
   <tile gid="30"/>
   <tile gid="30"/>
   <tile gid="30"/>
   <tile gid="30"/>
   <tile gid="30"/>
   <tile gid="30"/>
   <tile gid="30"/>
   <tile gid="30"/>
   <tile gid="30"/>
   <tile gid="30"/>
   <tile gid="30"/>
   <tile gid="30"/>
   <tile gid="34"/>
   <tile gid="34"/>
   <tile gid="34"/>
   <tile gid="34"/>
   <tile gid="34"/>
   <tile gid="34"/>
   <tile gid="34"/>
   <tile gid="34"/>
   <tile gid="34"/>
   <tile gid="34"/>
   <tile gid="34"/>
   <tile gid="34"/>
   <tile gid="34"/>
   <tile gid="34"/>
   <tile gid="34"/>
   <tile gid="34"/>
   <tile gid="34"/>
   <tile gid="34"/>
   <tile gid="34"/>
   <tile gid="34"/>
   <tile gid="34"/>
   <tile gid="34"/>
   <tile gid="34"/>
   <tile gid="34"/>
   <tile gid="34"/>
   <tile gid="34"/>
   <tile gid="34"/>
   <tile gid="34"/>
   <tile gid="34"/>
   <tile gid="34"/>
   <tile gid="30"/>
   <tile gid="30"/>
   <tile gid="30"/>
   <tile gid="30"/>
   <tile gid="30"/>
   <tile gid="30"/>
   <tile gid="30"/>
   <tile gid="30"/>
   <tile gid="30"/>
   <tile gid="30"/>
   <tile gid="30"/>
   <tile gid="30"/>
   <tile gid="30"/>
   <tile gid="30"/>
   <tile gid="30"/>
   <tile gid="30"/>
   <tile gid="30"/>
   <tile gid="30"/>
   <tile gid="30"/>
   <tile gid="30"/>
   <tile gid="30"/>
   <tile gid="30"/>
   <tile gid="30"/>
   <tile gid="30"/>
   <tile gid="30"/>
   <tile gid="30"/>
   <tile gid="30"/>
   <tile gid="30"/>
   <tile gid="30"/>
   <tile gid="30"/>
   <tile gid="30"/>
   <tile gid="30"/>
   <tile gid="30"/>
   <tile gid="30"/>
   <tile gid="30"/>
   <tile gid="30"/>
   <tile gid="30"/>
   <tile gid="30"/>
   <tile gid="30"/>
   <tile gid="30"/>
   <tile gid="30"/>
   <tile gid="30"/>
   <tile gid="30"/>
   <tile gid="30"/>
   <tile gid="30"/>
   <tile gid="30"/>
   <tile gid="30"/>
   <tile gid="30"/>
   <tile gid="30"/>
   <tile gid="30"/>
   <tile gid="30"/>
   <tile gid="30"/>
   <tile gid="30"/>
   <tile gid="30"/>
   <tile gid="30"/>
   <tile gid="30"/>
   <tile gid="30"/>
   <tile gid="30"/>
   <tile gid="30"/>
   <tile gid="30"/>
   <tile gid="30"/>
   <tile gid="30"/>
   <tile gid="30"/>
   <tile gid="30"/>
   <tile gid="30"/>
   <tile gid="30"/>
   <tile gid="30"/>
   <tile gid="30"/>
   <tile gid="30"/>
   <tile gid="30"/>
   <tile gid="34"/>
   <tile gid="34"/>
   <tile gid="34"/>
   <tile gid="34"/>
   <tile gid="34"/>
   <tile gid="34"/>
   <tile gid="34"/>
   <tile gid="34"/>
   <tile gid="34"/>
   <tile gid="34"/>
   <tile gid="34"/>
   <tile gid="34"/>
   <tile gid="34"/>
   <tile gid="34"/>
   <tile gid="34"/>
   <tile gid="34"/>
   <tile gid="34"/>
   <tile gid="34"/>
   <tile gid="34"/>
   <tile gid="34"/>
   <tile gid="34"/>
   <tile gid="34"/>
   <tile gid="34"/>
   <tile gid="34"/>
   <tile gid="34"/>
   <tile gid="34"/>
   <tile gid="34"/>
   <tile gid="34"/>
   <tile gid="34"/>
   <tile gid="34"/>
   <tile gid="30"/>
   <tile gid="30"/>
   <tile gid="30"/>
   <tile gid="30"/>
   <tile gid="30"/>
   <tile gid="30"/>
   <tile gid="30"/>
   <tile gid="30"/>
   <tile gid="30"/>
   <tile gid="30"/>
   <tile gid="30"/>
   <tile gid="30"/>
   <tile gid="30"/>
   <tile gid="30"/>
   <tile gid="30"/>
   <tile gid="30"/>
   <tile gid="30"/>
   <tile gid="30"/>
   <tile gid="30"/>
   <tile gid="30"/>
   <tile gid="30"/>
   <tile gid="30"/>
   <tile gid="30"/>
   <tile gid="30"/>
   <tile gid="30"/>
   <tile gid="30"/>
   <tile gid="30"/>
   <tile gid="30"/>
   <tile gid="30"/>
   <tile gid="30"/>
   <tile gid="30"/>
   <tile gid="30"/>
   <tile gid="30"/>
   <tile gid="30"/>
   <tile gid="30"/>
   <tile gid="30"/>
   <tile gid="30"/>
   <tile gid="30"/>
   <tile gid="30"/>
   <tile gid="30"/>
   <tile gid="30"/>
   <tile gid="30"/>
   <tile gid="30"/>
   <tile gid="30"/>
   <tile gid="30"/>
   <tile gid="30"/>
   <tile gid="30"/>
   <tile gid="30"/>
   <tile gid="30"/>
   <tile gid="30"/>
   <tile gid="30"/>
   <tile gid="30"/>
   <tile gid="30"/>
   <tile gid="30"/>
   <tile gid="30"/>
   <tile gid="30"/>
   <tile gid="30"/>
   <tile gid="30"/>
   <tile gid="30"/>
   <tile gid="30"/>
   <tile gid="30"/>
   <tile gid="30"/>
   <tile gid="30"/>
   <tile gid="30"/>
   <tile gid="30"/>
   <tile gid="30"/>
   <tile gid="30"/>
   <tile gid="30"/>
   <tile gid="30"/>
   <tile gid="30"/>
   <tile gid="34"/>
   <tile gid="34"/>
   <tile gid="34"/>
   <tile gid="34"/>
   <tile gid="34"/>
   <tile gid="34"/>
   <tile gid="34"/>
   <tile gid="34"/>
   <tile gid="34"/>
   <tile gid="34"/>
   <tile gid="34"/>
   <tile gid="34"/>
   <tile gid="34"/>
   <tile gid="34"/>
   <tile gid="34"/>
   <tile gid="34"/>
   <tile gid="34"/>
   <tile gid="34"/>
   <tile gid="34"/>
   <tile gid="34"/>
   <tile gid="34"/>
   <tile gid="34"/>
   <tile gid="34"/>
   <tile gid="34"/>
   <tile gid="34"/>
   <tile gid="34"/>
   <tile gid="34"/>
   <tile gid="34"/>
   <tile gid="34"/>
   <tile gid="34"/>
   <tile gid="34"/>
   <tile gid="34"/>
   <tile gid="34"/>
   <tile gid="34"/>
   <tile gid="34"/>
   <tile gid="34"/>
   <tile gid="34"/>
   <tile gid="34"/>
   <tile gid="34"/>
   <tile gid="34"/>
   <tile gid="34"/>
   <tile gid="34"/>
   <tile gid="34"/>
   <tile gid="34"/>
   <tile gid="34"/>
   <tile gid="34"/>
   <tile gid="34"/>
   <tile gid="34"/>
   <tile gid="34"/>
   <tile gid="34"/>
   <tile gid="34"/>
   <tile gid="34"/>
   <tile gid="34"/>
   <tile gid="34"/>
   <tile gid="34"/>
   <tile gid="34"/>
   <tile gid="34"/>
   <tile gid="34"/>
   <tile gid="34"/>
   <tile gid="34"/>
   <tile gid="34"/>
   <tile gid="34"/>
   <tile gid="34"/>
   <tile gid="34"/>
   <tile gid="34"/>
   <tile gid="34"/>
   <tile gid="34"/>
   <tile gid="34"/>
   <tile gid="34"/>
   <tile gid="34"/>
   <tile gid="34"/>
   <tile gid="34"/>
   <tile gid="34"/>
   <tile gid="34"/>
   <tile gid="34"/>
   <tile gid="34"/>
   <tile gid="34"/>
   <tile gid="34"/>
   <tile gid="34"/>
   <tile gid="34"/>
   <tile gid="34"/>
   <tile gid="34"/>
   <tile gid="34"/>
   <tile gid="34"/>
   <tile gid="34"/>
   <tile gid="34"/>
   <tile gid="34"/>
   <tile gid="34"/>
   <tile gid="34"/>
   <tile gid="34"/>
   <tile gid="34"/>
   <tile gid="34"/>
   <tile gid="34"/>
   <tile gid="34"/>
   <tile gid="34"/>
   <tile gid="34"/>
   <tile gid="34"/>
   <tile gid="34"/>
   <tile gid="34"/>
   <tile gid="34"/>
   <tile gid="34"/>
   <tile gid="34"/>
   <tile gid="34"/>
   <tile gid="34"/>
   <tile gid="34"/>
   <tile gid="34"/>
   <tile gid="34"/>
   <tile gid="34"/>
   <tile gid="34"/>
   <tile gid="34"/>
   <tile gid="34"/>
   <tile gid="34"/>
   <tile gid="34"/>
   <tile gid="34"/>
   <tile gid="34"/>
   <tile gid="34"/>
   <tile gid="34"/>
   <tile gid="34"/>
   <tile gid="34"/>
   <tile gid="34"/>
   <tile gid="34"/>
   <tile gid="34"/>
   <tile gid="34"/>
   <tile gid="34"/>
   <tile gid="34"/>
   <tile gid="34"/>
   <tile gid="34"/>
   <tile gid="34"/>
   <tile gid="34"/>
   <tile gid="34"/>
   <tile gid="34"/>
   <tile gid="34"/>
   <tile gid="34"/>
   <tile gid="34"/>
   <tile gid="34"/>
   <tile gid="34"/>
   <tile gid="34"/>
   <tile gid="34"/>
   <tile gid="34"/>
   <tile gid="34"/>
   <tile gid="34"/>
   <tile gid="34"/>
   <tile gid="34"/>
   <tile gid="34"/>
   <tile gid="34"/>
   <tile gid="34"/>
   <tile gid="34"/>
   <tile gid="34"/>
   <tile gid="34"/>
   <tile gid="34"/>
   <tile gid="34"/>
   <tile gid="34"/>
   <tile gid="34"/>
   <tile gid="34"/>
   <tile gid="34"/>
   <tile gid="34"/>
   <tile gid="34"/>
   <tile gid="34"/>
   <tile gid="34"/>
   <tile gid="34"/>
   <tile gid="34"/>
   <tile gid="34"/>
   <tile gid="34"/>
   <tile gid="34"/>
   <tile gid="34"/>
   <tile gid="34"/>
   <tile gid="34"/>
   <tile gid="34"/>
   <tile gid="34"/>
   <tile gid="34"/>
   <tile gid="34"/>
   <tile gid="34"/>
   <tile gid="34"/>
   <tile gid="34"/>
   <tile gid="34"/>
   <tile gid="34"/>
   <tile gid="34"/>
   <tile gid="34"/>
   <tile gid="34"/>
   <tile gid="34"/>
   <tile gid="34"/>
   <tile gid="34"/>
   <tile gid="34"/>
   <tile gid="34"/>
   <tile gid="34"/>
   <tile gid="34"/>
   <tile gid="34"/>
   <tile gid="34"/>
   <tile gid="34"/>
   <tile gid="34"/>
   <tile gid="34"/>
   <tile gid="34"/>
   <tile gid="34"/>
   <tile gid="34"/>
   <tile gid="34"/>
   <tile gid="34"/>
   <tile gid="34"/>
   <tile gid="34"/>
   <tile gid="34"/>
   <tile gid="34"/>
   <tile gid="34"/>
   <tile gid="34"/>
   <tile gid="34"/>
   <tile gid="34"/>
   <tile gid="34"/>
   <tile gid="34"/>
   <tile gid="34"/>
   <tile gid="34"/>
   <tile gid="34"/>
   <tile gid="34"/>
   <tile gid="34"/>
   <tile gid="34"/>
   <tile gid="34"/>
   <tile gid="34"/>
   <tile gid="34"/>
   <tile gid="34"/>
   <tile gid="34"/>
   <tile gid="34"/>
   <tile gid="34"/>
   <tile gid="34"/>
   <tile gid="34"/>
   <tile gid="34"/>
   <tile gid="34"/>
   <tile gid="34"/>
   <tile gid="34"/>
   <tile gid="34"/>
   <tile gid="34"/>
   <tile gid="34"/>
   <tile gid="34"/>
   <tile gid="34"/>
   <tile gid="34"/>
   <tile gid="34"/>
   <tile gid="34"/>
   <tile gid="34"/>
   <tile gid="34"/>
   <tile gid="34"/>
   <tile gid="34"/>
   <tile gid="34"/>
   <tile gid="34"/>
   <tile gid="34"/>
   <tile gid="34"/>
   <tile gid="34"/>
   <tile gid="34"/>
   <tile gid="34"/>
   <tile gid="34"/>
   <tile gid="34"/>
   <tile gid="34"/>
   <tile gid="34"/>
   <tile gid="34"/>
   <tile gid="34"/>
   <tile gid="34"/>
   <tile gid="34"/>
   <tile gid="34"/>
   <tile gid="34"/>
   <tile gid="34"/>
   <tile gid="34"/>
   <tile gid="34"/>
   <tile gid="34"/>
   <tile gid="34"/>
   <tile gid="34"/>
   <tile gid="34"/>
   <tile gid="34"/>
   <tile gid="34"/>
   <tile gid="34"/>
   <tile gid="34"/>
   <tile gid="34"/>
   <tile gid="34"/>
   <tile gid="34"/>
   <tile gid="34"/>
   <tile gid="34"/>
   <tile gid="34"/>
   <tile gid="34"/>
   <tile gid="34"/>
   <tile gid="34"/>
   <tile gid="34"/>
   <tile gid="34"/>
   <tile gid="34"/>
   <tile gid="34"/>
   <tile gid="34"/>
   <tile gid="34"/>
   <tile gid="34"/>
   <tile gid="34"/>
   <tile gid="34"/>
   <tile gid="34"/>
   <tile gid="34"/>
   <tile gid="34"/>
   <tile gid="34"/>
   <tile gid="34"/>
   <tile gid="34"/>
   <tile gid="34"/>
   <tile gid="34"/>
   <tile gid="34"/>
   <tile gid="34"/>
   <tile gid="34"/>
   <tile gid="34"/>
   <tile gid="34"/>
   <tile gid="34"/>
   <tile gid="34"/>
   <tile gid="34"/>
   <tile gid="34"/>
   <tile gid="34"/>
   <tile gid="34"/>
   <tile gid="34"/>
   <tile gid="34"/>
   <tile gid="34"/>
   <tile gid="34"/>
   <tile gid="34"/>
   <tile gid="34"/>
   <tile gid="34"/>
   <tile gid="34"/>
   <tile gid="34"/>
   <tile gid="34"/>
   <tile gid="34"/>
   <tile gid="34"/>
   <tile gid="34"/>
   <tile gid="34"/>
   <tile gid="34"/>
   <tile gid="34"/>
   <tile gid="34"/>
   <tile gid="34"/>
   <tile gid="34"/>
   <tile gid="34"/>
   <tile gid="34"/>
   <tile gid="34"/>
   <tile gid="34"/>
   <tile gid="34"/>
   <tile gid="34"/>
   <tile gid="34"/>
   <tile gid="34"/>
   <tile gid="34"/>
   <tile gid="34"/>
   <tile gid="34"/>
   <tile gid="34"/>
   <tile gid="34"/>
   <tile gid="34"/>
   <tile gid="34"/>
   <tile gid="34"/>
   <tile gid="34"/>
   <tile gid="34"/>
   <tile gid="34"/>
   <tile gid="34"/>
   <tile gid="34"/>
   <tile gid="34"/>
   <tile gid="34"/>
   <tile gid="34"/>
   <tile gid="34"/>
   <tile gid="34"/>
   <tile gid="34"/>
   <tile gid="34"/>
   <tile gid="34"/>
   <tile gid="34"/>
   <tile gid="34"/>
   <tile gid="34"/>
   <tile gid="34"/>
   <tile gid="34"/>
   <tile gid="34"/>
   <tile gid="34"/>
   <tile gid="34"/>
   <tile gid="34"/>
   <tile gid="34"/>
   <tile gid="34"/>
   <tile gid="34"/>
   <tile gid="34"/>
   <tile gid="34"/>
   <tile gid="34"/>
   <tile gid="34"/>
   <tile gid="34"/>
   <tile gid="34"/>
   <tile gid="34"/>
   <tile gid="34"/>
   <tile gid="34"/>
   <tile gid="34"/>
   <tile gid="34"/>
   <tile gid="34"/>
   <tile gid="34"/>
   <tile gid="34"/>
   <tile gid="34"/>
   <tile gid="34"/>
   <tile gid="34"/>
   <tile gid="34"/>
   <tile gid="34"/>
   <tile gid="34"/>
   <tile gid="34"/>
   <tile gid="34"/>
   <tile gid="34"/>
   <tile gid="34"/>
   <tile gid="34"/>
   <tile gid="34"/>
   <tile gid="34"/>
   <tile gid="34"/>
   <tile gid="34"/>
   <tile gid="34"/>
   <tile gid="34"/>
   <tile gid="34"/>
   <tile gid="34"/>
   <tile gid="34"/>
   <tile gid="34"/>
   <tile gid="34"/>
   <tile gid="34"/>
   <tile gid="34"/>
   <tile gid="34"/>
   <tile gid="34"/>
   <tile gid="34"/>
  </data>
 </layer>
 <objectgroup id="2" name="Collision">
  <properties>
   <property name="Collision" type="bool" value="true"/>
   <property name="Draw" type="bool" value="false"/>
  </properties>
  <object id="28" x="64" y="64" width="32" height="3072"/>
  <object id="29" x="3104" y="64" width="32" height="3040"/>
  <object id="30" x="96" y="64" width="1088" height="32"/>
  <object id="31" x="1280" y="64" width="288" height="32"/>
  <object id="32" x="1536" y="96" width="32" height="288"/>
  <object id="33" x="1536" y="480" width="32" height="352"/>
  <object id="34" x="768" y="96" width="96" height="288"/>
  <object id="35" x="768" y="480" width="96" height="1792"/>
  <object id="36" x="96" y="2272" width="960" height="96"/>
  <object id="37" x="608" y="1664" width="448" height="96"/>
  <object id="38" x="96" y="1664" width="416" height="96"/>
  <object id="39" x="1152" y="1664" width="1152" height="96"/>
  <object id="40" x="1152" y="832" width="1504" height="96"/>
  <object id="41" x="2720" y="832" width="384" height="96"/>
  <object id="42" x="3008" y="1280" width="96" height="96"/>
  <object id="43" x="2816" y="2272" width="288" height="96"/>
  <object id="45" x="1152" y="2272" width="1568" height="96"/>
  <object id="46" x="2496" y="1280" width="96" height="992"/>
  <object id="47" x="2592" y="1280" width="320" height="96"/>
  <object id="48" x="2400" y="1280" width="96" height="64"/>
  <object id="49" x="2400" y="1664" width="96" height="96"/>
  <object id="50" x="2112" y="928" width="96" height="736"/>
  <object id="51" x="1536" y="1184" width="96" height="480"/>
  <object id="52" x="1536" y="928" width="96" height="160"/>
  <object id="53" x="448" y="832" width="608" height="96"/>
  <object id="54" x="96" y="832" width="256" height="96"/>
  <object id="55" x="2400" y="64" width="704" height="32"/>
  <object id="56" x="2400" y="96" width="32" height="736"/>
  <object id="57" x="96" y="3104" width="1472" height="32"/>
  <object id="59" x="1536" y="2368" width="32" height="736"/>
  <object id="60" x="2400" y="2848" width="32" height="256"/>
  <object id="64" x="2400" y="2368" width="32" height="384"/>
  <object id="65" x="2400" y="3104" width="736" height="32"/>
  <object id="66" x="1568" y="352" width="32" height="160"/>
  <object id="67" x="1152" y="32" width="160" height="32"/>
  <object id="75" x="2496" y="928" width="64" height="192"/>
  <object id="76" x="2496" y="1184" width="64" height="96"/>
  <object id="78" x="1856" y="2720" width="544" height="32"/>
  <object id="79" x="1856" y="2752" width="32" height="512"/>
  <object id="80" x="1984" y="2848" width="32" height="416"/>
  <object id="81" x="2016" y="2848" width="384" height="32"/>
  <object id="82" x="832" y="3264" width="1056" height="32"/>
  <object id="84" x="1984" y="3264" width="1152" height="32"/>
  <object id="85" x="3104" y="3296" width="32" height="576"/>
  <object id="86" x="832" y="3872" width="2304" height="32"/>
  <object id="87" x="832" y="3296" width="32" height="576"/>
 </objectgroup>
 <objectgroup id="3" name="Teleport">
  <object id="68" x="1536" y="384" width="32" height="96">
   <properties>
    <property name="targetMap" value="Restaurant.tmx"/>
   </properties>
  </object>
  <object id="160" x="1184" y="64" width="96" height="32">
   <properties>
    <property name="targetMap" value="Backroom.tmx"/>
   </properties>
  </object>
 </objectgroup>
 <objectgroup id="6" name="Checkpoints">
  <object id="89" x="1504" y="384" width="32" height="96"/>
  <object id="145" x="352" y="832" width="96" height="96"/>
  <object id="146" x="512" y="1664" width="96" height="96"/>
  <object id="147" x="1056" y="2272" width="96" height="96"/>
  <object id="148" x="1888" y="3200" width="96" height="96"/>
  <object id="149" x="2720" y="2272" width="96" height="96"/>
  <object id="150" x="2912" y="1280" width="96" height="96"/>
  <object id="152" x="2304" y="1664" width="96" height="96"/>
  <object id="153" x="1536" y="1088" width="96" height="96"/>
  <object id="154" x="1056" y="1664" width="96" height="96"/>
  <object id="155" x="1056" y="832" width="96" height="96"/>
  <object id="156" x="2656" y="768" width="64" height="64"/>
  <object id="157" x="768" y="384" width="32" height="96"/>
  <object id="161" x="1184" y="96" width="96" height="32"/>
 </objectgroup>
 <objectgroup id="4" name="Entities">
  <properties>
   <property name="magicPoints" type="int" value="50"/>
  </properties>
  <object id="1" name="Player" type="Player" x="1307.5" y="494.76">
   <properties>
    <property name="CorneliusJoined" type="bool" value="false"/>
    <property name="WizardJoined" type="bool" value="false"/>
    <property name="magicPoints" type="int" value="50"/>
   </properties>
   <point/>
  </object>
  <object id="16" name="NPC6" type="NPC" x="1740" y="1002">
   <properties>
    <property name="NPC_ID" value="6"/>
    <property name="active" type="bool" value="true"/>
    <property name="currentDialogueTree" type="int" value="0"/>
    <property name="texturePath" value="Assets/Textures/goldCoin.png"/>
   </properties>
   <point/>
  </object>
  <object id="17" name="NPC5" type="NPC" x="2384" y="2184">
   <properties>
    <property name="NPC_ID" value="5"/>
    <property name="active" type="bool" value="true"/>
    <property name="currentDialogueTree" type="int" value="0"/>
    <property name="texturePath" value="Assets/Textures/goldCoin.png"/>
   </properties>
   <point/>
  </object>
  <object id="88" name="BOSS2" type="Enemy" x="2765.33" y="3641.33">
   <properties>
    <property name="Enemy_ID" type="int" value="102"/>
    <property name="active" type="bool" value="true"/>
    <property name="fight_ID" type="int" value="102"/>
    <property name="texturePath" value="Assets/Maps/Tilesets/x.png"/>
   </properties>
   <point/>
  </object>
  <object id="134" name="Button4" type="Event" x="3040" y="2528" width="64" height="64">
   <properties>
    <property name="Event_ID" type="int" value="10"/>
    <property name="activated" type="bool" value="false"/>
    <property name="active" type="bool" value="true"/>
    <property name="event_Name" value="Button4"/>
    <property name="texturePath" value="Assets/Textures/eventTexture.png"/>
   </properties>
  </object>
  <object id="135" name="Button3" type="Event" x="2944" y="2208" width="64" height="64">
   <properties>
    <property name="Event_ID" type="int" value="9"/>
    <property name="activated" type="bool" value="false"/>
    <property name="active" type="bool" value="true"/>
    <property name="event_Name" value="Button3"/>
    <property name="texturePath" value="Assets/Textures/eventTexture.png"/>
   </properties>
  </object>
  <object id="136" name="Key for the next dungeon" type="Event" x="704" y="2208" width="32" height="32">
   <properties>
    <property name="Event_ID" type="int" value="8"/>
    <property name="activated" type="bool" value="false"/>
    <property name="active" type="bool" value="true"/>
    <property name="event_Name" value="Key for the next dungeon"/>
    <property name="texturePath" value="Assets/Textures/eventTexture.png"/>
   </properties>
  </object>
  <object id="137" name="Healer" type="Event" x="147.333" y="2420.67" width="26.6667" height="24">
   <properties>
    <property name="Event_ID" type="int" value="7"/>
    <property name="activated" type="bool" value="false"/>
    <property name="active" type="bool" value="true"/>
    <property name="event_Name" value="Healer"/>
    <property name="texturePath" value="Assets/Textures/eventTexture.png"/>
   </properties>
  </object>
  <object id="138" name="Button2" type="Event" x="1280" y="1760" width="64" height="64">
   <properties>
    <property name="Event_ID" type="int" value="6"/>
    <property name="activated" type="bool" value="false"/>
    <property name="active" type="bool" value="true"/>
    <property name="event_Name" value="Button2"/>
    <property name="texturePath" value="Assets/Textures/eventTexture.png"/>
   </properties>
  </object>
  <object id="139" name="Button1" type="Event" x="1696" y="1600" width="64" height="64">
   <properties>
    <property name="Event_ID" type="int" value="5"/>
    <property name="activated" type="bool" value="false"/>
    <property name="active" type="bool" value="true"/>
    <property name="event_Name" value="Button1"/>
    <property name="texturePath" value="Assets/Textures/eventTexture.png"/>
   </properties>
  </object>
  <object id="140" name="Troll message" type="Event" x="2806" y="118" width="22.6667" height="22.6667">
   <properties>
    <property name="Event_ID" type="int" value="4"/>
    <property name="activated" type="bool" value="false"/>
    <property name="active" type="bool" value="true"/>
    <property name="event_Name" value="Troll message"/>
    <property name="texturePath" value="Assets/Textures/eventTexture.png"/>
   </properties>
  </object>
  <object id="142" name="Door1" type="Event" x="800" y="384" width="32" height="96">
   <properties>
    <property name="Event_ID" type="int" value="1"/>
    <property name="activated" type="bool" value="false"/>
    <property name="active" type="bool" value="true"/>
    <property name="event_Name" value="Door1"/>
    <property name="texturePath" value="Assets/Textures/eventTexture.png"/>
   </properties>
  </object>
  <object id="143" name="Door2" type="Event" x="2400" y="2752" width="32" height="96">
   <properties>
    <property name="Event_ID" type="int" value="2"/>
    <property name="activated" type="bool" value="false"/>
    <property name="active" type="bool" value="true"/>
    <property name="event_Name" value="Door2"/>
    <property name="texturePath" value="Assets/Textures/eventTexture.png"/>
   </properties>
  </object>
  <object id="144" name="Key for Door1" type="Event" x="920" y="3356" width="32" height="32">
   <properties>
    <property name="Event_ID" type="int" value="11"/>
    <property name="activated" type="bool" value="false"/>
    <property name="active" type="bool" value="true"/>
    <property name="event_Name" value="Key for Door1"/>
    <property name="texturePath" value="Assets/Textures/eventTexture.png"/>
   </properties>
  </object>
  <object id="158" name="Door3" type="Event" x="2656" y="832" width="64" height="96">
   <properties>
    <property name="Event_ID" type="int" value="12"/>
    <property name="activated" type="bool" value="false"/>
    <property name="active" type="bool" value="true"/>
    <property name="event_Name" value="Door3"/>
    <property name="texturePath" value="Assets/Textures/eventTexture.png"/>
   </properties>
  </object>
  <object id="163" name="Enemy3" type="Enemy" x="2590.43" y="541.477">
   <properties>
    <property name="Enemy_ID" type="int" value="3"/>
    <property name="active" type="bool" value="true"/>
    <property name="anim_tsxpath" value="Assets/Textures/Enemies/Langostin.tsx"/>
    <property name="fight_ID" type="int" value="3"/>
    <property name="texturePath" value="Assets/Textures/Enemies/Langostin.png"/>
   </properties>
   <point/>
  </object>
  <object id="164" name="Enemy3" type="Enemy" x="2967.29" y="1875.68">
   <properties>
    <property name="Enemy_ID" type="int" value="3"/>
    <property name="active" type="bool" value="true"/>
    <property name="anim_tsxpath" value="Assets/Textures/Enemies/Langostin.tsx"/>
    <property name="fight_ID" type="int" value="3"/>
    <property name="texturePath" value="Assets/Textures/Enemies/Langostin.png"/>
   </properties>
   <point/>
  </object>
  <object id="165" name="Enemy3" type="Enemy" x="307.559" y="2079.27">
   <properties>
    <property name="Enemy_ID" type="int" value="3"/>
    <property name="active" type="bool" value="true"/>
    <property name="anim_tsxpath" value="Assets/Textures/Enemies/Langostin.tsx"/>
    <property name="fight_ID" type="int" value="3"/>
    <property name="texturePath" value="Assets/Textures/Enemies/Langostin.png"/>
   </properties>
   <point/>
  </object>
  <object id="166" name="Enemy3" type="Enemy" x="376.868" y="662.768">
   <properties>
    <property name="Enemy_ID" type="int" value="3"/>
    <property name="active" type="bool" value="true"/>
    <property name="anim_tsxpath" value="Assets/Textures/Enemies/Langostin.tsx"/>
    <property name="fight_ID" type="int" value="3"/>
    <property name="texturePath" value="Assets/Textures/Enemies/Langostin.png"/>
   </properties>
   <point/>
  </object>
  <object id="168" name="Enemy2" type="Enemy" x="2321.85" y="1091.62">
   <properties>
    <property name="Enemy_ID" type="int" value="2"/>
    <property name="active" type="bool" value="true"/>
    <property name="anim_tsxpath" value="Assets/Textures/Enemies/Salt and Pepper.tsx"/>
    <property name="fight_ID" type="int" value="2"/>
    <property name="texturePath" value="Assets/Textures/Enemies/Salt and Pepper.png"/>
   </properties>
   <point/>
  </object>
  <object id="169" name="Enemy2" type="Enemy" x="2031.62" y="1108.95">
   <properties>
    <property name="Enemy_ID" type="int" value="2"/>
    <property name="active" type="bool" value="true"/>
    <property name="anim_tsxpath" value="Assets/Textures/Enemies/Salt and Pepper.tsx"/>
    <property name="fight_ID" type="int" value="2"/>
    <property name="texturePath" value="Assets/Textures/Enemies/Salt and Pepper.png"/>
   </properties>
   <point/>
  </object>
  <object id="170" name="Enemy2" type="Enemy" x="1650.42" y="1923.33">
   <properties>
    <property name="Enemy_ID" type="int" value="2"/>
    <property name="active" type="bool" value="true"/>
    <property name="anim_tsxpath" value="Assets/Textures/Enemies/Salt and Pepper.tsx"/>
    <property name="fight_ID" type="int" value="2"/>
    <property name="texturePath" value="Assets/Textures/Enemies/Salt and Pepper.png"/>
   </properties>
   <point/>
  </object>
  <object id="172" name="Enemy4" type="Enemy" x="654.104" y="1953.65">
   <properties>
    <property name="Enemy_ID" type="int" value="4"/>
    <property name="active" type="bool" value="true"/>
    <property name="anim_tsxpath" value="Assets/Textures/Enemies/Pan.tsx"/>
    <property name="fight_ID" type="int" value="4"/>
    <property name="texturePath" value="Assets/Textures/Enemies/Pan.png"/>
   </properties>
   <point/>
  </object>
  <object id="173" name="Enemy4" type="Enemy" x="987.654" y="2612.09">
   <properties>
    <property name="Enemy_ID" type="int" value="4"/>
    <property name="active" type="bool" value="true"/>
    <property name="anim_tsxpath" value="Assets/Textures/Enemies/Pan.tsx"/>
    <property name="fight_ID" type="int" value="4"/>
    <property name="texturePath" value="Assets/Textures/Enemies/Pan.png"/>
   </properties>
   <point/>
  </object>
  <object id="174" name="Enemy2" type="Enemy" x="1130.6" y="2854.67">
   <properties>
    <property name="Enemy_ID" type="int" value="2"/>
    <property name="active" type="bool" value="true"/>
    <property name="anim_tsxpath" value="Assets/Textures/Enemies/Salt and Pepper.tsx"/>
    <property name="fight_ID" type="int" value="2"/>
    <property name="texturePath" value="Assets/Textures/Enemies/Salt and Pepper.png"/>
   </properties>
   <point/>
  </object>
  <object id="175" name="Enemy2" type="Enemy" x="2651.07" y="2884.99">
   <properties>
    <property name="Enemy_ID" type="int" value="2"/>
    <property name="active" type="bool" value="true"/>
    <property name="anim_tsxpath" value="Assets/Textures/Enemies/Salt and Pepper.tsx"/>
    <property name="fight_ID" type="int" value="2"/>
    <property name="texturePath" value="Assets/Textures/Enemies/Salt and Pepper.png"/>
   </properties>
   <point/>
  </object>
  <object id="176" name="Enemy4" type="Enemy" x="1732.73" y="1481.48">
   <properties>
    <property name="Enemy_ID" type="int" value="4"/>
    <property name="active" type="bool" value="true"/>
    <property name="anim_tsxpath" value="Assets/Textures/Enemies/Pan.tsx"/>
    <property name="fight_ID" type="int" value="4"/>
    <property name="texturePath" value="Assets/Textures/Enemies/Pan.png"/>
   </properties>
   <point/>
  </object>
  <object id="177" name="Enemy4" type="Enemy" x="2659.74" y="1659.09">
   <properties>
    <property name="Enemy_ID" type="int" value="4"/>
    <property name="active" type="bool" value="true"/>
    <property name="anim_tsxpath" value="Assets/Textures/Enemies/Pan.tsx"/>
    <property name="fight_ID" type="int" value="4"/>
    <property name="texturePath" value="Assets/Textures/Enemies/Pan.png"/>
   </properties>
   <point/>
  </object>
 </objectgroup>
 <objectgroup id="5" name="Events"/>
</map>
