<?xml version="1.0" encoding="UTF-8"?>
<map version="1.10" tiledversion="1.11.2" orientation="orthogonal" renderorder="right-down" width="36" height="36" tilewidth="32" tileheight="32" infinite="0" nextlayerid="10" nextobjectid="47">
 <tileset firstgid="1" name="Tileset-Terrain2" tilewidth="32" tileheight="32" tilecount="504" columns="36">
  <image source="../Tilesets/Tileset-Terrain2.png" width="1152" height="448"/>
 </tileset>
 <tileset firstgid="505" name="TX Tileset Wall" tilewidth="32" tileheight="32" tilecount="256" columns="16">
  <image source="../Tilesets/TX Tileset Wall.png" width="512" height="512"/>
 </tileset>
 <tileset firstgid="761" name="TX Tileset Stone Ground" tilewidth="32" tileheight="32" tilecount="64" columns="8">
  <image source="../Tilesets/TX Tileset Stone Ground.png" width="256" height="256"/>
 </tileset>
 <tileset firstgid="825" name="victorian-streets" tilewidth="32" tileheight="32" tilecount="1536" columns="16">
  <image source="../Tilesets/victorian-streets.png" width="512" height="3072"/>
 </tileset>
 <tileset firstgid="2361" name="victorian-windows-doors" tilewidth="32" tileheight="32" tilecount="5120" columns="32">
  <image source="../Tilesets/victorian-windows-doors.png" width="1024" height="5120"/>
 </tileset>
 <tileset firstgid="7481" name="MapMetadata" tilewidth="32" tileheight="32" spacing="1" margin="1" tilecount="2" columns="2">
  <image source="../Tilesets/MapMetadata.png" width="67" height="34"/>
 </tileset>
 <tileset firstgid="7483" name="victorian-accessories" tilewidth="32" tileheight="32" tilecount="2560" columns="32">
  <image source="../Tilesets/victorian-accessories.png" width="1024" height="2560"/>
 </tileset>
 <tileset firstgid="10043" name="victorian-garden" tilewidth="32" tileheight="32" tilecount="1024" columns="16">
  <image source="../Tilesets/victorian-garden.png" width="512" height="2048"/>
 </tileset>
 <tileset firstgid="11067" name="victorian-market" tilewidth="32" tileheight="32" tilecount="1280" columns="16">
  <image source="../Tilesets/victorian-market.png" width="512" height="2560"/>
 </tileset>
 <tileset firstgid="12347" name="victorian-tenement" tilewidth="32" tileheight="32" tilecount="3072" columns="32">
  <image source="../Tilesets/victorian-tenement.png" width="1024" height="3072"/>
 </tileset>
 <tileset firstgid="15419" name="victorian-mansion" tilewidth="32" tileheight="32" tilecount="2048" columns="32">
  <image source="../Tilesets/victorian-mansion.png" width="1024" height="2048"/>
 </tileset>
 <layer id="1" name="Map" width="36" height="36">
  <properties>
   <property name="Draw" type="bool" value="true"/>
  </properties>
  <data>
   <tile gid="7649"/>
   <tile gid="7649"/>
   <tile gid="7649"/>
   <tile gid="7649"/>
   <tile gid="7649"/>
   <tile gid="7649"/>
   <tile gid="7649"/>
   <tile gid="7649"/>
   <tile gid="7649"/>
   <tile gid="7649"/>
   <tile gid="7649"/>
   <tile gid="7649"/>
   <tile gid="7649"/>
   <tile gid="7649"/>
   <tile gid="7649"/>
   <tile gid="7649"/>
   <tile gid="7649"/>
   <tile gid="7649"/>
   <tile gid="7649"/>
   <tile gid="7649"/>
   <tile gid="7649"/>
   <tile gid="7649"/>
   <tile gid="7649"/>
   <tile gid="7649"/>
   <tile gid="7649"/>
   <tile gid="7649"/>
   <tile gid="7649"/>
   <tile gid="7649"/>
   <tile gid="7649"/>
   <tile gid="7649"/>
   <tile gid="7649"/>
   <tile gid="7649"/>
   <tile gid="7649"/>
   <tile gid="7649"/>
   <tile gid="7649"/>
   <tile gid="7649"/>
   <tile gid="7649"/>
   <tile gid="7649"/>
   <tile gid="7649"/>
   <tile gid="7649"/>
   <tile gid="7649"/>
   <tile gid="7649"/>
   <tile gid="7649"/>
   <tile gid="7649"/>
   <tile gid="7649"/>
   <tile gid="7649"/>
   <tile gid="7649"/>
   <tile gid="7649"/>
   <tile gid="7649"/>
   <tile gid="7649"/>
   <tile gid="7649"/>
   <tile gid="7649"/>
   <tile gid="7649"/>
   <tile gid="7649"/>
   <tile gid="7649"/>
   <tile gid="7649"/>
   <tile gid="7649"/>
   <tile gid="7649"/>
   <tile gid="7649"/>
   <tile gid="7649"/>
   <tile gid="7649"/>
   <tile gid="7649"/>
   <tile gid="7649"/>
   <tile gid="7649"/>
   <tile gid="7649"/>
   <tile gid="7649"/>
   <tile gid="7649"/>
   <tile gid="7649"/>
   <tile gid="7649"/>
   <tile gid="7649"/>
   <tile gid="7649"/>
   <tile gid="7649"/>
   <tile gid="7649"/>
   <tile gid="14312"/>
   <tile gid="14312"/>
   <tile gid="14312"/>
   <tile gid="14312"/>
   <tile gid="14312"/>
   <tile gid="14312"/>
   <tile gid="14312"/>
   <tile gid="14312"/>
   <tile gid="14312"/>
   <tile gid="14312"/>
   <tile gid="14313"/>
   <tile gid="7649"/>
   <tile gid="7649"/>
   <tile gid="7649"/>
   <tile gid="7649"/>
   <tile gid="7649"/>
   <tile gid="7649"/>
   <tile gid="7649"/>
   <tile gid="7649"/>
   <tile gid="7649"/>
   <tile gid="7649"/>
   <tile gid="7649"/>
   <tile gid="7649"/>
   <tile gid="7649"/>
   <tile gid="7649"/>
   <tile gid="7649"/>
   <tile gid="7649"/>
   <tile gid="7649"/>
   <tile gid="7649"/>
   <tile gid="7649"/>
   <tile gid="7649"/>
   <tile gid="7649"/>
   <tile gid="7649"/>
   <tile gid="7649"/>
   <tile gid="7649"/>
   <tile gid="7649"/>
   <tile gid="14343"/>
   <tile gid="14344"/>
   <tile gid="14344"/>
   <tile gid="14344"/>
   <tile gid="14344"/>
   <tile gid="14344"/>
   <tile gid="14344"/>
   <tile gid="14344"/>
   <tile gid="14344"/>
   <tile gid="14344"/>
   <tile gid="14345"/>
   <tile gid="14314"/>
   <tile gid="14315"/>
   <tile gid="14315"/>
   <tile gid="14315"/>
   <tile gid="14315"/>
   <tile gid="14315"/>
   <tile gid="14315"/>
   <tile gid="14315"/>
   <tile gid="14315"/>
   <tile gid="14315"/>
   <tile gid="14315"/>
   <tile gid="14315"/>
   <tile gid="14315"/>
   <tile gid="14315"/>
   <tile gid="14315"/>
   <tile gid="14315"/>
   <tile gid="14315"/>
   <tile gid="14315"/>
   <tile gid="14315"/>
   <tile gid="14315"/>
   <tile gid="14315"/>
   <tile gid="14315"/>
   <tile gid="14315"/>
   <tile gid="7649"/>
   <tile gid="7649"/>
   <tile gid="14343"/>
   <tile gid="14344"/>
   <tile gid="14344"/>
   <tile gid="14344"/>
   <tile gid="14344"/>
   <tile gid="14344"/>
   <tile gid="14344"/>
   <tile gid="14344"/>
   <tile gid="14344"/>
   <tile gid="14344"/>
   <tile gid="14345"/>
   <tile gid="14346"/>
   <tile gid="14347"/>
   <tile gid="14347"/>
   <tile gid="14347"/>
   <tile gid="14347"/>
   <tile gid="14347"/>
   <tile gid="14347"/>
   <tile gid="14347"/>
   <tile gid="14347"/>
   <tile gid="14347"/>
   <tile gid="14347"/>
   <tile gid="14347"/>
   <tile gid="14347"/>
   <tile gid="14347"/>
   <tile gid="14347"/>
   <tile gid="14347"/>
   <tile gid="14347"/>
   <tile gid="14347"/>
   <tile gid="14347"/>
   <tile gid="14347"/>
   <tile gid="14347"/>
   <tile gid="14347"/>
   <tile gid="14347"/>
   <tile gid="7649"/>
   <tile gid="7649"/>
   <tile gid="14343"/>
   <tile gid="14344"/>
   <tile gid="14344"/>
   <tile gid="14344"/>
   <tile gid="14344"/>
   <tile gid="15964"/>
   <tile gid="14344"/>
   <tile gid="14344"/>
   <tile gid="14344"/>
   <tile gid="14344"/>
   <tile gid="14345"/>
   <tile gid="14346"/>
   <tile gid="14347"/>
   <tile gid="14347"/>
   <tile gid="14347"/>
   <tile gid="14347"/>
   <tile gid="14347"/>
   <tile gid="14347"/>
   <tile gid="14347"/>
   <tile gid="14347"/>
   <tile gid="14347"/>
   <tile gid="14347"/>
   <tile gid="14347"/>
   <tile gid="14347"/>
   <tile gid="14347"/>
   <tile gid="14347"/>
   <tile gid="14347"/>
   <tile gid="14347"/>
   <tile gid="14347"/>
   <tile gid="14347"/>
   <tile gid="14347"/>
   <tile gid="14347"/>
   <tile gid="14347"/>
   <tile gid="14347"/>
   <tile gid="7649"/>
   <tile gid="7649"/>
   <tile gid="14375"/>
   <tile gid="14376"/>
   <tile gid="14376"/>
   <tile gid="14376"/>
   <tile gid="14376"/>
   <tile gid="15964"/>
   <tile gid="14376"/>
   <tile gid="14376"/>
   <tile gid="14376"/>
   <tile gid="14376"/>
   <tile gid="14377"/>
   <tile gid="14346"/>
   <tile gid="14347"/>
   <tile gid="14347"/>
   <tile gid="14347"/>
   <tile gid="14347"/>
   <tile gid="14347"/>
   <tile gid="14347"/>
   <tile gid="14347"/>
   <tile gid="14347"/>
   <tile gid="14347"/>
   <tile gid="14347"/>
   <tile gid="14347"/>
   <tile gid="14347"/>
   <tile gid="14347"/>
   <tile gid="14347"/>
   <tile gid="14347"/>
   <tile gid="14347"/>
   <tile gid="14347"/>
   <tile gid="14347"/>
   <tile gid="14347"/>
   <tile gid="14347"/>
   <tile gid="14347"/>
   <tile gid="14347"/>
   <tile gid="7649"/>
   <tile gid="7649"/>
   <tile gid="2078"/>
   <tile gid="2078"/>
   <tile gid="2078"/>
   <tile gid="2078"/>
   <tile gid="2078"/>
   <tile gid="2078"/>
   <tile gid="2078"/>
   <tile gid="2078"/>
   <tile gid="2078"/>
   <tile gid="2078"/>
   <tile gid="2078"/>
   <tile gid="14346"/>
   <tile gid="14347"/>
   <tile gid="14347"/>
   <tile gid="14347"/>
   <tile gid="14347"/>
   <tile gid="14347"/>
   <tile gid="14347"/>
   <tile gid="14347"/>
   <tile gid="14347"/>
   <tile gid="14347"/>
   <tile gid="14347"/>
   <tile gid="14347"/>
   <tile gid="14347"/>
   <tile gid="14347"/>
   <tile gid="14347"/>
   <tile gid="14347"/>
   <tile gid="14347"/>
   <tile gid="14347"/>
   <tile gid="14347"/>
   <tile gid="14347"/>
   <tile gid="14347"/>
   <tile gid="14347"/>
   <tile gid="14347"/>
   <tile gid="7649"/>
   <tile gid="7649"/>
   <tile gid="2078"/>
   <tile gid="2078"/>
   <tile gid="2078"/>
   <tile gid="2078"/>
   <tile gid="2078"/>
   <tile gid="2078"/>
   <tile gid="2078"/>
   <tile gid="2078"/>
   <tile gid="2078"/>
   <tile gid="2078"/>
   <tile gid="2078"/>
   <tile gid="14346"/>
   <tile gid="14347"/>
   <tile gid="14347"/>
   <tile gid="14347"/>
   <tile gid="14347"/>
   <tile gid="14347"/>
   <tile gid="14347"/>
   <tile gid="14347"/>
   <tile gid="14347"/>
   <tile gid="14347"/>
   <tile gid="14347"/>
   <tile gid="14347"/>
   <tile gid="14347"/>
   <tile gid="14347"/>
   <tile gid="14347"/>
   <tile gid="14347"/>
   <tile gid="14347"/>
   <tile gid="14347"/>
   <tile gid="14347"/>
   <tile gid="14347"/>
   <tile gid="14347"/>
   <tile gid="14347"/>
   <tile gid="14347"/>
   <tile gid="7649"/>
   <tile gid="7649"/>
   <tile gid="2078"/>
   <tile gid="2078"/>
   <tile gid="2078"/>
   <tile gid="2078"/>
   <tile gid="2078"/>
   <tile gid="2078"/>
   <tile gid="2078"/>
   <tile gid="2078"/>
   <tile gid="2078"/>
   <tile gid="2078"/>
   <tile gid="2078"/>
   <tile gid="14378"/>
   <tile gid="14379"/>
   <tile gid="14379"/>
   <tile gid="14379"/>
   <tile gid="14379"/>
   <tile gid="14379"/>
   <tile gid="14379"/>
   <tile gid="14379"/>
   <tile gid="14379"/>
   <tile gid="14379"/>
   <tile gid="14379"/>
   <tile gid="14379"/>
   <tile gid="14379"/>
   <tile gid="14379"/>
   <tile gid="14379"/>
   <tile gid="14379"/>
   <tile gid="14379"/>
   <tile gid="14379"/>
   <tile gid="14379"/>
   <tile gid="14379"/>
   <tile gid="14379"/>
   <tile gid="14379"/>
   <tile gid="14379"/>
   <tile gid="7649"/>
   <tile gid="7649"/>
   <tile gid="2078"/>
   <tile gid="2078"/>
   <tile gid="2078"/>
   <tile gid="2078"/>
   <tile gid="2078"/>
   <tile gid="2078"/>
   <tile gid="2078"/>
   <tile gid="2078"/>
   <tile gid="2078"/>
   <tile gid="2078"/>
   <tile gid="2078"/>
   <tile gid="2078"/>
   <tile gid="2078"/>
   <tile gid="2078"/>
   <tile gid="2078"/>
   <tile gid="2078"/>
   <tile gid="2078"/>
   <tile gid="2078"/>
   <tile gid="2078"/>
   <tile gid="2078"/>
   <tile gid="2078"/>
   <tile gid="2078"/>
   <tile gid="2078"/>
   <tile gid="2078"/>
   <tile gid="2078"/>
   <tile gid="2078"/>
   <tile gid="2078"/>
   <tile gid="2078"/>
   <tile gid="2078"/>
   <tile gid="2078"/>
   <tile gid="2078"/>
   <tile gid="2078"/>
   <tile gid="2078"/>
   <tile gid="2078"/>
   <tile gid="7649"/>
   <tile gid="7649"/>
   <tile gid="2078"/>
   <tile gid="2078"/>
   <tile gid="2078"/>
   <tile gid="2078"/>
   <tile gid="2078"/>
   <tile gid="2078"/>
   <tile gid="2078"/>
   <tile gid="2078"/>
   <tile gid="2078"/>
   <tile gid="2078"/>
   <tile gid="2078"/>
   <tile gid="2078"/>
   <tile gid="2078"/>
   <tile gid="2078"/>
   <tile gid="2078"/>
   <tile gid="2078"/>
   <tile gid="2078"/>
   <tile gid="2078"/>
   <tile gid="2078"/>
   <tile gid="2078"/>
   <tile gid="2078"/>
   <tile gid="2078"/>
   <tile gid="2078"/>
   <tile gid="2078"/>
   <tile gid="2078"/>
   <tile gid="2078"/>
   <tile gid="2078"/>
   <tile gid="2078"/>
   <tile gid="2078"/>
   <tile gid="2078"/>
   <tile gid="2078"/>
   <tile gid="2078"/>
   <tile gid="2078"/>
   <tile gid="2078"/>
   <tile gid="7649"/>
   <tile gid="7649"/>
   <tile gid="2078"/>
   <tile gid="2078"/>
   <tile gid="2078"/>
   <tile gid="2078"/>
   <tile gid="2078"/>
   <tile gid="2078"/>
   <tile gid="2078"/>
   <tile gid="2078"/>
   <tile gid="2078"/>
   <tile gid="2078"/>
   <tile gid="2078"/>
   <tile gid="2078"/>
   <tile gid="2078"/>
   <tile gid="2078"/>
   <tile gid="2078"/>
   <tile gid="2078"/>
   <tile gid="2078"/>
   <tile gid="2078"/>
   <tile gid="2078"/>
   <tile gid="2078"/>
   <tile gid="2078"/>
   <tile gid="2078"/>
   <tile gid="2078"/>
   <tile gid="2078"/>
   <tile gid="2078"/>
   <tile gid="2078"/>
   <tile gid="2078"/>
   <tile gid="2078"/>
   <tile gid="2078"/>
   <tile gid="2078"/>
   <tile gid="2078"/>
   <tile gid="2078"/>
   <tile gid="2078"/>
   <tile gid="2078"/>
   <tile gid="7649"/>
   <tile gid="7649"/>
   <tile gid="2078"/>
   <tile gid="2078"/>
   <tile gid="2078"/>
   <tile gid="2078"/>
   <tile gid="2078"/>
   <tile gid="2078"/>
   <tile gid="2078"/>
   <tile gid="2078"/>
   <tile gid="2078"/>
   <tile gid="2078"/>
   <tile gid="2078"/>
   <tile gid="2078"/>
   <tile gid="2078"/>
   <tile gid="2078"/>
   <tile gid="2078"/>
   <tile gid="2078"/>
   <tile gid="2078"/>
   <tile gid="2078"/>
   <tile gid="2078"/>
   <tile gid="2078"/>
   <tile gid="2078"/>
   <tile gid="2078"/>
   <tile gid="2078"/>
   <tile gid="2078"/>
   <tile gid="2078"/>
   <tile gid="2078"/>
   <tile gid="2078"/>
   <tile gid="2078"/>
   <tile gid="2078"/>
   <tile gid="2078"/>
   <tile gid="2078"/>
   <tile gid="2078"/>
   <tile gid="2078"/>
   <tile gid="2078"/>
   <tile gid="7649"/>
   <tile gid="7649"/>
   <tile gid="2078"/>
   <tile gid="2078"/>
   <tile gid="2078"/>
   <tile gid="2078"/>
   <tile gid="2078"/>
   <tile gid="2078"/>
   <tile gid="2078"/>
   <tile gid="2078"/>
   <tile gid="2078"/>
   <tile gid="2078"/>
   <tile gid="2078"/>
   <tile gid="2078"/>
   <tile gid="2078"/>
   <tile gid="2078"/>
   <tile gid="2078"/>
   <tile gid="2078"/>
   <tile gid="2078"/>
   <tile gid="2078"/>
   <tile gid="2078"/>
   <tile gid="2078"/>
   <tile gid="2078"/>
   <tile gid="2078"/>
   <tile gid="2078"/>
   <tile gid="2078"/>
   <tile gid="2078"/>
   <tile gid="2078"/>
   <tile gid="2078"/>
   <tile gid="2078"/>
   <tile gid="2078"/>
   <tile gid="2078"/>
   <tile gid="2078"/>
   <tile gid="2078"/>
   <tile gid="2078"/>
   <tile gid="2078"/>
   <tile gid="7649"/>
   <tile gid="7649"/>
   <tile gid="7649"/>
   <tile gid="7649"/>
   <tile gid="7649"/>
   <tile gid="7649"/>
   <tile gid="7649"/>
   <tile gid="7649"/>
   <tile gid="14314"/>
   <tile gid="14315"/>
   <tile gid="14315"/>
   <tile gid="14315"/>
   <tile gid="14315"/>
   <tile gid="14315"/>
   <tile gid="14316"/>
   <tile gid="2126"/>
   <tile gid="2126"/>
   <tile gid="2126"/>
   <tile gid="14314"/>
   <tile gid="14315"/>
   <tile gid="14315"/>
   <tile gid="14315"/>
   <tile gid="14315"/>
   <tile gid="14315"/>
   <tile gid="14315"/>
   <tile gid="14315"/>
   <tile gid="14315"/>
   <tile gid="14315"/>
   <tile gid="14315"/>
   <tile gid="14315"/>
   <tile gid="14315"/>
   <tile gid="14315"/>
   <tile gid="14315"/>
   <tile gid="14315"/>
   <tile gid="14315"/>
   <tile gid="14315"/>
   <tile gid="7649"/>
   <tile gid="7649"/>
   <tile gid="7649"/>
   <tile gid="7649"/>
   <tile gid="7649"/>
   <tile gid="7649"/>
   <tile gid="7649"/>
   <tile gid="7649"/>
   <tile gid="14346"/>
   <tile gid="14347"/>
   <tile gid="14347"/>
   <tile gid="14347"/>
   <tile gid="14347"/>
   <tile gid="14347"/>
   <tile gid="14348"/>
   <tile gid="2126"/>
   <tile gid="2126"/>
   <tile gid="2126"/>
   <tile gid="14346"/>
   <tile gid="14347"/>
   <tile gid="14347"/>
   <tile gid="14347"/>
   <tile gid="14347"/>
   <tile gid="14347"/>
   <tile gid="14347"/>
   <tile gid="14347"/>
   <tile gid="14347"/>
   <tile gid="14347"/>
   <tile gid="14347"/>
   <tile gid="14347"/>
   <tile gid="14347"/>
   <tile gid="14347"/>
   <tile gid="14347"/>
   <tile gid="14347"/>
   <tile gid="14347"/>
   <tile gid="14347"/>
   <tile gid="7649"/>
   <tile gid="7649"/>
   <tile gid="7649"/>
   <tile gid="7649"/>
   <tile gid="7649"/>
   <tile gid="7649"/>
   <tile gid="7649"/>
   <tile gid="7649"/>
   <tile gid="14346"/>
   <tile gid="14347"/>
   <tile gid="14347"/>
   <tile gid="14347"/>
   <tile gid="14347"/>
   <tile gid="14347"/>
   <tile gid="14348"/>
   <tile gid="2126"/>
   <tile gid="2126"/>
   <tile gid="2126"/>
   <tile gid="14346"/>
   <tile gid="14347"/>
   <tile gid="14347"/>
   <tile gid="14347"/>
   <tile gid="14347"/>
   <tile gid="14347"/>
   <tile gid="14347"/>
   <tile gid="14347"/>
   <tile gid="14347"/>
   <tile gid="14347"/>
   <tile gid="14347"/>
   <tile gid="14347"/>
   <tile gid="14347"/>
   <tile gid="14347"/>
   <tile gid="14347"/>
   <tile gid="14347"/>
   <tile gid="14347"/>
   <tile gid="14347"/>
   <tile gid="7649"/>
   <tile gid="7649"/>
   <tile gid="7649"/>
   <tile gid="7649"/>
   <tile gid="7649"/>
   <tile gid="7649"/>
   <tile gid="7649"/>
   <tile gid="7649"/>
   <tile gid="14346"/>
   <tile gid="14347"/>
   <tile gid="14347"/>
   <tile gid="14347"/>
   <tile gid="14347"/>
   <tile gid="14347"/>
   <tile gid="14348"/>
   <tile gid="2126"/>
   <tile gid="2126"/>
   <tile gid="2126"/>
   <tile gid="14346"/>
   <tile gid="14347"/>
   <tile gid="14347"/>
   <tile gid="14347"/>
   <tile gid="14347"/>
   <tile gid="14347"/>
   <tile gid="14347"/>
   <tile gid="14347"/>
   <tile gid="14347"/>
   <tile gid="14347"/>
   <tile gid="14347"/>
   <tile gid="14347"/>
   <tile gid="14347"/>
   <tile gid="14347"/>
   <tile gid="14347"/>
   <tile gid="14347"/>
   <tile gid="14347"/>
   <tile gid="14347"/>
   <tile gid="7649"/>
   <tile gid="7649"/>
   <tile gid="7649"/>
   <tile gid="7649"/>
   <tile gid="7649"/>
   <tile gid="7649"/>
   <tile gid="7649"/>
   <tile gid="7649"/>
   <tile gid="14346"/>
   <tile gid="14347"/>
   <tile gid="14347"/>
   <tile gid="14347"/>
   <tile gid="14347"/>
   <tile gid="14347"/>
   <tile gid="14348"/>
   <tile gid="2126"/>
   <tile gid="2126"/>
   <tile gid="2126"/>
   <tile gid="14346"/>
   <tile gid="14347"/>
   <tile gid="14347"/>
   <tile gid="14347"/>
   <tile gid="14347"/>
   <tile gid="14347"/>
   <tile gid="14347"/>
   <tile gid="14347"/>
   <tile gid="14347"/>
   <tile gid="14347"/>
   <tile gid="14347"/>
   <tile gid="14347"/>
   <tile gid="14347"/>
   <tile gid="14347"/>
   <tile gid="14347"/>
   <tile gid="14347"/>
   <tile gid="14347"/>
   <tile gid="14347"/>
   <tile gid="7649"/>
   <tile gid="7649"/>
   <tile gid="7649"/>
   <tile gid="7649"/>
   <tile gid="7649"/>
   <tile gid="7649"/>
   <tile gid="7649"/>
   <tile gid="7649"/>
   <tile gid="14346"/>
   <tile gid="14347"/>
   <tile gid="14347"/>
   <tile gid="14347"/>
   <tile gid="14347"/>
   <tile gid="14347"/>
   <tile gid="14348"/>
   <tile gid="2126"/>
   <tile gid="2126"/>
   <tile gid="2126"/>
   <tile gid="14346"/>
   <tile gid="14347"/>
   <tile gid="14347"/>
   <tile gid="14347"/>
   <tile gid="14347"/>
   <tile gid="14347"/>
   <tile gid="14347"/>
   <tile gid="14347"/>
   <tile gid="14347"/>
   <tile gid="14347"/>
   <tile gid="14347"/>
   <tile gid="14347"/>
   <tile gid="14347"/>
   <tile gid="14347"/>
   <tile gid="14347"/>
   <tile gid="14347"/>
   <tile gid="14347"/>
   <tile gid="14347"/>
   <tile gid="7649"/>
   <tile gid="7649"/>
   <tile gid="7649"/>
   <tile gid="7649"/>
   <tile gid="7649"/>
   <tile gid="7649"/>
   <tile gid="7649"/>
   <tile gid="7649"/>
   <tile gid="14379"/>
   <tile gid="14379"/>
   <tile gid="14379"/>
   <tile gid="14379"/>
   <tile gid="14379"/>
   <tile gid="14379"/>
   <tile gid="14380"/>
   <tile gid="2126"/>
   <tile gid="2126"/>
   <tile gid="2126"/>
   <tile gid="14378"/>
   <tile gid="14379"/>
   <tile gid="14379"/>
   <tile gid="14379"/>
   <tile gid="14379"/>
   <tile gid="14379"/>
   <tile gid="14379"/>
   <tile gid="14379"/>
   <tile gid="14379"/>
   <tile gid="14379"/>
   <tile gid="14379"/>
   <tile gid="14379"/>
   <tile gid="14379"/>
   <tile gid="14379"/>
   <tile gid="14379"/>
   <tile gid="14379"/>
   <tile gid="14379"/>
   <tile gid="14379"/>
   <tile gid="7649"/>
   <tile gid="7649"/>
   <tile gid="7649"/>
   <tile gid="7649"/>
   <tile gid="7649"/>
   <tile gid="7649"/>
   <tile gid="7649"/>
   <tile gid="7649"/>
   <tile gid="2078"/>
   <tile gid="2078"/>
   <tile gid="2078"/>
   <tile gid="2078"/>
   <tile gid="2078"/>
   <tile gid="2078"/>
   <tile gid="2078"/>
   <tile gid="2078"/>
   <tile gid="2078"/>
   <tile gid="2078"/>
   <tile gid="2078"/>
   <tile gid="2078"/>
   <tile gid="2078"/>
   <tile gid="2078"/>
   <tile gid="2078"/>
   <tile gid="2078"/>
   <tile gid="2078"/>
   <tile gid="2078"/>
   <tile gid="2078"/>
   <tile gid="2078"/>
   <tile gid="2078"/>
   <tile gid="2078"/>
   <tile gid="2078"/>
   <tile gid="2078"/>
   <tile gid="2078"/>
   <tile gid="2078"/>
   <tile gid="2078"/>
   <tile gid="2078"/>
   <tile gid="7649"/>
   <tile gid="7649"/>
   <tile gid="7649"/>
   <tile gid="7649"/>
   <tile gid="7649"/>
   <tile gid="7649"/>
   <tile gid="7649"/>
   <tile gid="7649"/>
   <tile gid="2078"/>
   <tile gid="2078"/>
   <tile gid="2078"/>
   <tile gid="2078"/>
   <tile gid="2078"/>
   <tile gid="2078"/>
   <tile gid="2078"/>
   <tile gid="2078"/>
   <tile gid="2078"/>
   <tile gid="2078"/>
   <tile gid="2078"/>
   <tile gid="2078"/>
   <tile gid="2078"/>
   <tile gid="2078"/>
   <tile gid="2078"/>
   <tile gid="2078"/>
   <tile gid="2078"/>
   <tile gid="2078"/>
   <tile gid="2078"/>
   <tile gid="2078"/>
   <tile gid="2078"/>
   <tile gid="2078"/>
   <tile gid="2078"/>
   <tile gid="2078"/>
   <tile gid="2078"/>
   <tile gid="2078"/>
   <tile gid="2078"/>
   <tile gid="2078"/>
   <tile gid="7649"/>
   <tile gid="7649"/>
   <tile gid="7649"/>
   <tile gid="7649"/>
   <tile gid="7649"/>
   <tile gid="7649"/>
   <tile gid="7649"/>
   <tile gid="7649"/>
   <tile gid="2078"/>
   <tile gid="2078"/>
   <tile gid="2078"/>
   <tile gid="2078"/>
   <tile gid="2078"/>
   <tile gid="2078"/>
   <tile gid="2078"/>
   <tile gid="2078"/>
   <tile gid="2078"/>
   <tile gid="2078"/>
   <tile gid="2078"/>
   <tile gid="2078"/>
   <tile gid="2078"/>
   <tile gid="2078"/>
   <tile gid="2078"/>
   <tile gid="2078"/>
   <tile gid="2078"/>
   <tile gid="2078"/>
   <tile gid="2078"/>
   <tile gid="2078"/>
   <tile gid="2078"/>
   <tile gid="2078"/>
   <tile gid="2078"/>
   <tile gid="2078"/>
   <tile gid="2078"/>
   <tile gid="2078"/>
   <tile gid="2078"/>
   <tile gid="2078"/>
   <tile gid="7649"/>
   <tile gid="7649"/>
   <tile gid="14311"/>
   <tile gid="14312"/>
   <tile gid="14312"/>
   <tile gid="14312"/>
   <tile gid="14312"/>
   <tile gid="14313"/>
   <tile gid="2078"/>
   <tile gid="2078"/>
   <tile gid="2078"/>
   <tile gid="2078"/>
   <tile gid="2078"/>
   <tile gid="2078"/>
   <tile gid="2078"/>
   <tile gid="2078"/>
   <tile gid="2078"/>
   <tile gid="2078"/>
   <tile gid="2078"/>
   <tile gid="2078"/>
   <tile gid="2078"/>
   <tile gid="2078"/>
   <tile gid="2078"/>
   <tile gid="2078"/>
   <tile gid="2078"/>
   <tile gid="2078"/>
   <tile gid="2078"/>
   <tile gid="2078"/>
   <tile gid="2078"/>
   <tile gid="2078"/>
   <tile gid="2078"/>
   <tile gid="2078"/>
   <tile gid="2078"/>
   <tile gid="2078"/>
   <tile gid="2078"/>
   <tile gid="2078"/>
   <tile gid="7649"/>
   <tile gid="7649"/>
   <tile gid="14343"/>
   <tile gid="14344"/>
   <tile gid="14344"/>
   <tile gid="14344"/>
   <tile gid="14344"/>
   <tile gid="14345"/>
   <tile gid="2078"/>
   <tile gid="2078"/>
   <tile gid="2078"/>
   <tile gid="2078"/>
   <tile gid="2078"/>
   <tile gid="2078"/>
   <tile gid="2078"/>
   <tile gid="2078"/>
   <tile gid="2078"/>
   <tile gid="2078"/>
   <tile gid="2078"/>
   <tile gid="2078"/>
   <tile gid="2078"/>
   <tile gid="2078"/>
   <tile gid="2078"/>
   <tile gid="2078"/>
   <tile gid="2078"/>
   <tile gid="2078"/>
   <tile gid="2078"/>
   <tile gid="2078"/>
   <tile gid="2078"/>
   <tile gid="2078"/>
   <tile gid="2078"/>
   <tile gid="2078"/>
   <tile gid="2078"/>
   <tile gid="2078"/>
   <tile gid="2078"/>
   <tile gid="2078"/>
   <tile gid="7649"/>
   <tile gid="7649"/>
   <tile gid="14343"/>
   <tile gid="14344"/>
   <tile gid="14344"/>
   <tile gid="14344"/>
   <tile gid="14344"/>
   <tile gid="14345"/>
   <tile gid="2078"/>
   <tile gid="2078"/>
   <tile gid="2078"/>
   <tile gid="2078"/>
   <tile gid="2078"/>
   <tile gid="2078"/>
   <tile gid="2078"/>
   <tile gid="2078"/>
   <tile gid="2078"/>
   <tile gid="2078"/>
   <tile gid="2078"/>
   <tile gid="2078"/>
   <tile gid="2078"/>
   <tile gid="2078"/>
   <tile gid="2078"/>
   <tile gid="2078"/>
   <tile gid="2078"/>
   <tile gid="2078"/>
   <tile gid="2078"/>
   <tile gid="2078"/>
   <tile gid="2078"/>
   <tile gid="2078"/>
   <tile gid="2078"/>
   <tile gid="2078"/>
   <tile gid="2078"/>
   <tile gid="2078"/>
   <tile gid="2078"/>
   <tile gid="2078"/>
   <tile gid="7649"/>
   <tile gid="7649"/>
   <tile gid="14343"/>
   <tile gid="14344"/>
   <tile gid="14344"/>
   <tile gid="14344"/>
   <tile gid="14344"/>
   <tile gid="14345"/>
   <tile gid="2078"/>
   <tile gid="2078"/>
   <tile gid="2078"/>
   <tile gid="2078"/>
   <tile gid="2078"/>
   <tile gid="2078"/>
   <tile gid="2078"/>
   <tile gid="2078"/>
   <tile gid="2078"/>
   <tile gid="2078"/>
   <tile gid="2078"/>
   <tile gid="2078"/>
   <tile gid="2078"/>
   <tile gid="2078"/>
   <tile gid="2078"/>
   <tile gid="2078"/>
   <tile gid="2078"/>
   <tile gid="2078"/>
   <tile gid="2078"/>
   <tile gid="2078"/>
   <tile gid="2078"/>
   <tile gid="2078"/>
   <tile gid="2078"/>
   <tile gid="2078"/>
   <tile gid="2078"/>
   <tile gid="2078"/>
   <tile gid="2078"/>
   <tile gid="2078"/>
   <tile gid="7649"/>
   <tile gid="7649"/>
   <tile gid="14343"/>
   <tile gid="15452"/>
   <tile gid="14344"/>
   <tile gid="14344"/>
   <tile gid="14344"/>
   <tile gid="14345"/>
   <tile gid="2078"/>
   <tile gid="2078"/>
   <tile gid="2078"/>
   <tile gid="2078"/>
   <tile gid="2078"/>
   <tile gid="2078"/>
   <tile gid="2078"/>
   <tile gid="2078"/>
   <tile gid="2078"/>
   <tile gid="2078"/>
   <tile gid="2078"/>
   <tile gid="2078"/>
   <tile gid="2078"/>
   <tile gid="2078"/>
   <tile gid="2078"/>
   <tile gid="2078"/>
   <tile gid="2078"/>
   <tile gid="2078"/>
   <tile gid="2078"/>
   <tile gid="2078"/>
   <tile gid="2078"/>
   <tile gid="2078"/>
   <tile gid="2078"/>
   <tile gid="2078"/>
   <tile gid="2078"/>
   <tile gid="2078"/>
   <tile gid="2078"/>
   <tile gid="2078"/>
   <tile gid="7649"/>
   <tile gid="7649"/>
   <tile gid="14375"/>
   <tile gid="15452"/>
   <tile gid="14376"/>
   <tile gid="14376"/>
   <tile gid="14376"/>
   <tile gid="14377"/>
   <tile gid="2078"/>
   <tile gid="2078"/>
   <tile gid="2078"/>
   <tile gid="2078"/>
   <tile gid="2078"/>
   <tile gid="2078"/>
   <tile gid="2078"/>
   <tile gid="2078"/>
   <tile gid="2078"/>
   <tile gid="2078"/>
   <tile gid="2078"/>
   <tile gid="2078"/>
   <tile gid="2078"/>
   <tile gid="2078"/>
   <tile gid="2078"/>
   <tile gid="2078"/>
   <tile gid="2078"/>
   <tile gid="2078"/>
   <tile gid="2078"/>
   <tile gid="2078"/>
   <tile gid="2078"/>
   <tile gid="2078"/>
   <tile gid="2078"/>
   <tile gid="2078"/>
   <tile gid="2078"/>
   <tile gid="2078"/>
   <tile gid="2078"/>
   <tile gid="2078"/>
   <tile gid="7649"/>
   <tile gid="7649"/>
   <tile gid="2078"/>
   <tile gid="2078"/>
   <tile gid="2078"/>
   <tile gid="2078"/>
   <tile gid="2078"/>
   <tile gid="2078"/>
   <tile gid="2078"/>
   <tile gid="2078"/>
   <tile gid="2078"/>
   <tile gid="2078"/>
   <tile gid="2078"/>
   <tile gid="2078"/>
   <tile gid="2078"/>
   <tile gid="2078"/>
   <tile gid="2078"/>
   <tile gid="2078"/>
   <tile gid="2078"/>
   <tile gid="2078"/>
   <tile gid="2078"/>
   <tile gid="2078"/>
   <tile gid="2078"/>
   <tile gid="2078"/>
   <tile gid="2078"/>
   <tile gid="2078"/>
   <tile gid="2078"/>
   <tile gid="2078"/>
   <tile gid="2078"/>
   <tile gid="2078"/>
   <tile gid="2078"/>
   <tile gid="2078"/>
   <tile gid="2078"/>
   <tile gid="2078"/>
   <tile gid="2078"/>
   <tile gid="2078"/>
   <tile gid="7649"/>
   <tile gid="7649"/>
   <tile gid="2078"/>
   <tile gid="2078"/>
   <tile gid="2078"/>
   <tile gid="2078"/>
   <tile gid="2078"/>
   <tile gid="2078"/>
   <tile gid="2078"/>
   <tile gid="2078"/>
   <tile gid="2078"/>
   <tile gid="2078"/>
   <tile gid="2078"/>
   <tile gid="2078"/>
   <tile gid="2078"/>
   <tile gid="2078"/>
   <tile gid="2078"/>
   <tile gid="2078"/>
   <tile gid="2078"/>
   <tile gid="2078"/>
   <tile gid="2078"/>
   <tile gid="2078"/>
   <tile gid="2078"/>
   <tile gid="2078"/>
   <tile gid="2078"/>
   <tile gid="2078"/>
   <tile gid="2078"/>
   <tile gid="2078"/>
   <tile gid="2078"/>
   <tile gid="2078"/>
   <tile gid="2078"/>
   <tile gid="2078"/>
   <tile gid="2078"/>
   <tile gid="2078"/>
   <tile gid="2078"/>
   <tile gid="2078"/>
   <tile gid="7649"/>
   <tile gid="7649"/>
   <tile gid="2078"/>
   <tile gid="2078"/>
   <tile gid="2078"/>
   <tile gid="2078"/>
   <tile gid="2078"/>
   <tile gid="2078"/>
   <tile gid="2078"/>
   <tile gid="2078"/>
   <tile gid="2078"/>
   <tile gid="2078"/>
   <tile gid="2078"/>
   <tile gid="2078"/>
   <tile gid="2078"/>
   <tile gid="2078"/>
   <tile gid="2078"/>
   <tile gid="2078"/>
   <tile gid="2078"/>
   <tile gid="2078"/>
   <tile gid="2078"/>
   <tile gid="2078"/>
   <tile gid="2078"/>
   <tile gid="2078"/>
   <tile gid="2078"/>
   <tile gid="2078"/>
   <tile gid="2078"/>
   <tile gid="2078"/>
   <tile gid="2078"/>
   <tile gid="2078"/>
   <tile gid="2078"/>
   <tile gid="2078"/>
   <tile gid="2078"/>
   <tile gid="2078"/>
   <tile gid="2078"/>
   <tile gid="2078"/>
   <tile gid="7649"/>
   <tile gid="7649"/>
   <tile gid="2078"/>
   <tile gid="2078"/>
   <tile gid="2078"/>
   <tile gid="2078"/>
   <tile gid="2078"/>
   <tile gid="2078"/>
   <tile gid="2078"/>
   <tile gid="2078"/>
   <tile gid="2078"/>
   <tile gid="2078"/>
   <tile gid="2078"/>
   <tile gid="2078"/>
   <tile gid="2078"/>
   <tile gid="2078"/>
   <tile gid="2078"/>
   <tile gid="2078"/>
   <tile gid="2078"/>
   <tile gid="2078"/>
   <tile gid="2078"/>
   <tile gid="2078"/>
   <tile gid="2078"/>
   <tile gid="2078"/>
   <tile gid="2078"/>
   <tile gid="2078"/>
   <tile gid="2078"/>
   <tile gid="2078"/>
   <tile gid="2078"/>
   <tile gid="2078"/>
   <tile gid="2078"/>
   <tile gid="2078"/>
   <tile gid="2078"/>
   <tile gid="2078"/>
   <tile gid="2078"/>
   <tile gid="2078"/>
   <tile gid="7649"/>
   <tile gid="7649"/>
   <tile gid="7649"/>
   <tile gid="7649"/>
   <tile gid="7649"/>
   <tile gid="7649"/>
   <tile gid="7649"/>
   <tile gid="7649"/>
   <tile gid="7649"/>
   <tile gid="7649"/>
   <tile gid="7649"/>
   <tile gid="7649"/>
   <tile gid="7649"/>
   <tile gid="7649"/>
   <tile gid="7649"/>
   <tile gid="7649"/>
   <tile gid="7649"/>
   <tile gid="7649"/>
   <tile gid="7649"/>
   <tile gid="7649"/>
   <tile gid="7649"/>
   <tile gid="7649"/>
   <tile gid="7649"/>
   <tile gid="7649"/>
   <tile gid="7649"/>
   <tile gid="7649"/>
   <tile gid="7649"/>
   <tile gid="7649"/>
   <tile gid="7649"/>
   <tile gid="7649"/>
   <tile gid="7649"/>
   <tile gid="7649"/>
   <tile gid="7649"/>
   <tile gid="7649"/>
   <tile gid="7649"/>
   <tile gid="7649"/>
   <tile gid="7649"/>
  </data>
 </layer>
 <layer id="2" name="Map2" width="36" height="36">
  <properties>
   <property name="Draw" type="bool" value="true"/>
  </properties>
  <data>
   <tile/>
   <tile/>
   <tile/>
   <tile/>
   <tile/>
   <tile/>
   <tile/>
   <tile/>
   <tile/>
   <tile/>
   <tile/>
   <tile/>
   <tile/>
   <tile/>
   <tile/>
   <tile/>
   <tile/>
   <tile/>
   <tile/>
   <tile/>
   <tile/>
   <tile/>
   <tile/>
   <tile/>
   <tile/>
   <tile/>
   <tile/>
   <tile/>
   <tile/>
   <tile/>
   <tile/>
   <tile/>
   <tile/>
   <tile/>
   <tile/>
   <tile/>
   <tile/>
   <tile/>
   <tile/>
   <tile/>
   <tile/>
   <tile/>
   <tile/>
   <tile/>
   <tile/>
   <tile/>
   <tile/>
   <tile/>
   <tile/>
   <tile/>
   <tile/>
   <tile/>
   <tile/>
   <tile/>
   <tile/>
   <tile/>
   <tile/>
   <tile/>
   <tile/>
   <tile/>
   <tile/>
   <tile/>
   <tile/>
   <tile/>
   <tile/>
   <tile/>
   <tile/>
   <tile/>
   <tile/>
   <tile/>
   <tile/>
   <tile/>
   <tile/>
   <tile/>
   <tile/>
   <tile/>
   <tile/>
   <tile/>
   <tile/>
   <tile/>
   <tile/>
   <tile/>
   <tile/>
   <tile/>
   <tile/>
   <tile/>
   <tile/>
   <tile/>
   <tile/>
   <tile/>
   <tile/>
   <tile/>
   <tile/>
   <tile/>
   <tile/>
   <tile/>
   <tile/>
   <tile/>
   <tile/>
   <tile/>
   <tile/>
   <tile/>
   <tile/>
   <tile/>
   <tile/>
   <tile/>
   <tile/>
   <tile/>
   <tile/>
   <tile/>
   <tile/>
   <tile/>
   <tile/>
   <tile/>
   <tile/>
   <tile/>
   <tile/>
   <tile/>
   <tile/>
   <tile/>
   <tile/>
   <tile/>
   <tile/>
   <tile/>
   <tile/>
   <tile/>
   <tile/>
   <tile/>
   <tile/>
   <tile/>
   <tile/>
   <tile/>
   <tile/>
   <tile/>
   <tile/>
   <tile/>
   <tile/>
   <tile/>
   <tile/>
   <tile/>
   <tile/>
   <tile/>
   <tile/>
   <tile/>
   <tile/>
   <tile/>
   <tile/>
   <tile/>
   <tile gid="1113"/>
   <tile/>
   <tile/>
   <tile/>
   <tile gid="1117"/>
   <tile/>
   <tile/>
   <tile/>
   <tile/>
   <tile/>
   <tile/>
   <tile/>
   <tile/>
   <tile/>
   <tile/>
   <tile/>
   <tile/>
   <tile/>
   <tile/>
   <tile gid="2272"/>
   <tile gid="2273"/>
   <tile gid="2274"/>
   <tile/>
   <tile/>
   <tile/>
   <tile/>
   <tile/>
   <tile/>
   <tile/>
   <tile/>
   <tile/>
   <tile/>
   <tile/>
   <tile/>
   <tile/>
   <tile/>
   <tile/>
   <tile gid="2434"/>
   <tile gid="2435"/>
   <tile gid="2436"/>
   <tile/>
   <tile/>
   <tile/>
   <tile/>
   <tile/>
   <tile/>
   <tile/>
   <tile/>
   <tile/>
   <tile/>
   <tile/>
   <tile/>
   <tile/>
   <tile/>
   <tile/>
   <tile gid="2288"/>
   <tile gid="2289"/>
   <tile gid="2290"/>
   <tile/>
   <tile/>
   <tile/>
   <tile/>
   <tile/>
   <tile/>
   <tile/>
   <tile/>
   <tile/>
   <tile/>
   <tile/>
   <tile gid="14449"/>
   <tile gid="14450"/>
   <tile gid="14451"/>
   <tile/>
   <tile gid="2466"/>
   <tile gid="2467"/>
   <tile gid="2468"/>
   <tile gid="14481"/>
   <tile gid="14482"/>
   <tile gid="14483"/>
   <tile/>
   <tile/>
   <tile/>
   <tile/>
   <tile/>
   <tile/>
   <tile/>
   <tile/>
   <tile/>
   <tile/>
   <tile/>
   <tile/>
   <tile gid="2304"/>
   <tile gid="2305"/>
   <tile gid="2306"/>
   <tile/>
   <tile/>
   <tile/>
   <tile/>
   <tile/>
   <tile/>
   <tile/>
   <tile/>
   <tile/>
   <tile/>
   <tile/>
   <tile/>
   <tile/>
   <tile/>
   <tile/>
   <tile gid="2498"/>
   <tile gid="2499"/>
   <tile gid="2500"/>
   <tile/>
   <tile/>
   <tile/>
   <tile/>
   <tile/>
   <tile gid="4293"/>
   <tile gid="4294"/>
   <tile gid="4295"/>
   <tile/>
   <tile/>
   <tile/>
   <tile/>
   <tile gid="4293"/>
   <tile gid="4294"/>
   <tile gid="4295"/>
   <tile/>
   <tile/>
   <tile/>
   <tile gid="4293"/>
   <tile gid="4294"/>
   <tile gid="4295"/>
   <tile/>
   <tile/>
   <tile/>
   <tile gid="4293"/>
   <tile gid="4294"/>
   <tile gid="4295"/>
   <tile/>
   <tile/>
   <tile/>
   <tile/>
   <tile/>
   <tile/>
   <tile/>
   <tile/>
   <tile/>
   <tile/>
   <tile/>
   <tile/>
   <tile/>
   <tile/>
   <tile gid="4325"/>
   <tile gid="4326"/>
   <tile gid="4327"/>
   <tile/>
   <tile gid="3040"/>
   <tile/>
   <tile/>
   <tile gid="4325"/>
   <tile gid="4326"/>
   <tile gid="4327"/>
   <tile/>
   <tile/>
   <tile/>
   <tile gid="4325"/>
   <tile gid="4326"/>
   <tile gid="4327"/>
   <tile/>
   <tile gid="3040"/>
   <tile/>
   <tile gid="4325"/>
   <tile gid="4326"/>
   <tile gid="4327"/>
   <tile/>
   <tile/>
   <tile/>
   <tile/>
   <tile/>
   <tile/>
   <tile/>
   <tile/>
   <tile/>
   <tile/>
   <tile/>
   <tile/>
   <tile/>
   <tile/>
   <tile gid="4357"/>
   <tile gid="14481"/>
   <tile gid="14482"/>
   <tile gid="14483"/>
   <tile gid="3072"/>
   <tile gid="11353"/>
   <tile/>
   <tile gid="4357"/>
   <tile gid="14481"/>
   <tile gid="14482"/>
   <tile gid="14483"/>
   <tile gid="11308"/>
   <tile gid="11309"/>
   <tile gid="4357"/>
   <tile gid="4358"/>
   <tile gid="4359"/>
   <tile gid="11353"/>
   <tile gid="3072"/>
   <tile/>
   <tile gid="4357"/>
   <tile gid="12041"/>
   <tile gid="12042"/>
   <tile/>
   <tile/>
   <tile/>
   <tile/>
   <tile/>
   <tile/>
   <tile/>
   <tile/>
   <tile/>
   <tile/>
   <tile gid="12092"/>
   <tile/>
   <tile/>
   <tile/>
   <tile/>
   <tile/>
   <tile/>
   <tile/>
   <tile/>
   <tile gid="11369"/>
   <tile/>
   <tile/>
   <tile/>
   <tile/>
   <tile/>
   <tile gid="11324"/>
   <tile gid="11325"/>
   <tile/>
   <tile/>
   <tile/>
   <tile gid="11369"/>
   <tile/>
   <tile/>
   <tile/>
   <tile gid="12057"/>
   <tile gid="12058"/>
   <tile/>
   <tile/>
   <tile gid="11313"/>
   <tile/>
   <tile/>
   <tile/>
   <tile/>
   <tile/>
   <tile/>
   <tile/>
   <tile/>
   <tile/>
   <tile/>
   <tile/>
   <tile/>
   <tile/>
   <tile/>
   <tile/>
   <tile/>
   <tile/>
   <tile/>
   <tile/>
   <tile/>
   <tile/>
   <tile/>
   <tile/>
   <tile/>
   <tile/>
   <tile/>
   <tile/>
   <tile/>
   <tile/>
   <tile/>
   <tile/>
   <tile gid="12073"/>
   <tile gid="12074"/>
   <tile/>
   <tile/>
   <tile gid="11329"/>
   <tile/>
   <tile/>
   <tile/>
   <tile/>
   <tile/>
   <tile/>
   <tile/>
   <tile/>
   <tile/>
   <tile/>
   <tile/>
   <tile/>
   <tile/>
   <tile/>
   <tile/>
   <tile/>
   <tile/>
   <tile/>
   <tile/>
   <tile/>
   <tile/>
   <tile/>
   <tile gid="12092"/>
   <tile/>
   <tile/>
   <tile/>
   <tile/>
   <tile/>
   <tile/>
   <tile/>
   <tile/>
   <tile/>
   <tile gid="12113"/>
   <tile/>
   <tile/>
   <tile/>
   <tile/>
   <tile/>
   <tile/>
   <tile/>
   <tile/>
   <tile/>
   <tile/>
   <tile/>
   <tile/>
   <tile/>
   <tile/>
   <tile/>
   <tile/>
   <tile/>
   <tile/>
   <tile/>
   <tile/>
   <tile/>
   <tile/>
   <tile/>
   <tile/>
   <tile/>
   <tile/>
   <tile/>
   <tile/>
   <tile/>
   <tile/>
   <tile/>
   <tile/>
   <tile/>
   <tile/>
   <tile/>
   <tile/>
   <tile/>
   <tile/>
   <tile/>
   <tile/>
   <tile/>
   <tile/>
   <tile/>
   <tile/>
   <tile/>
   <tile/>
   <tile/>
   <tile/>
   <tile/>
   <tile/>
   <tile/>
   <tile/>
   <tile/>
   <tile/>
   <tile/>
   <tile/>
   <tile/>
   <tile/>
   <tile/>
   <tile/>
   <tile/>
   <tile/>
   <tile/>
   <tile/>
   <tile/>
   <tile/>
   <tile/>
   <tile/>
   <tile/>
   <tile/>
   <tile/>
   <tile/>
   <tile/>
   <tile/>
   <tile/>
   <tile/>
   <tile/>
   <tile/>
   <tile/>
   <tile/>
   <tile/>
   <tile/>
   <tile/>
   <tile/>
   <tile/>
   <tile/>
   <tile/>
   <tile/>
   <tile/>
   <tile/>
   <tile/>
   <tile/>
   <tile/>
   <tile/>
   <tile/>
   <tile/>
   <tile/>
   <tile/>
   <tile/>
   <tile/>
   <tile/>
   <tile/>
   <tile/>
   <tile/>
   <tile/>
   <tile/>
   <tile/>
   <tile/>
   <tile/>
   <tile/>
   <tile/>
   <tile/>
   <tile/>
   <tile/>
   <tile/>
   <tile/>
   <tile/>
   <tile/>
   <tile/>
   <tile/>
   <tile/>
   <tile/>
   <tile/>
   <tile/>
   <tile/>
   <tile/>
   <tile/>
   <tile/>
   <tile/>
   <tile/>
   <tile/>
   <tile/>
   <tile/>
   <tile/>
   <tile/>
   <tile/>
   <tile/>
   <tile/>
   <tile/>
   <tile/>
   <tile/>
   <tile/>
   <tile/>
   <tile/>
   <tile/>
   <tile/>
   <tile/>
   <tile/>
   <tile/>
   <tile/>
   <tile/>
   <tile/>
   <tile/>
   <tile/>
   <tile/>
   <tile/>
   <tile/>
   <tile/>
   <tile/>
   <tile/>
   <tile/>
   <tile/>
   <tile/>
   <tile/>
   <tile/>
   <tile/>
   <tile/>
   <tile/>
   <tile/>
   <tile/>
   <tile/>
   <tile/>
   <tile/>
   <tile/>
   <tile/>
   <tile/>
   <tile/>
   <tile/>
   <tile/>
   <tile/>
   <tile/>
   <tile/>
   <tile/>
   <tile/>
   <tile/>
   <tile/>
   <tile/>
   <tile/>
   <tile/>
   <tile/>
   <tile/>
   <tile/>
   <tile/>
   <tile gid="1113"/>
   <tile/>
   <tile/>
   <tile/>
   <tile/>
   <tile/>
   <tile gid="1117"/>
   <tile/>
   <tile/>
   <tile/>
   <tile/>
   <tile/>
   <tile/>
   <tile/>
   <tile/>
   <tile/>
   <tile/>
   <tile/>
   <tile/>
   <tile/>
   <tile/>
   <tile/>
   <tile/>
   <tile/>
   <tile/>
   <tile/>
   <tile/>
   <tile/>
   <tile/>
   <tile/>
   <tile/>
   <tile/>
   <tile/>
   <tile/>
   <tile/>
   <tile/>
   <tile/>
   <tile/>
   <tile/>
   <tile/>
   <tile/>
   <tile/>
   <tile/>
   <tile/>
   <tile/>
   <tile/>
   <tile/>
   <tile/>
   <tile gid="4293"/>
   <tile gid="4294"/>
   <tile gid="4295"/>
   <tile/>
   <tile/>
   <tile/>
   <tile gid="4293"/>
   <tile gid="4294"/>
   <tile gid="4295"/>
   <tile/>
   <tile/>
   <tile/>
   <tile/>
   <tile/>
   <tile/>
   <tile/>
   <tile/>
   <tile/>
   <tile/>
   <tile/>
   <tile/>
   <tile/>
   <tile/>
   <tile/>
   <tile/>
   <tile/>
   <tile/>
   <tile/>
   <tile/>
   <tile/>
   <tile/>
   <tile/>
   <tile/>
   <tile/>
   <tile gid="3040"/>
   <tile/>
   <tile gid="4325"/>
   <tile gid="4326"/>
   <tile gid="4327"/>
   <tile/>
   <tile/>
   <tile/>
   <tile gid="4325"/>
   <tile gid="4326"/>
   <tile gid="4327"/>
   <tile/>
   <tile/>
   <tile/>
   <tile/>
   <tile/>
   <tile/>
   <tile/>
   <tile/>
   <tile/>
   <tile/>
   <tile/>
   <tile gid="14449"/>
   <tile gid="14450"/>
   <tile gid="14451"/>
   <tile/>
   <tile gid="12107"/>
   <tile/>
   <tile/>
   <tile/>
   <tile/>
   <tile/>
   <tile/>
   <tile/>
   <tile/>
   <tile gid="11352"/>
   <tile gid="3072"/>
   <tile/>
   <tile gid="4357"/>
   <tile gid="4358"/>
   <tile gid="4359"/>
   <tile gid="14481"/>
   <tile gid="14482"/>
   <tile gid="14483"/>
   <tile gid="4357"/>
   <tile gid="4358"/>
   <tile gid="4359"/>
   <tile/>
   <tile gid="11197"/>
   <tile/>
   <tile/>
   <tile/>
   <tile/>
   <tile/>
   <tile/>
   <tile/>
   <tile/>
   <tile/>
   <tile/>
   <tile/>
   <tile/>
   <tile/>
   <tile gid="12123"/>
   <tile/>
   <tile/>
   <tile/>
   <tile/>
   <tile/>
   <tile/>
   <tile/>
   <tile/>
   <tile gid="11368"/>
   <tile/>
   <tile/>
   <tile/>
   <tile/>
   <tile/>
   <tile/>
   <tile/>
   <tile gid="11289"/>
   <tile/>
   <tile/>
   <tile/>
   <tile/>
   <tile gid="11213"/>
   <tile/>
   <tile/>
   <tile/>
   <tile/>
   <tile/>
   <tile/>
   <tile/>
   <tile/>
   <tile/>
   <tile/>
   <tile/>
   <tile/>
   <tile/>
   <tile/>
   <tile/>
   <tile/>
   <tile/>
   <tile/>
   <tile/>
   <tile/>
   <tile/>
   <tile/>
   <tile/>
   <tile/>
   <tile/>
   <tile/>
   <tile/>
   <tile/>
   <tile/>
   <tile/>
   <tile gid="11305"/>
   <tile/>
   <tile/>
   <tile/>
   <tile/>
   <tile gid="11290"/>
   <tile/>
   <tile/>
   <tile/>
   <tile/>
   <tile/>
   <tile/>
   <tile/>
   <tile/>
   <tile/>
   <tile/>
   <tile/>
   <tile/>
   <tile/>
   <tile/>
   <tile/>
   <tile/>
   <tile/>
   <tile/>
   <tile/>
   <tile/>
   <tile/>
   <tile/>
   <tile/>
   <tile/>
   <tile/>
   <tile/>
   <tile gid="12094"/>
   <tile/>
   <tile/>
   <tile/>
   <tile/>
   <tile/>
   <tile/>
   <tile/>
   <tile/>
   <tile gid="11306"/>
   <tile/>
   <tile/>
   <tile/>
   <tile/>
   <tile/>
   <tile/>
   <tile/>
   <tile/>
   <tile/>
   <tile/>
   <tile/>
   <tile/>
   <tile/>
   <tile/>
   <tile gid="12114"/>
   <tile/>
   <tile/>
   <tile/>
   <tile/>
   <tile/>
   <tile/>
   <tile/>
   <tile/>
   <tile/>
   <tile/>
   <tile/>
   <tile/>
   <tile/>
   <tile/>
   <tile gid="12094"/>
   <tile/>
   <tile/>
   <tile/>
   <tile/>
   <tile/>
   <tile/>
   <tile/>
   <tile/>
   <tile/>
   <tile/>
   <tile/>
   <tile/>
   <tile/>
   <tile/>
   <tile/>
   <tile/>
   <tile/>
   <tile/>
   <tile/>
   <tile/>
   <tile/>
   <tile/>
   <tile/>
   <tile/>
   <tile/>
   <tile/>
   <tile/>
   <tile/>
   <tile/>
   <tile/>
   <tile/>
   <tile/>
   <tile/>
   <tile/>
   <tile/>
   <tile/>
   <tile/>
   <tile/>
   <tile gid="12127"/>
   <tile gid="12128"/>
   <tile/>
   <tile/>
   <tile/>
   <tile/>
   <tile/>
   <tile/>
   <tile/>
   <tile/>
   <tile/>
   <tile/>
   <tile/>
   <tile/>
   <tile/>
   <tile/>
   <tile/>
   <tile/>
   <tile/>
   <tile/>
   <tile/>
   <tile/>
   <tile/>
   <tile/>
   <tile/>
   <tile/>
   <tile/>
   <tile/>
   <tile/>
   <tile/>
   <tile/>
   <tile/>
   <tile gid="12111"/>
   <tile/>
   <tile/>
   <tile/>
   <tile/>
   <tile/>
   <tile/>
   <tile/>
   <tile/>
   <tile/>
   <tile/>
   <tile/>
   <tile/>
   <tile/>
   <tile/>
   <tile/>
   <tile/>
   <tile/>
   <tile/>
   <tile/>
   <tile gid="11335"/>
   <tile gid="11357"/>
   <tile gid="11336"/>
   <tile/>
   <tile/>
   <tile/>
   <tile/>
   <tile/>
   <tile/>
   <tile/>
   <tile/>
   <tile/>
   <tile/>
   <tile/>
   <tile/>
   <tile/>
   <tile/>
   <tile/>
   <tile/>
   <tile gid="12133"/>
   <tile/>
   <tile/>
   <tile/>
   <tile/>
   <tile/>
   <tile/>
   <tile gid="2428"/>
   <tile gid="2429"/>
   <tile gid="2430"/>
   <tile/>
   <tile/>
   <tile/>
   <tile/>
   <tile/>
   <tile/>
   <tile/>
   <tile/>
   <tile/>
   <tile/>
   <tile/>
   <tile/>
   <tile/>
   <tile/>
   <tile/>
   <tile/>
   <tile/>
   <tile/>
   <tile/>
   <tile/>
   <tile/>
   <tile gid="12108"/>
   <tile/>
   <tile/>
   <tile/>
   <tile/>
   <tile/>
   <tile/>
   <tile/>
   <tile/>
   <tile/>
   <tile/>
   <tile/>
   <tile gid="2460"/>
   <tile gid="2461"/>
   <tile gid="2462"/>
   <tile gid="14449"/>
   <tile gid="14450"/>
   <tile gid="14451"/>
   <tile/>
   <tile/>
   <tile/>
   <tile/>
   <tile/>
   <tile/>
   <tile/>
   <tile/>
   <tile/>
   <tile/>
   <tile/>
   <tile/>
   <tile/>
   <tile/>
   <tile/>
   <tile/>
   <tile/>
   <tile/>
   <tile/>
   <tile/>
   <tile/>
   <tile/>
   <tile gid="12092"/>
   <tile/>
   <tile/>
   <tile/>
   <tile/>
   <tile/>
   <tile/>
   <tile/>
   <tile gid="2492"/>
   <tile gid="2493"/>
   <tile gid="2494"/>
   <tile/>
   <tile gid="11369"/>
   <tile/>
   <tile/>
   <tile/>
   <tile/>
   <tile/>
   <tile/>
   <tile/>
   <tile/>
   <tile/>
   <tile/>
   <tile/>
   <tile/>
   <tile/>
   <tile/>
   <tile/>
   <tile/>
   <tile/>
   <tile/>
   <tile/>
   <tile/>
   <tile/>
   <tile/>
   <tile/>
   <tile/>
   <tile/>
   <tile/>
   <tile/>
   <tile/>
   <tile/>
   <tile/>
   <tile/>
   <tile/>
   <tile/>
   <tile/>
   <tile/>
   <tile/>
   <tile/>
   <tile/>
   <tile/>
   <tile/>
   <tile/>
   <tile/>
   <tile/>
   <tile/>
   <tile/>
   <tile/>
   <tile/>
   <tile/>
   <tile/>
   <tile/>
   <tile gid="12093"/>
   <tile/>
   <tile/>
   <tile/>
   <tile gid="12129"/>
   <tile/>
   <tile/>
   <tile/>
   <tile/>
   <tile/>
   <tile/>
   <tile/>
   <tile gid="12031"/>
   <tile gid="12032"/>
   <tile gid="12033"/>
   <tile/>
   <tile/>
   <tile/>
   <tile/>
   <tile/>
   <tile/>
   <tile/>
   <tile/>
   <tile/>
   <tile/>
   <tile/>
   <tile/>
   <tile/>
   <tile/>
   <tile/>
   <tile gid="11336"/>
   <tile gid="11357"/>
   <tile/>
   <tile/>
   <tile/>
   <tile/>
   <tile/>
   <tile/>
   <tile/>
   <tile/>
   <tile/>
   <tile/>
   <tile/>
   <tile/>
   <tile/>
   <tile/>
   <tile/>
   <tile/>
   <tile gid="12047"/>
   <tile gid="12048"/>
   <tile gid="12049"/>
   <tile/>
   <tile/>
   <tile/>
   <tile/>
   <tile/>
   <tile/>
   <tile/>
   <tile/>
   <tile/>
   <tile/>
   <tile/>
   <tile/>
   <tile/>
   <tile/>
   <tile/>
   <tile/>
   <tile/>
   <tile/>
   <tile/>
   <tile/>
   <tile/>
   <tile/>
   <tile/>
   <tile/>
   <tile/>
   <tile/>
   <tile/>
   <tile/>
   <tile/>
   <tile gid="12117"/>
   <tile/>
   <tile/>
   <tile/>
   <tile/>
   <tile/>
   <tile gid="12065"/>
   <tile/>
   <tile/>
   <tile/>
   <tile/>
   <tile/>
   <tile/>
   <tile/>
   <tile/>
   <tile/>
   <tile/>
   <tile/>
   <tile/>
   <tile/>
   <tile/>
   <tile/>
   <tile/>
   <tile/>
   <tile/>
   <tile/>
   <tile/>
   <tile/>
   <tile/>
   <tile/>
   <tile/>
   <tile/>
   <tile/>
   <tile/>
   <tile/>
   <tile/>
   <tile/>
   <tile/>
   <tile/>
   <tile/>
   <tile/>
   <tile/>
   <tile/>
   <tile/>
  </data>
 </layer>
 <objectgroup id="3" name="Collision">
  <properties>
   <property name="Collision" type="bool" value="true"/>
   <property name="Draw" type="bool" value="false"/>
  </properties>
  <object id="1" x="0" y="0" width="192" height="224"/>
  <object id="2" x="192" y="128" width="32" height="32"/>
  <object id="3" x="224" y="128" width="160" height="96"/>
  <object id="4" x="384" y="190.667" width="768" height="129.333"/>
  <object id="6" x="544" y="480" width="608" height="224"/>
  <object id="7" x="224" y="480" width="224" height="224"/>
  <object id="8" x="96" y="640" width="128" height="352"/>
  <object id="9" x="64" y="896" width="32" height="32"/>
  <object id="10" x="0" y="896" width="64" height="96"/>
  <object id="11" x="1120" y="320" width="32" height="160"/>
  <object id="12" x="1120" y="704" width="32" height="448"/>
  <object id="13" x="0" y="1120" width="1120" height="32"/>
  <object id="14" x="0" y="992" width="32" height="128"/>
  <object id="15" x="0" y="224" width="32" height="256"/>
  <object id="16" x="32" y="480" width="192" height="32"/>
  <object id="17" x="0" y="480" width="32" height="32"/>
  <object id="24" x="773" y="307" width="52" height="40"/>
  <object id="25" x="580" y="311" width="26" height="39"/>
  <object id="26" x="928" y="312" width="30" height="38"/>
  <object id="27" x="1052" y="311" width="68" height="74"/>
  <object id="28" x="1093" y="388" width="28" height="25"/>
  <object id="29" x="33" y="346" width="30" height="66"/>
  <object id="30" x="670" y="693" width="30" height="42"/>
  <object id="31" x="930" y="729" width="31" height="36"/>
  <object id="33" x="960" y="762" width="32" height="38"/>
  <object id="34" x="1089" y="758" width="29" height="39"/>
  <object id="35" x="1091" y="691" width="27" height="43"/>
  <object id="36" x="1020" y="1022" width="55" height="34"/>
  <object id="37" x="1057" y="1049" width="61" height="39"/>
  <object id="38" x="802" y="924" width="29" height="35"/>
  <object id="39" x="858" y="860" width="36" height="31"/>
  <object id="40" x="962" y="895" width="28" height="29"/>
  <object id="41" x="768" y="1018" width="31" height="35"/>
  <object id="42" x="162" y="978" width="29" height="41"/>
  <object id="43" x="415" y="795" width="33" height="35"/>
  <object id="44" x="354" y="889" width="95" height="38"/>
  <object id="45" x="444" y="1055" width="71" height="32"/>
 </objectgroup>
 <objectgroup id="5" name="Teleport">
  <object id="18" x="192" y="160" width="32" height="69.5">
   <properties>
    <property name="targetMap" value="Backroom.tmx"/>
   </properties>
  </object>
  <object id="19" x="64" y="928" width="32" height="96">
   <properties>
    <property name="targetMap" value="RestaurantDungeon.tmx"/>
   </properties>
  </object>
 </objectgroup>
 <objectgroup id="6" name="Checkpoints">
  <object id="20" x="192" y="224" width="32" height="32"/>
  <object id="21" x="64" y="992" width="32" height="32"/>
 </objectgroup>
 <objectgroup id="4" name="Entities">
  <object id="22" name="Player" type="Player" x="210.333" y="292">
   <properties>
    <property name="CorneliusJoined" type="bool" value="false"/>
    <property name="WizardJoined" type="bool" value="false"/>
    <property name="magicPoints" type="int" value="50"/>
   </properties>
   <point/>
  </object>
  <object id="46" name="Octopuss" type="NPC" x="1027" y="373">
   <properties>
    <property name="NPC_ID" type="int" value="2"/>
    <property name="active" type="bool" value="true"/>
    <property name="anim_tsxpath" value="Assets/Textures/Characters/Pulpo.tsx"/>
    <property name="currentDialogueTree" type="int" value="0"/>
    <property name="texturePath" value="Assets/Textures/Characters/Pulpo.png"/>
   </properties>
   <point/>
  </object>
 </objectgroup>
 <layer id="8" name="foreground" width="36" height="36">
  <properties>
   <property name="Draw" type="bool" value="true"/>
  </properties>
  <data>
   <tile/>
   <tile/>
   <tile/>
   <tile/>
   <tile/>
   <tile/>
   <tile/>
   <tile/>
   <tile/>
   <tile/>
   <tile/>
   <tile/>
   <tile/>
   <tile/>
   <tile/>
   <tile/>
   <tile/>
   <tile/>
   <tile/>
   <tile/>
   <tile/>
   <tile/>
   <tile/>
   <tile/>
   <tile/>
   <tile/>
   <tile/>
   <tile/>
   <tile/>
   <tile/>
   <tile/>
   <tile/>
   <tile/>
   <tile/>
   <tile/>
   <tile/>
   <tile/>
   <tile/>
   <tile/>
   <tile/>
   <tile/>
   <tile/>
   <tile/>
   <tile/>
   <tile/>
   <tile/>
   <tile/>
   <tile/>
   <tile/>
   <tile/>
   <tile/>
   <tile/>
   <tile/>
   <tile/>
   <tile/>
   <tile/>
   <tile/>
   <tile/>
   <tile/>
   <tile/>
   <tile/>
   <tile/>
   <tile/>
   <tile/>
   <tile/>
   <tile/>
   <tile/>
   <tile/>
   <tile/>
   <tile/>
   <tile/>
   <tile/>
   <tile/>
   <tile/>
   <tile/>
   <tile/>
   <tile/>
   <tile/>
   <tile/>
   <tile/>
   <tile/>
   <tile/>
   <tile/>
   <tile/>
   <tile/>
   <tile/>
   <tile/>
   <tile/>
   <tile/>
   <tile/>
   <tile/>
   <tile/>
   <tile/>
   <tile/>
   <tile/>
   <tile/>
   <tile/>
   <tile/>
   <tile/>
   <tile/>
   <tile/>
   <tile/>
   <tile/>
   <tile/>
   <tile/>
   <tile/>
   <tile/>
   <tile/>
   <tile/>
   <tile/>
   <tile/>
   <tile/>
   <tile/>
   <tile/>
   <tile/>
   <tile/>
   <tile/>
   <tile/>
   <tile/>
   <tile/>
   <tile/>
   <tile/>
   <tile/>
   <tile/>
   <tile/>
   <tile/>
   <tile/>
   <tile/>
   <tile/>
   <tile/>
   <tile/>
   <tile/>
   <tile/>
   <tile/>
   <tile/>
   <tile/>
   <tile/>
   <tile/>
   <tile/>
   <tile/>
   <tile/>
   <tile/>
   <tile/>
   <tile/>
   <tile/>
   <tile/>
   <tile/>
   <tile/>
   <tile/>
   <tile/>
   <tile/>
   <tile/>
   <tile/>
   <tile/>
   <tile/>
   <tile/>
   <tile/>
   <tile/>
   <tile/>
   <tile/>
   <tile/>
   <tile/>
   <tile/>
   <tile/>
   <tile/>
   <tile/>
   <tile/>
   <tile/>
   <tile/>
   <tile/>
   <tile/>
   <tile/>
   <tile/>
   <tile/>
   <tile/>
   <tile/>
   <tile/>
   <tile/>
   <tile/>
   <tile/>
   <tile/>
   <tile/>
   <tile/>
   <tile/>
   <tile/>
   <tile/>
   <tile/>
   <tile/>
   <tile/>
   <tile/>
   <tile/>
   <tile/>
   <tile/>
   <tile/>
   <tile/>
   <tile/>
   <tile/>
   <tile/>
   <tile/>
   <tile/>
   <tile/>
   <tile/>
   <tile/>
   <tile/>
   <tile/>
   <tile/>
   <tile/>
   <tile/>
   <tile/>
   <tile/>
   <tile/>
   <tile/>
   <tile/>
   <tile/>
   <tile/>
   <tile/>
   <tile/>
   <tile/>
   <tile/>
   <tile/>
   <tile/>
   <tile/>
   <tile/>
   <tile/>
   <tile/>
   <tile/>
   <tile/>
   <tile/>
   <tile/>
   <tile/>
   <tile/>
   <tile/>
   <tile/>
   <tile/>
   <tile/>
   <tile/>
   <tile/>
   <tile/>
   <tile/>
   <tile/>
   <tile/>
   <tile/>
   <tile/>
   <tile/>
   <tile/>
   <tile/>
   <tile/>
   <tile/>
   <tile/>
   <tile/>
   <tile/>
   <tile/>
   <tile/>
   <tile/>
   <tile/>
   <tile/>
   <tile/>
   <tile/>
   <tile/>
   <tile/>
   <tile/>
   <tile/>
   <tile/>
   <tile/>
   <tile/>
   <tile/>
   <tile/>
   <tile/>
   <tile gid="11479"/>
   <tile gid="11480"/>
   <tile gid="11481"/>
   <tile/>
   <tile/>
   <tile/>
   <tile/>
   <tile/>
   <tile/>
   <tile/>
   <tile/>
   <tile/>
   <tile/>
   <tile gid="11479"/>
   <tile gid="11480"/>
   <tile gid="11481"/>
   <tile/>
   <tile/>
   <tile/>
   <tile/>
   <tile/>
   <tile/>
   <tile/>
   <tile/>
   <tile/>
   <tile/>
   <tile/>
   <tile/>
   <tile/>
   <tile/>
   <tile/>
   <tile/>
   <tile/>
   <tile/>
   <tile/>
   <tile/>
   <tile gid="11495"/>
   <tile gid="11496"/>
   <tile gid="11497"/>
   <tile/>
   <tile/>
   <tile/>
   <tile/>
   <tile/>
   <tile/>
   <tile/>
   <tile/>
   <tile/>
   <tile/>
   <tile gid="11495"/>
   <tile gid="11496"/>
   <tile gid="11497"/>
   <tile/>
   <tile/>
   <tile/>
   <tile/>
   <tile/>
   <tile/>
   <tile/>
   <tile/>
   <tile/>
   <tile/>
   <tile/>
   <tile/>
   <tile/>
   <tile/>
   <tile/>
   <tile/>
   <tile/>
   <tile/>
   <tile/>
   <tile/>
   <tile gid="11511"/>
   <tile gid="11512"/>
   <tile gid="11513"/>
   <tile/>
   <tile/>
   <tile/>
   <tile/>
   <tile/>
   <tile/>
   <tile/>
   <tile/>
   <tile/>
   <tile/>
   <tile gid="11511"/>
   <tile gid="11512"/>
   <tile gid="11513"/>
   <tile/>
   <tile/>
   <tile/>
   <tile/>
   <tile/>
   <tile/>
   <tile/>
   <tile/>
   <tile/>
   <tile/>
   <tile/>
   <tile/>
   <tile/>
   <tile/>
   <tile/>
   <tile/>
   <tile/>
   <tile/>
   <tile/>
   <tile/>
   <tile/>
   <tile/>
   <tile/>
   <tile/>
   <tile/>
   <tile/>
   <tile/>
   <tile/>
   <tile/>
   <tile/>
   <tile/>
   <tile/>
   <tile/>
   <tile/>
   <tile/>
   <tile/>
   <tile/>
   <tile/>
   <tile/>
   <tile/>
   <tile/>
   <tile/>
   <tile/>
   <tile/>
   <tile/>
   <tile/>
   <tile/>
   <tile/>
   <tile/>
   <tile/>
   <tile/>
   <tile/>
   <tile/>
   <tile/>
   <tile/>
   <tile/>
   <tile/>
   <tile/>
   <tile/>
   <tile/>
   <tile/>
   <tile/>
   <tile/>
   <tile/>
   <tile/>
   <tile/>
   <tile/>
   <tile/>
   <tile/>
   <tile/>
   <tile/>
   <tile/>
   <tile/>
   <tile/>
   <tile/>
   <tile/>
   <tile/>
   <tile/>
   <tile/>
   <tile/>
   <tile/>
   <tile/>
   <tile/>
   <tile/>
   <tile/>
   <tile/>
   <tile/>
   <tile/>
   <tile/>
   <tile/>
   <tile/>
   <tile/>
   <tile/>
   <tile/>
   <tile/>
   <tile/>
   <tile/>
   <tile/>
   <tile/>
   <tile/>
   <tile/>
   <tile/>
   <tile/>
   <tile/>
   <tile/>
   <tile/>
   <tile/>
   <tile/>
   <tile/>
   <tile/>
   <tile/>
   <tile/>
   <tile/>
   <tile/>
   <tile/>
   <tile/>
   <tile/>
   <tile/>
   <tile/>
   <tile/>
   <tile/>
   <tile/>
   <tile/>
   <tile/>
   <tile/>
   <tile/>
   <tile/>
   <tile/>
   <tile/>
   <tile/>
   <tile/>
   <tile/>
   <tile/>
   <tile/>
   <tile/>
   <tile/>
   <tile/>
   <tile/>
   <tile/>
   <tile/>
   <tile/>
   <tile/>
   <tile/>
   <tile/>
   <tile/>
   <tile/>
   <tile/>
   <tile/>
   <tile/>
   <tile gid="1676"/>
   <tile gid="1677"/>
   <tile gid="1677"/>
   <tile gid="1677"/>
   <tile gid="1677"/>
   <tile gid="1677"/>
   <tile gid="1677"/>
   <tile gid="1677"/>
   <tile gid="1677"/>
   <tile gid="1677"/>
   <tile gid="1677"/>
   <tile gid="1677"/>
   <tile gid="1678"/>
   <tile/>
   <tile/>
   <tile/>
   <tile gid="1676"/>
   <tile gid="1677"/>
   <tile gid="1677"/>
   <tile gid="1677"/>
   <tile gid="1677"/>
   <tile gid="1677"/>
   <tile gid="1677"/>
   <tile gid="1677"/>
   <tile gid="1677"/>
   <tile gid="1677"/>
   <tile gid="1677"/>
   <tile gid="1677"/>
   <tile gid="1677"/>
   <tile gid="1677"/>
   <tile gid="1677"/>
   <tile gid="1677"/>
   <tile gid="1677"/>
   <tile gid="1678"/>
   <tile/>
   <tile/>
   <tile/>
   <tile/>
   <tile/>
   <tile/>
   <tile/>
   <tile/>
   <tile/>
   <tile/>
   <tile/>
   <tile/>
   <tile/>
   <tile/>
   <tile/>
   <tile/>
   <tile/>
   <tile/>
   <tile/>
   <tile/>
   <tile/>
   <tile/>
   <tile/>
   <tile/>
   <tile/>
   <tile/>
   <tile/>
   <tile/>
   <tile/>
   <tile/>
   <tile/>
   <tile/>
   <tile/>
   <tile/>
   <tile/>
   <tile/>
   <tile/>
   <tile/>
   <tile/>
   <tile/>
   <tile/>
   <tile/>
   <tile/>
   <tile/>
   <tile/>
   <tile/>
   <tile/>
   <tile/>
   <tile/>
   <tile/>
   <tile/>
   <tile/>
   <tile/>
   <tile/>
   <tile/>
   <tile/>
   <tile/>
   <tile/>
   <tile/>
   <tile/>
   <tile/>
   <tile/>
   <tile/>
   <tile/>
   <tile/>
   <tile/>
   <tile/>
   <tile/>
   <tile/>
   <tile/>
   <tile/>
   <tile/>
   <tile/>
   <tile/>
   <tile/>
   <tile/>
   <tile/>
   <tile/>
   <tile/>
   <tile/>
   <tile/>
   <tile/>
   <tile/>
   <tile/>
   <tile/>
   <tile/>
   <tile/>
   <tile/>
   <tile/>
   <tile/>
   <tile/>
   <tile/>
   <tile/>
   <tile/>
   <tile/>
   <tile/>
   <tile/>
   <tile/>
   <tile/>
   <tile/>
   <tile/>
   <tile/>
   <tile/>
   <tile/>
   <tile/>
   <tile/>
   <tile/>
   <tile/>
   <tile/>
   <tile/>
   <tile/>
   <tile/>
   <tile/>
   <tile/>
   <tile/>
   <tile/>
   <tile/>
   <tile/>
   <tile/>
   <tile/>
   <tile/>
   <tile/>
   <tile/>
   <tile/>
   <tile/>
   <tile/>
   <tile/>
   <tile/>
   <tile/>
   <tile/>
   <tile/>
   <tile/>
   <tile/>
   <tile/>
   <tile/>
   <tile/>
   <tile/>
   <tile/>
   <tile/>
   <tile/>
   <tile/>
   <tile/>
   <tile/>
   <tile/>
   <tile/>
   <tile/>
   <tile/>
   <tile/>
   <tile/>
   <tile/>
   <tile/>
   <tile/>
   <tile/>
   <tile/>
   <tile/>
   <tile/>
   <tile/>
   <tile/>
   <tile/>
   <tile/>
   <tile/>
   <tile/>
   <tile/>
   <tile/>
   <tile/>
   <tile/>
   <tile gid="11479"/>
   <tile gid="11480"/>
   <tile gid="11481"/>
   <tile/>
   <tile/>
   <tile/>
   <tile/>
   <tile/>
   <tile/>
   <tile/>
   <tile/>
   <tile/>
   <tile/>
   <tile/>
   <tile/>
   <tile/>
   <tile/>
   <tile/>
   <tile/>
   <tile/>
   <tile/>
   <tile/>
   <tile/>
   <tile/>
   <tile/>
   <tile/>
   <tile/>
   <tile/>
   <tile/>
   <tile/>
   <tile/>
   <tile/>
   <tile/>
   <tile/>
   <tile/>
   <tile/>
   <tile gid="11495"/>
   <tile gid="11496"/>
   <tile gid="11497"/>
   <tile/>
   <tile/>
   <tile/>
   <tile/>
   <tile/>
   <tile/>
   <tile/>
   <tile/>
   <tile/>
   <tile/>
   <tile/>
   <tile/>
   <tile/>
   <tile/>
   <tile/>
   <tile/>
   <tile/>
   <tile/>
   <tile/>
   <tile/>
   <tile/>
   <tile/>
   <tile/>
   <tile/>
   <tile/>
   <tile/>
   <tile/>
   <tile/>
   <tile/>
   <tile/>
   <tile/>
   <tile/>
   <tile/>
   <tile gid="11511"/>
   <tile gid="11512"/>
   <tile gid="11513"/>
   <tile/>
   <tile/>
   <tile/>
   <tile/>
   <tile/>
   <tile/>
   <tile/>
   <tile/>
   <tile/>
   <tile/>
   <tile/>
   <tile/>
   <tile/>
   <tile/>
   <tile/>
   <tile/>
   <tile/>
   <tile/>
   <tile/>
   <tile/>
   <tile/>
   <tile/>
   <tile/>
   <tile/>
   <tile/>
   <tile/>
   <tile/>
   <tile/>
   <tile/>
   <tile/>
   <tile/>
   <tile/>
   <tile/>
   <tile/>
   <tile/>
   <tile/>
   <tile/>
   <tile/>
   <tile/>
   <tile/>
   <tile/>
   <tile/>
   <tile/>
   <tile/>
   <tile/>
   <tile/>
   <tile/>
   <tile/>
   <tile/>
   <tile/>
   <tile/>
   <tile/>
   <tile/>
   <tile/>
   <tile/>
   <tile/>
   <tile/>
   <tile/>
   <tile/>
   <tile/>
   <tile/>
   <tile/>
   <tile/>
   <tile/>
   <tile/>
   <tile/>
   <tile/>
   <tile/>
   <tile/>
   <tile/>
   <tile/>
   <tile/>
   <tile/>
   <tile/>
   <tile/>
   <tile/>
   <tile/>
   <tile/>
   <tile/>
   <tile/>
   <tile/>
   <tile/>
   <tile/>
   <tile/>
   <tile/>
   <tile/>
   <tile/>
   <tile/>
   <tile/>
   <tile/>
   <tile/>
   <tile/>
   <tile/>
   <tile/>
   <tile/>
   <tile/>
   <tile/>
   <tile/>
   <tile/>
   <tile/>
   <tile/>
   <tile/>
   <tile/>
   <tile/>
   <tile/>
   <tile/>
   <tile/>
   <tile/>
   <tile/>
   <tile/>
   <tile/>
   <tile/>
   <tile/>
   <tile/>
   <tile gid="11357"/>
   <tile/>
   <tile/>
   <tile/>
   <tile/>
   <tile/>
   <tile/>
   <tile/>
   <tile/>
   <tile/>
   <tile/>
   <tile/>
   <tile/>
   <tile/>
   <tile/>
   <tile/>
   <tile/>
   <tile/>
   <tile/>
   <tile/>
   <tile/>
   <tile/>
   <tile/>
   <tile/>
   <tile/>
   <tile/>
   <tile/>
   <tile/>
   <tile/>
   <tile/>
   <tile/>
   <tile/>
   <tile/>
   <tile/>
   <tile/>
   <tile/>
   <tile/>
   <tile/>
   <tile/>
   <tile/>
   <tile/>
   <tile/>
   <tile/>
   <tile/>
   <tile/>
   <tile/>
   <tile/>
   <tile/>
   <tile/>
   <tile/>
   <tile/>
   <tile/>
   <tile/>
   <tile/>
   <tile/>
   <tile/>
   <tile/>
   <tile/>
   <tile/>
   <tile/>
   <tile/>
   <tile/>
   <tile/>
   <tile/>
   <tile/>
   <tile/>
   <tile/>
   <tile/>
   <tile/>
   <tile/>
   <tile/>
   <tile/>
   <tile/>
   <tile/>
   <tile/>
   <tile/>
   <tile/>
   <tile/>
   <tile/>
   <tile/>
   <tile/>
   <tile/>
   <tile/>
   <tile/>
   <tile/>
   <tile/>
   <tile/>
   <tile/>
   <tile/>
   <tile/>
   <tile/>
   <tile/>
   <tile/>
   <tile/>
   <tile/>
   <tile/>
   <tile/>
   <tile/>
   <tile/>
   <tile/>
   <tile/>
   <tile/>
   <tile/>
   <tile/>
   <tile/>
   <tile/>
   <tile/>
   <tile/>
   <tile/>
   <tile/>
   <tile/>
   <tile/>
   <tile/>
   <tile/>
   <tile/>
   <tile gid="11623"/>
   <tile gid="11624"/>
   <tile gid="11625"/>
   <tile/>
   <tile/>
   <tile/>
   <tile/>
   <tile/>
   <tile/>
   <tile/>
   <tile/>
   <tile/>
   <tile/>
   <tile/>
   <tile/>
   <tile/>
   <tile/>
   <tile/>
   <tile/>
   <tile/>
   <tile/>
   <tile/>
   <tile/>
   <tile/>
   <tile/>
   <tile/>
   <tile/>
   <tile/>
   <tile/>
   <tile/>
   <tile/>
   <tile/>
   <tile/>
   <tile/>
   <tile/>
   <tile/>
   <tile gid="11639"/>
   <tile gid="11640"/>
   <tile gid="11641"/>
   <tile/>
   <tile/>
   <tile/>
   <tile/>
   <tile/>
   <tile/>
   <tile/>
   <tile/>
   <tile/>
   <tile/>
   <tile/>
   <tile/>
   <tile/>
   <tile/>
   <tile/>
   <tile/>
   <tile/>
   <tile/>
   <tile/>
   <tile/>
   <tile/>
   <tile/>
   <tile/>
   <tile/>
   <tile/>
   <tile/>
   <tile/>
   <tile/>
   <tile/>
   <tile/>
   <tile/>
   <tile/>
   <tile/>
   <tile gid="11655"/>
   <tile gid="11656"/>
   <tile gid="11657"/>
   <tile/>
   <tile/>
   <tile/>
   <tile/>
   <tile/>
   <tile/>
   <tile/>
   <tile/>
   <tile/>
   <tile/>
   <tile/>
   <tile/>
   <tile/>
   <tile/>
   <tile/>
   <tile/>
   <tile/>
   <tile/>
   <tile/>
   <tile/>
   <tile/>
   <tile/>
   <tile/>
   <tile/>
   <tile/>
   <tile/>
   <tile/>
   <tile/>
   <tile/>
   <tile/>
   <tile/>
   <tile/>
   <tile/>
   <tile/>
   <tile/>
   <tile/>
   <tile/>
   <tile/>
   <tile/>
   <tile/>
   <tile/>
   <tile/>
   <tile/>
   <tile/>
   <tile/>
   <tile/>
   <tile/>
   <tile/>
   <tile/>
   <tile/>
   <tile/>
   <tile/>
   <tile/>
   <tile/>
   <tile/>
   <tile/>
   <tile/>
   <tile/>
   <tile/>
   <tile/>
   <tile/>
   <tile/>
   <tile/>
   <tile/>
   <tile/>
   <tile/>
   <tile/>
   <tile/>
   <tile/>
   <tile/>
   <tile/>
   <tile/>
   <tile/>
   <tile/>
   <tile/>
   <tile/>
   <tile/>
   <tile/>
   <tile/>
   <tile/>
   <tile/>
   <tile/>
   <tile/>
   <tile/>
   <tile/>
   <tile/>
   <tile/>
   <tile/>
   <tile/>
   <tile/>
   <tile/>
   <tile/>
   <tile/>
   <tile/>
   <tile/>
   <tile/>
   <tile/>
   <tile/>
   <tile/>
   <tile/>
   <tile/>
   <tile/>
   <tile/>
   <tile/>
   <tile/>
   <tile/>
   <tile/>
   <tile/>
   <tile/>
   <tile/>
   <tile/>
   <tile/>
   <tile/>
   <tile/>
   <tile/>
   <tile/>
   <tile/>
   <tile/>
   <tile/>
   <tile/>
   <tile/>
   <tile/>
   <tile/>
   <tile/>
   <tile/>
   <tile/>
   <tile/>
   <tile/>
   <tile/>
   <tile/>
   <tile/>
   <tile/>
   <tile/>
   <tile/>
   <tile/>
   <tile/>
   <tile/>
   <tile/>
   <tile/>
   <tile/>
   <tile/>
   <tile gid="7617"/>
   <tile gid="7617"/>
   <tile gid="7617"/>
   <tile gid="7617"/>
   <tile gid="7617"/>
   <tile gid="7617"/>
   <tile gid="7617"/>
   <tile gid="7617"/>
   <tile gid="7617"/>
   <tile gid="7617"/>
   <tile gid="7617"/>
   <tile gid="7617"/>
   <tile gid="7617"/>
   <tile gid="7617"/>
   <tile gid="7617"/>
   <tile gid="7617"/>
   <tile gid="7617"/>
   <tile gid="7617"/>
   <tile gid="7617"/>
   <tile gid="7617"/>
   <tile gid="7617"/>
   <tile gid="7617"/>
   <tile gid="7617"/>
   <tile gid="7617"/>
   <tile gid="7617"/>
   <tile gid="7617"/>
   <tile gid="7617"/>
   <tile gid="7617"/>
   <tile gid="7617"/>
   <tile gid="7617"/>
   <tile gid="7617"/>
   <tile gid="7617"/>
   <tile gid="7617"/>
   <tile gid="7617"/>
   <tile/>
   <tile/>
   <tile/>
   <tile/>
   <tile/>
   <tile/>
   <tile/>
   <tile/>
   <tile/>
   <tile/>
   <tile/>
   <tile/>
   <tile/>
   <tile/>
   <tile/>
   <tile/>
   <tile/>
   <tile/>
   <tile/>
   <tile/>
   <tile/>
   <tile/>
   <tile/>
   <tile/>
   <tile/>
   <tile gid="7617"/>
   <tile gid="7617"/>
   <tile gid="7617"/>
   <tile gid="7617"/>
   <tile gid="7617"/>
   <tile gid="7617"/>
   <tile gid="7617"/>
   <tile/>
   <tile/>
   <tile/>
   <tile/>
   <tile/>
  </data>
 </layer>
</map>
