<?xml version="1.0" encoding="UTF-8"?>
<map version="1.10" tiledversion="1.11.2" orientation="orthogonal" renderorder="right-down" compressionlevel="0" width="40" height="40" tilewidth="32" tileheight="32" infinite="0" nextlayerid="7" nextobjectid="37">
 <tileset firstgid="1" name="tmw_desert_spacing" tilewidth="32" tileheight="32" spacing="1" margin="1" tilecount="48" columns="8">
  <image source="../Tilesets/tmw_desert_spacing.png" width="265" height="199"/>
 </tileset>
 <tileset firstgid="49" name="MapMetadata" tilewidth="32" tileheight="32" spacing="1" margin="1" tilecount="2" columns="2">
  <image source="../Tilesets/MapMetadata.png" width="67" height="34"/>
 </tileset>
 <layer id="1" name="Map" width="40" height="40">
  <properties>
   <property name="Draw" type="bool" value="true"/>
  </properties>
  <data>
   <tile gid="10"/>
   <tile gid="10"/>
   <tile gid="10"/>
   <tile gid="10"/>
   <tile gid="10"/>
   <tile gid="10"/>
   <tile gid="10"/>
   <tile gid="10"/>
   <tile gid="10"/>
   <tile gid="10"/>
   <tile gid="10"/>
   <tile gid="10"/>
   <tile gid="10"/>
   <tile gid="10"/>
   <tile gid="10"/>
   <tile gid="10"/>
   <tile gid="10"/>
   <tile gid="10"/>
   <tile gid="10"/>
   <tile gid="10"/>
   <tile gid="10"/>
   <tile gid="10"/>
   <tile gid="10"/>
   <tile gid="10"/>
   <tile gid="10"/>
   <tile gid="10"/>
   <tile gid="10"/>
   <tile gid="10"/>
   <tile gid="10"/>
   <tile gid="10"/>
   <tile gid="10"/>
   <tile gid="10"/>
   <tile gid="10"/>
   <tile gid="10"/>
   <tile gid="10"/>
   <tile gid="10"/>
   <tile gid="10"/>
   <tile gid="10"/>
   <tile gid="10"/>
   <tile gid="10"/>
   <tile gid="10"/>
   <tile gid="10"/>
   <tile gid="10"/>
   <tile gid="10"/>
   <tile gid="10"/>
   <tile gid="10"/>
   <tile gid="10"/>
   <tile gid="10"/>
   <tile gid="10"/>
   <tile gid="10"/>
   <tile gid="10"/>
   <tile gid="10"/>
   <tile gid="10"/>
   <tile gid="10"/>
   <tile gid="10"/>
   <tile gid="10"/>
   <tile gid="10"/>
   <tile gid="10"/>
   <tile gid="10"/>
   <tile gid="10"/>
   <tile gid="10"/>
   <tile gid="10"/>
   <tile gid="10"/>
   <tile gid="10"/>
   <tile gid="10"/>
   <tile gid="10"/>
   <tile gid="10"/>
   <tile gid="10"/>
   <tile gid="10"/>
   <tile gid="10"/>
   <tile gid="10"/>
   <tile gid="10"/>
   <tile gid="10"/>
   <tile gid="10"/>
   <tile gid="10"/>
   <tile gid="10"/>
   <tile gid="10"/>
   <tile gid="10"/>
   <tile gid="10"/>
   <tile gid="10"/>
   <tile gid="10"/>
   <tile gid="10"/>
   <tile gid="30"/>
   <tile gid="30"/>
   <tile gid="30"/>
   <tile gid="30"/>
   <tile gid="30"/>
   <tile gid="30"/>
   <tile gid="30"/>
   <tile gid="30"/>
   <tile gid="30"/>
   <tile gid="30"/>
   <tile gid="30"/>
   <tile gid="30"/>
   <tile gid="30"/>
   <tile gid="30"/>
   <tile gid="30"/>
   <tile gid="30"/>
   <tile gid="30"/>
   <tile gid="30"/>
   <tile gid="30"/>
   <tile gid="30"/>
   <tile gid="30"/>
   <tile gid="30"/>
   <tile gid="30"/>
   <tile gid="30"/>
   <tile gid="30"/>
   <tile gid="30"/>
   <tile gid="30"/>
   <tile gid="30"/>
   <tile gid="30"/>
   <tile gid="30"/>
   <tile gid="30"/>
   <tile gid="30"/>
   <tile gid="30"/>
   <tile gid="30"/>
   <tile gid="30"/>
   <tile gid="10"/>
   <tile gid="10"/>
   <tile gid="10"/>
   <tile gid="10"/>
   <tile gid="10"/>
   <tile gid="30"/>
   <tile gid="30"/>
   <tile gid="30"/>
   <tile gid="30"/>
   <tile gid="30"/>
   <tile gid="30"/>
   <tile gid="30"/>
   <tile gid="30"/>
   <tile gid="30"/>
   <tile gid="30"/>
   <tile gid="30"/>
   <tile gid="30"/>
   <tile gid="30"/>
   <tile gid="30"/>
   <tile gid="30"/>
   <tile gid="30"/>
   <tile gid="30"/>
   <tile gid="30"/>
   <tile gid="30"/>
   <tile gid="30"/>
   <tile gid="30"/>
   <tile gid="30"/>
   <tile gid="30"/>
   <tile gid="30"/>
   <tile gid="30"/>
   <tile gid="30"/>
   <tile gid="30"/>
   <tile gid="30"/>
   <tile gid="30"/>
   <tile gid="30"/>
   <tile gid="30"/>
   <tile gid="30"/>
   <tile gid="30"/>
   <tile gid="30"/>
   <tile gid="30"/>
   <tile gid="10"/>
   <tile gid="10"/>
   <tile gid="10"/>
   <tile gid="10"/>
   <tile gid="10"/>
   <tile gid="30"/>
   <tile gid="30"/>
   <tile gid="30"/>
   <tile gid="30"/>
   <tile gid="30"/>
   <tile gid="30"/>
   <tile gid="30"/>
   <tile gid="30"/>
   <tile gid="30"/>
   <tile gid="30"/>
   <tile gid="30"/>
   <tile gid="30"/>
   <tile gid="30"/>
   <tile gid="30"/>
   <tile gid="30"/>
   <tile gid="30"/>
   <tile gid="30"/>
   <tile gid="30"/>
   <tile gid="30"/>
   <tile gid="30"/>
   <tile gid="30"/>
   <tile gid="30"/>
   <tile gid="30"/>
   <tile gid="30"/>
   <tile gid="30"/>
   <tile gid="30"/>
   <tile gid="30"/>
   <tile gid="30"/>
   <tile gid="30"/>
   <tile gid="30"/>
   <tile gid="30"/>
   <tile gid="30"/>
   <tile gid="30"/>
   <tile gid="30"/>
   <tile gid="30"/>
   <tile gid="10"/>
   <tile gid="10"/>
   <tile gid="10"/>
   <tile gid="10"/>
   <tile gid="10"/>
   <tile gid="30"/>
   <tile gid="30"/>
   <tile gid="30"/>
   <tile gid="30"/>
   <tile gid="30"/>
   <tile gid="30"/>
   <tile gid="30"/>
   <tile gid="30"/>
   <tile gid="30"/>
   <tile gid="30"/>
   <tile gid="30"/>
   <tile gid="30"/>
   <tile gid="30"/>
   <tile gid="30"/>
   <tile gid="30"/>
   <tile gid="30"/>
   <tile gid="30"/>
   <tile gid="30"/>
   <tile gid="30"/>
   <tile gid="30"/>
   <tile gid="30"/>
   <tile gid="30"/>
   <tile gid="30"/>
   <tile gid="30"/>
   <tile gid="30"/>
   <tile gid="30"/>
   <tile gid="30"/>
   <tile gid="30"/>
   <tile gid="30"/>
   <tile gid="30"/>
   <tile gid="30"/>
   <tile gid="30"/>
   <tile gid="30"/>
   <tile gid="30"/>
   <tile gid="30"/>
   <tile gid="10"/>
   <tile gid="10"/>
   <tile gid="10"/>
   <tile gid="10"/>
   <tile gid="10"/>
   <tile gid="30"/>
   <tile gid="30"/>
   <tile gid="30"/>
   <tile gid="30"/>
   <tile gid="30"/>
   <tile gid="30"/>
   <tile gid="30"/>
   <tile gid="30"/>
   <tile gid="30"/>
   <tile gid="30"/>
   <tile gid="30"/>
   <tile gid="30"/>
   <tile gid="30"/>
   <tile gid="30"/>
   <tile gid="30"/>
   <tile gid="30"/>
   <tile gid="30"/>
   <tile gid="30"/>
   <tile gid="30"/>
   <tile gid="30"/>
   <tile gid="30"/>
   <tile gid="30"/>
   <tile gid="30"/>
   <tile gid="30"/>
   <tile gid="30"/>
   <tile gid="30"/>
   <tile gid="30"/>
   <tile gid="30"/>
   <tile gid="30"/>
   <tile gid="30"/>
   <tile gid="30"/>
   <tile gid="30"/>
   <tile gid="30"/>
   <tile gid="30"/>
   <tile gid="30"/>
   <tile gid="10"/>
   <tile gid="10"/>
   <tile gid="10"/>
   <tile gid="10"/>
   <tile gid="10"/>
   <tile gid="30"/>
   <tile gid="30"/>
   <tile gid="30"/>
   <tile gid="30"/>
   <tile gid="30"/>
   <tile gid="30"/>
   <tile gid="30"/>
   <tile gid="30"/>
   <tile gid="30"/>
   <tile gid="30"/>
   <tile gid="30"/>
   <tile gid="30"/>
   <tile gid="30"/>
   <tile gid="30"/>
   <tile gid="30"/>
   <tile gid="30"/>
   <tile gid="30"/>
   <tile gid="30"/>
   <tile gid="30"/>
   <tile gid="30"/>
   <tile gid="30"/>
   <tile gid="30"/>
   <tile gid="30"/>
   <tile gid="30"/>
   <tile gid="30"/>
   <tile gid="30"/>
   <tile gid="30"/>
   <tile gid="30"/>
   <tile gid="30"/>
   <tile gid="30"/>
   <tile gid="30"/>
   <tile gid="30"/>
   <tile gid="30"/>
   <tile gid="30"/>
   <tile gid="30"/>
   <tile gid="10"/>
   <tile gid="10"/>
   <tile gid="10"/>
   <tile gid="10"/>
   <tile gid="10"/>
   <tile gid="30"/>
   <tile gid="30"/>
   <tile gid="30"/>
   <tile gid="30"/>
   <tile gid="30"/>
   <tile gid="30"/>
   <tile gid="30"/>
   <tile gid="30"/>
   <tile gid="30"/>
   <tile gid="30"/>
   <tile gid="30"/>
   <tile gid="30"/>
   <tile gid="30"/>
   <tile gid="30"/>
   <tile gid="30"/>
   <tile gid="30"/>
   <tile gid="30"/>
   <tile gid="30"/>
   <tile gid="30"/>
   <tile gid="30"/>
   <tile gid="30"/>
   <tile gid="30"/>
   <tile gid="30"/>
   <tile gid="30"/>
   <tile gid="30"/>
   <tile gid="30"/>
   <tile gid="30"/>
   <tile gid="30"/>
   <tile gid="30"/>
   <tile gid="30"/>
   <tile gid="30"/>
   <tile gid="30"/>
   <tile gid="30"/>
   <tile gid="30"/>
   <tile gid="30"/>
   <tile gid="10"/>
   <tile gid="10"/>
   <tile gid="10"/>
   <tile gid="10"/>
   <tile gid="10"/>
   <tile gid="30"/>
   <tile gid="30"/>
   <tile gid="30"/>
   <tile gid="30"/>
   <tile gid="30"/>
   <tile gid="30"/>
   <tile gid="30"/>
   <tile gid="30"/>
   <tile gid="30"/>
   <tile gid="30"/>
   <tile gid="30"/>
   <tile gid="30"/>
   <tile gid="30"/>
   <tile gid="30"/>
   <tile gid="30"/>
   <tile gid="30"/>
   <tile gid="30"/>
   <tile gid="30"/>
   <tile gid="30"/>
   <tile gid="30"/>
   <tile gid="30"/>
   <tile gid="30"/>
   <tile gid="30"/>
   <tile gid="30"/>
   <tile gid="30"/>
   <tile gid="30"/>
   <tile gid="30"/>
   <tile gid="30"/>
   <tile gid="30"/>
   <tile gid="30"/>
   <tile gid="30"/>
   <tile gid="30"/>
   <tile gid="30"/>
   <tile gid="30"/>
   <tile gid="30"/>
   <tile gid="10"/>
   <tile gid="10"/>
   <tile gid="10"/>
   <tile gid="10"/>
   <tile gid="10"/>
   <tile gid="30"/>
   <tile gid="30"/>
   <tile gid="30"/>
   <tile gid="30"/>
   <tile gid="30"/>
   <tile gid="30"/>
   <tile gid="30"/>
   <tile gid="30"/>
   <tile gid="30"/>
   <tile gid="30"/>
   <tile gid="30"/>
   <tile gid="30"/>
   <tile gid="30"/>
   <tile gid="30"/>
   <tile gid="30"/>
   <tile gid="30"/>
   <tile gid="30"/>
   <tile gid="30"/>
   <tile gid="30"/>
   <tile gid="30"/>
   <tile gid="30"/>
   <tile gid="30"/>
   <tile gid="30"/>
   <tile gid="30"/>
   <tile gid="30"/>
   <tile gid="30"/>
   <tile gid="30"/>
   <tile gid="30"/>
   <tile gid="30"/>
   <tile gid="30"/>
   <tile gid="30"/>
   <tile gid="30"/>
   <tile gid="30"/>
   <tile gid="30"/>
   <tile gid="30"/>
   <tile gid="10"/>
   <tile gid="10"/>
   <tile gid="10"/>
   <tile gid="10"/>
   <tile gid="10"/>
   <tile gid="30"/>
   <tile gid="30"/>
   <tile gid="30"/>
   <tile gid="30"/>
   <tile gid="30"/>
   <tile gid="30"/>
   <tile gid="30"/>
   <tile gid="30"/>
   <tile gid="30"/>
   <tile gid="30"/>
   <tile gid="30"/>
   <tile gid="30"/>
   <tile gid="30"/>
   <tile gid="30"/>
   <tile gid="30"/>
   <tile gid="10"/>
   <tile gid="10"/>
   <tile gid="30"/>
   <tile gid="30"/>
   <tile gid="30"/>
   <tile gid="30"/>
   <tile gid="30"/>
   <tile gid="30"/>
   <tile gid="30"/>
   <tile gid="30"/>
   <tile gid="30"/>
   <tile gid="30"/>
   <tile gid="30"/>
   <tile gid="30"/>
   <tile gid="30"/>
   <tile gid="30"/>
   <tile gid="30"/>
   <tile gid="30"/>
   <tile gid="30"/>
   <tile gid="30"/>
   <tile gid="10"/>
   <tile gid="10"/>
   <tile gid="10"/>
   <tile gid="10"/>
   <tile gid="10"/>
   <tile gid="30"/>
   <tile gid="30"/>
   <tile gid="30"/>
   <tile gid="30"/>
   <tile gid="30"/>
   <tile gid="30"/>
   <tile gid="30"/>
   <tile gid="30"/>
   <tile gid="30"/>
   <tile gid="30"/>
   <tile gid="30"/>
   <tile gid="30"/>
   <tile gid="30"/>
   <tile gid="30"/>
   <tile gid="10"/>
   <tile gid="10"/>
   <tile gid="10"/>
   <tile gid="30"/>
   <tile gid="30"/>
   <tile gid="30"/>
   <tile gid="30"/>
   <tile gid="30"/>
   <tile gid="30"/>
   <tile gid="30"/>
   <tile gid="30"/>
   <tile gid="30"/>
   <tile gid="30"/>
   <tile gid="30"/>
   <tile gid="30"/>
   <tile gid="30"/>
   <tile gid="30"/>
   <tile gid="30"/>
   <tile gid="30"/>
   <tile gid="30"/>
   <tile gid="30"/>
   <tile gid="10"/>
   <tile gid="10"/>
   <tile gid="10"/>
   <tile gid="10"/>
   <tile gid="10"/>
   <tile gid="30"/>
   <tile gid="30"/>
   <tile gid="30"/>
   <tile gid="30"/>
   <tile gid="30"/>
   <tile gid="30"/>
   <tile gid="30"/>
   <tile gid="30"/>
   <tile gid="30"/>
   <tile gid="30"/>
   <tile gid="30"/>
   <tile gid="30"/>
   <tile gid="30"/>
   <tile gid="10"/>
   <tile gid="10"/>
   <tile gid="10"/>
   <tile gid="10"/>
   <tile gid="30"/>
   <tile gid="30"/>
   <tile gid="30"/>
   <tile gid="30"/>
   <tile gid="30"/>
   <tile gid="30"/>
   <tile gid="30"/>
   <tile gid="30"/>
   <tile gid="30"/>
   <tile gid="30"/>
   <tile gid="30"/>
   <tile gid="30"/>
   <tile gid="30"/>
   <tile gid="30"/>
   <tile gid="30"/>
   <tile gid="30"/>
   <tile gid="30"/>
   <tile gid="30"/>
   <tile gid="10"/>
   <tile gid="10"/>
   <tile gid="10"/>
   <tile gid="10"/>
   <tile gid="10"/>
   <tile gid="30"/>
   <tile gid="30"/>
   <tile gid="30"/>
   <tile gid="30"/>
   <tile gid="30"/>
   <tile gid="30"/>
   <tile gid="30"/>
   <tile gid="30"/>
   <tile gid="30"/>
   <tile gid="30"/>
   <tile gid="10"/>
   <tile gid="10"/>
   <tile gid="10"/>
   <tile gid="10"/>
   <tile gid="10"/>
   <tile gid="10"/>
   <tile gid="10"/>
   <tile gid="30"/>
   <tile gid="30"/>
   <tile gid="30"/>
   <tile gid="30"/>
   <tile gid="30"/>
   <tile gid="30"/>
   <tile gid="30"/>
   <tile gid="30"/>
   <tile gid="30"/>
   <tile gid="30"/>
   <tile gid="30"/>
   <tile gid="30"/>
   <tile gid="30"/>
   <tile gid="30"/>
   <tile gid="30"/>
   <tile gid="30"/>
   <tile gid="30"/>
   <tile gid="30"/>
   <tile gid="10"/>
   <tile gid="10"/>
   <tile gid="10"/>
   <tile gid="10"/>
   <tile gid="10"/>
   <tile gid="30"/>
   <tile gid="30"/>
   <tile gid="30"/>
   <tile gid="30"/>
   <tile gid="30"/>
   <tile gid="30"/>
   <tile gid="30"/>
   <tile gid="30"/>
   <tile gid="30"/>
   <tile gid="10"/>
   <tile gid="10"/>
   <tile gid="10"/>
   <tile gid="10"/>
   <tile gid="10"/>
   <tile gid="10"/>
   <tile gid="10"/>
   <tile gid="30"/>
   <tile gid="30"/>
   <tile gid="30"/>
   <tile gid="30"/>
   <tile gid="30"/>
   <tile gid="30"/>
   <tile gid="30"/>
   <tile gid="30"/>
   <tile gid="30"/>
   <tile gid="30"/>
   <tile gid="30"/>
   <tile gid="30"/>
   <tile gid="30"/>
   <tile gid="30"/>
   <tile gid="30"/>
   <tile gid="30"/>
   <tile gid="30"/>
   <tile gid="30"/>
   <tile gid="30"/>
   <tile gid="10"/>
   <tile gid="10"/>
   <tile gid="10"/>
   <tile gid="10"/>
   <tile gid="10"/>
   <tile gid="30"/>
   <tile gid="30"/>
   <tile gid="30"/>
   <tile gid="30"/>
   <tile gid="30"/>
   <tile gid="30"/>
   <tile gid="30"/>
   <tile gid="30"/>
   <tile gid="30"/>
   <tile gid="10"/>
   <tile gid="10"/>
   <tile gid="10"/>
   <tile gid="10"/>
   <tile gid="10"/>
   <tile gid="30"/>
   <tile gid="30"/>
   <tile gid="30"/>
   <tile gid="30"/>
   <tile gid="30"/>
   <tile gid="30"/>
   <tile gid="30"/>
   <tile gid="30"/>
   <tile gid="30"/>
   <tile gid="30"/>
   <tile gid="30"/>
   <tile gid="30"/>
   <tile gid="30"/>
   <tile gid="30"/>
   <tile gid="30"/>
   <tile gid="30"/>
   <tile gid="30"/>
   <tile gid="30"/>
   <tile gid="30"/>
   <tile gid="30"/>
   <tile gid="30"/>
   <tile gid="30"/>
   <tile gid="10"/>
   <tile gid="10"/>
   <tile gid="10"/>
   <tile gid="10"/>
   <tile gid="30"/>
   <tile gid="30"/>
   <tile gid="30"/>
   <tile gid="30"/>
   <tile gid="30"/>
   <tile gid="30"/>
   <tile gid="30"/>
   <tile gid="30"/>
   <tile gid="10"/>
   <tile gid="10"/>
   <tile gid="10"/>
   <tile gid="10"/>
   <tile gid="10"/>
   <tile gid="30"/>
   <tile gid="30"/>
   <tile gid="30"/>
   <tile gid="30"/>
   <tile gid="30"/>
   <tile gid="30"/>
   <tile gid="30"/>
   <tile gid="30"/>
   <tile gid="30"/>
   <tile gid="30"/>
   <tile gid="30"/>
   <tile gid="30"/>
   <tile gid="30"/>
   <tile gid="30"/>
   <tile gid="30"/>
   <tile gid="30"/>
   <tile gid="30"/>
   <tile gid="30"/>
   <tile gid="30"/>
   <tile gid="30"/>
   <tile gid="30"/>
   <tile gid="30"/>
   <tile gid="30"/>
   <tile gid="10"/>
   <tile gid="10"/>
   <tile gid="10"/>
   <tile gid="10"/>
   <tile gid="30"/>
   <tile gid="30"/>
   <tile gid="30"/>
   <tile gid="30"/>
   <tile gid="30"/>
   <tile gid="30"/>
   <tile gid="30"/>
   <tile gid="30"/>
   <tile gid="10"/>
   <tile gid="10"/>
   <tile gid="10"/>
   <tile gid="10"/>
   <tile gid="30"/>
   <tile gid="30"/>
   <tile gid="30"/>
   <tile gid="30"/>
   <tile gid="30"/>
   <tile gid="30"/>
   <tile gid="30"/>
   <tile gid="30"/>
   <tile gid="30"/>
   <tile gid="30"/>
   <tile gid="30"/>
   <tile gid="30"/>
   <tile gid="30"/>
   <tile gid="30"/>
   <tile gid="30"/>
   <tile gid="30"/>
   <tile gid="30"/>
   <tile gid="30"/>
   <tile gid="30"/>
   <tile gid="30"/>
   <tile gid="30"/>
   <tile gid="30"/>
   <tile gid="30"/>
   <tile gid="30"/>
   <tile gid="10"/>
   <tile gid="10"/>
   <tile gid="10"/>
   <tile gid="10"/>
   <tile gid="30"/>
   <tile gid="30"/>
   <tile gid="30"/>
   <tile gid="30"/>
   <tile gid="30"/>
   <tile gid="30"/>
   <tile gid="30"/>
   <tile gid="30"/>
   <tile gid="10"/>
   <tile gid="10"/>
   <tile gid="10"/>
   <tile gid="10"/>
   <tile gid="30"/>
   <tile gid="30"/>
   <tile gid="30"/>
   <tile gid="30"/>
   <tile gid="30"/>
   <tile gid="30"/>
   <tile gid="30"/>
   <tile gid="30"/>
   <tile gid="30"/>
   <tile gid="30"/>
   <tile gid="30"/>
   <tile gid="30"/>
   <tile gid="30"/>
   <tile gid="30"/>
   <tile gid="30"/>
   <tile gid="30"/>
   <tile gid="30"/>
   <tile gid="30"/>
   <tile gid="30"/>
   <tile gid="30"/>
   <tile gid="30"/>
   <tile gid="30"/>
   <tile gid="30"/>
   <tile gid="30"/>
   <tile gid="10"/>
   <tile gid="10"/>
   <tile gid="10"/>
   <tile gid="10"/>
   <tile gid="30"/>
   <tile gid="30"/>
   <tile gid="30"/>
   <tile gid="30"/>
   <tile gid="30"/>
   <tile gid="30"/>
   <tile gid="30"/>
   <tile gid="30"/>
   <tile gid="10"/>
   <tile gid="10"/>
   <tile gid="10"/>
   <tile gid="10"/>
   <tile gid="10"/>
   <tile gid="10"/>
   <tile gid="10"/>
   <tile gid="30"/>
   <tile gid="30"/>
   <tile gid="30"/>
   <tile gid="30"/>
   <tile gid="30"/>
   <tile gid="30"/>
   <tile gid="30"/>
   <tile gid="30"/>
   <tile gid="30"/>
   <tile gid="30"/>
   <tile gid="30"/>
   <tile gid="30"/>
   <tile gid="30"/>
   <tile gid="30"/>
   <tile gid="30"/>
   <tile gid="30"/>
   <tile gid="30"/>
   <tile gid="30"/>
   <tile gid="30"/>
   <tile gid="30"/>
   <tile gid="30"/>
   <tile gid="10"/>
   <tile gid="10"/>
   <tile gid="10"/>
   <tile gid="10"/>
   <tile gid="30"/>
   <tile gid="30"/>
   <tile gid="30"/>
   <tile gid="30"/>
   <tile gid="30"/>
   <tile gid="30"/>
   <tile gid="30"/>
   <tile gid="30"/>
   <tile gid="30"/>
   <tile gid="30"/>
   <tile gid="10"/>
   <tile gid="10"/>
   <tile gid="10"/>
   <tile gid="10"/>
   <tile gid="10"/>
   <tile gid="30"/>
   <tile gid="30"/>
   <tile gid="30"/>
   <tile gid="30"/>
   <tile gid="30"/>
   <tile gid="30"/>
   <tile gid="30"/>
   <tile gid="30"/>
   <tile gid="30"/>
   <tile gid="30"/>
   <tile gid="30"/>
   <tile gid="30"/>
   <tile gid="30"/>
   <tile gid="30"/>
   <tile gid="30"/>
   <tile gid="30"/>
   <tile gid="30"/>
   <tile gid="30"/>
   <tile gid="30"/>
   <tile gid="30"/>
   <tile gid="30"/>
   <tile gid="10"/>
   <tile gid="10"/>
   <tile gid="10"/>
   <tile gid="10"/>
   <tile gid="30"/>
   <tile gid="30"/>
   <tile gid="30"/>
   <tile gid="30"/>
   <tile gid="30"/>
   <tile gid="30"/>
   <tile gid="30"/>
   <tile gid="30"/>
   <tile gid="30"/>
   <tile gid="30"/>
   <tile gid="10"/>
   <tile gid="10"/>
   <tile gid="10"/>
   <tile gid="10"/>
   <tile gid="10"/>
   <tile gid="10"/>
   <tile gid="30"/>
   <tile gid="30"/>
   <tile gid="30"/>
   <tile gid="30"/>
   <tile gid="30"/>
   <tile gid="30"/>
   <tile gid="30"/>
   <tile gid="30"/>
   <tile gid="30"/>
   <tile gid="30"/>
   <tile gid="30"/>
   <tile gid="30"/>
   <tile gid="30"/>
   <tile gid="30"/>
   <tile gid="30"/>
   <tile gid="30"/>
   <tile gid="30"/>
   <tile gid="30"/>
   <tile gid="30"/>
   <tile gid="30"/>
   <tile gid="10"/>
   <tile gid="10"/>
   <tile gid="10"/>
   <tile gid="10"/>
   <tile gid="30"/>
   <tile gid="30"/>
   <tile gid="30"/>
   <tile gid="30"/>
   <tile gid="30"/>
   <tile gid="30"/>
   <tile gid="30"/>
   <tile gid="30"/>
   <tile gid="30"/>
   <tile gid="30"/>
   <tile gid="30"/>
   <tile gid="10"/>
   <tile gid="10"/>
   <tile gid="10"/>
   <tile gid="10"/>
   <tile gid="10"/>
   <tile gid="30"/>
   <tile gid="30"/>
   <tile gid="30"/>
   <tile gid="30"/>
   <tile gid="30"/>
   <tile gid="30"/>
   <tile gid="30"/>
   <tile gid="30"/>
   <tile gid="30"/>
   <tile gid="30"/>
   <tile gid="30"/>
   <tile gid="30"/>
   <tile gid="30"/>
   <tile gid="30"/>
   <tile gid="30"/>
   <tile gid="30"/>
   <tile gid="30"/>
   <tile gid="30"/>
   <tile gid="30"/>
   <tile gid="10"/>
   <tile gid="10"/>
   <tile gid="10"/>
   <tile gid="10"/>
   <tile gid="10"/>
   <tile gid="30"/>
   <tile gid="30"/>
   <tile gid="30"/>
   <tile gid="30"/>
   <tile gid="30"/>
   <tile gid="30"/>
   <tile gid="30"/>
   <tile gid="30"/>
   <tile gid="30"/>
   <tile gid="30"/>
   <tile gid="30"/>
   <tile gid="30"/>
   <tile gid="30"/>
   <tile gid="30"/>
   <tile gid="30"/>
   <tile gid="30"/>
   <tile gid="30"/>
   <tile gid="30"/>
   <tile gid="30"/>
   <tile gid="30"/>
   <tile gid="30"/>
   <tile gid="30"/>
   <tile gid="30"/>
   <tile gid="30"/>
   <tile gid="30"/>
   <tile gid="30"/>
   <tile gid="10"/>
   <tile gid="10"/>
   <tile gid="30"/>
   <tile gid="30"/>
   <tile gid="30"/>
   <tile gid="30"/>
   <tile gid="30"/>
   <tile gid="30"/>
   <tile gid="30"/>
   <tile gid="10"/>
   <tile gid="10"/>
   <tile gid="10"/>
   <tile gid="10"/>
   <tile gid="10"/>
   <tile gid="30"/>
   <tile gid="30"/>
   <tile gid="30"/>
   <tile gid="30"/>
   <tile gid="30"/>
   <tile gid="30"/>
   <tile gid="30"/>
   <tile gid="30"/>
   <tile gid="30"/>
   <tile gid="30"/>
   <tile gid="30"/>
   <tile gid="30"/>
   <tile gid="30"/>
   <tile gid="30"/>
   <tile gid="30"/>
   <tile gid="30"/>
   <tile gid="30"/>
   <tile gid="30"/>
   <tile gid="30"/>
   <tile gid="30"/>
   <tile gid="30"/>
   <tile gid="30"/>
   <tile gid="30"/>
   <tile gid="30"/>
   <tile gid="30"/>
   <tile gid="30"/>
   <tile gid="10"/>
   <tile gid="10"/>
   <tile gid="30"/>
   <tile gid="30"/>
   <tile gid="30"/>
   <tile gid="30"/>
   <tile gid="30"/>
   <tile gid="30"/>
   <tile gid="30"/>
   <tile gid="10"/>
   <tile gid="10"/>
   <tile gid="10"/>
   <tile gid="10"/>
   <tile gid="10"/>
   <tile gid="30"/>
   <tile gid="30"/>
   <tile gid="30"/>
   <tile gid="30"/>
   <tile gid="30"/>
   <tile gid="30"/>
   <tile gid="30"/>
   <tile gid="30"/>
   <tile gid="30"/>
   <tile gid="30"/>
   <tile gid="30"/>
   <tile gid="30"/>
   <tile gid="30"/>
   <tile gid="30"/>
   <tile gid="30"/>
   <tile gid="30"/>
   <tile gid="30"/>
   <tile gid="30"/>
   <tile gid="30"/>
   <tile gid="30"/>
   <tile gid="30"/>
   <tile gid="30"/>
   <tile gid="30"/>
   <tile gid="30"/>
   <tile gid="30"/>
   <tile gid="30"/>
   <tile gid="10"/>
   <tile gid="10"/>
   <tile gid="30"/>
   <tile gid="30"/>
   <tile gid="30"/>
   <tile gid="30"/>
   <tile gid="30"/>
   <tile gid="30"/>
   <tile gid="30"/>
   <tile gid="10"/>
   <tile gid="10"/>
   <tile gid="10"/>
   <tile gid="10"/>
   <tile gid="10"/>
   <tile gid="30"/>
   <tile gid="30"/>
   <tile gid="30"/>
   <tile gid="30"/>
   <tile gid="30"/>
   <tile gid="30"/>
   <tile gid="30"/>
   <tile gid="30"/>
   <tile gid="30"/>
   <tile gid="30"/>
   <tile gid="30"/>
   <tile gid="30"/>
   <tile gid="30"/>
   <tile gid="30"/>
   <tile gid="30"/>
   <tile gid="30"/>
   <tile gid="30"/>
   <tile gid="30"/>
   <tile gid="30"/>
   <tile gid="30"/>
   <tile gid="30"/>
   <tile gid="30"/>
   <tile gid="30"/>
   <tile gid="30"/>
   <tile gid="30"/>
   <tile gid="10"/>
   <tile gid="10"/>
   <tile gid="10"/>
   <tile gid="30"/>
   <tile gid="30"/>
   <tile gid="30"/>
   <tile gid="30"/>
   <tile gid="30"/>
   <tile gid="30"/>
   <tile gid="30"/>
   <tile gid="10"/>
   <tile gid="10"/>
   <tile gid="10"/>
   <tile gid="10"/>
   <tile gid="10"/>
   <tile gid="30"/>
   <tile gid="30"/>
   <tile gid="30"/>
   <tile gid="30"/>
   <tile gid="30"/>
   <tile gid="30"/>
   <tile gid="30"/>
   <tile gid="30"/>
   <tile gid="30"/>
   <tile gid="30"/>
   <tile gid="30"/>
   <tile gid="30"/>
   <tile gid="30"/>
   <tile gid="30"/>
   <tile gid="30"/>
   <tile gid="30"/>
   <tile gid="30"/>
   <tile gid="30"/>
   <tile gid="30"/>
   <tile gid="30"/>
   <tile gid="30"/>
   <tile gid="30"/>
   <tile gid="30"/>
   <tile gid="30"/>
   <tile gid="10"/>
   <tile gid="10"/>
   <tile gid="10"/>
   <tile gid="10"/>
   <tile gid="30"/>
   <tile gid="30"/>
   <tile gid="30"/>
   <tile gid="30"/>
   <tile gid="30"/>
   <tile gid="30"/>
   <tile gid="30"/>
   <tile gid="10"/>
   <tile gid="10"/>
   <tile gid="10"/>
   <tile gid="10"/>
   <tile gid="10"/>
   <tile gid="30"/>
   <tile gid="30"/>
   <tile gid="30"/>
   <tile gid="30"/>
   <tile gid="30"/>
   <tile gid="30"/>
   <tile gid="30"/>
   <tile gid="30"/>
   <tile gid="30"/>
   <tile gid="30"/>
   <tile gid="30"/>
   <tile gid="30"/>
   <tile gid="30"/>
   <tile gid="30"/>
   <tile gid="30"/>
   <tile gid="30"/>
   <tile gid="30"/>
   <tile gid="30"/>
   <tile gid="30"/>
   <tile gid="30"/>
   <tile gid="30"/>
   <tile gid="30"/>
   <tile gid="30"/>
   <tile gid="10"/>
   <tile gid="10"/>
   <tile gid="10"/>
   <tile gid="10"/>
   <tile gid="10"/>
   <tile gid="30"/>
   <tile gid="30"/>
   <tile gid="30"/>
   <tile gid="30"/>
   <tile gid="30"/>
   <tile gid="30"/>
   <tile gid="30"/>
   <tile gid="30"/>
   <tile gid="10"/>
   <tile gid="10"/>
   <tile gid="10"/>
   <tile gid="10"/>
   <tile gid="30"/>
   <tile gid="30"/>
   <tile gid="30"/>
   <tile gid="30"/>
   <tile gid="30"/>
   <tile gid="30"/>
   <tile gid="30"/>
   <tile gid="30"/>
   <tile gid="30"/>
   <tile gid="30"/>
   <tile gid="30"/>
   <tile gid="30"/>
   <tile gid="30"/>
   <tile gid="30"/>
   <tile gid="30"/>
   <tile gid="30"/>
   <tile gid="30"/>
   <tile gid="30"/>
   <tile gid="30"/>
   <tile gid="30"/>
   <tile gid="30"/>
   <tile gid="30"/>
   <tile gid="10"/>
   <tile gid="10"/>
   <tile gid="10"/>
   <tile gid="10"/>
   <tile gid="10"/>
   <tile gid="30"/>
   <tile gid="30"/>
   <tile gid="30"/>
   <tile gid="30"/>
   <tile gid="30"/>
   <tile gid="30"/>
   <tile gid="30"/>
   <tile gid="30"/>
   <tile gid="30"/>
   <tile gid="10"/>
   <tile gid="10"/>
   <tile gid="10"/>
   <tile gid="10"/>
   <tile gid="10"/>
   <tile gid="30"/>
   <tile gid="30"/>
   <tile gid="30"/>
   <tile gid="30"/>
   <tile gid="30"/>
   <tile gid="30"/>
   <tile gid="30"/>
   <tile gid="30"/>
   <tile gid="30"/>
   <tile gid="30"/>
   <tile gid="30"/>
   <tile gid="30"/>
   <tile gid="30"/>
   <tile gid="30"/>
   <tile gid="30"/>
   <tile gid="30"/>
   <tile gid="30"/>
   <tile gid="30"/>
   <tile gid="10"/>
   <tile gid="10"/>
   <tile gid="10"/>
   <tile gid="10"/>
   <tile gid="10"/>
   <tile gid="10"/>
   <tile gid="10"/>
   <tile gid="30"/>
   <tile gid="30"/>
   <tile gid="30"/>
   <tile gid="30"/>
   <tile gid="30"/>
   <tile gid="30"/>
   <tile gid="30"/>
   <tile gid="30"/>
   <tile gid="30"/>
   <tile gid="30"/>
   <tile gid="10"/>
   <tile gid="10"/>
   <tile gid="10"/>
   <tile gid="10"/>
   <tile gid="10"/>
   <tile gid="30"/>
   <tile gid="30"/>
   <tile gid="30"/>
   <tile gid="30"/>
   <tile gid="30"/>
   <tile gid="30"/>
   <tile gid="30"/>
   <tile gid="30"/>
   <tile gid="30"/>
   <tile gid="30"/>
   <tile gid="30"/>
   <tile gid="30"/>
   <tile gid="30"/>
   <tile gid="30"/>
   <tile gid="30"/>
   <tile gid="30"/>
   <tile gid="30"/>
   <tile gid="30"/>
   <tile gid="10"/>
   <tile gid="10"/>
   <tile gid="10"/>
   <tile gid="10"/>
   <tile gid="10"/>
   <tile gid="10"/>
   <tile gid="30"/>
   <tile gid="30"/>
   <tile gid="30"/>
   <tile gid="30"/>
   <tile gid="30"/>
   <tile gid="30"/>
   <tile gid="30"/>
   <tile gid="30"/>
   <tile gid="30"/>
   <tile gid="30"/>
   <tile gid="30"/>
   <tile gid="10"/>
   <tile gid="10"/>
   <tile gid="10"/>
   <tile gid="10"/>
   <tile gid="10"/>
   <tile gid="30"/>
   <tile gid="30"/>
   <tile gid="30"/>
   <tile gid="30"/>
   <tile gid="30"/>
   <tile gid="30"/>
   <tile gid="30"/>
   <tile gid="30"/>
   <tile gid="30"/>
   <tile gid="30"/>
   <tile gid="30"/>
   <tile gid="30"/>
   <tile gid="30"/>
   <tile gid="30"/>
   <tile gid="30"/>
   <tile gid="30"/>
   <tile gid="30"/>
   <tile gid="30"/>
   <tile gid="30"/>
   <tile gid="30"/>
   <tile gid="30"/>
   <tile gid="30"/>
   <tile gid="30"/>
   <tile gid="30"/>
   <tile gid="30"/>
   <tile gid="30"/>
   <tile gid="30"/>
   <tile gid="30"/>
   <tile gid="30"/>
   <tile gid="30"/>
   <tile gid="30"/>
   <tile gid="30"/>
   <tile gid="30"/>
   <tile gid="30"/>
   <tile gid="30"/>
   <tile gid="10"/>
   <tile gid="10"/>
   <tile gid="10"/>
   <tile gid="10"/>
   <tile gid="10"/>
   <tile gid="30"/>
   <tile gid="30"/>
   <tile gid="30"/>
   <tile gid="30"/>
   <tile gid="30"/>
   <tile gid="30"/>
   <tile gid="30"/>
   <tile gid="30"/>
   <tile gid="30"/>
   <tile gid="30"/>
   <tile gid="30"/>
   <tile gid="30"/>
   <tile gid="30"/>
   <tile gid="30"/>
   <tile gid="30"/>
   <tile gid="30"/>
   <tile gid="30"/>
   <tile gid="30"/>
   <tile gid="30"/>
   <tile gid="30"/>
   <tile gid="30"/>
   <tile gid="30"/>
   <tile gid="30"/>
   <tile gid="30"/>
   <tile gid="30"/>
   <tile gid="30"/>
   <tile gid="30"/>
   <tile gid="30"/>
   <tile gid="30"/>
   <tile gid="30"/>
   <tile gid="30"/>
   <tile gid="30"/>
   <tile gid="30"/>
   <tile gid="30"/>
   <tile gid="30"/>
   <tile gid="10"/>
   <tile gid="10"/>
   <tile gid="10"/>
   <tile gid="10"/>
   <tile gid="10"/>
   <tile gid="30"/>
   <tile gid="30"/>
   <tile gid="30"/>
   <tile gid="30"/>
   <tile gid="30"/>
   <tile gid="30"/>
   <tile gid="30"/>
   <tile gid="30"/>
   <tile gid="30"/>
   <tile gid="30"/>
   <tile gid="30"/>
   <tile gid="30"/>
   <tile gid="30"/>
   <tile gid="30"/>
   <tile gid="30"/>
   <tile gid="30"/>
   <tile gid="30"/>
   <tile gid="30"/>
   <tile gid="30"/>
   <tile gid="30"/>
   <tile gid="30"/>
   <tile gid="30"/>
   <tile gid="30"/>
   <tile gid="30"/>
   <tile gid="30"/>
   <tile gid="30"/>
   <tile gid="30"/>
   <tile gid="30"/>
   <tile gid="30"/>
   <tile gid="30"/>
   <tile gid="30"/>
   <tile gid="30"/>
   <tile gid="30"/>
   <tile gid="30"/>
   <tile gid="30"/>
   <tile gid="10"/>
   <tile gid="10"/>
   <tile gid="10"/>
   <tile gid="10"/>
   <tile gid="30"/>
   <tile gid="30"/>
   <tile gid="30"/>
   <tile gid="30"/>
   <tile gid="30"/>
   <tile gid="30"/>
   <tile gid="30"/>
   <tile gid="30"/>
   <tile gid="30"/>
   <tile gid="30"/>
   <tile gid="30"/>
   <tile gid="30"/>
   <tile gid="30"/>
   <tile gid="30"/>
   <tile gid="30"/>
   <tile gid="30"/>
   <tile gid="30"/>
   <tile gid="30"/>
   <tile gid="30"/>
   <tile gid="30"/>
   <tile gid="30"/>
   <tile gid="30"/>
   <tile gid="30"/>
   <tile gid="30"/>
   <tile gid="30"/>
   <tile gid="30"/>
   <tile gid="30"/>
   <tile gid="30"/>
   <tile gid="30"/>
   <tile gid="30"/>
   <tile gid="30"/>
   <tile gid="30"/>
   <tile gid="30"/>
   <tile gid="30"/>
   <tile gid="30"/>
   <tile gid="10"/>
   <tile gid="10"/>
   <tile gid="10"/>
   <tile gid="10"/>
   <tile gid="10"/>
   <tile gid="30"/>
   <tile gid="30"/>
   <tile gid="30"/>
   <tile gid="30"/>
   <tile gid="30"/>
   <tile gid="30"/>
   <tile gid="30"/>
   <tile gid="30"/>
   <tile gid="30"/>
   <tile gid="30"/>
   <tile gid="30"/>
   <tile gid="30"/>
   <tile gid="30"/>
   <tile gid="30"/>
   <tile gid="30"/>
   <tile gid="30"/>
   <tile gid="30"/>
   <tile gid="30"/>
   <tile gid="30"/>
   <tile gid="30"/>
   <tile gid="30"/>
   <tile gid="30"/>
   <tile gid="30"/>
   <tile gid="30"/>
   <tile gid="10"/>
   <tile gid="10"/>
   <tile gid="49"/>
   <tile gid="49"/>
   <tile gid="10"/>
   <tile gid="10"/>
   <tile gid="30"/>
   <tile gid="30"/>
   <tile gid="30"/>
   <tile gid="30"/>
   <tile gid="30"/>
   <tile gid="10"/>
   <tile gid="10"/>
   <tile gid="10"/>
   <tile gid="10"/>
   <tile gid="10"/>
   <tile gid="10"/>
   <tile gid="10"/>
   <tile gid="10"/>
   <tile gid="10"/>
   <tile gid="10"/>
   <tile gid="10"/>
   <tile gid="10"/>
   <tile gid="10"/>
   <tile gid="10"/>
   <tile gid="10"/>
   <tile gid="10"/>
   <tile gid="10"/>
   <tile gid="10"/>
   <tile gid="10"/>
   <tile gid="10"/>
   <tile gid="10"/>
   <tile gid="10"/>
   <tile gid="10"/>
   <tile gid="10"/>
   <tile gid="10"/>
   <tile gid="10"/>
   <tile gid="10"/>
   <tile gid="10"/>
   <tile gid="10"/>
   <tile gid="10"/>
   <tile gid="10"/>
   <tile gid="10"/>
   <tile gid="10"/>
   <tile gid="10"/>
   <tile gid="10"/>
   <tile gid="10"/>
   <tile gid="10"/>
   <tile gid="10"/>
   <tile gid="10"/>
   <tile gid="10"/>
   <tile gid="10"/>
   <tile gid="10"/>
   <tile gid="10"/>
   <tile gid="10"/>
   <tile gid="10"/>
   <tile gid="10"/>
   <tile gid="10"/>
   <tile gid="10"/>
   <tile gid="10"/>
   <tile gid="10"/>
   <tile gid="10"/>
   <tile gid="10"/>
   <tile gid="10"/>
   <tile gid="10"/>
   <tile gid="10"/>
   <tile gid="10"/>
   <tile gid="10"/>
   <tile gid="10"/>
   <tile gid="10"/>
   <tile gid="10"/>
   <tile gid="10"/>
   <tile gid="10"/>
   <tile gid="10"/>
   <tile gid="10"/>
   <tile gid="10"/>
   <tile gid="10"/>
   <tile gid="10"/>
   <tile gid="10"/>
   <tile gid="10"/>
   <tile gid="10"/>
   <tile gid="10"/>
   <tile gid="10"/>
   <tile gid="10"/>
   <tile gid="10"/>
   <tile gid="10"/>
   <tile gid="10"/>
   <tile gid="10"/>
   <tile gid="10"/>
   <tile gid="10"/>
   <tile gid="10"/>
   <tile gid="10"/>
   <tile gid="10"/>
   <tile gid="10"/>
  </data>
 </layer>
 <layer id="2" name="Navigation" width="40" height="40">
  <properties>
   <property name="Draw" type="bool" value="false"/>
   <property name="Navigation" type="bool" value="true"/>
  </properties>
  <data>
   <tile/>
   <tile/>
   <tile/>
   <tile/>
   <tile/>
   <tile/>
   <tile/>
   <tile/>
   <tile/>
   <tile/>
   <tile/>
   <tile/>
   <tile/>
   <tile/>
   <tile/>
   <tile/>
   <tile/>
   <tile/>
   <tile/>
   <tile/>
   <tile/>
   <tile/>
   <tile/>
   <tile/>
   <tile/>
   <tile/>
   <tile/>
   <tile/>
   <tile/>
   <tile/>
   <tile/>
   <tile/>
   <tile/>
   <tile/>
   <tile/>
   <tile/>
   <tile/>
   <tile/>
   <tile/>
   <tile/>
   <tile/>
   <tile gid="49"/>
   <tile gid="49"/>
   <tile gid="49"/>
   <tile gid="49"/>
   <tile gid="49"/>
   <tile gid="49"/>
   <tile gid="49"/>
   <tile gid="49"/>
   <tile gid="49"/>
   <tile gid="49"/>
   <tile gid="49"/>
   <tile gid="49"/>
   <tile gid="49"/>
   <tile gid="49"/>
   <tile gid="49"/>
   <tile gid="49"/>
   <tile gid="49"/>
   <tile gid="49"/>
   <tile gid="49"/>
   <tile gid="49"/>
   <tile gid="49"/>
   <tile gid="49"/>
   <tile gid="49"/>
   <tile gid="49"/>
   <tile gid="49"/>
   <tile gid="49"/>
   <tile gid="49"/>
   <tile gid="49"/>
   <tile gid="49"/>
   <tile gid="49"/>
   <tile gid="49"/>
   <tile gid="49"/>
   <tile gid="49"/>
   <tile gid="49"/>
   <tile gid="49"/>
   <tile gid="49"/>
   <tile gid="49"/>
   <tile/>
   <tile/>
   <tile/>
   <tile gid="49"/>
   <tile/>
   <tile/>
   <tile/>
   <tile/>
   <tile/>
   <tile/>
   <tile/>
   <tile/>
   <tile/>
   <tile/>
   <tile/>
   <tile/>
   <tile/>
   <tile/>
   <tile/>
   <tile/>
   <tile/>
   <tile/>
   <tile/>
   <tile/>
   <tile/>
   <tile/>
   <tile/>
   <tile/>
   <tile/>
   <tile/>
   <tile/>
   <tile/>
   <tile/>
   <tile/>
   <tile/>
   <tile/>
   <tile/>
   <tile/>
   <tile/>
   <tile gid="49"/>
   <tile/>
   <tile/>
   <tile/>
   <tile gid="49"/>
   <tile/>
   <tile/>
   <tile/>
   <tile/>
   <tile/>
   <tile/>
   <tile/>
   <tile/>
   <tile/>
   <tile/>
   <tile/>
   <tile/>
   <tile/>
   <tile/>
   <tile/>
   <tile/>
   <tile/>
   <tile/>
   <tile/>
   <tile/>
   <tile/>
   <tile/>
   <tile/>
   <tile/>
   <tile/>
   <tile/>
   <tile/>
   <tile/>
   <tile/>
   <tile/>
   <tile/>
   <tile/>
   <tile/>
   <tile/>
   <tile/>
   <tile gid="49"/>
   <tile/>
   <tile/>
   <tile/>
   <tile gid="49"/>
   <tile/>
   <tile/>
   <tile/>
   <tile/>
   <tile/>
   <tile/>
   <tile/>
   <tile/>
   <tile/>
   <tile/>
   <tile/>
   <tile/>
   <tile/>
   <tile/>
   <tile/>
   <tile/>
   <tile/>
   <tile/>
   <tile/>
   <tile/>
   <tile/>
   <tile/>
   <tile/>
   <tile/>
   <tile/>
   <tile/>
   <tile/>
   <tile/>
   <tile/>
   <tile/>
   <tile/>
   <tile/>
   <tile/>
   <tile/>
   <tile/>
   <tile gid="49"/>
   <tile/>
   <tile/>
   <tile/>
   <tile gid="49"/>
   <tile/>
   <tile/>
   <tile/>
   <tile/>
   <tile/>
   <tile/>
   <tile/>
   <tile/>
   <tile/>
   <tile/>
   <tile/>
   <tile/>
   <tile/>
   <tile/>
   <tile/>
   <tile/>
   <tile/>
   <tile/>
   <tile/>
   <tile/>
   <tile/>
   <tile/>
   <tile/>
   <tile/>
   <tile/>
   <tile/>
   <tile/>
   <tile/>
   <tile/>
   <tile/>
   <tile/>
   <tile/>
   <tile/>
   <tile/>
   <tile/>
   <tile gid="49"/>
   <tile/>
   <tile/>
   <tile/>
   <tile gid="49"/>
   <tile/>
   <tile/>
   <tile/>
   <tile/>
   <tile/>
   <tile/>
   <tile/>
   <tile/>
   <tile/>
   <tile/>
   <tile/>
   <tile/>
   <tile/>
   <tile/>
   <tile/>
   <tile/>
   <tile/>
   <tile/>
   <tile/>
   <tile/>
   <tile/>
   <tile/>
   <tile/>
   <tile/>
   <tile/>
   <tile/>
   <tile/>
   <tile/>
   <tile/>
   <tile/>
   <tile/>
   <tile/>
   <tile/>
   <tile/>
   <tile/>
   <tile gid="49"/>
   <tile/>
   <tile/>
   <tile/>
   <tile gid="49"/>
   <tile/>
   <tile/>
   <tile/>
   <tile/>
   <tile/>
   <tile/>
   <tile/>
   <tile/>
   <tile/>
   <tile/>
   <tile/>
   <tile/>
   <tile/>
   <tile/>
   <tile/>
   <tile/>
   <tile/>
   <tile/>
   <tile/>
   <tile/>
   <tile/>
   <tile/>
   <tile/>
   <tile/>
   <tile/>
   <tile/>
   <tile/>
   <tile/>
   <tile/>
   <tile/>
   <tile/>
   <tile/>
   <tile/>
   <tile/>
   <tile/>
   <tile gid="49"/>
   <tile/>
   <tile/>
   <tile/>
   <tile gid="49"/>
   <tile/>
   <tile/>
   <tile/>
   <tile/>
   <tile/>
   <tile/>
   <tile/>
   <tile/>
   <tile/>
   <tile/>
   <tile/>
   <tile/>
   <tile/>
   <tile/>
   <tile/>
   <tile/>
   <tile/>
   <tile/>
   <tile/>
   <tile/>
   <tile/>
   <tile/>
   <tile/>
   <tile/>
   <tile/>
   <tile/>
   <tile/>
   <tile/>
   <tile/>
   <tile/>
   <tile/>
   <tile/>
   <tile/>
   <tile/>
   <tile/>
   <tile gid="49"/>
   <tile/>
   <tile/>
   <tile/>
   <tile gid="49"/>
   <tile/>
   <tile/>
   <tile/>
   <tile/>
   <tile/>
   <tile/>
   <tile/>
   <tile/>
   <tile/>
   <tile/>
   <tile/>
   <tile/>
   <tile/>
   <tile/>
   <tile/>
   <tile/>
   <tile/>
   <tile/>
   <tile/>
   <tile/>
   <tile/>
   <tile/>
   <tile/>
   <tile/>
   <tile/>
   <tile/>
   <tile/>
   <tile/>
   <tile/>
   <tile/>
   <tile/>
   <tile/>
   <tile/>
   <tile/>
   <tile/>
   <tile gid="49"/>
   <tile/>
   <tile/>
   <tile/>
   <tile gid="49"/>
   <tile/>
   <tile/>
   <tile/>
   <tile/>
   <tile/>
   <tile/>
   <tile/>
   <tile/>
   <tile/>
   <tile/>
   <tile/>
   <tile/>
   <tile/>
   <tile/>
   <tile/>
   <tile/>
   <tile/>
   <tile/>
   <tile/>
   <tile/>
   <tile/>
   <tile/>
   <tile/>
   <tile/>
   <tile/>
   <tile/>
   <tile/>
   <tile/>
   <tile/>
   <tile/>
   <tile/>
   <tile/>
   <tile/>
   <tile/>
   <tile/>
   <tile gid="49"/>
   <tile/>
   <tile/>
   <tile/>
   <tile gid="49"/>
   <tile/>
   <tile/>
   <tile/>
   <tile/>
   <tile/>
   <tile/>
   <tile/>
   <tile/>
   <tile/>
   <tile/>
   <tile/>
   <tile/>
   <tile/>
   <tile/>
   <tile/>
   <tile gid="49"/>
   <tile gid="49"/>
   <tile/>
   <tile/>
   <tile/>
   <tile/>
   <tile/>
   <tile/>
   <tile/>
   <tile/>
   <tile/>
   <tile/>
   <tile/>
   <tile/>
   <tile/>
   <tile/>
   <tile/>
   <tile/>
   <tile/>
   <tile/>
   <tile gid="49"/>
   <tile/>
   <tile/>
   <tile/>
   <tile gid="49"/>
   <tile/>
   <tile/>
   <tile/>
   <tile/>
   <tile/>
   <tile/>
   <tile/>
   <tile/>
   <tile/>
   <tile/>
   <tile/>
   <tile/>
   <tile/>
   <tile/>
   <tile gid="49"/>
   <tile gid="49"/>
   <tile gid="49"/>
   <tile/>
   <tile/>
   <tile/>
   <tile/>
   <tile/>
   <tile/>
   <tile/>
   <tile/>
   <tile/>
   <tile/>
   <tile/>
   <tile/>
   <tile/>
   <tile/>
   <tile/>
   <tile/>
   <tile/>
   <tile/>
   <tile gid="49"/>
   <tile/>
   <tile/>
   <tile/>
   <tile gid="49"/>
   <tile/>
   <tile/>
   <tile/>
   <tile/>
   <tile/>
   <tile/>
   <tile/>
   <tile/>
   <tile/>
   <tile/>
   <tile/>
   <tile/>
   <tile/>
   <tile gid="49"/>
   <tile gid="49"/>
   <tile/>
   <tile gid="49"/>
   <tile/>
   <tile/>
   <tile/>
   <tile/>
   <tile/>
   <tile/>
   <tile/>
   <tile/>
   <tile/>
   <tile/>
   <tile/>
   <tile/>
   <tile/>
   <tile/>
   <tile/>
   <tile/>
   <tile/>
   <tile/>
   <tile gid="49"/>
   <tile/>
   <tile/>
   <tile/>
   <tile gid="49"/>
   <tile/>
   <tile/>
   <tile/>
   <tile/>
   <tile/>
   <tile/>
   <tile/>
   <tile/>
   <tile/>
   <tile/>
   <tile gid="49"/>
   <tile gid="49"/>
   <tile gid="49"/>
   <tile gid="49"/>
   <tile/>
   <tile gid="49"/>
   <tile gid="49"/>
   <tile/>
   <tile/>
   <tile/>
   <tile/>
   <tile/>
   <tile/>
   <tile/>
   <tile/>
   <tile/>
   <tile/>
   <tile/>
   <tile/>
   <tile/>
   <tile/>
   <tile/>
   <tile/>
   <tile/>
   <tile/>
   <tile gid="49"/>
   <tile/>
   <tile/>
   <tile/>
   <tile gid="49"/>
   <tile/>
   <tile/>
   <tile/>
   <tile/>
   <tile/>
   <tile/>
   <tile/>
   <tile/>
   <tile/>
   <tile gid="49"/>
   <tile gid="49"/>
   <tile/>
   <tile/>
   <tile gid="49"/>
   <tile gid="49"/>
   <tile gid="49"/>
   <tile/>
   <tile/>
   <tile/>
   <tile/>
   <tile/>
   <tile/>
   <tile/>
   <tile/>
   <tile/>
   <tile/>
   <tile/>
   <tile/>
   <tile/>
   <tile/>
   <tile/>
   <tile/>
   <tile/>
   <tile/>
   <tile/>
   <tile gid="49"/>
   <tile gid="49"/>
   <tile/>
   <tile/>
   <tile gid="49"/>
   <tile/>
   <tile/>
   <tile/>
   <tile/>
   <tile/>
   <tile/>
   <tile/>
   <tile/>
   <tile/>
   <tile gid="49"/>
   <tile/>
   <tile/>
   <tile gid="49"/>
   <tile gid="49"/>
   <tile/>
   <tile/>
   <tile/>
   <tile/>
   <tile/>
   <tile/>
   <tile/>
   <tile/>
   <tile/>
   <tile/>
   <tile/>
   <tile/>
   <tile/>
   <tile/>
   <tile/>
   <tile/>
   <tile/>
   <tile/>
   <tile/>
   <tile/>
   <tile/>
   <tile/>
   <tile gid="49"/>
   <tile/>
   <tile/>
   <tile gid="49"/>
   <tile/>
   <tile/>
   <tile/>
   <tile/>
   <tile/>
   <tile/>
   <tile/>
   <tile/>
   <tile gid="49"/>
   <tile gid="49"/>
   <tile/>
   <tile gid="49"/>
   <tile gid="49"/>
   <tile/>
   <tile/>
   <tile/>
   <tile/>
   <tile/>
   <tile/>
   <tile/>
   <tile/>
   <tile/>
   <tile/>
   <tile/>
   <tile/>
   <tile/>
   <tile/>
   <tile/>
   <tile/>
   <tile/>
   <tile/>
   <tile/>
   <tile/>
   <tile/>
   <tile/>
   <tile/>
   <tile gid="49"/>
   <tile/>
   <tile/>
   <tile gid="49"/>
   <tile/>
   <tile/>
   <tile/>
   <tile/>
   <tile/>
   <tile/>
   <tile/>
   <tile/>
   <tile gid="49"/>
   <tile/>
   <tile/>
   <tile gid="49"/>
   <tile/>
   <tile/>
   <tile/>
   <tile/>
   <tile/>
   <tile/>
   <tile/>
   <tile/>
   <tile/>
   <tile/>
   <tile/>
   <tile/>
   <tile/>
   <tile/>
   <tile/>
   <tile/>
   <tile/>
   <tile/>
   <tile/>
   <tile/>
   <tile/>
   <tile/>
   <tile/>
   <tile/>
   <tile gid="49"/>
   <tile/>
   <tile/>
   <tile gid="49"/>
   <tile/>
   <tile/>
   <tile/>
   <tile/>
   <tile/>
   <tile/>
   <tile/>
   <tile/>
   <tile gid="49"/>
   <tile/>
   <tile/>
   <tile gid="49"/>
   <tile/>
   <tile/>
   <tile/>
   <tile/>
   <tile/>
   <tile/>
   <tile/>
   <tile/>
   <tile/>
   <tile/>
   <tile/>
   <tile/>
   <tile/>
   <tile/>
   <tile/>
   <tile/>
   <tile/>
   <tile/>
   <tile/>
   <tile/>
   <tile/>
   <tile/>
   <tile/>
   <tile/>
   <tile gid="49"/>
   <tile/>
   <tile/>
   <tile gid="49"/>
   <tile/>
   <tile/>
   <tile/>
   <tile/>
   <tile/>
   <tile/>
   <tile/>
   <tile/>
   <tile gid="49"/>
   <tile gid="49"/>
   <tile gid="49"/>
   <tile gid="49"/>
   <tile gid="49"/>
   <tile gid="49"/>
   <tile gid="49"/>
   <tile/>
   <tile/>
   <tile/>
   <tile/>
   <tile/>
   <tile/>
   <tile/>
   <tile/>
   <tile/>
   <tile/>
   <tile/>
   <tile/>
   <tile/>
   <tile/>
   <tile/>
   <tile/>
   <tile/>
   <tile/>
   <tile/>
   <tile/>
   <tile/>
   <tile gid="49"/>
   <tile/>
   <tile/>
   <tile gid="49"/>
   <tile/>
   <tile/>
   <tile/>
   <tile/>
   <tile/>
   <tile/>
   <tile/>
   <tile/>
   <tile/>
   <tile/>
   <tile gid="49"/>
   <tile/>
   <tile/>
   <tile/>
   <tile gid="49"/>
   <tile/>
   <tile/>
   <tile/>
   <tile/>
   <tile/>
   <tile/>
   <tile/>
   <tile/>
   <tile/>
   <tile/>
   <tile/>
   <tile/>
   <tile/>
   <tile/>
   <tile/>
   <tile/>
   <tile/>
   <tile/>
   <tile/>
   <tile/>
   <tile/>
   <tile gid="49"/>
   <tile/>
   <tile/>
   <tile gid="49"/>
   <tile/>
   <tile/>
   <tile/>
   <tile/>
   <tile/>
   <tile/>
   <tile/>
   <tile/>
   <tile/>
   <tile/>
   <tile gid="49"/>
   <tile gid="49"/>
   <tile/>
   <tile/>
   <tile gid="49"/>
   <tile gid="49"/>
   <tile/>
   <tile/>
   <tile/>
   <tile/>
   <tile/>
   <tile/>
   <tile/>
   <tile/>
   <tile/>
   <tile/>
   <tile/>
   <tile/>
   <tile/>
   <tile/>
   <tile/>
   <tile/>
   <tile/>
   <tile/>
   <tile/>
   <tile/>
   <tile gid="49"/>
   <tile/>
   <tile/>
   <tile gid="49"/>
   <tile/>
   <tile/>
   <tile/>
   <tile/>
   <tile/>
   <tile/>
   <tile/>
   <tile/>
   <tile/>
   <tile/>
   <tile/>
   <tile gid="49"/>
   <tile gid="49"/>
   <tile gid="49"/>
   <tile gid="49"/>
   <tile gid="49"/>
   <tile/>
   <tile/>
   <tile/>
   <tile/>
   <tile/>
   <tile/>
   <tile/>
   <tile/>
   <tile/>
   <tile/>
   <tile/>
   <tile/>
   <tile/>
   <tile/>
   <tile/>
   <tile/>
   <tile/>
   <tile/>
   <tile/>
   <tile gid="49"/>
   <tile gid="49"/>
   <tile/>
   <tile/>
   <tile gid="49"/>
   <tile/>
   <tile/>
   <tile/>
   <tile/>
   <tile/>
   <tile/>
   <tile/>
   <tile/>
   <tile/>
   <tile/>
   <tile/>
   <tile/>
   <tile/>
   <tile/>
   <tile/>
   <tile/>
   <tile/>
   <tile/>
   <tile/>
   <tile/>
   <tile/>
   <tile/>
   <tile/>
   <tile/>
   <tile/>
   <tile/>
   <tile gid="49"/>
   <tile gid="49"/>
   <tile/>
   <tile/>
   <tile/>
   <tile/>
   <tile/>
   <tile/>
   <tile/>
   <tile gid="49"/>
   <tile/>
   <tile/>
   <tile/>
   <tile gid="49"/>
   <tile/>
   <tile/>
   <tile/>
   <tile/>
   <tile/>
   <tile/>
   <tile/>
   <tile/>
   <tile/>
   <tile/>
   <tile/>
   <tile/>
   <tile/>
   <tile/>
   <tile/>
   <tile/>
   <tile/>
   <tile/>
   <tile/>
   <tile/>
   <tile/>
   <tile/>
   <tile/>
   <tile/>
   <tile/>
   <tile/>
   <tile gid="49"/>
   <tile gid="49"/>
   <tile/>
   <tile/>
   <tile/>
   <tile/>
   <tile/>
   <tile/>
   <tile/>
   <tile gid="49"/>
   <tile/>
   <tile/>
   <tile/>
   <tile gid="49"/>
   <tile/>
   <tile/>
   <tile/>
   <tile/>
   <tile/>
   <tile/>
   <tile/>
   <tile/>
   <tile/>
   <tile/>
   <tile/>
   <tile/>
   <tile/>
   <tile/>
   <tile/>
   <tile/>
   <tile/>
   <tile/>
   <tile/>
   <tile/>
   <tile/>
   <tile/>
   <tile/>
   <tile/>
   <tile/>
   <tile/>
   <tile gid="49"/>
   <tile gid="49"/>
   <tile/>
   <tile/>
   <tile/>
   <tile/>
   <tile/>
   <tile/>
   <tile/>
   <tile gid="49"/>
   <tile/>
   <tile/>
   <tile/>
   <tile gid="49"/>
   <tile/>
   <tile/>
   <tile/>
   <tile/>
   <tile/>
   <tile/>
   <tile/>
   <tile/>
   <tile/>
   <tile/>
   <tile/>
   <tile/>
   <tile/>
   <tile/>
   <tile/>
   <tile/>
   <tile/>
   <tile/>
   <tile/>
   <tile/>
   <tile/>
   <tile/>
   <tile/>
   <tile/>
   <tile/>
   <tile gid="49"/>
   <tile gid="49"/>
   <tile gid="49"/>
   <tile/>
   <tile/>
   <tile/>
   <tile/>
   <tile/>
   <tile/>
   <tile/>
   <tile gid="49"/>
   <tile/>
   <tile/>
   <tile/>
   <tile gid="49"/>
   <tile/>
   <tile/>
   <tile/>
   <tile/>
   <tile/>
   <tile/>
   <tile/>
   <tile/>
   <tile/>
   <tile/>
   <tile/>
   <tile/>
   <tile/>
   <tile/>
   <tile/>
   <tile/>
   <tile/>
   <tile/>
   <tile/>
   <tile/>
   <tile/>
   <tile/>
   <tile/>
   <tile/>
   <tile gid="49"/>
   <tile gid="49"/>
   <tile/>
   <tile gid="49"/>
   <tile/>
   <tile/>
   <tile/>
   <tile/>
   <tile/>
   <tile/>
   <tile/>
   <tile gid="49"/>
   <tile gid="49"/>
   <tile/>
   <tile/>
   <tile gid="49"/>
   <tile/>
   <tile/>
   <tile/>
   <tile/>
   <tile/>
   <tile/>
   <tile/>
   <tile/>
   <tile/>
   <tile/>
   <tile/>
   <tile/>
   <tile/>
   <tile/>
   <tile/>
   <tile/>
   <tile/>
   <tile/>
   <tile/>
   <tile/>
   <tile/>
   <tile/>
   <tile/>
   <tile gid="49"/>
   <tile gid="49"/>
   <tile/>
   <tile gid="49"/>
   <tile gid="49"/>
   <tile/>
   <tile/>
   <tile/>
   <tile/>
   <tile/>
   <tile/>
   <tile/>
   <tile/>
   <tile gid="49"/>
   <tile/>
   <tile/>
   <tile gid="49"/>
   <tile/>
   <tile/>
   <tile/>
   <tile/>
   <tile/>
   <tile/>
   <tile/>
   <tile/>
   <tile/>
   <tile/>
   <tile/>
   <tile/>
   <tile/>
   <tile/>
   <tile/>
   <tile/>
   <tile/>
   <tile/>
   <tile/>
   <tile/>
   <tile/>
   <tile/>
   <tile gid="49"/>
   <tile gid="49"/>
   <tile/>
   <tile gid="49"/>
   <tile gid="49"/>
   <tile/>
   <tile/>
   <tile/>
   <tile/>
   <tile/>
   <tile/>
   <tile/>
   <tile/>
   <tile/>
   <tile gid="49"/>
   <tile/>
   <tile/>
   <tile gid="49"/>
   <tile gid="49"/>
   <tile/>
   <tile/>
   <tile/>
   <tile/>
   <tile/>
   <tile/>
   <tile/>
   <tile/>
   <tile/>
   <tile/>
   <tile/>
   <tile/>
   <tile/>
   <tile/>
   <tile/>
   <tile/>
   <tile/>
   <tile/>
   <tile gid="49"/>
   <tile gid="49"/>
   <tile gid="49"/>
   <tile gid="49"/>
   <tile/>
   <tile gid="49"/>
   <tile gid="49"/>
   <tile/>
   <tile/>
   <tile/>
   <tile/>
   <tile/>
   <tile/>
   <tile/>
   <tile/>
   <tile/>
   <tile/>
   <tile gid="49"/>
   <tile/>
   <tile/>
   <tile/>
   <tile gid="49"/>
   <tile/>
   <tile/>
   <tile/>
   <tile/>
   <tile/>
   <tile/>
   <tile/>
   <tile/>
   <tile/>
   <tile/>
   <tile/>
   <tile/>
   <tile/>
   <tile/>
   <tile/>
   <tile/>
   <tile/>
   <tile/>
   <tile gid="49"/>
   <tile gid="49"/>
   <tile gid="49"/>
   <tile gid="49"/>
   <tile gid="49"/>
   <tile gid="49"/>
   <tile/>
   <tile/>
   <tile/>
   <tile/>
   <tile/>
   <tile/>
   <tile/>
   <tile/>
   <tile/>
   <tile/>
   <tile/>
   <tile gid="49"/>
   <tile/>
   <tile/>
   <tile/>
   <tile gid="49"/>
   <tile/>
   <tile/>
   <tile/>
   <tile/>
   <tile/>
   <tile/>
   <tile/>
   <tile/>
   <tile/>
   <tile/>
   <tile/>
   <tile/>
   <tile/>
   <tile/>
   <tile/>
   <tile/>
   <tile/>
   <tile/>
   <tile/>
   <tile/>
   <tile/>
   <tile/>
   <tile/>
   <tile/>
   <tile/>
   <tile/>
   <tile/>
   <tile/>
   <tile/>
   <tile/>
   <tile/>
   <tile/>
   <tile/>
   <tile/>
   <tile/>
   <tile gid="49"/>
   <tile/>
   <tile/>
   <tile/>
   <tile gid="49"/>
   <tile/>
   <tile/>
   <tile/>
   <tile/>
   <tile/>
   <tile/>
   <tile/>
   <tile/>
   <tile/>
   <tile/>
   <tile/>
   <tile/>
   <tile/>
   <tile/>
   <tile/>
   <tile/>
   <tile/>
   <tile/>
   <tile/>
   <tile/>
   <tile/>
   <tile/>
   <tile/>
   <tile/>
   <tile/>
   <tile/>
   <tile/>
   <tile/>
   <tile/>
   <tile/>
   <tile/>
   <tile/>
   <tile/>
   <tile/>
   <tile/>
   <tile gid="49"/>
   <tile/>
   <tile/>
   <tile gid="49"/>
   <tile gid="49"/>
   <tile/>
   <tile/>
   <tile/>
   <tile/>
   <tile/>
   <tile/>
   <tile/>
   <tile/>
   <tile/>
   <tile/>
   <tile/>
   <tile/>
   <tile/>
   <tile/>
   <tile/>
   <tile/>
   <tile/>
   <tile/>
   <tile/>
   <tile/>
   <tile/>
   <tile/>
   <tile/>
   <tile/>
   <tile/>
   <tile/>
   <tile/>
   <tile/>
   <tile/>
   <tile/>
   <tile/>
   <tile/>
   <tile/>
   <tile/>
   <tile/>
   <tile gid="49"/>
   <tile/>
   <tile/>
   <tile gid="49"/>
   <tile/>
   <tile/>
   <tile/>
   <tile/>
   <tile/>
   <tile/>
   <tile/>
   <tile/>
   <tile/>
   <tile/>
   <tile/>
   <tile/>
   <tile/>
   <tile/>
   <tile/>
   <tile/>
   <tile/>
   <tile/>
   <tile/>
   <tile/>
   <tile/>
   <tile/>
   <tile/>
   <tile/>
   <tile/>
   <tile/>
   <tile/>
   <tile/>
   <tile/>
   <tile/>
   <tile/>
   <tile/>
   <tile/>
   <tile/>
   <tile/>
   <tile gid="49"/>
   <tile gid="49"/>
   <tile/>
   <tile/>
   <tile gid="49"/>
   <tile/>
   <tile/>
   <tile/>
   <tile/>
   <tile/>
   <tile/>
   <tile/>
   <tile/>
   <tile/>
   <tile/>
   <tile/>
   <tile/>
   <tile/>
   <tile/>
   <tile/>
   <tile/>
   <tile/>
   <tile/>
   <tile/>
   <tile/>
   <tile/>
   <tile/>
   <tile/>
   <tile/>
   <tile gid="49"/>
   <tile gid="49"/>
   <tile/>
   <tile/>
   <tile gid="49"/>
   <tile gid="49"/>
   <tile/>
   <tile/>
   <tile/>
   <tile/>
   <tile/>
   <tile gid="49"/>
   <tile/>
   <tile/>
   <tile/>
   <tile gid="49"/>
   <tile gid="49"/>
   <tile gid="49"/>
   <tile gid="49"/>
   <tile gid="49"/>
   <tile gid="49"/>
   <tile gid="49"/>
   <tile gid="49"/>
   <tile gid="49"/>
   <tile gid="49"/>
   <tile gid="49"/>
   <tile gid="49"/>
   <tile gid="49"/>
   <tile gid="49"/>
   <tile gid="49"/>
   <tile gid="49"/>
   <tile gid="49"/>
   <tile gid="49"/>
   <tile gid="49"/>
   <tile gid="49"/>
   <tile gid="49"/>
   <tile gid="49"/>
   <tile gid="49"/>
   <tile gid="49"/>
   <tile gid="49"/>
   <tile gid="49"/>
   <tile gid="49"/>
   <tile gid="49"/>
   <tile gid="49"/>
   <tile gid="49"/>
   <tile gid="49"/>
   <tile gid="49"/>
   <tile gid="49"/>
   <tile gid="49"/>
   <tile gid="49"/>
   <tile gid="49"/>
   <tile gid="49"/>
   <tile/>
   <tile/>
   <tile/>
   <tile/>
   <tile/>
   <tile/>
   <tile/>
   <tile/>
   <tile/>
   <tile/>
   <tile/>
   <tile/>
   <tile/>
   <tile/>
   <tile/>
   <tile/>
   <tile/>
   <tile/>
   <tile/>
   <tile/>
   <tile/>
   <tile/>
   <tile/>
   <tile/>
   <tile/>
   <tile/>
   <tile/>
   <tile/>
   <tile/>
   <tile/>
   <tile/>
   <tile/>
   <tile/>
   <tile/>
   <tile/>
   <tile/>
   <tile/>
   <tile/>
   <tile/>
   <tile/>
   <tile/>
   <tile/>
  </data>
 </layer>
 <objectgroup id="3" name="Collision">
  <properties>
   <property name="Collision" type="bool" value="true"/>
   <property name="Draw" type="bool" value="false"/>
  </properties>
  <object id="1" x="0" y="0" width="64" height="1280"/>
  <object id="2" x="64" y="1216" width="1152" height="64"/>
  <object id="3" x="1216" y="0" width="64" height="1280"/>
  <object id="4" x="64" y="0" width="1152" height="64"/>
  <object id="5" x="1184" y="64" width="32" height="448"/>
  <object id="6" x="1184" y="736" width="32" height="192"/>
  <object id="7" x="960" y="1184" width="64" height="32"/>
  <object id="8" x="832" y="1184" width="64" height="32"/>
  <object id="9" x="64" y="992" width="32" height="160"/>
  <object id="10" x="1184" y="1152" width="32" height="64"/>
  <object id="11" x="896" y="768" width="64" height="192"/>
  <object id="12" x="672" y="992" width="192" height="64"/>
  <object id="13" x="544" y="352" width="64" height="128"/>
  <object id="14" x="416" y="704" width="160" height="64"/>
  <object id="15" x="320" y="544" width="128" height="128"/>
  <object id="16" x="768" y="960" width="160" height="32"/>
  <object id="17" x="864" y="992" width="32" height="32"/>
  <object id="18" x="864" y="864" width="32" height="96"/>
  <object id="19" x="800" y="928" width="64" height="32"/>
  <object id="20" x="832" y="896" width="32" height="32"/>
  <object id="21" x="448" y="640" width="96" height="64"/>
  <object id="22" x="384" y="672" width="64" height="32"/>
  <object id="23" x="384" y="704" width="32" height="32"/>
  <object id="24" x="448" y="544" width="32" height="32"/>
  <object id="25" x="352" y="480" width="160" height="64"/>
  <object id="26" x="512" y="480" width="64"/>
  <object id="27" x="384" y="448" width="160" height="32"/>
  <object id="28" x="512" y="384" width="32" height="64"/>
  <object id="29" x="480" y="416" width="32" height="32"/>
  <object id="31" x="512" y="480" width="64" height="32"/>
 </objectgroup>
 <objectgroup id="4" name="Teleport">
  <object id="30" x="896" y="1184" width="64" height="32">
   <properties>
    <property name="targetMap" value="Restaurant.tmx"/>
   </properties>
  </object>
 </objectgroup>
 <objectgroup id="6" name="Checkpoints">
  <object id="36" x="896" y="1152" width="64" height="32"/>
 </objectgroup>
 <objectgroup id="5" name="Entities">
  <object id="32" name="Player" type="Player" x="928" y="1184">
   <properties>
    <property name="CorneliusJoined" type="bool" value="false"/>
    <property name="WizardJoined" type="bool" value="false"/>
    <property name="magicPoints" type="int" value="50"/>
   </properties>
   <point/>
  </object>
  <object id="33" name="Enemy5" type="Enemy" x="192" y="160">
   <properties>
    <property name="Enemy_ID" type="int" value="5"/>
    <property name="active" type="bool" value="true"/>
    <property name="fight_ID" type="int" value="3"/>
    <property name="texturePath" value="Assets/Maps/Tilesets/x.png"/>
   </properties>
   <point/>
  </object>
  <object id="34" name="Enemy6" type="Enemy" x="1056" y="320">
   <properties>
    <property name="Enemy_ID" type="int" value="6"/>
    <property name="active" type="bool" value="true"/>
    <property name="fight_ID" type="int" value="3"/>
    <property name="texturePath" value="Assets/Maps/Tilesets/x.png"/>
   </properties>
   <point/>
  </object>
  <object id="35" name="Enemy7" type="Enemy" x="192" y="896">
   <properties>
    <property name="Enemy_ID" type="int" value="7"/>
    <property name="active" type="bool" value="true"/>
    <property name="fight_ID" type="int" value="3"/>
    <property name="texturePath" value="Assets/Maps/Tilesets/x.png"/>
   </properties>
   <point/>
  </object>
 </objectgroup>
</map>
