<?xml version="1.0"?>
<map version="1.10" tiledversion="1.11.2" orientation="orthogonal" renderorder="right-down" width="50" height="50" tilewidth="32" tileheight="32" infinite="0" nextlayerid="5" nextobjectid="32">
	<tileset firstgid="1" name="TX Tileset Stone Ground" tilewidth="32" tileheight="32" tilecount="64" columns="8">
		<image source="../Tilesets/TX Tileset Stone Ground.png" width="256" height="256" />
	</tileset>
	<tileset firstgid="65" name="TX Tileset Grass" tilewidth="32" tileheight="32" tilecount="64" columns="8">
		<image source="../Tilesets/TX Tileset Grass.png" width="256" height="256" />
	</tileset>
	<tileset firstgid="129" name="victorian-market" tilewidth="32" tileheight="32" tilecount="1280" columns="16">
		<image source="../Tilesets/victorian-market.png" width="512" height="2560" />
	</tileset>
	<layer id="1" name="Map" width="50" height="50">
		<properties>
			<property name="Draw" type="bool" value="true" />
		</properties>
		<data>
			<tile gid="65" />
			<tile gid="65" />
			<tile gid="65" />
			<tile gid="65" />
			<tile gid="65" />
			<tile gid="65" />
			<tile gid="65" />
			<tile gid="65" />
			<tile gid="65" />
			<tile gid="65" />
			<tile gid="65" />
			<tile gid="65" />
			<tile gid="65" />
			<tile gid="65" />
			<tile gid="65" />
			<tile gid="65" />
			<tile gid="65" />
			<tile gid="65" />
			<tile gid="65" />
			<tile gid="65" />
			<tile gid="65" />
			<tile gid="65" />
			<tile gid="65" />
			<tile gid="65" />
			<tile gid="65" />
			<tile gid="65" />
			<tile gid="65" />
			<tile gid="65" />
			<tile gid="65" />
			<tile gid="65" />
			<tile gid="65" />
			<tile gid="65" />
			<tile gid="65" />
			<tile gid="65" />
			<tile gid="65" />
			<tile gid="65" />
			<tile gid="65" />
			<tile gid="65" />
			<tile gid="65" />
			<tile gid="65" />
			<tile gid="65" />
			<tile gid="65" />
			<tile gid="65" />
			<tile gid="65" />
			<tile gid="65" />
			<tile gid="65" />
			<tile gid="65" />
			<tile gid="65" />
			<tile gid="65" />
			<tile gid="65" />
			<tile gid="65" />
			<tile gid="65" />
			<tile gid="65" />
			<tile gid="65" />
			<tile gid="65" />
			<tile gid="65" />
			<tile gid="65" />
			<tile gid="65" />
			<tile gid="65" />
			<tile gid="65" />
			<tile gid="65" />
			<tile gid="65" />
			<tile gid="65" />
			<tile gid="65" />
			<tile gid="65" />
			<tile gid="65" />
			<tile gid="65" />
			<tile gid="65" />
			<tile gid="65" />
			<tile gid="65" />
			<tile gid="65" />
			<tile gid="65" />
			<tile gid="65" />
			<tile gid="65" />
			<tile gid="65" />
			<tile gid="65" />
			<tile gid="65" />
			<tile gid="65" />
			<tile gid="65" />
			<tile gid="65" />
			<tile gid="65" />
			<tile gid="65" />
			<tile gid="65" />
			<tile gid="65" />
			<tile gid="65" />
			<tile gid="65" />
			<tile gid="65" />
			<tile gid="65" />
			<tile gid="65" />
			<tile gid="65" />
			<tile gid="65" />
			<tile gid="65" />
			<tile gid="65" />
			<tile gid="65" />
			<tile gid="65" />
			<tile gid="65" />
			<tile gid="65" />
			<tile gid="65" />
			<tile gid="65" />
			<tile gid="65" />
			<tile gid="65" />
			<tile gid="65" />
			<tile gid="1" />
			<tile gid="2" />
			<tile gid="2" />
			<tile gid="2" />
			<tile gid="2" />
			<tile gid="2" />
			<tile gid="2" />
			<tile gid="2" />
			<tile gid="2" />
			<tile gid="2" />
			<tile gid="2" />
			<tile gid="2" />
			<tile gid="2" />
			<tile gid="2" />
			<tile gid="2" />
			<tile gid="2" />
			<tile gid="2" />
			<tile gid="2" />
			<tile gid="2" />
			<tile gid="2" />
			<tile gid="2" />
			<tile gid="2" />
			<tile gid="2" />
			<tile gid="2" />
			<tile gid="2" />
			<tile gid="2" />
			<tile gid="2" />
			<tile gid="2" />
			<tile gid="2" />
			<tile gid="2" />
			<tile gid="2" />
			<tile gid="2" />
			<tile gid="2" />
			<tile gid="2" />
			<tile gid="2" />
			<tile gid="2" />
			<tile gid="2" />
			<tile gid="2" />
			<tile gid="2" />
			<tile gid="2" />
			<tile gid="2" />
			<tile gid="2" />
			<tile gid="2" />
			<tile gid="2" />
			<tile gid="2" />
			<tile gid="3" />
			<tile gid="65" />
			<tile gid="65" />
			<tile gid="65" />
			<tile gid="65" />
			<tile gid="9" />
			<tile gid="10" />
			<tile gid="10" />
			<tile gid="10" />
			<tile gid="10" />
			<tile gid="10" />
			<tile gid="10" />
			<tile gid="10" />
			<tile gid="10" />
			<tile gid="10" />
			<tile gid="10" />
			<tile gid="10" />
			<tile gid="10" />
			<tile gid="10" />
			<tile gid="10" />
			<tile gid="10" />
			<tile gid="10" />
			<tile gid="10" />
			<tile gid="10" />
			<tile gid="10" />
			<tile gid="10" />
			<tile gid="10" />
			<tile gid="10" />
			<tile gid="10" />
			<tile gid="10" />
			<tile gid="10" />
			<tile gid="10" />
			<tile gid="10" />
			<tile gid="10" />
			<tile gid="10" />
			<tile gid="10" />
			<tile gid="10" />
			<tile gid="10" />
			<tile gid="10" />
			<tile gid="10" />
			<tile gid="10" />
			<tile gid="10" />
			<tile gid="10" />
			<tile gid="10" />
			<tile gid="10" />
			<tile gid="10" />
			<tile gid="10" />
			<tile gid="10" />
			<tile gid="10" />
			<tile gid="10" />
			<tile gid="11" />
			<tile gid="65" />
			<tile gid="65" />
			<tile gid="65" />
			<tile gid="65" />
			<tile gid="9" />
			<tile gid="10" />
			<tile gid="10" />
			<tile gid="10" />
			<tile gid="10" />
			<tile gid="10" />
			<tile gid="10" />
			<tile gid="10" />
			<tile gid="10" />
			<tile gid="10" />
			<tile gid="10" />
			<tile gid="10" />
			<tile gid="10" />
			<tile gid="10" />
			<tile gid="10" />
			<tile gid="10" />
			<tile gid="10" />
			<tile gid="10" />
			<tile gid="10" />
			<tile gid="10" />
			<tile gid="10" />
			<tile gid="10" />
			<tile gid="10" />
			<tile gid="10" />
			<tile gid="10" />
			<tile gid="10" />
			<tile gid="10" />
			<tile gid="10" />
			<tile gid="10" />
			<tile gid="10" />
			<tile gid="10" />
			<tile gid="10" />
			<tile gid="10" />
			<tile gid="10" />
			<tile gid="10" />
			<tile gid="10" />
			<tile gid="10" />
			<tile gid="10" />
			<tile gid="10" />
			<tile gid="10" />
			<tile gid="10" />
			<tile gid="10" />
			<tile gid="10" />
			<tile gid="10" />
			<tile gid="10" />
			<tile gid="11" />
			<tile gid="65" />
			<tile gid="65" />
			<tile gid="65" />
			<tile gid="65" />
			<tile gid="9" />
			<tile gid="10" />
			<tile gid="10" />
			<tile gid="10" />
			<tile gid="10" />
			<tile gid="10" />
			<tile gid="10" />
			<tile gid="10" />
			<tile gid="10" />
			<tile gid="10" />
			<tile gid="10" />
			<tile gid="10" />
			<tile gid="10" />
			<tile gid="10" />
			<tile gid="10" />
			<tile gid="10" />
			<tile gid="10" />
			<tile gid="10" />
			<tile gid="10" />
			<tile gid="10" />
			<tile gid="10" />
			<tile gid="10" />
			<tile gid="10" />
			<tile gid="10" />
			<tile gid="10" />
			<tile gid="10" />
			<tile gid="10" />
			<tile gid="10" />
			<tile gid="10" />
			<tile gid="10" />
			<tile gid="10" />
			<tile gid="10" />
			<tile gid="10" />
			<tile gid="10" />
			<tile gid="10" />
			<tile gid="10" />
			<tile gid="10" />
			<tile gid="10" />
			<tile gid="10" />
			<tile gid="10" />
			<tile gid="10" />
			<tile gid="10" />
			<tile gid="10" />
			<tile gid="10" />
			<tile gid="10" />
			<tile gid="11" />
			<tile gid="65" />
			<tile gid="65" />
			<tile gid="65" />
			<tile gid="65" />
			<tile gid="9" />
			<tile gid="10" />
			<tile gid="10" />
			<tile gid="10" />
			<tile gid="10" />
			<tile gid="10" />
			<tile gid="10" />
			<tile gid="10" />
			<tile gid="10" />
			<tile gid="10" />
			<tile gid="10" />
			<tile gid="10" />
			<tile gid="10" />
			<tile gid="10" />
			<tile gid="10" />
			<tile gid="10" />
			<tile gid="10" />
			<tile gid="10" />
			<tile gid="10" />
			<tile gid="10" />
			<tile gid="10" />
			<tile gid="10" />
			<tile gid="10" />
			<tile gid="10" />
			<tile gid="10" />
			<tile gid="10" />
			<tile gid="10" />
			<tile gid="10" />
			<tile gid="10" />
			<tile gid="10" />
			<tile gid="10" />
			<tile gid="10" />
			<tile gid="10" />
			<tile gid="10" />
			<tile gid="10" />
			<tile gid="10" />
			<tile gid="10" />
			<tile gid="10" />
			<tile gid="10" />
			<tile gid="10" />
			<tile gid="10" />
			<tile gid="10" />
			<tile gid="10" />
			<tile gid="10" />
			<tile gid="10" />
			<tile gid="11" />
			<tile gid="65" />
			<tile gid="65" />
			<tile gid="65" />
			<tile gid="65" />
			<tile gid="9" />
			<tile gid="10" />
			<tile gid="10" />
			<tile gid="10" />
			<tile gid="10" />
			<tile gid="10" />
			<tile gid="10" />
			<tile gid="10" />
			<tile gid="10" />
			<tile gid="10" />
			<tile gid="10" />
			<tile gid="10" />
			<tile gid="10" />
			<tile gid="10" />
			<tile gid="10" />
			<tile gid="10" />
			<tile gid="10" />
			<tile gid="10" />
			<tile gid="10" />
			<tile gid="10" />
			<tile gid="10" />
			<tile gid="10" />
			<tile gid="10" />
			<tile gid="10" />
			<tile gid="10" />
			<tile gid="10" />
			<tile gid="10" />
			<tile gid="10" />
			<tile gid="10" />
			<tile gid="10" />
			<tile gid="10" />
			<tile gid="10" />
			<tile gid="10" />
			<tile gid="10" />
			<tile gid="10" />
			<tile gid="10" />
			<tile gid="10" />
			<tile gid="10" />
			<tile gid="10" />
			<tile gid="10" />
			<tile gid="10" />
			<tile gid="10" />
			<tile gid="10" />
			<tile gid="10" />
			<tile gid="10" />
			<tile gid="11" />
			<tile gid="65" />
			<tile gid="65" />
			<tile gid="65" />
			<tile gid="65" />
			<tile gid="9" />
			<tile gid="10" />
			<tile gid="10" />
			<tile gid="10" />
			<tile gid="10" />
			<tile gid="10" />
			<tile gid="10" />
			<tile gid="10" />
			<tile gid="10" />
			<tile gid="10" />
			<tile gid="10" />
			<tile gid="10" />
			<tile gid="10" />
			<tile gid="10" />
			<tile gid="10" />
			<tile gid="10" />
			<tile gid="10" />
			<tile gid="10" />
			<tile gid="10" />
			<tile gid="10" />
			<tile gid="10" />
			<tile gid="10" />
			<tile gid="10" />
			<tile gid="10" />
			<tile gid="10" />
			<tile gid="10" />
			<tile gid="10" />
			<tile gid="10" />
			<tile gid="10" />
			<tile gid="10" />
			<tile gid="10" />
			<tile gid="10" />
			<tile gid="10" />
			<tile gid="10" />
			<tile gid="10" />
			<tile gid="10" />
			<tile gid="10" />
			<tile gid="10" />
			<tile gid="10" />
			<tile gid="10" />
			<tile gid="10" />
			<tile gid="10" />
			<tile gid="10" />
			<tile gid="10" />
			<tile gid="10" />
			<tile gid="11" />
			<tile gid="65" />
			<tile gid="65" />
			<tile gid="65" />
			<tile gid="65" />
			<tile gid="9" />
			<tile gid="10" />
			<tile gid="10" />
			<tile gid="10" />
			<tile gid="10" />
			<tile gid="10" />
			<tile gid="10" />
			<tile gid="10" />
			<tile gid="10" />
			<tile gid="10" />
			<tile gid="10" />
			<tile gid="10" />
			<tile gid="10" />
			<tile gid="10" />
			<tile gid="10" />
			<tile gid="10" />
			<tile gid="10" />
			<tile gid="10" />
			<tile gid="10" />
			<tile gid="10" />
			<tile gid="10" />
			<tile gid="10" />
			<tile gid="10" />
			<tile gid="10" />
			<tile gid="10" />
			<tile gid="10" />
			<tile gid="10" />
			<tile gid="10" />
			<tile gid="10" />
			<tile gid="10" />
			<tile gid="10" />
			<tile gid="10" />
			<tile gid="10" />
			<tile gid="10" />
			<tile gid="10" />
			<tile gid="10" />
			<tile gid="10" />
			<tile gid="10" />
			<tile gid="10" />
			<tile gid="10" />
			<tile gid="10" />
			<tile gid="10" />
			<tile gid="10" />
			<tile gid="10" />
			<tile gid="10" />
			<tile gid="11" />
			<tile gid="65" />
			<tile gid="65" />
			<tile gid="65" />
			<tile gid="65" />
			<tile gid="9" />
			<tile gid="10" />
			<tile gid="10" />
			<tile gid="10" />
			<tile gid="10" />
			<tile gid="10" />
			<tile gid="10" />
			<tile gid="10" />
			<tile gid="10" />
			<tile gid="10" />
			<tile gid="10" />
			<tile gid="10" />
			<tile gid="10" />
			<tile gid="10" />
			<tile gid="10" />
			<tile gid="10" />
			<tile gid="10" />
			<tile gid="10" />
			<tile gid="10" />
			<tile gid="10" />
			<tile gid="10" />
			<tile gid="10" />
			<tile gid="10" />
			<tile gid="10" />
			<tile gid="10" />
			<tile gid="10" />
			<tile gid="10" />
			<tile gid="10" />
			<tile gid="10" />
			<tile gid="10" />
			<tile gid="10" />
			<tile gid="10" />
			<tile gid="10" />
			<tile gid="10" />
			<tile gid="10" />
			<tile gid="10" />
			<tile gid="10" />
			<tile gid="10" />
			<tile gid="10" />
			<tile gid="10" />
			<tile gid="10" />
			<tile gid="10" />
			<tile gid="10" />
			<tile gid="10" />
			<tile gid="10" />
			<tile gid="11" />
			<tile gid="65" />
			<tile gid="65" />
			<tile gid="65" />
			<tile gid="65" />
			<tile gid="9" />
			<tile gid="10" />
			<tile gid="10" />
			<tile gid="10" />
			<tile gid="10" />
			<tile gid="10" />
			<tile gid="10" />
			<tile gid="10" />
			<tile gid="10" />
			<tile gid="10" />
			<tile gid="10" />
			<tile gid="10" />
			<tile gid="10" />
			<tile gid="10" />
			<tile gid="10" />
			<tile gid="10" />
			<tile gid="10" />
			<tile gid="10" />
			<tile gid="10" />
			<tile gid="10" />
			<tile gid="10" />
			<tile gid="10" />
			<tile gid="10" />
			<tile gid="10" />
			<tile gid="10" />
			<tile gid="10" />
			<tile gid="10" />
			<tile gid="10" />
			<tile gid="10" />
			<tile gid="10" />
			<tile gid="10" />
			<tile gid="10" />
			<tile gid="10" />
			<tile gid="10" />
			<tile gid="10" />
			<tile gid="10" />
			<tile gid="10" />
			<tile gid="10" />
			<tile gid="10" />
			<tile gid="10" />
			<tile gid="10" />
			<tile gid="10" />
			<tile gid="10" />
			<tile gid="10" />
			<tile gid="10" />
			<tile gid="11" />
			<tile gid="65" />
			<tile gid="65" />
			<tile gid="65" />
			<tile gid="65" />
			<tile gid="9" />
			<tile gid="10" />
			<tile gid="10" />
			<tile gid="10" />
			<tile gid="10" />
			<tile gid="10" />
			<tile gid="10" />
			<tile gid="10" />
			<tile gid="10" />
			<tile gid="10" />
			<tile gid="10" />
			<tile gid="10" />
			<tile gid="10" />
			<tile gid="10" />
			<tile gid="10" />
			<tile gid="10" />
			<tile gid="10" />
			<tile gid="10" />
			<tile gid="10" />
			<tile gid="10" />
			<tile gid="10" />
			<tile gid="10" />
			<tile gid="10" />
			<tile gid="10" />
			<tile gid="10" />
			<tile gid="10" />
			<tile gid="10" />
			<tile gid="10" />
			<tile gid="10" />
			<tile gid="10" />
			<tile gid="10" />
			<tile gid="10" />
			<tile gid="10" />
			<tile gid="10" />
			<tile gid="10" />
			<tile gid="10" />
			<tile gid="10" />
			<tile gid="10" />
			<tile gid="10" />
			<tile gid="10" />
			<tile gid="10" />
			<tile gid="10" />
			<tile gid="10" />
			<tile gid="10" />
			<tile gid="10" />
			<tile gid="11" />
			<tile gid="65" />
			<tile gid="65" />
			<tile gid="65" />
			<tile gid="65" />
			<tile gid="9" />
			<tile gid="10" />
			<tile gid="10" />
			<tile gid="10" />
			<tile gid="10" />
			<tile gid="10" />
			<tile gid="10" />
			<tile gid="10" />
			<tile gid="10" />
			<tile gid="10" />
			<tile gid="10" />
			<tile gid="10" />
			<tile gid="10" />
			<tile gid="10" />
			<tile gid="10" />
			<tile gid="10" />
			<tile gid="10" />
			<tile gid="10" />
			<tile gid="10" />
			<tile gid="10" />
			<tile gid="10" />
			<tile gid="10" />
			<tile gid="10" />
			<tile gid="10" />
			<tile gid="10" />
			<tile gid="10" />
			<tile gid="10" />
			<tile gid="10" />
			<tile gid="10" />
			<tile gid="10" />
			<tile gid="10" />
			<tile gid="10" />
			<tile gid="10" />
			<tile gid="10" />
			<tile gid="10" />
			<tile gid="10" />
			<tile gid="10" />
			<tile gid="10" />
			<tile gid="10" />
			<tile gid="10" />
			<tile gid="10" />
			<tile gid="10" />
			<tile gid="10" />
			<tile gid="10" />
			<tile gid="10" />
			<tile gid="11" />
			<tile gid="65" />
			<tile gid="65" />
			<tile gid="65" />
			<tile gid="65" />
			<tile gid="9" />
			<tile gid="10" />
			<tile gid="10" />
			<tile gid="10" />
			<tile gid="10" />
			<tile gid="10" />
			<tile gid="10" />
			<tile gid="10" />
			<tile gid="10" />
			<tile gid="10" />
			<tile gid="10" />
			<tile gid="10" />
			<tile gid="10" />
			<tile gid="10" />
			<tile gid="10" />
			<tile gid="10" />
			<tile gid="10" />
			<tile gid="10" />
			<tile gid="10" />
			<tile gid="10" />
			<tile gid="10" />
			<tile gid="10" />
			<tile gid="10" />
			<tile gid="10" />
			<tile gid="10" />
			<tile gid="10" />
			<tile gid="10" />
			<tile gid="10" />
			<tile gid="10" />
			<tile gid="10" />
			<tile gid="10" />
			<tile gid="10" />
			<tile gid="10" />
			<tile gid="10" />
			<tile gid="10" />
			<tile gid="10" />
			<tile gid="10" />
			<tile gid="10" />
			<tile gid="10" />
			<tile gid="10" />
			<tile gid="10" />
			<tile gid="10" />
			<tile gid="10" />
			<tile gid="10" />
			<tile gid="10" />
			<tile gid="11" />
			<tile gid="65" />
			<tile gid="65" />
			<tile gid="65" />
			<tile gid="65" />
			<tile gid="9" />
			<tile gid="10" />
			<tile gid="10" />
			<tile gid="10" />
			<tile gid="10" />
			<tile gid="10" />
			<tile gid="10" />
			<tile gid="10" />
			<tile gid="10" />
			<tile gid="10" />
			<tile gid="10" />
			<tile gid="10" />
			<tile gid="10" />
			<tile gid="10" />
			<tile gid="10" />
			<tile gid="10" />
			<tile gid="10" />
			<tile gid="10" />
			<tile gid="10" />
			<tile gid="10" />
			<tile gid="10" />
			<tile gid="10" />
			<tile gid="10" />
			<tile gid="10" />
			<tile gid="10" />
			<tile gid="10" />
			<tile gid="10" />
			<tile gid="10" />
			<tile gid="10" />
			<tile gid="10" />
			<tile gid="10" />
			<tile gid="10" />
			<tile gid="10" />
			<tile gid="10" />
			<tile gid="10" />
			<tile gid="10" />
			<tile gid="10" />
			<tile gid="10" />
			<tile gid="10" />
			<tile gid="10" />
			<tile gid="10" />
			<tile gid="10" />
			<tile gid="10" />
			<tile gid="10" />
			<tile gid="10" />
			<tile gid="11" />
			<tile gid="65" />
			<tile gid="65" />
			<tile gid="65" />
			<tile gid="65" />
			<tile gid="9" />
			<tile gid="10" />
			<tile gid="10" />
			<tile gid="10" />
			<tile gid="10" />
			<tile gid="10" />
			<tile gid="10" />
			<tile gid="10" />
			<tile gid="10" />
			<tile gid="10" />
			<tile gid="10" />
			<tile gid="10" />
			<tile gid="10" />
			<tile gid="10" />
			<tile gid="10" />
			<tile gid="10" />
			<tile gid="10" />
			<tile gid="10" />
			<tile gid="10" />
			<tile gid="10" />
			<tile gid="10" />
			<tile gid="10" />
			<tile gid="10" />
			<tile gid="10" />
			<tile gid="10" />
			<tile gid="10" />
			<tile gid="10" />
			<tile gid="10" />
			<tile gid="10" />
			<tile gid="10" />
			<tile gid="10" />
			<tile gid="10" />
			<tile gid="10" />
			<tile gid="10" />
			<tile gid="10" />
			<tile gid="10" />
			<tile gid="10" />
			<tile gid="10" />
			<tile gid="10" />
			<tile gid="10" />
			<tile gid="10" />
			<tile gid="10" />
			<tile gid="10" />
			<tile gid="10" />
			<tile gid="10" />
			<tile gid="11" />
			<tile gid="65" />
			<tile gid="65" />
			<tile gid="65" />
			<tile gid="65" />
			<tile gid="9" />
			<tile gid="10" />
			<tile gid="10" />
			<tile gid="10" />
			<tile gid="10" />
			<tile gid="10" />
			<tile gid="10" />
			<tile gid="10" />
			<tile gid="10" />
			<tile gid="10" />
			<tile gid="10" />
			<tile gid="10" />
			<tile gid="10" />
			<tile gid="10" />
			<tile gid="10" />
			<tile gid="10" />
			<tile gid="10" />
			<tile gid="10" />
			<tile gid="10" />
			<tile gid="10" />
			<tile gid="10" />
			<tile gid="10" />
			<tile gid="10" />
			<tile gid="10" />
			<tile gid="10" />
			<tile gid="10" />
			<tile gid="10" />
			<tile gid="10" />
			<tile gid="10" />
			<tile gid="10" />
			<tile gid="10" />
			<tile gid="10" />
			<tile gid="10" />
			<tile gid="10" />
			<tile gid="10" />
			<tile gid="10" />
			<tile gid="10" />
			<tile gid="10" />
			<tile gid="10" />
			<tile gid="10" />
			<tile gid="10" />
			<tile gid="10" />
			<tile gid="10" />
			<tile gid="10" />
			<tile gid="10" />
			<tile gid="11" />
			<tile gid="65" />
			<tile gid="65" />
			<tile gid="65" />
			<tile gid="65" />
			<tile gid="9" />
			<tile gid="10" />
			<tile gid="10" />
			<tile gid="10" />
			<tile gid="10" />
			<tile gid="10" />
			<tile gid="10" />
			<tile gid="10" />
			<tile gid="10" />
			<tile gid="10" />
			<tile gid="10" />
			<tile gid="10" />
			<tile gid="10" />
			<tile gid="10" />
			<tile gid="10" />
			<tile gid="10" />
			<tile gid="10" />
			<tile gid="10" />
			<tile gid="10" />
			<tile gid="10" />
			<tile gid="10" />
			<tile gid="10" />
			<tile gid="10" />
			<tile gid="10" />
			<tile gid="10" />
			<tile gid="10" />
			<tile gid="10" />
			<tile gid="10" />
			<tile gid="10" />
			<tile gid="10" />
			<tile gid="10" />
			<tile gid="10" />
			<tile gid="10" />
			<tile gid="10" />
			<tile gid="10" />
			<tile gid="10" />
			<tile gid="10" />
			<tile gid="10" />
			<tile gid="10" />
			<tile gid="10" />
			<tile gid="10" />
			<tile gid="10" />
			<tile gid="10" />
			<tile gid="10" />
			<tile gid="10" />
			<tile gid="11" />
			<tile gid="65" />
			<tile gid="65" />
			<tile gid="65" />
			<tile gid="65" />
			<tile gid="9" />
			<tile gid="10" />
			<tile gid="10" />
			<tile gid="10" />
			<tile gid="10" />
			<tile gid="10" />
			<tile gid="10" />
			<tile gid="10" />
			<tile gid="10" />
			<tile gid="10" />
			<tile gid="10" />
			<tile gid="10" />
			<tile gid="10" />
			<tile gid="10" />
			<tile gid="10" />
			<tile gid="10" />
			<tile gid="10" />
			<tile gid="10" />
			<tile gid="10" />
			<tile gid="10" />
			<tile gid="10" />
			<tile gid="10" />
			<tile gid="10" />
			<tile gid="10" />
			<tile gid="10" />
			<tile gid="10" />
			<tile gid="10" />
			<tile gid="10" />
			<tile gid="10" />
			<tile gid="10" />
			<tile gid="10" />
			<tile gid="10" />
			<tile gid="10" />
			<tile gid="10" />
			<tile gid="10" />
			<tile gid="10" />
			<tile gid="10" />
			<tile gid="10" />
			<tile gid="10" />
			<tile gid="10" />
			<tile gid="10" />
			<tile gid="10" />
			<tile gid="10" />
			<tile gid="10" />
			<tile gid="10" />
			<tile gid="11" />
			<tile gid="65" />
			<tile gid="65" />
			<tile gid="65" />
			<tile gid="65" />
			<tile gid="9" />
			<tile gid="10" />
			<tile gid="10" />
			<tile gid="10" />
			<tile gid="10" />
			<tile gid="10" />
			<tile gid="10" />
			<tile gid="10" />
			<tile gid="10" />
			<tile gid="10" />
			<tile gid="10" />
			<tile gid="10" />
			<tile gid="10" />
			<tile gid="10" />
			<tile gid="10" />
			<tile gid="10" />
			<tile gid="10" />
			<tile gid="10" />
			<tile gid="10" />
			<tile gid="10" />
			<tile gid="10" />
			<tile gid="10" />
			<tile gid="10" />
			<tile gid="10" />
			<tile gid="10" />
			<tile gid="10" />
			<tile gid="10" />
			<tile gid="10" />
			<tile gid="10" />
			<tile gid="10" />
			<tile gid="10" />
			<tile gid="10" />
			<tile gid="10" />
			<tile gid="10" />
			<tile gid="10" />
			<tile gid="10" />
			<tile gid="10" />
			<tile gid="10" />
			<tile gid="10" />
			<tile gid="10" />
			<tile gid="10" />
			<tile gid="10" />
			<tile gid="10" />
			<tile gid="10" />
			<tile gid="10" />
			<tile gid="11" />
			<tile gid="65" />
			<tile gid="65" />
			<tile gid="65" />
			<tile gid="65" />
			<tile gid="9" />
			<tile gid="10" />
			<tile gid="10" />
			<tile gid="10" />
			<tile gid="10" />
			<tile gid="10" />
			<tile gid="10" />
			<tile gid="10" />
			<tile gid="10" />
			<tile gid="10" />
			<tile gid="10" />
			<tile gid="10" />
			<tile gid="10" />
			<tile gid="10" />
			<tile gid="10" />
			<tile gid="10" />
			<tile gid="10" />
			<tile gid="10" />
			<tile gid="10" />
			<tile gid="10" />
			<tile gid="10" />
			<tile gid="10" />
			<tile gid="10" />
			<tile gid="10" />
			<tile gid="10" />
			<tile gid="10" />
			<tile gid="10" />
			<tile gid="10" />
			<tile gid="10" />
			<tile gid="10" />
			<tile gid="10" />
			<tile gid="10" />
			<tile gid="10" />
			<tile gid="10" />
			<tile gid="10" />
			<tile gid="10" />
			<tile gid="10" />
			<tile gid="10" />
			<tile gid="10" />
			<tile gid="10" />
			<tile gid="10" />
			<tile gid="10" />
			<tile gid="10" />
			<tile gid="10" />
			<tile gid="10" />
			<tile gid="11" />
			<tile gid="65" />
			<tile gid="65" />
			<tile gid="65" />
			<tile gid="65" />
			<tile gid="9" />
			<tile gid="10" />
			<tile gid="10" />
			<tile gid="10" />
			<tile gid="10" />
			<tile gid="10" />
			<tile gid="10" />
			<tile gid="10" />
			<tile gid="10" />
			<tile gid="10" />
			<tile gid="10" />
			<tile gid="10" />
			<tile gid="10" />
			<tile gid="10" />
			<tile gid="10" />
			<tile gid="10" />
			<tile gid="10" />
			<tile gid="10" />
			<tile gid="10" />
			<tile gid="10" />
			<tile gid="10" />
			<tile gid="10" />
			<tile gid="10" />
			<tile gid="10" />
			<tile gid="10" />
			<tile gid="10" />
			<tile gid="10" />
			<tile gid="10" />
			<tile gid="10" />
			<tile gid="10" />
			<tile gid="10" />
			<tile gid="10" />
			<tile gid="10" />
			<tile gid="10" />
			<tile gid="10" />
			<tile gid="10" />
			<tile gid="10" />
			<tile gid="10" />
			<tile gid="10" />
			<tile gid="10" />
			<tile gid="10" />
			<tile gid="10" />
			<tile gid="10" />
			<tile gid="10" />
			<tile gid="10" />
			<tile gid="11" />
			<tile gid="65" />
			<tile gid="65" />
			<tile gid="65" />
			<tile gid="65" />
			<tile gid="9" />
			<tile gid="10" />
			<tile gid="10" />
			<tile gid="10" />
			<tile gid="10" />
			<tile gid="10" />
			<tile gid="10" />
			<tile gid="10" />
			<tile gid="10" />
			<tile gid="10" />
			<tile gid="10" />
			<tile gid="10" />
			<tile gid="10" />
			<tile gid="10" />
			<tile gid="10" />
			<tile gid="10" />
			<tile gid="10" />
			<tile gid="10" />
			<tile gid="10" />
			<tile gid="10" />
			<tile gid="10" />
			<tile gid="10" />
			<tile gid="10" />
			<tile gid="10" />
			<tile gid="10" />
			<tile gid="10" />
			<tile gid="10" />
			<tile gid="10" />
			<tile gid="10" />
			<tile gid="10" />
			<tile gid="10" />
			<tile gid="10" />
			<tile gid="10" />
			<tile gid="10" />
			<tile gid="10" />
			<tile gid="10" />
			<tile gid="10" />
			<tile gid="10" />
			<tile gid="10" />
			<tile gid="10" />
			<tile gid="10" />
			<tile gid="10" />
			<tile gid="10" />
			<tile gid="10" />
			<tile gid="10" />
			<tile gid="11" />
			<tile gid="65" />
			<tile gid="65" />
			<tile gid="65" />
			<tile gid="65" />
			<tile gid="9" />
			<tile gid="10" />
			<tile gid="10" />
			<tile gid="10" />
			<tile gid="10" />
			<tile gid="10" />
			<tile gid="10" />
			<tile gid="10" />
			<tile gid="10" />
			<tile gid="10" />
			<tile gid="10" />
			<tile gid="10" />
			<tile gid="10" />
			<tile gid="10" />
			<tile gid="10" />
			<tile gid="10" />
			<tile gid="10" />
			<tile gid="10" />
			<tile gid="10" />
			<tile gid="10" />
			<tile gid="10" />
			<tile gid="10" />
			<tile gid="10" />
			<tile gid="10" />
			<tile gid="10" />
			<tile gid="10" />
			<tile gid="10" />
			<tile gid="10" />
			<tile gid="10" />
			<tile gid="10" />
			<tile gid="10" />
			<tile gid="10" />
			<tile gid="10" />
			<tile gid="10" />
			<tile gid="10" />
			<tile gid="10" />
			<tile gid="10" />
			<tile gid="10" />
			<tile gid="10" />
			<tile gid="10" />
			<tile gid="10" />
			<tile gid="10" />
			<tile gid="10" />
			<tile gid="10" />
			<tile gid="10" />
			<tile gid="11" />
			<tile gid="65" />
			<tile gid="65" />
			<tile gid="65" />
			<tile gid="65" />
			<tile gid="9" />
			<tile gid="10" />
			<tile gid="10" />
			<tile gid="10" />
			<tile gid="10" />
			<tile gid="10" />
			<tile gid="10" />
			<tile gid="10" />
			<tile gid="10" />
			<tile gid="10" />
			<tile gid="10" />
			<tile gid="10" />
			<tile gid="10" />
			<tile gid="10" />
			<tile gid="10" />
			<tile gid="10" />
			<tile gid="10" />
			<tile gid="10" />
			<tile gid="10" />
			<tile gid="10" />
			<tile gid="10" />
			<tile gid="10" />
			<tile gid="10" />
			<tile gid="10" />
			<tile gid="10" />
			<tile gid="10" />
			<tile gid="10" />
			<tile gid="10" />
			<tile gid="10" />
			<tile gid="10" />
			<tile gid="10" />
			<tile gid="10" />
			<tile gid="10" />
			<tile gid="10" />
			<tile gid="10" />
			<tile gid="10" />
			<tile gid="10" />
			<tile gid="10" />
			<tile gid="10" />
			<tile gid="10" />
			<tile gid="10" />
			<tile gid="10" />
			<tile gid="10" />
			<tile gid="10" />
			<tile gid="10" />
			<tile gid="11" />
			<tile gid="65" />
			<tile gid="65" />
			<tile gid="65" />
			<tile gid="65" />
			<tile gid="9" />
			<tile gid="10" />
			<tile gid="10" />
			<tile gid="10" />
			<tile gid="10" />
			<tile gid="10" />
			<tile gid="10" />
			<tile gid="10" />
			<tile gid="10" />
			<tile gid="10" />
			<tile gid="10" />
			<tile gid="10" />
			<tile gid="10" />
			<tile gid="10" />
			<tile gid="10" />
			<tile gid="10" />
			<tile gid="10" />
			<tile gid="10" />
			<tile gid="10" />
			<tile gid="10" />
			<tile gid="10" />
			<tile gid="10" />
			<tile gid="10" />
			<tile gid="10" />
			<tile gid="10" />
			<tile gid="10" />
			<tile gid="10" />
			<tile gid="10" />
			<tile gid="10" />
			<tile gid="10" />
			<tile gid="10" />
			<tile gid="10" />
			<tile gid="10" />
			<tile gid="10" />
			<tile gid="10" />
			<tile gid="10" />
			<tile gid="10" />
			<tile gid="10" />
			<tile gid="10" />
			<tile gid="10" />
			<tile gid="10" />
			<tile gid="10" />
			<tile gid="10" />
			<tile gid="10" />
			<tile gid="10" />
			<tile gid="11" />
			<tile gid="65" />
			<tile gid="65" />
			<tile gid="65" />
			<tile gid="65" />
			<tile gid="9" />
			<tile gid="10" />
			<tile gid="10" />
			<tile gid="10" />
			<tile gid="10" />
			<tile gid="10" />
			<tile gid="10" />
			<tile gid="10" />
			<tile gid="10" />
			<tile gid="10" />
			<tile gid="10" />
			<tile gid="10" />
			<tile gid="10" />
			<tile gid="10" />
			<tile gid="10" />
			<tile gid="10" />
			<tile gid="10" />
			<tile gid="10" />
			<tile gid="10" />
			<tile gid="10" />
			<tile gid="10" />
			<tile gid="10" />
			<tile gid="10" />
			<tile gid="10" />
			<tile gid="10" />
			<tile gid="10" />
			<tile gid="10" />
			<tile gid="10" />
			<tile gid="10" />
			<tile gid="10" />
			<tile gid="10" />
			<tile gid="10" />
			<tile gid="10" />
			<tile gid="10" />
			<tile gid="10" />
			<tile gid="10" />
			<tile gid="10" />
			<tile gid="10" />
			<tile gid="10" />
			<tile gid="10" />
			<tile gid="10" />
			<tile gid="10" />
			<tile gid="10" />
			<tile gid="10" />
			<tile gid="10" />
			<tile gid="11" />
			<tile gid="65" />
			<tile gid="65" />
			<tile gid="65" />
			<tile gid="65" />
			<tile gid="9" />
			<tile gid="10" />
			<tile gid="10" />
			<tile gid="10" />
			<tile gid="10" />
			<tile gid="10" />
			<tile gid="10" />
			<tile gid="10" />
			<tile gid="10" />
			<tile gid="10" />
			<tile gid="10" />
			<tile gid="10" />
			<tile gid="10" />
			<tile gid="10" />
			<tile gid="10" />
			<tile gid="10" />
			<tile gid="10" />
			<tile gid="10" />
			<tile gid="10" />
			<tile gid="10" />
			<tile gid="10" />
			<tile gid="10" />
			<tile gid="10" />
			<tile gid="10" />
			<tile gid="10" />
			<tile gid="10" />
			<tile gid="10" />
			<tile gid="10" />
			<tile gid="10" />
			<tile gid="10" />
			<tile gid="10" />
			<tile gid="10" />
			<tile gid="10" />
			<tile gid="10" />
			<tile gid="10" />
			<tile gid="10" />
			<tile gid="10" />
			<tile gid="10" />
			<tile gid="10" />
			<tile gid="10" />
			<tile gid="10" />
			<tile gid="10" />
			<tile gid="10" />
			<tile gid="10" />
			<tile gid="10" />
			<tile gid="11" />
			<tile gid="65" />
			<tile gid="65" />
			<tile gid="65" />
			<tile gid="65" />
			<tile gid="9" />
			<tile gid="10" />
			<tile gid="10" />
			<tile gid="10" />
			<tile gid="10" />
			<tile gid="10" />
			<tile gid="10" />
			<tile gid="10" />
			<tile gid="10" />
			<tile gid="10" />
			<tile gid="10" />
			<tile gid="10" />
			<tile gid="10" />
			<tile gid="10" />
			<tile gid="10" />
			<tile gid="10" />
			<tile gid="10" />
			<tile gid="10" />
			<tile gid="10" />
			<tile gid="10" />
			<tile gid="10" />
			<tile gid="10" />
			<tile gid="10" />
			<tile gid="10" />
			<tile gid="10" />
			<tile gid="10" />
			<tile gid="10" />
			<tile gid="10" />
			<tile gid="10" />
			<tile gid="10" />
			<tile gid="10" />
			<tile gid="10" />
			<tile gid="10" />
			<tile gid="10" />
			<tile gid="10" />
			<tile gid="10" />
			<tile gid="10" />
			<tile gid="10" />
			<tile gid="10" />
			<tile gid="10" />
			<tile gid="10" />
			<tile gid="10" />
			<tile gid="10" />
			<tile gid="10" />
			<tile gid="10" />
			<tile gid="11" />
			<tile gid="65" />
			<tile gid="65" />
			<tile gid="65" />
			<tile gid="65" />
			<tile gid="9" />
			<tile gid="10" />
			<tile gid="10" />
			<tile gid="10" />
			<tile gid="10" />
			<tile gid="10" />
			<tile gid="10" />
			<tile gid="10" />
			<tile gid="10" />
			<tile gid="10" />
			<tile gid="10" />
			<tile gid="10" />
			<tile gid="10" />
			<tile gid="10" />
			<tile gid="10" />
			<tile gid="10" />
			<tile gid="10" />
			<tile gid="10" />
			<tile gid="10" />
			<tile gid="10" />
			<tile gid="10" />
			<tile gid="10" />
			<tile gid="10" />
			<tile gid="10" />
			<tile gid="10" />
			<tile gid="10" />
			<tile gid="10" />
			<tile gid="10" />
			<tile gid="10" />
			<tile gid="10" />
			<tile gid="10" />
			<tile gid="10" />
			<tile gid="10" />
			<tile gid="10" />
			<tile gid="10" />
			<tile gid="10" />
			<tile gid="10" />
			<tile gid="10" />
			<tile gid="10" />
			<tile gid="10" />
			<tile gid="10" />
			<tile gid="10" />
			<tile gid="10" />
			<tile gid="10" />
			<tile gid="10" />
			<tile gid="11" />
			<tile gid="65" />
			<tile gid="65" />
			<tile gid="65" />
			<tile gid="65" />
			<tile gid="9" />
			<tile gid="10" />
			<tile gid="10" />
			<tile gid="10" />
			<tile gid="10" />
			<tile gid="10" />
			<tile gid="10" />
			<tile gid="10" />
			<tile gid="10" />
			<tile gid="10" />
			<tile gid="10" />
			<tile gid="10" />
			<tile gid="10" />
			<tile gid="10" />
			<tile gid="10" />
			<tile gid="10" />
			<tile gid="10" />
			<tile gid="10" />
			<tile gid="10" />
			<tile gid="10" />
			<tile gid="10" />
			<tile gid="10" />
			<tile gid="10" />
			<tile gid="10" />
			<tile gid="10" />
			<tile gid="10" />
			<tile gid="10" />
			<tile gid="10" />
			<tile gid="10" />
			<tile gid="10" />
			<tile gid="10" />
			<tile gid="10" />
			<tile gid="10" />
			<tile gid="10" />
			<tile gid="10" />
			<tile gid="10" />
			<tile gid="10" />
			<tile gid="10" />
			<tile gid="10" />
			<tile gid="10" />
			<tile gid="10" />
			<tile gid="10" />
			<tile gid="10" />
			<tile gid="10" />
			<tile gid="10" />
			<tile gid="11" />
			<tile gid="65" />
			<tile gid="65" />
			<tile gid="65" />
			<tile gid="65" />
			<tile gid="9" />
			<tile gid="10" />
			<tile gid="10" />
			<tile gid="10" />
			<tile gid="10" />
			<tile gid="10" />
			<tile gid="10" />
			<tile gid="10" />
			<tile gid="10" />
			<tile gid="10" />
			<tile gid="10" />
			<tile gid="10" />
			<tile gid="10" />
			<tile gid="10" />
			<tile gid="10" />
			<tile gid="10" />
			<tile gid="10" />
			<tile gid="10" />
			<tile gid="10" />
			<tile gid="10" />
			<tile gid="10" />
			<tile gid="10" />
			<tile gid="10" />
			<tile gid="10" />
			<tile gid="10" />
			<tile gid="10" />
			<tile gid="10" />
			<tile gid="10" />
			<tile gid="10" />
			<tile gid="10" />
			<tile gid="10" />
			<tile gid="10" />
			<tile gid="10" />
			<tile gid="10" />
			<tile gid="10" />
			<tile gid="10" />
			<tile gid="10" />
			<tile gid="10" />
			<tile gid="10" />
			<tile gid="10" />
			<tile gid="10" />
			<tile gid="10" />
			<tile gid="10" />
			<tile gid="10" />
			<tile gid="10" />
			<tile gid="11" />
			<tile gid="65" />
			<tile gid="65" />
			<tile gid="65" />
			<tile gid="65" />
			<tile gid="9" />
			<tile gid="10" />
			<tile gid="10" />
			<tile gid="10" />
			<tile gid="10" />
			<tile gid="10" />
			<tile gid="10" />
			<tile gid="10" />
			<tile gid="10" />
			<tile gid="10" />
			<tile gid="10" />
			<tile gid="10" />
			<tile gid="10" />
			<tile gid="10" />
			<tile gid="10" />
			<tile gid="10" />
			<tile gid="10" />
			<tile gid="10" />
			<tile gid="10" />
			<tile gid="10" />
			<tile gid="10" />
			<tile gid="10" />
			<tile gid="10" />
			<tile gid="10" />
			<tile gid="10" />
			<tile gid="10" />
			<tile gid="10" />
			<tile gid="10" />
			<tile gid="10" />
			<tile gid="10" />
			<tile gid="10" />
			<tile gid="10" />
			<tile gid="10" />
			<tile gid="10" />
			<tile gid="10" />
			<tile gid="10" />
			<tile gid="10" />
			<tile gid="10" />
			<tile gid="10" />
			<tile gid="10" />
			<tile gid="10" />
			<tile gid="10" />
			<tile gid="10" />
			<tile gid="10" />
			<tile gid="10" />
			<tile gid="11" />
			<tile gid="65" />
			<tile gid="65" />
			<tile gid="65" />
			<tile gid="65" />
			<tile gid="9" />
			<tile gid="10" />
			<tile gid="10" />
			<tile gid="10" />
			<tile gid="10" />
			<tile gid="10" />
			<tile gid="10" />
			<tile gid="10" />
			<tile gid="10" />
			<tile gid="10" />
			<tile gid="10" />
			<tile gid="10" />
			<tile gid="10" />
			<tile gid="10" />
			<tile gid="10" />
			<tile gid="10" />
			<tile gid="10" />
			<tile gid="10" />
			<tile gid="10" />
			<tile gid="10" />
			<tile gid="10" />
			<tile gid="10" />
			<tile gid="10" />
			<tile gid="10" />
			<tile gid="10" />
			<tile gid="10" />
			<tile gid="10" />
			<tile gid="10" />
			<tile gid="10" />
			<tile gid="10" />
			<tile gid="10" />
			<tile gid="10" />
			<tile gid="10" />
			<tile gid="10" />
			<tile gid="10" />
			<tile gid="10" />
			<tile gid="10" />
			<tile gid="10" />
			<tile gid="10" />
			<tile gid="10" />
			<tile gid="10" />
			<tile gid="10" />
			<tile gid="10" />
			<tile gid="10" />
			<tile gid="10" />
			<tile gid="11" />
			<tile gid="65" />
			<tile gid="65" />
			<tile gid="65" />
			<tile gid="65" />
			<tile gid="9" />
			<tile gid="10" />
			<tile gid="10" />
			<tile gid="10" />
			<tile gid="10" />
			<tile gid="10" />
			<tile gid="10" />
			<tile gid="10" />
			<tile gid="10" />
			<tile gid="10" />
			<tile gid="10" />
			<tile gid="10" />
			<tile gid="10" />
			<tile gid="10" />
			<tile gid="10" />
			<tile gid="10" />
			<tile gid="10" />
			<tile gid="10" />
			<tile gid="10" />
			<tile gid="10" />
			<tile gid="10" />
			<tile gid="10" />
			<tile gid="10" />
			<tile gid="10" />
			<tile gid="10" />
			<tile gid="10" />
			<tile gid="10" />
			<tile gid="10" />
			<tile gid="10" />
			<tile gid="10" />
			<tile gid="10" />
			<tile gid="10" />
			<tile gid="10" />
			<tile gid="10" />
			<tile gid="10" />
			<tile gid="10" />
			<tile gid="10" />
			<tile gid="10" />
			<tile gid="10" />
			<tile gid="10" />
			<tile gid="10" />
			<tile gid="10" />
			<tile gid="10" />
			<tile gid="10" />
			<tile gid="10" />
			<tile gid="11" />
			<tile gid="65" />
			<tile gid="65" />
			<tile gid="65" />
			<tile gid="65" />
			<tile gid="9" />
			<tile gid="10" />
			<tile gid="10" />
			<tile gid="10" />
			<tile gid="10" />
			<tile gid="10" />
			<tile gid="10" />
			<tile gid="10" />
			<tile gid="10" />
			<tile gid="10" />
			<tile gid="10" />
			<tile gid="10" />
			<tile gid="10" />
			<tile gid="10" />
			<tile gid="10" />
			<tile gid="10" />
			<tile gid="10" />
			<tile gid="10" />
			<tile gid="10" />
			<tile gid="10" />
			<tile gid="10" />
			<tile gid="10" />
			<tile gid="10" />
			<tile gid="10" />
			<tile gid="10" />
			<tile gid="10" />
			<tile gid="10" />
			<tile gid="10" />
			<tile gid="10" />
			<tile gid="10" />
			<tile gid="10" />
			<tile gid="10" />
			<tile gid="10" />
			<tile gid="10" />
			<tile gid="10" />
			<tile gid="10" />
			<tile gid="10" />
			<tile gid="10" />
			<tile gid="10" />
			<tile gid="10" />
			<tile gid="10" />
			<tile gid="10" />
			<tile gid="10" />
			<tile gid="10" />
			<tile gid="10" />
			<tile gid="11" />
			<tile gid="65" />
			<tile gid="65" />
			<tile gid="65" />
			<tile gid="65" />
			<tile gid="9" />
			<tile gid="10" />
			<tile gid="10" />
			<tile gid="10" />
			<tile gid="10" />
			<tile gid="10" />
			<tile gid="10" />
			<tile gid="10" />
			<tile gid="10" />
			<tile gid="10" />
			<tile gid="10" />
			<tile gid="10" />
			<tile gid="10" />
			<tile gid="10" />
			<tile gid="10" />
			<tile gid="10" />
			<tile gid="10" />
			<tile gid="10" />
			<tile gid="10" />
			<tile gid="10" />
			<tile gid="10" />
			<tile gid="10" />
			<tile gid="10" />
			<tile gid="10" />
			<tile gid="10" />
			<tile gid="10" />
			<tile gid="10" />
			<tile gid="10" />
			<tile gid="10" />
			<tile gid="10" />
			<tile gid="10" />
			<tile gid="10" />
			<tile gid="10" />
			<tile gid="10" />
			<tile gid="10" />
			<tile gid="10" />
			<tile gid="10" />
			<tile gid="10" />
			<tile gid="10" />
			<tile gid="10" />
			<tile gid="10" />
			<tile gid="10" />
			<tile gid="10" />
			<tile gid="10" />
			<tile gid="10" />
			<tile gid="11" />
			<tile gid="65" />
			<tile gid="65" />
			<tile gid="65" />
			<tile gid="65" />
			<tile gid="9" />
			<tile gid="10" />
			<tile gid="10" />
			<tile gid="10" />
			<tile gid="10" />
			<tile gid="10" />
			<tile gid="10" />
			<tile gid="10" />
			<tile gid="10" />
			<tile gid="10" />
			<tile gid="10" />
			<tile gid="10" />
			<tile gid="10" />
			<tile gid="10" />
			<tile gid="10" />
			<tile gid="10" />
			<tile gid="10" />
			<tile gid="10" />
			<tile gid="10" />
			<tile gid="10" />
			<tile gid="10" />
			<tile gid="10" />
			<tile gid="10" />
			<tile gid="10" />
			<tile gid="10" />
			<tile gid="10" />
			<tile gid="10" />
			<tile gid="10" />
			<tile gid="10" />
			<tile gid="10" />
			<tile gid="10" />
			<tile gid="10" />
			<tile gid="10" />
			<tile gid="10" />
			<tile gid="10" />
			<tile gid="10" />
			<tile gid="10" />
			<tile gid="10" />
			<tile gid="10" />
			<tile gid="10" />
			<tile gid="10" />
			<tile gid="10" />
			<tile gid="10" />
			<tile gid="10" />
			<tile gid="10" />
			<tile gid="11" />
			<tile gid="65" />
			<tile gid="65" />
			<tile gid="65" />
			<tile gid="65" />
			<tile gid="9" />
			<tile gid="10" />
			<tile gid="10" />
			<tile gid="10" />
			<tile gid="10" />
			<tile gid="10" />
			<tile gid="10" />
			<tile gid="10" />
			<tile gid="10" />
			<tile gid="10" />
			<tile gid="10" />
			<tile gid="10" />
			<tile gid="10" />
			<tile gid="10" />
			<tile gid="10" />
			<tile gid="10" />
			<tile gid="10" />
			<tile gid="10" />
			<tile gid="10" />
			<tile gid="10" />
			<tile gid="10" />
			<tile gid="10" />
			<tile gid="10" />
			<tile gid="10" />
			<tile gid="10" />
			<tile gid="10" />
			<tile gid="10" />
			<tile gid="10" />
			<tile gid="10" />
			<tile gid="10" />
			<tile gid="10" />
			<tile gid="10" />
			<tile gid="10" />
			<tile gid="10" />
			<tile gid="10" />
			<tile gid="10" />
			<tile gid="10" />
			<tile gid="10" />
			<tile gid="10" />
			<tile gid="10" />
			<tile gid="10" />
			<tile gid="10" />
			<tile gid="10" />
			<tile gid="10" />
			<tile gid="10" />
			<tile gid="11" />
			<tile gid="65" />
			<tile gid="65" />
			<tile gid="65" />
			<tile gid="65" />
			<tile gid="9" />
			<tile gid="10" />
			<tile gid="10" />
			<tile gid="10" />
			<tile gid="10" />
			<tile gid="10" />
			<tile gid="10" />
			<tile gid="10" />
			<tile gid="10" />
			<tile gid="10" />
			<tile gid="10" />
			<tile gid="10" />
			<tile gid="10" />
			<tile gid="10" />
			<tile gid="10" />
			<tile gid="10" />
			<tile gid="10" />
			<tile gid="10" />
			<tile gid="10" />
			<tile gid="10" />
			<tile gid="10" />
			<tile gid="10" />
			<tile gid="10" />
			<tile gid="10" />
			<tile gid="10" />
			<tile gid="10" />
			<tile gid="10" />
			<tile gid="10" />
			<tile gid="10" />
			<tile gid="10" />
			<tile gid="10" />
			<tile gid="10" />
			<tile gid="10" />
			<tile gid="10" />
			<tile gid="10" />
			<tile gid="10" />
			<tile gid="10" />
			<tile gid="10" />
			<tile gid="10" />
			<tile gid="10" />
			<tile gid="10" />
			<tile gid="10" />
			<tile gid="10" />
			<tile gid="10" />
			<tile gid="10" />
			<tile gid="11" />
			<tile gid="65" />
			<tile gid="65" />
			<tile gid="65" />
			<tile gid="65" />
			<tile gid="9" />
			<tile gid="10" />
			<tile gid="10" />
			<tile gid="10" />
			<tile gid="10" />
			<tile gid="10" />
			<tile gid="10" />
			<tile gid="10" />
			<tile gid="10" />
			<tile gid="10" />
			<tile gid="10" />
			<tile gid="10" />
			<tile gid="10" />
			<tile gid="10" />
			<tile gid="10" />
			<tile gid="10" />
			<tile gid="10" />
			<tile gid="10" />
			<tile gid="10" />
			<tile gid="10" />
			<tile gid="10" />
			<tile gid="10" />
			<tile gid="10" />
			<tile gid="10" />
			<tile gid="10" />
			<tile gid="10" />
			<tile gid="10" />
			<tile gid="10" />
			<tile gid="10" />
			<tile gid="10" />
			<tile gid="10" />
			<tile gid="10" />
			<tile gid="10" />
			<tile gid="10" />
			<tile gid="10" />
			<tile gid="10" />
			<tile gid="10" />
			<tile gid="10" />
			<tile gid="10" />
			<tile gid="10" />
			<tile gid="10" />
			<tile gid="10" />
			<tile gid="10" />
			<tile gid="10" />
			<tile gid="10" />
			<tile gid="11" />
			<tile gid="65" />
			<tile gid="65" />
			<tile gid="65" />
			<tile gid="65" />
			<tile gid="9" />
			<tile gid="10" />
			<tile gid="10" />
			<tile gid="10" />
			<tile gid="10" />
			<tile gid="10" />
			<tile gid="10" />
			<tile gid="10" />
			<tile gid="10" />
			<tile gid="10" />
			<tile gid="10" />
			<tile gid="10" />
			<tile gid="10" />
			<tile gid="10" />
			<tile gid="10" />
			<tile gid="10" />
			<tile gid="10" />
			<tile gid="10" />
			<tile gid="10" />
			<tile gid="10" />
			<tile gid="10" />
			<tile gid="10" />
			<tile gid="10" />
			<tile gid="10" />
			<tile gid="10" />
			<tile gid="10" />
			<tile gid="10" />
			<tile gid="10" />
			<tile gid="10" />
			<tile gid="10" />
			<tile gid="10" />
			<tile gid="10" />
			<tile gid="10" />
			<tile gid="10" />
			<tile gid="10" />
			<tile gid="10" />
			<tile gid="10" />
			<tile gid="10" />
			<tile gid="10" />
			<tile gid="10" />
			<tile gid="10" />
			<tile gid="10" />
			<tile gid="10" />
			<tile gid="10" />
			<tile gid="10" />
			<tile gid="11" />
			<tile gid="65" />
			<tile gid="65" />
			<tile gid="65" />
			<tile gid="65" />
			<tile gid="9" />
			<tile gid="10" />
			<tile gid="10" />
			<tile gid="10" />
			<tile gid="10" />
			<tile gid="10" />
			<tile gid="10" />
			<tile gid="10" />
			<tile gid="10" />
			<tile gid="10" />
			<tile gid="10" />
			<tile gid="10" />
			<tile gid="10" />
			<tile gid="10" />
			<tile gid="10" />
			<tile gid="10" />
			<tile gid="10" />
			<tile gid="10" />
			<tile gid="10" />
			<tile gid="10" />
			<tile gid="10" />
			<tile gid="10" />
			<tile gid="10" />
			<tile gid="10" />
			<tile gid="10" />
			<tile gid="10" />
			<tile gid="10" />
			<tile gid="10" />
			<tile gid="10" />
			<tile gid="10" />
			<tile gid="10" />
			<tile gid="10" />
			<tile gid="10" />
			<tile gid="10" />
			<tile gid="10" />
			<tile gid="10" />
			<tile gid="10" />
			<tile gid="10" />
			<tile gid="10" />
			<tile gid="10" />
			<tile gid="10" />
			<tile gid="10" />
			<tile gid="10" />
			<tile gid="10" />
			<tile gid="10" />
			<tile gid="11" />
			<tile gid="65" />
			<tile gid="65" />
			<tile gid="65" />
			<tile gid="65" />
			<tile gid="9" />
			<tile gid="10" />
			<tile gid="10" />
			<tile gid="10" />
			<tile gid="10" />
			<tile gid="10" />
			<tile gid="10" />
			<tile gid="10" />
			<tile gid="10" />
			<tile gid="10" />
			<tile gid="10" />
			<tile gid="10" />
			<tile gid="10" />
			<tile gid="10" />
			<tile gid="10" />
			<tile gid="10" />
			<tile gid="10" />
			<tile gid="10" />
			<tile gid="10" />
			<tile gid="10" />
			<tile gid="10" />
			<tile gid="10" />
			<tile gid="10" />
			<tile gid="10" />
			<tile gid="10" />
			<tile gid="10" />
			<tile gid="10" />
			<tile gid="10" />
			<tile gid="10" />
			<tile gid="10" />
			<tile gid="10" />
			<tile gid="10" />
			<tile gid="10" />
			<tile gid="10" />
			<tile gid="10" />
			<tile gid="10" />
			<tile gid="10" />
			<tile gid="10" />
			<tile gid="10" />
			<tile gid="10" />
			<tile gid="10" />
			<tile gid="10" />
			<tile gid="10" />
			<tile gid="10" />
			<tile gid="10" />
			<tile gid="11" />
			<tile gid="65" />
			<tile gid="65" />
			<tile gid="65" />
			<tile gid="65" />
			<tile gid="9" />
			<tile gid="10" />
			<tile gid="10" />
			<tile gid="10" />
			<tile gid="10" />
			<tile gid="10" />
			<tile gid="10" />
			<tile gid="10" />
			<tile gid="10" />
			<tile gid="10" />
			<tile gid="10" />
			<tile gid="10" />
			<tile gid="10" />
			<tile gid="10" />
			<tile gid="10" />
			<tile gid="10" />
			<tile gid="10" />
			<tile gid="10" />
			<tile gid="10" />
			<tile gid="10" />
			<tile gid="10" />
			<tile gid="10" />
			<tile gid="10" />
			<tile gid="10" />
			<tile gid="10" />
			<tile gid="10" />
			<tile gid="10" />
			<tile gid="10" />
			<tile gid="10" />
			<tile gid="10" />
			<tile gid="10" />
			<tile gid="10" />
			<tile gid="10" />
			<tile gid="10" />
			<tile gid="10" />
			<tile gid="10" />
			<tile gid="10" />
			<tile gid="10" />
			<tile gid="10" />
			<tile gid="10" />
			<tile gid="10" />
			<tile gid="10" />
			<tile gid="10" />
			<tile gid="10" />
			<tile gid="10" />
			<tile gid="11" />
			<tile gid="65" />
			<tile gid="65" />
			<tile gid="65" />
			<tile gid="65" />
			<tile gid="9" />
			<tile gid="10" />
			<tile gid="10" />
			<tile gid="10" />
			<tile gid="10" />
			<tile gid="10" />
			<tile gid="10" />
			<tile gid="10" />
			<tile gid="10" />
			<tile gid="10" />
			<tile gid="10" />
			<tile gid="10" />
			<tile gid="10" />
			<tile gid="10" />
			<tile gid="10" />
			<tile gid="10" />
			<tile gid="10" />
			<tile gid="10" />
			<tile gid="10" />
			<tile gid="10" />
			<tile gid="10" />
			<tile gid="10" />
			<tile gid="10" />
			<tile gid="10" />
			<tile gid="10" />
			<tile gid="10" />
			<tile gid="10" />
			<tile gid="10" />
			<tile gid="10" />
			<tile gid="10" />
			<tile gid="10" />
			<tile gid="10" />
			<tile gid="10" />
			<tile gid="10" />
			<tile gid="10" />
			<tile gid="10" />
			<tile gid="10" />
			<tile gid="10" />
			<tile gid="10" />
			<tile gid="10" />
			<tile gid="10" />
			<tile gid="10" />
			<tile gid="10" />
			<tile gid="10" />
			<tile gid="10" />
			<tile gid="11" />
			<tile gid="65" />
			<tile gid="65" />
			<tile gid="65" />
			<tile gid="65" />
			<tile gid="17" />
			<tile gid="18" />
			<tile gid="18" />
			<tile gid="18" />
			<tile gid="18" />
			<tile gid="18" />
			<tile gid="18" />
			<tile gid="18" />
			<tile gid="18" />
			<tile gid="18" />
			<tile gid="18" />
			<tile gid="18" />
			<tile gid="18" />
			<tile gid="18" />
			<tile gid="18" />
			<tile gid="18" />
			<tile gid="18" />
			<tile gid="18" />
			<tile gid="18" />
			<tile gid="18" />
			<tile gid="43" />
			<tile gid="10" />
			<tile gid="10" />
			<tile gid="10" />
			<tile gid="10" />
			<tile gid="41" />
			<tile gid="18" />
			<tile gid="18" />
			<tile gid="18" />
			<tile gid="18" />
			<tile gid="18" />
			<tile gid="18" />
			<tile gid="18" />
			<tile gid="18" />
			<tile gid="18" />
			<tile gid="18" />
			<tile gid="18" />
			<tile gid="18" />
			<tile gid="18" />
			<tile gid="18" />
			<tile gid="18" />
			<tile gid="18" />
			<tile gid="18" />
			<tile gid="18" />
			<tile gid="18" />
			<tile gid="19" />
			<tile gid="65" />
			<tile gid="65" />
			<tile gid="65" />
			<tile gid="65" />
			<tile gid="65" />
			<tile gid="65" />
			<tile gid="65" />
			<tile gid="65" />
			<tile gid="65" />
			<tile gid="65" />
			<tile gid="65" />
			<tile gid="65" />
			<tile gid="65" />
			<tile gid="65" />
			<tile gid="65" />
			<tile gid="65" />
			<tile gid="65" />
			<tile gid="65" />
			<tile gid="65" />
			<tile gid="65" />
			<tile gid="65" />
			<tile gid="65" />
			<tile gid="65" />
			<tile gid="65" />
			<tile gid="9" />
			<tile gid="10" />
			<tile gid="10" />
			<tile gid="10" />
			<tile gid="10" />
			<tile gid="11" />
			<tile gid="65" />
			<tile gid="65" />
			<tile gid="65" />
			<tile gid="65" />
			<tile gid="65" />
			<tile gid="65" />
			<tile gid="65" />
			<tile gid="65" />
			<tile gid="65" />
			<tile gid="65" />
			<tile gid="65" />
			<tile gid="65" />
			<tile gid="65" />
			<tile gid="65" />
			<tile gid="65" />
			<tile gid="65" />
			<tile gid="65" />
			<tile gid="65" />
			<tile gid="65" />
			<tile gid="65" />
			<tile gid="65" />
			<tile gid="65" />
			<tile gid="65" />
			<tile gid="65" />
			<tile gid="65" />
			<tile gid="65" />
			<tile gid="65" />
			<tile gid="65" />
			<tile gid="65" />
			<tile gid="65" />
			<tile gid="65" />
			<tile gid="65" />
			<tile gid="65" />
			<tile gid="65" />
			<tile gid="65" />
			<tile gid="65" />
			<tile gid="65" />
			<tile gid="65" />
			<tile gid="65" />
			<tile gid="65" />
			<tile gid="65" />
			<tile gid="65" />
			<tile gid="65" />
			<tile gid="65" />
			<tile gid="9" />
			<tile gid="10" />
			<tile gid="10" />
			<tile gid="10" />
			<tile gid="10" />
			<tile gid="11" />
			<tile gid="65" />
			<tile gid="65" />
			<tile gid="65" />
			<tile gid="65" />
			<tile gid="65" />
			<tile gid="65" />
			<tile gid="65" />
			<tile gid="65" />
			<tile gid="65" />
			<tile gid="65" />
			<tile gid="65" />
			<tile gid="65" />
			<tile gid="65" />
			<tile gid="65" />
			<tile gid="65" />
			<tile gid="65" />
			<tile gid="65" />
			<tile gid="65" />
			<tile gid="65" />
			<tile gid="65" />
			<tile gid="65" />
			<tile gid="65" />
		</data>
	</layer>
	<layer id="2" name="MoreMap" width="50" height="50">
		<properties>
			<property name="Draw" type="bool" value="true" />
		</properties>
		<data>
			<tile />
			<tile />
			<tile />
			<tile />
			<tile />
			<tile />
			<tile />
			<tile />
			<tile />
			<tile />
			<tile />
			<tile />
			<tile />
			<tile />
			<tile />
			<tile />
			<tile />
			<tile />
			<tile />
			<tile />
			<tile />
			<tile />
			<tile />
			<tile />
			<tile />
			<tile />
			<tile />
			<tile />
			<tile />
			<tile />
			<tile />
			<tile />
			<tile />
			<tile />
			<tile />
			<tile />
			<tile />
			<tile />
			<tile />
			<tile />
			<tile />
			<tile />
			<tile />
			<tile />
			<tile />
			<tile />
			<tile />
			<tile />
			<tile />
			<tile />
			<tile />
			<tile />
			<tile />
			<tile />
			<tile />
			<tile />
			<tile />
			<tile />
			<tile />
			<tile />
			<tile />
			<tile />
			<tile />
			<tile />
			<tile />
			<tile />
			<tile />
			<tile />
			<tile />
			<tile />
			<tile />
			<tile />
			<tile />
			<tile />
			<tile />
			<tile />
			<tile />
			<tile />
			<tile />
			<tile />
			<tile />
			<tile />
			<tile />
			<tile />
			<tile />
			<tile />
			<tile />
			<tile />
			<tile />
			<tile />
			<tile />
			<tile />
			<tile />
			<tile />
			<tile />
			<tile />
			<tile />
			<tile />
			<tile />
			<tile />
			<tile />
			<tile />
			<tile />
			<tile />
			<tile />
			<tile />
			<tile />
			<tile />
			<tile />
			<tile />
			<tile />
			<tile />
			<tile />
			<tile />
			<tile />
			<tile />
			<tile />
			<tile />
			<tile />
			<tile />
			<tile />
			<tile />
			<tile />
			<tile />
			<tile />
			<tile />
			<tile />
			<tile />
			<tile />
			<tile />
			<tile />
			<tile />
			<tile />
			<tile />
			<tile />
			<tile />
			<tile />
			<tile />
			<tile />
			<tile />
			<tile />
			<tile />
			<tile />
			<tile />
			<tile />
			<tile />
			<tile />
			<tile />
			<tile />
			<tile />
			<tile />
			<tile />
			<tile />
			<tile />
			<tile />
			<tile />
			<tile />
			<tile />
			<tile />
			<tile />
			<tile />
			<tile />
			<tile />
			<tile />
			<tile />
			<tile />
			<tile />
			<tile />
			<tile />
			<tile />
			<tile />
			<tile />
			<tile />
			<tile />
			<tile />
			<tile />
			<tile />
			<tile />
			<tile />
			<tile />
			<tile />
			<tile />
			<tile />
			<tile />
			<tile />
			<tile />
			<tile />
			<tile />
			<tile />
			<tile />
			<tile />
			<tile />
			<tile />
			<tile />
			<tile />
			<tile />
			<tile />
			<tile />
			<tile />
			<tile />
			<tile />
			<tile />
			<tile />
			<tile />
			<tile />
			<tile />
			<tile />
			<tile />
			<tile />
			<tile />
			<tile />
			<tile />
			<tile />
			<tile />
			<tile />
			<tile />
			<tile />
			<tile />
			<tile />
			<tile />
			<tile />
			<tile />
			<tile />
			<tile />
			<tile />
			<tile />
			<tile />
			<tile />
			<tile />
			<tile />
			<tile />
			<tile />
			<tile />
			<tile />
			<tile />
			<tile />
			<tile />
			<tile />
			<tile />
			<tile />
			<tile />
			<tile />
			<tile />
			<tile />
			<tile />
			<tile />
			<tile />
			<tile />
			<tile />
			<tile />
			<tile />
			<tile />
			<tile />
			<tile />
			<tile />
			<tile />
			<tile />
			<tile />
			<tile />
			<tile />
			<tile />
			<tile />
			<tile />
			<tile />
			<tile />
			<tile />
			<tile />
			<tile />
			<tile />
			<tile />
			<tile />
			<tile />
			<tile />
			<tile />
			<tile />
			<tile />
			<tile />
			<tile />
			<tile />
			<tile />
			<tile />
			<tile />
			<tile />
			<tile />
			<tile />
			<tile />
			<tile />
			<tile />
			<tile />
			<tile />
			<tile />
			<tile />
			<tile />
			<tile />
			<tile />
			<tile />
			<tile />
			<tile />
			<tile />
			<tile />
			<tile />
			<tile />
			<tile />
			<tile />
			<tile />
			<tile />
			<tile />
			<tile />
			<tile />
			<tile />
			<tile />
			<tile />
			<tile />
			<tile />
			<tile />
			<tile />
			<tile />
			<tile />
			<tile />
			<tile />
			<tile />
			<tile />
			<tile />
			<tile />
			<tile />
			<tile />
			<tile />
			<tile />
			<tile />
			<tile />
			<tile />
			<tile />
			<tile />
			<tile />
			<tile />
			<tile />
			<tile />
			<tile />
			<tile />
			<tile />
			<tile />
			<tile />
			<tile />
			<tile />
			<tile />
			<tile />
			<tile />
			<tile />
			<tile />
			<tile />
			<tile />
			<tile />
			<tile />
			<tile />
			<tile />
			<tile />
			<tile />
			<tile />
			<tile />
			<tile />
			<tile />
			<tile />
			<tile />
			<tile />
			<tile />
			<tile />
			<tile />
			<tile />
			<tile />
			<tile />
			<tile />
			<tile />
			<tile />
			<tile />
			<tile />
			<tile />
			<tile />
			<tile />
			<tile />
			<tile />
			<tile />
			<tile />
			<tile />
			<tile />
			<tile />
			<tile />
			<tile />
			<tile />
			<tile />
			<tile />
			<tile />
			<tile />
			<tile />
			<tile />
			<tile />
			<tile />
			<tile />
			<tile />
			<tile />
			<tile />
			<tile />
			<tile />
			<tile />
			<tile />
			<tile />
			<tile />
			<tile />
			<tile />
			<tile />
			<tile />
			<tile />
			<tile />
			<tile />
			<tile />
			<tile gid="931" />
			<tile gid="931" />
			<tile gid="931" />
			<tile gid="931" />
			<tile gid="931" />
			<tile gid="931" />
			<tile gid="931" />
			<tile gid="931" />
			<tile />
			<tile />
			<tile />
			<tile />
			<tile />
			<tile />
			<tile />
			<tile />
			<tile />
			<tile />
			<tile />
			<tile />
			<tile />
			<tile />
			<tile />
			<tile />
			<tile />
			<tile />
			<tile />
			<tile />
			<tile />
			<tile />
			<tile />
			<tile />
			<tile />
			<tile />
			<tile />
			<tile />
			<tile />
			<tile />
			<tile />
			<tile />
			<tile />
			<tile />
			<tile />
			<tile />
			<tile />
			<tile />
			<tile />
			<tile />
			<tile />
			<tile />
			<tile gid="947" />
			<tile gid="947" />
			<tile gid="947" />
			<tile gid="947" />
			<tile gid="947" />
			<tile gid="947" />
			<tile gid="947" />
			<tile gid="947" />
			<tile />
			<tile />
			<tile />
			<tile />
			<tile />
			<tile />
			<tile />
			<tile />
			<tile />
			<tile />
			<tile />
			<tile />
			<tile />
			<tile />
			<tile />
			<tile />
			<tile />
			<tile />
			<tile />
			<tile />
			<tile />
			<tile />
			<tile />
			<tile />
			<tile />
			<tile />
			<tile />
			<tile />
			<tile />
			<tile />
			<tile />
			<tile />
			<tile />
			<tile />
			<tile />
			<tile />
			<tile />
			<tile />
			<tile />
			<tile />
			<tile />
			<tile />
			<tile />
			<tile />
			<tile />
			<tile />
			<tile />
			<tile />
			<tile />
			<tile />
			<tile />
			<tile />
			<tile />
			<tile />
			<tile />
			<tile />
			<tile />
			<tile />
			<tile />
			<tile />
			<tile />
			<tile />
			<tile />
			<tile />
			<tile />
			<tile />
			<tile />
			<tile />
			<tile />
			<tile />
			<tile />
			<tile />
			<tile />
			<tile />
			<tile />
			<tile />
			<tile />
			<tile />
			<tile />
			<tile />
			<tile />
			<tile />
			<tile />
			<tile />
			<tile />
			<tile />
			<tile />
			<tile />
			<tile />
			<tile />
			<tile />
			<tile />
			<tile />
			<tile />
			<tile />
			<tile />
			<tile />
			<tile />
			<tile />
			<tile />
			<tile />
			<tile />
			<tile />
			<tile />
			<tile />
			<tile />
			<tile />
			<tile />
			<tile />
			<tile gid="931" />
			<tile gid="931" />
			<tile gid="931" />
			<tile gid="931" />
			<tile gid="931" />
			<tile gid="931" />
			<tile gid="931" />
			<tile gid="931" />
			<tile />
			<tile />
			<tile />
			<tile />
			<tile />
			<tile />
			<tile />
			<tile />
			<tile />
			<tile />
			<tile />
			<tile />
			<tile />
			<tile />
			<tile />
			<tile />
			<tile />
			<tile />
			<tile />
			<tile />
			<tile />
			<tile />
			<tile />
			<tile />
			<tile />
			<tile />
			<tile />
			<tile />
			<tile />
			<tile />
			<tile />
			<tile />
			<tile />
			<tile />
			<tile />
			<tile />
			<tile />
			<tile />
			<tile />
			<tile />
			<tile />
			<tile />
			<tile gid="947" />
			<tile gid="947" />
			<tile gid="947" />
			<tile gid="947" />
			<tile gid="947" />
			<tile gid="947" />
			<tile gid="947" />
			<tile gid="947" />
			<tile />
			<tile />
			<tile />
			<tile />
			<tile />
			<tile />
			<tile />
			<tile />
			<tile />
			<tile />
			<tile />
			<tile />
			<tile />
			<tile />
			<tile />
			<tile />
			<tile />
			<tile />
			<tile />
			<tile />
			<tile />
			<tile />
			<tile />
			<tile />
			<tile />
			<tile />
			<tile />
			<tile />
			<tile />
			<tile />
			<tile />
			<tile />
			<tile />
			<tile />
			<tile />
			<tile />
			<tile />
			<tile />
			<tile />
			<tile />
			<tile />
			<tile />
			<tile />
			<tile />
			<tile />
			<tile />
			<tile />
			<tile />
			<tile />
			<tile />
			<tile />
			<tile />
			<tile />
			<tile />
			<tile />
			<tile />
			<tile />
			<tile />
			<tile />
			<tile />
			<tile />
			<tile />
			<tile />
			<tile />
			<tile />
			<tile />
			<tile />
			<tile />
			<tile />
			<tile />
			<tile />
			<tile />
			<tile />
			<tile />
			<tile />
			<tile />
			<tile />
			<tile />
			<tile />
			<tile />
			<tile />
			<tile />
			<tile />
			<tile />
			<tile />
			<tile />
			<tile />
			<tile />
			<tile />
			<tile />
			<tile />
			<tile />
			<tile />
			<tile />
			<tile />
			<tile />
			<tile />
			<tile />
			<tile />
			<tile />
			<tile />
			<tile />
			<tile />
			<tile />
			<tile />
			<tile />
			<tile />
			<tile />
			<tile />
			<tile />
			<tile />
			<tile />
			<tile />
			<tile />
			<tile />
			<tile />
			<tile />
			<tile />
			<tile />
			<tile />
			<tile />
			<tile />
			<tile />
			<tile />
			<tile />
			<tile />
			<tile />
			<tile />
			<tile />
			<tile />
			<tile />
			<tile />
			<tile />
			<tile />
			<tile />
			<tile />
			<tile />
			<tile />
			<tile />
			<tile />
			<tile />
			<tile />
			<tile />
			<tile />
			<tile />
			<tile />
			<tile />
			<tile />
			<tile />
			<tile />
			<tile />
			<tile />
			<tile />
			<tile />
			<tile />
			<tile />
			<tile />
			<tile />
			<tile />
			<tile />
			<tile />
			<tile />
			<tile />
			<tile />
			<tile />
			<tile />
			<tile />
			<tile />
			<tile />
			<tile />
			<tile />
			<tile />
			<tile />
			<tile />
			<tile />
			<tile />
			<tile />
			<tile />
			<tile />
			<tile />
			<tile />
			<tile />
			<tile />
			<tile />
			<tile />
			<tile />
			<tile />
			<tile />
			<tile />
			<tile />
			<tile />
			<tile />
			<tile />
			<tile />
			<tile />
			<tile />
			<tile />
			<tile />
			<tile />
			<tile />
			<tile />
			<tile />
			<tile />
			<tile />
			<tile />
			<tile />
			<tile />
			<tile />
			<tile />
			<tile />
			<tile />
			<tile />
			<tile />
			<tile />
			<tile />
			<tile />
			<tile />
			<tile />
			<tile />
			<tile />
			<tile />
			<tile />
			<tile />
			<tile />
			<tile />
			<tile />
			<tile />
			<tile />
			<tile />
			<tile />
			<tile />
			<tile />
			<tile />
			<tile />
			<tile />
			<tile />
			<tile />
			<tile />
			<tile />
			<tile />
			<tile />
			<tile />
			<tile />
			<tile />
			<tile />
			<tile />
			<tile />
			<tile />
			<tile />
			<tile />
			<tile />
			<tile />
			<tile />
			<tile />
			<tile />
			<tile />
			<tile />
			<tile />
			<tile />
			<tile />
			<tile />
			<tile />
			<tile />
			<tile />
			<tile />
			<tile />
			<tile />
			<tile />
			<tile />
			<tile />
			<tile gid="931" />
			<tile gid="931" />
			<tile gid="931" />
			<tile gid="931" />
			<tile gid="931" />
			<tile gid="931" />
			<tile gid="931" />
			<tile />
			<tile />
			<tile />
			<tile />
			<tile />
			<tile />
			<tile />
			<tile />
			<tile />
			<tile />
			<tile />
			<tile />
			<tile />
			<tile />
			<tile />
			<tile />
			<tile />
			<tile />
			<tile gid="932" />
			<tile gid="932" />
			<tile gid="932" />
			<tile gid="932" />
			<tile gid="932" />
			<tile gid="932" />
			<tile />
			<tile />
			<tile />
			<tile />
			<tile />
			<tile />
			<tile />
			<tile />
			<tile />
			<tile />
			<tile />
			<tile />
			<tile />
			<tile />
			<tile />
			<tile />
			<tile />
			<tile />
			<tile />
			<tile gid="947" />
			<tile gid="947" />
			<tile gid="947" />
			<tile gid="947" />
			<tile gid="947" />
			<tile gid="947" />
			<tile gid="947" />
			<tile />
			<tile />
			<tile />
			<tile />
			<tile />
			<tile />
			<tile />
			<tile />
			<tile />
			<tile />
			<tile />
			<tile />
			<tile />
			<tile />
			<tile />
			<tile />
			<tile />
			<tile />
			<tile gid="948" />
			<tile gid="948" />
			<tile gid="948" />
			<tile gid="948" />
			<tile gid="948" />
			<tile gid="948" />
			<tile />
			<tile />
			<tile />
			<tile />
			<tile />
			<tile />
			<tile />
			<tile />
			<tile />
			<tile />
			<tile />
			<tile />
			<tile />
			<tile />
			<tile />
			<tile />
			<tile />
			<tile />
			<tile />
			<tile />
			<tile />
			<tile />
			<tile />
			<tile />
			<tile />
			<tile />
			<tile />
			<tile />
			<tile />
			<tile />
			<tile />
			<tile />
			<tile />
			<tile />
			<tile />
			<tile />
			<tile />
			<tile />
			<tile />
			<tile />
			<tile />
			<tile />
			<tile />
			<tile />
			<tile />
			<tile />
			<tile />
			<tile />
			<tile />
			<tile />
			<tile />
			<tile />
			<tile />
			<tile />
			<tile />
			<tile />
			<tile />
			<tile />
			<tile />
			<tile />
			<tile />
			<tile />
			<tile />
			<tile />
			<tile />
			<tile />
			<tile />
			<tile />
			<tile />
			<tile />
			<tile />
			<tile />
			<tile />
			<tile />
			<tile />
			<tile />
			<tile />
			<tile />
			<tile />
			<tile />
			<tile />
			<tile />
			<tile />
			<tile />
			<tile />
			<tile />
			<tile />
			<tile />
			<tile />
			<tile />
			<tile />
			<tile />
			<tile />
			<tile />
			<tile />
			<tile />
			<tile />
			<tile />
			<tile />
			<tile />
			<tile />
			<tile />
			<tile />
			<tile />
			<tile />
			<tile />
			<tile />
			<tile />
			<tile />
			<tile />
			<tile />
			<tile />
			<tile />
			<tile />
			<tile />
			<tile />
			<tile />
			<tile />
			<tile />
			<tile />
			<tile />
			<tile />
			<tile />
			<tile />
			<tile />
			<tile />
			<tile />
			<tile />
			<tile />
			<tile />
			<tile />
			<tile />
			<tile />
			<tile />
			<tile />
			<tile />
			<tile />
			<tile />
			<tile />
			<tile />
			<tile />
			<tile />
			<tile />
			<tile />
			<tile />
			<tile />
			<tile />
			<tile />
			<tile />
			<tile />
			<tile />
			<tile />
			<tile />
			<tile />
			<tile />
			<tile />
			<tile />
			<tile />
			<tile />
			<tile />
			<tile />
			<tile />
			<tile />
			<tile />
			<tile />
			<tile />
			<tile />
			<tile />
			<tile />
			<tile />
			<tile />
			<tile />
			<tile />
			<tile />
			<tile />
			<tile />
			<tile />
			<tile />
			<tile />
			<tile />
			<tile />
			<tile />
			<tile />
			<tile />
			<tile />
			<tile />
			<tile />
			<tile />
			<tile />
			<tile />
			<tile />
			<tile />
			<tile />
			<tile />
			<tile />
			<tile />
			<tile />
			<tile />
			<tile />
			<tile />
			<tile />
			<tile />
			<tile />
			<tile />
			<tile />
			<tile />
			<tile />
			<tile />
			<tile />
			<tile />
			<tile />
			<tile />
			<tile />
			<tile />
			<tile />
			<tile />
			<tile />
			<tile />
			<tile />
			<tile />
			<tile />
			<tile />
			<tile />
			<tile />
			<tile />
			<tile />
			<tile />
			<tile />
			<tile />
			<tile />
			<tile />
			<tile />
			<tile />
			<tile />
			<tile />
			<tile />
			<tile />
			<tile gid="929" />
			<tile gid="929" />
			<tile gid="929" />
			<tile gid="929" />
			<tile gid="929" />
			<tile gid="929" />
			<tile gid="929" />
			<tile />
			<tile />
			<tile />
			<tile />
			<tile />
			<tile />
			<tile />
			<tile />
			<tile />
			<tile />
			<tile />
			<tile />
			<tile />
			<tile />
			<tile />
			<tile />
			<tile />
			<tile />
			<tile />
			<tile />
			<tile />
			<tile />
			<tile />
			<tile />
			<tile />
			<tile />
			<tile />
			<tile />
			<tile />
			<tile />
			<tile />
			<tile />
			<tile />
			<tile />
			<tile />
			<tile />
			<tile />
			<tile />
			<tile />
			<tile />
			<tile />
			<tile />
			<tile />
			<tile gid="945" />
			<tile gid="945" />
			<tile gid="945" />
			<tile gid="945" />
			<tile gid="945" />
			<tile gid="945" />
			<tile gid="945" />
			<tile />
			<tile />
			<tile />
			<tile />
			<tile />
			<tile />
			<tile />
			<tile />
			<tile />
			<tile />
			<tile />
			<tile />
			<tile />
			<tile />
			<tile />
			<tile />
			<tile />
			<tile />
			<tile />
			<tile />
			<tile />
			<tile />
			<tile />
			<tile />
			<tile />
			<tile />
			<tile />
			<tile />
			<tile />
			<tile />
			<tile />
			<tile />
			<tile />
			<tile />
			<tile />
			<tile />
			<tile />
			<tile />
			<tile />
			<tile />
			<tile />
			<tile />
			<tile />
			<tile />
			<tile />
			<tile />
			<tile />
			<tile />
			<tile />
			<tile />
			<tile />
			<tile />
			<tile />
			<tile />
			<tile />
			<tile />
			<tile />
			<tile />
			<tile />
			<tile />
			<tile />
			<tile />
			<tile />
			<tile />
			<tile />
			<tile />
			<tile />
			<tile />
			<tile />
			<tile />
			<tile />
			<tile />
			<tile />
			<tile />
			<tile />
			<tile />
			<tile />
			<tile />
			<tile />
			<tile />
			<tile />
			<tile />
			<tile />
			<tile />
			<tile />
			<tile />
			<tile />
			<tile />
			<tile />
			<tile />
			<tile />
			<tile />
			<tile />
			<tile />
			<tile />
			<tile />
			<tile />
			<tile />
			<tile />
			<tile />
			<tile />
			<tile />
			<tile />
			<tile />
			<tile />
			<tile />
			<tile />
			<tile />
			<tile />
			<tile />
			<tile />
			<tile />
			<tile />
			<tile />
			<tile />
			<tile />
			<tile />
			<tile />
			<tile />
			<tile />
			<tile />
			<tile />
			<tile />
			<tile />
			<tile />
			<tile />
			<tile />
			<tile />
			<tile />
			<tile />
			<tile />
			<tile />
			<tile />
			<tile />
			<tile />
			<tile />
			<tile />
			<tile />
			<tile />
			<tile />
			<tile />
			<tile />
			<tile />
			<tile />
			<tile />
			<tile />
			<tile />
			<tile />
			<tile />
			<tile />
			<tile />
			<tile />
			<tile />
			<tile />
			<tile />
			<tile />
			<tile />
			<tile />
			<tile />
			<tile />
			<tile />
			<tile />
			<tile />
			<tile />
			<tile />
			<tile />
			<tile />
			<tile />
			<tile />
			<tile />
			<tile />
			<tile />
			<tile />
			<tile />
			<tile />
			<tile />
			<tile />
			<tile />
			<tile />
			<tile />
			<tile />
			<tile />
			<tile />
			<tile />
			<tile />
			<tile />
			<tile />
			<tile />
			<tile />
			<tile />
			<tile />
			<tile />
			<tile />
			<tile />
			<tile />
			<tile />
			<tile />
			<tile />
			<tile />
			<tile />
			<tile />
			<tile />
			<tile />
			<tile />
			<tile />
			<tile />
			<tile />
			<tile />
			<tile />
			<tile />
			<tile />
			<tile />
			<tile />
			<tile />
			<tile />
			<tile />
			<tile />
			<tile />
			<tile />
			<tile />
			<tile />
			<tile />
			<tile />
			<tile />
			<tile />
			<tile />
			<tile />
			<tile />
			<tile />
			<tile />
			<tile />
			<tile />
			<tile />
			<tile />
			<tile />
			<tile />
			<tile />
			<tile />
			<tile />
			<tile />
			<tile />
			<tile />
			<tile />
			<tile />
			<tile />
			<tile />
			<tile />
			<tile />
			<tile />
			<tile />
			<tile />
			<tile />
			<tile />
			<tile />
			<tile />
			<tile />
			<tile />
			<tile />
			<tile />
			<tile />
			<tile />
			<tile />
			<tile />
			<tile />
			<tile />
			<tile />
			<tile />
			<tile />
			<tile />
			<tile />
			<tile />
			<tile />
			<tile />
			<tile />
			<tile />
			<tile />
			<tile />
			<tile />
			<tile />
			<tile />
			<tile />
			<tile />
			<tile />
			<tile />
			<tile />
			<tile />
			<tile />
			<tile />
			<tile />
			<tile />
			<tile />
			<tile />
			<tile />
			<tile />
			<tile />
			<tile />
			<tile />
			<tile />
			<tile />
			<tile />
			<tile />
			<tile />
			<tile />
			<tile />
			<tile />
			<tile />
			<tile />
			<tile />
			<tile />
			<tile />
			<tile />
			<tile />
			<tile />
			<tile />
			<tile />
			<tile />
			<tile />
			<tile />
			<tile />
			<tile />
			<tile />
			<tile />
			<tile />
			<tile />
			<tile />
			<tile />
			<tile />
			<tile />
			<tile />
			<tile />
			<tile />
			<tile />
			<tile />
			<tile />
			<tile />
			<tile />
			<tile />
			<tile />
			<tile />
			<tile />
			<tile />
			<tile />
			<tile />
			<tile />
			<tile />
			<tile />
			<tile />
			<tile />
			<tile />
			<tile />
			<tile />
			<tile />
			<tile />
			<tile />
			<tile />
			<tile />
			<tile />
			<tile />
			<tile />
			<tile />
			<tile />
			<tile />
			<tile />
			<tile />
			<tile />
			<tile />
			<tile />
			<tile />
			<tile />
			<tile />
			<tile />
			<tile />
			<tile />
			<tile />
			<tile />
			<tile />
			<tile />
			<tile />
			<tile />
			<tile />
			<tile />
			<tile />
			<tile />
			<tile />
			<tile />
			<tile />
			<tile />
			<tile />
			<tile />
			<tile />
			<tile />
			<tile />
			<tile />
			<tile />
			<tile />
			<tile />
			<tile />
			<tile />
			<tile />
			<tile />
			<tile />
			<tile />
			<tile />
			<tile />
			<tile />
			<tile />
			<tile />
			<tile />
			<tile />
			<tile />
			<tile />
			<tile />
			<tile />
			<tile />
			<tile />
			<tile />
			<tile />
			<tile />
			<tile />
			<tile />
			<tile />
			<tile />
			<tile />
			<tile />
			<tile />
			<tile />
			<tile />
			<tile />
			<tile />
			<tile />
			<tile />
			<tile />
			<tile />
			<tile />
			<tile />
			<tile />
			<tile />
			<tile />
			<tile />
			<tile />
			<tile />
			<tile />
			<tile />
			<tile />
			<tile />
			<tile />
			<tile />
			<tile />
			<tile />
			<tile />
			<tile />
			<tile />
			<tile />
			<tile />
			<tile />
			<tile />
			<tile />
			<tile />
			<tile />
			<tile />
			<tile />
			<tile />
			<tile />
			<tile />
			<tile />
			<tile />
			<tile />
			<tile />
			<tile />
			<tile />
			<tile />
			<tile />
			<tile />
			<tile />
			<tile />
			<tile />
			<tile />
			<tile />
			<tile />
			<tile />
			<tile />
			<tile />
			<tile />
			<tile />
			<tile />
			<tile />
			<tile />
			<tile />
			<tile />
			<tile />
			<tile />
			<tile />
			<tile />
			<tile />
			<tile />
			<tile />
			<tile />
			<tile />
			<tile />
			<tile />
			<tile />
			<tile />
			<tile />
			<tile />
			<tile />
			<tile />
			<tile />
			<tile />
			<tile />
			<tile />
			<tile />
			<tile />
			<tile />
			<tile />
			<tile />
			<tile />
			<tile />
			<tile />
			<tile />
			<tile />
			<tile />
			<tile />
			<tile />
			<tile />
			<tile />
			<tile />
			<tile />
			<tile />
			<tile />
			<tile />
			<tile />
			<tile />
			<tile />
			<tile />
			<tile />
			<tile />
			<tile />
			<tile />
			<tile />
			<tile />
			<tile />
			<tile />
			<tile />
			<tile />
			<tile />
			<tile />
			<tile />
			<tile />
			<tile />
			<tile />
			<tile />
			<tile />
			<tile />
			<tile />
			<tile />
			<tile />
			<tile />
			<tile />
			<tile />
			<tile />
			<tile />
			<tile />
			<tile />
			<tile />
			<tile />
			<tile />
			<tile />
			<tile />
			<tile />
			<tile />
			<tile />
			<tile />
			<tile />
			<tile />
			<tile />
			<tile />
			<tile gid="803" />
			<tile gid="804" />
			<tile />
			<tile />
			<tile />
			<tile />
			<tile />
			<tile gid="803" />
			<tile gid="804" />
			<tile />
			<tile />
			<tile />
			<tile />
			<tile />
			<tile />
			<tile />
			<tile />
			<tile />
			<tile />
			<tile />
			<tile />
			<tile />
			<tile gid="803" />
			<tile gid="804" />
			<tile />
			<tile />
			<tile />
			<tile />
			<tile />
			<tile />
			<tile gid="803" />
			<tile gid="804" />
			<tile />
			<tile />
			<tile />
			<tile />
			<tile />
			<tile />
			<tile />
			<tile />
			<tile />
			<tile />
			<tile />
			<tile />
			<tile />
			<tile />
			<tile />
			<tile />
			<tile />
			<tile />
			<tile gid="819" />
			<tile gid="820" />
			<tile />
			<tile />
			<tile />
			<tile />
			<tile />
			<tile gid="819" />
			<tile gid="820" />
			<tile />
			<tile />
			<tile />
			<tile />
			<tile />
			<tile />
			<tile />
			<tile />
			<tile />
			<tile />
			<tile />
			<tile />
			<tile />
			<tile gid="819" />
			<tile gid="820" />
			<tile />
			<tile />
			<tile />
			<tile />
			<tile />
			<tile />
			<tile gid="819" />
			<tile gid="820" />
			<tile />
			<tile />
			<tile />
			<tile />
			<tile />
			<tile />
			<tile />
			<tile />
			<tile />
			<tile />
			<tile />
			<tile />
			<tile />
			<tile />
			<tile />
			<tile />
			<tile gid="831" />
			<tile gid="832" />
			<tile gid="835" />
			<tile gid="836" />
			<tile />
			<tile />
			<tile />
			<tile gid="831" />
			<tile gid="832" />
			<tile gid="835" />
			<tile gid="836" />
			<tile />
			<tile />
			<tile />
			<tile />
			<tile />
			<tile />
			<tile />
			<tile />
			<tile />
			<tile />
			<tile />
			<tile gid="831" />
			<tile gid="832" />
			<tile gid="835" />
			<tile gid="836" />
			<tile />
			<tile />
			<tile />
			<tile />
			<tile gid="831" />
			<tile gid="832" />
			<tile gid="835" />
			<tile gid="836" />
			<tile />
			<tile />
			<tile />
			<tile />
			<tile />
			<tile />
			<tile />
			<tile />
			<tile />
			<tile />
			<tile />
			<tile />
			<tile />
			<tile />
			<tile />
			<tile />
			<tile gid="847" />
			<tile gid="848" />
			<tile />
			<tile />
			<tile />
			<tile />
			<tile />
			<tile gid="847" />
			<tile gid="848" />
			<tile />
			<tile />
			<tile />
			<tile />
			<tile />
			<tile />
			<tile />
			<tile />
			<tile />
			<tile />
			<tile />
			<tile />
			<tile />
			<tile gid="847" />
			<tile gid="848" />
			<tile />
			<tile />
			<tile />
			<tile />
			<tile />
			<tile />
			<tile gid="847" />
			<tile gid="848" />
			<tile />
			<tile />
			<tile />
			<tile />
			<tile />
			<tile />
			<tile />
			<tile />
			<tile />
			<tile />
			<tile />
			<tile />
			<tile />
			<tile />
			<tile />
			<tile />
			<tile />
			<tile />
			<tile />
			<tile />
			<tile />
			<tile />
			<tile />
			<tile />
			<tile />
			<tile />
			<tile />
			<tile />
			<tile />
			<tile />
			<tile />
			<tile />
			<tile />
			<tile />
			<tile />
			<tile />
			<tile />
			<tile />
			<tile />
			<tile />
			<tile />
			<tile />
			<tile />
			<tile />
			<tile />
			<tile />
			<tile />
			<tile />
			<tile />
			<tile />
			<tile />
			<tile />
			<tile />
			<tile />
			<tile />
			<tile />
			<tile />
			<tile />
			<tile />
			<tile />
			<tile />
			<tile />
			<tile />
			<tile />
			<tile />
			<tile />
			<tile />
			<tile />
			<tile />
			<tile />
			<tile />
			<tile />
			<tile />
			<tile />
			<tile />
			<tile />
			<tile />
			<tile />
			<tile />
			<tile />
			<tile />
			<tile />
			<tile />
			<tile />
			<tile />
			<tile />
			<tile />
			<tile />
			<tile />
			<tile />
			<tile />
			<tile />
			<tile />
			<tile />
			<tile />
			<tile />
			<tile />
			<tile />
			<tile />
			<tile />
			<tile />
			<tile />
			<tile />
			<tile />
			<tile />
			<tile />
			<tile />
			<tile />
			<tile />
			<tile />
			<tile />
			<tile />
			<tile />
			<tile />
			<tile />
			<tile />
			<tile />
			<tile />
			<tile />
			<tile />
			<tile />
			<tile />
			<tile />
			<tile />
			<tile />
			<tile />
			<tile />
			<tile />
			<tile />
			<tile />
			<tile />
			<tile />
			<tile />
			<tile />
			<tile />
			<tile />
			<tile />
			<tile />
			<tile />
			<tile />
			<tile />
			<tile />
			<tile />
			<tile />
			<tile />
			<tile />
			<tile />
			<tile />
			<tile />
			<tile />
			<tile />
			<tile />
			<tile />
			<tile />
			<tile />
			<tile />
			<tile />
			<tile />
			<tile />
			<tile />
			<tile />
			<tile />
			<tile />
			<tile />
			<tile />
			<tile />
			<tile />
			<tile />
			<tile />
			<tile />
			<tile />
			<tile />
			<tile />
			<tile />
			<tile />
			<tile />
			<tile />
			<tile />
			<tile />
			<tile />
			<tile />
			<tile />
			<tile />
			<tile />
			<tile />
			<tile />
			<tile />
			<tile />
			<tile />
			<tile />
			<tile />
			<tile />
			<tile />
			<tile />
			<tile />
			<tile />
			<tile />
			<tile />
			<tile />
			<tile />
			<tile />
			<tile />
			<tile />
			<tile />
			<tile />
			<tile />
			<tile />
			<tile />
			<tile />
			<tile />
			<tile />
			<tile />
			<tile />
			<tile />
			<tile />
			<tile />
			<tile />
			<tile />
			<tile />
			<tile />
			<tile />
			<tile />
			<tile />
			<tile />
			<tile />
			<tile />
			<tile />
			<tile />
			<tile />
			<tile />
			<tile />
			<tile />
			<tile />
			<tile />
			<tile />
			<tile />
			<tile />
			<tile />
			<tile />
			<tile />
			<tile />
			<tile />
			<tile />
			<tile />
			<tile />
			<tile />
			<tile />
			<tile />
			<tile />
			<tile />
			<tile />
			<tile />
			<tile />
			<tile />
			<tile />
			<tile />
			<tile />
			<tile />
			<tile />
			<tile />
			<tile />
			<tile />
			<tile />
			<tile />
			<tile />
			<tile />
			<tile />
			<tile />
			<tile />
			<tile />
			<tile />
			<tile />
			<tile />
			<tile />
			<tile />
			<tile />
			<tile />
			<tile />
			<tile />
			<tile />
			<tile />
			<tile />
			<tile />
			<tile />
			<tile />
			<tile />
			<tile />
			<tile />
			<tile />
			<tile />
			<tile />
			<tile />
			<tile />
			<tile />
			<tile />
			<tile />
			<tile />
			<tile />
			<tile />
			<tile />
			<tile />
			<tile />
			<tile />
			<tile />
			<tile />
			<tile />
			<tile />
			<tile />
			<tile />
			<tile />
			<tile />
			<tile />
			<tile />
			<tile />
			<tile />
			<tile />
			<tile />
			<tile />
			<tile />
			<tile />
			<tile />
			<tile />
			<tile />
			<tile />
			<tile />
			<tile />
			<tile />
			<tile />
			<tile />
			<tile />
			<tile />
			<tile />
			<tile />
			<tile />
			<tile />
			<tile />
			<tile />
			<tile />
			<tile />
			<tile />
			<tile />
			<tile />
			<tile />
			<tile />
			<tile />
			<tile />
			<tile />
			<tile />
			<tile />
			<tile />
			<tile />
			<tile />
			<tile />
			<tile />
			<tile />
			<tile />
			<tile />
			<tile />
			<tile />
			<tile />
			<tile />
			<tile />
			<tile />
			<tile />
			<tile />
			<tile />
			<tile />
			<tile />
			<tile />
			<tile />
			<tile />
			<tile />
			<tile />
			<tile />
			<tile />
			<tile />
			<tile />
			<tile />
			<tile />
			<tile />
			<tile />
			<tile />
			<tile />
			<tile />
			<tile />
			<tile />
			<tile />
			<tile />
			<tile />
			<tile />
			<tile />
			<tile />
			<tile />
			<tile />
			<tile />
			<tile />
			<tile />
			<tile />
			<tile />
			<tile />
			<tile />
			<tile />
			<tile />
			<tile />
			<tile />
			<tile />
			<tile />
			<tile />
			<tile />
			<tile />
			<tile />
			<tile />
			<tile />
			<tile />
			<tile />
			<tile />
			<tile />
			<tile />
			<tile />
			<tile />
			<tile />
			<tile />
			<tile />
			<tile />
			<tile />
			<tile />
			<tile />
			<tile />
			<tile />
			<tile />
			<tile />
			<tile />
			<tile />
			<tile />
			<tile />
			<tile />
			<tile />
			<tile />
			<tile />
			<tile />
			<tile />
			<tile />
			<tile />
			<tile />
			<tile />
			<tile />
			<tile />
			<tile />
			<tile />
			<tile />
			<tile />
			<tile />
			<tile />
			<tile />
			<tile />
			<tile />
			<tile />
			<tile />
			<tile />
			<tile />
		</data>
	</layer>
	<objectgroup id="3" name="Collision">
		<properties>
			<property name="Collision" type="bool" value="true" />
			<property name="Draw" type="bool" value="false" />
		</properties>
		<object id="1" x="0" y="0" width="1600" height="64" />
		<object id="2" x="1536" y="64" width="64" height="1536" />
		<object id="3" x="896" y="1536" width="640" height="64" />
		<object id="4" x="64" y="1536" width="640" height="64" />
		<object id="5" x="0" y="64" width="64" height="1536" />
		<object id="6" x="448" y="256" width="256" height="64" />
		<object id="7" x="992" y="352" width="256" height="64" />
		<object id="8" x="1088" y="576" width="192" height="64" />
		<object id="9" x="864" y="800" width="224" height="32" />
		<object id="10" x="288" y="576" width="224" height="64" />
		<object id="11" x="960" y="1248" width="64" height="64" />
		<object id="12" x="1216" y="1248" width="64" height="64" />
		<object id="13" x="480" y="1248" width="64" height="64" />
		<object id="14" x="256" y="1248" width="64" height="64" />
	</objectgroup>
	<objectgroup id="4" name="Entities">
		<object id="15" name="Player" type="Player" x="880" y="1139">
			<point />
		</object>
		<object id="19" name="NPC14" type="NPC" x="1052" y="1298">
			<properties>
				<property name="NPC_ID" value="14" />
				<property name="active" type="bool" value="true" />
				<property name="currentDialogueTree" type="int" value="0" />
				<property name="texturePath" value="Assets/Textures/goldCoin.png" />
			</properties>
			<point />
		</object>
		<object id="21" name="NPC13" type="NPC" x="574" y="1288">
			<properties>
				<property name="NPC_ID" value="13" />
				<property name="active" type="bool" value="true" />
				<property name="currentDialogueTree" type="int" value="0" />
				<property name="texturePath" value="Assets/Textures/goldCoin.png" />
			</properties>
			<point />
		</object>
		<object id="23" name="NPC15" type="NPC" x="929.333" y="1294.67">
			<properties>
				<property name="NPC_ID" value="15" />
				<property name="active" type="bool" value="true" />
				<property name="currentDialogueTree" type="int" value="0" />
				<property name="texturePath" value="Assets/Textures/goldCoin.png" />
			</properties>
			<point />
		</object>
		<object id="25" name="NPC12" type="NPC" x="449.333" y="1292">
			<properties>
				<property name="NPC_ID" value="12" />
				<property name="active" type="bool" value="true" />
				<property name="currentDialogueTree" type="int" value="0" />
				<property name="texturePath" value="Assets/Textures/goldCoin.png" />
			</properties>
			<point />
		</object>
		<object id="27" name="Awela" type="NPC" x="929.333" y="1205.33">
			<properties>
				<property name="NPC_ID" value="16" />
				<property name="active" type="bool" value="true" />
				<property name="currentDialogueTree" type="int" value="0" />
				<property name="texturePath" value="Assets/Textures/goldCoin.png" />
			</properties>
			<point />
		</object>
		<object id="28" name="NPC17" type="NPC" x="928" y="1024">
			<properties>
				<property name="NPC_ID" value="17" />
				<property name="active" type="bool" value="true" />
				<property name="currentDialogueTree" type="int" value="0" />
				<property name="texturePath" value="Assets/Textures/goldCoin.png" />
			</properties>
			<point />
		</object>
		<object id="29" name="NPC20" type="NPC" x="384" y="669.333">
			<properties>
				<property name="NPC_ID" value="20" />
				<property name="active" type="bool" value="true" />
				<property name="currentDialogueTree" type="int" value="0" />
				<property name="texturePath" value="Assets/Textures/goldCoin.png" />
			</properties>
			<point />
		</object>
		<object id="30" name="NPC19" type="NPC" x="585.333" y="337.333">
			<properties>
				<property name="NPC_ID" value="19" />
				<property name="active" type="bool" value="true" />
				<property name="currentDialogueTree" type="int" value="0" />
				<property name="texturePath" value="Assets/Textures/goldCoin.png" />
			</properties>
			<point />
		</object>
		<object id="31" name="NPC18" type="NPC" x="1146.67" y="452">
			<properties>
				<property name="NPC_ID" value="18" />
				<property name="active" type="bool" value="true" />
				<property name="currentDialogueTree" type="int" value="0" />
				<property name="texturePath" value="Assets/Textures/goldCoin.png" />
			</properties>
			<point />
		</object>
	</objectgroup>
</map>
