<?xml version="1.0" encoding="UTF-8"?>
<map version="1.10" tiledversion="1.11.2" orientation="orthogonal" renderorder="right-down" width="125" height="100" tilewidth="32" tileheight="32" infinite="0" nextlayerid="7" nextobjectid="46">
 <tileset firstgid="1" name="tmw_desert_spacing" tilewidth="32" tileheight="32" spacing="1" margin="1" tilecount="48" columns="8">
  <image source="../Tilesets/tmw_desert_spacing.png" width="265" height="199"/>
 </tileset>
 <tileset firstgid="49" name="MapMetadata" tilewidth="32" tileheight="32" spacing="1" margin="1" tilecount="2" columns="2">
  <image source="../Tilesets/MapMetadata.png" width="67" height="34"/>
 </tileset>
 <layer id="1" name="Map" width="125" height="100">
  <properties>
   <property name="Draw" type="bool" value="true"/>
  </properties>
  <data>
   <tile gid="34"/>
   <tile gid="34"/>
   <tile gid="34"/>
   <tile gid="34"/>
   <tile gid="34"/>
   <tile gid="34"/>
   <tile gid="34"/>
   <tile gid="34"/>
   <tile gid="34"/>
   <tile gid="34"/>
   <tile gid="34"/>
   <tile gid="34"/>
   <tile gid="34"/>
   <tile gid="34"/>
   <tile gid="34"/>
   <tile gid="34"/>
   <tile gid="34"/>
   <tile gid="34"/>
   <tile gid="34"/>
   <tile gid="34"/>
   <tile gid="34"/>
   <tile gid="34"/>
   <tile gid="34"/>
   <tile gid="34"/>
   <tile gid="34"/>
   <tile gid="34"/>
   <tile gid="34"/>
   <tile gid="34"/>
   <tile gid="34"/>
   <tile gid="34"/>
   <tile gid="34"/>
   <tile gid="34"/>
   <tile gid="34"/>
   <tile gid="34"/>
   <tile gid="34"/>
   <tile gid="34"/>
   <tile gid="34"/>
   <tile gid="34"/>
   <tile gid="34"/>
   <tile gid="34"/>
   <tile gid="34"/>
   <tile gid="34"/>
   <tile gid="34"/>
   <tile gid="34"/>
   <tile gid="34"/>
   <tile gid="34"/>
   <tile gid="34"/>
   <tile gid="34"/>
   <tile gid="34"/>
   <tile gid="34"/>
   <tile gid="34"/>
   <tile gid="34"/>
   <tile gid="34"/>
   <tile gid="34"/>
   <tile gid="34"/>
   <tile gid="34"/>
   <tile gid="34"/>
   <tile gid="34"/>
   <tile gid="34"/>
   <tile gid="34"/>
   <tile gid="34"/>
   <tile gid="34"/>
   <tile gid="34"/>
   <tile gid="34"/>
   <tile gid="34"/>
   <tile gid="34"/>
   <tile gid="34"/>
   <tile gid="34"/>
   <tile gid="34"/>
   <tile gid="34"/>
   <tile gid="34"/>
   <tile gid="34"/>
   <tile gid="34"/>
   <tile gid="34"/>
   <tile gid="34"/>
   <tile gid="34"/>
   <tile gid="34"/>
   <tile gid="34"/>
   <tile gid="34"/>
   <tile gid="34"/>
   <tile gid="34"/>
   <tile gid="34"/>
   <tile gid="34"/>
   <tile gid="34"/>
   <tile gid="34"/>
   <tile gid="34"/>
   <tile gid="34"/>
   <tile gid="34"/>
   <tile gid="34"/>
   <tile gid="34"/>
   <tile gid="34"/>
   <tile gid="34"/>
   <tile gid="34"/>
   <tile gid="34"/>
   <tile gid="34"/>
   <tile gid="34"/>
   <tile gid="34"/>
   <tile gid="34"/>
   <tile gid="34"/>
   <tile gid="34"/>
   <tile gid="34"/>
   <tile gid="34"/>
   <tile gid="34"/>
   <tile gid="34"/>
   <tile gid="34"/>
   <tile gid="34"/>
   <tile gid="34"/>
   <tile gid="34"/>
   <tile gid="34"/>
   <tile gid="34"/>
   <tile gid="34"/>
   <tile gid="34"/>
   <tile gid="34"/>
   <tile gid="34"/>
   <tile gid="34"/>
   <tile gid="34"/>
   <tile gid="34"/>
   <tile gid="34"/>
   <tile gid="34"/>
   <tile gid="34"/>
   <tile gid="34"/>
   <tile gid="34"/>
   <tile gid="34"/>
   <tile gid="34"/>
   <tile gid="34"/>
   <tile gid="34"/>
   <tile gid="34"/>
   <tile gid="34"/>
   <tile gid="34"/>
   <tile gid="34"/>
   <tile gid="34"/>
   <tile gid="34"/>
   <tile gid="34"/>
   <tile gid="34"/>
   <tile gid="34"/>
   <tile gid="34"/>
   <tile gid="34"/>
   <tile gid="34"/>
   <tile gid="34"/>
   <tile gid="34"/>
   <tile gid="34"/>
   <tile gid="34"/>
   <tile gid="34"/>
   <tile gid="34"/>
   <tile gid="34"/>
   <tile gid="34"/>
   <tile gid="34"/>
   <tile gid="34"/>
   <tile gid="34"/>
   <tile gid="34"/>
   <tile gid="34"/>
   <tile gid="34"/>
   <tile gid="34"/>
   <tile gid="34"/>
   <tile gid="34"/>
   <tile gid="34"/>
   <tile gid="34"/>
   <tile gid="34"/>
   <tile gid="34"/>
   <tile gid="34"/>
   <tile gid="34"/>
   <tile gid="34"/>
   <tile gid="34"/>
   <tile gid="34"/>
   <tile gid="34"/>
   <tile gid="34"/>
   <tile gid="34"/>
   <tile gid="34"/>
   <tile gid="34"/>
   <tile gid="34"/>
   <tile gid="34"/>
   <tile gid="34"/>
   <tile gid="34"/>
   <tile gid="34"/>
   <tile gid="34"/>
   <tile gid="34"/>
   <tile gid="34"/>
   <tile gid="34"/>
   <tile gid="34"/>
   <tile gid="34"/>
   <tile gid="34"/>
   <tile gid="34"/>
   <tile gid="34"/>
   <tile gid="34"/>
   <tile gid="34"/>
   <tile gid="34"/>
   <tile gid="34"/>
   <tile gid="34"/>
   <tile gid="34"/>
   <tile gid="34"/>
   <tile gid="34"/>
   <tile gid="34"/>
   <tile gid="34"/>
   <tile gid="34"/>
   <tile gid="34"/>
   <tile gid="34"/>
   <tile gid="34"/>
   <tile gid="34"/>
   <tile gid="34"/>
   <tile gid="34"/>
   <tile gid="34"/>
   <tile gid="34"/>
   <tile gid="34"/>
   <tile gid="34"/>
   <tile gid="34"/>
   <tile gid="34"/>
   <tile gid="34"/>
   <tile gid="34"/>
   <tile gid="34"/>
   <tile gid="34"/>
   <tile gid="34"/>
   <tile gid="34"/>
   <tile gid="34"/>
   <tile gid="34"/>
   <tile gid="34"/>
   <tile gid="34"/>
   <tile gid="34"/>
   <tile gid="34"/>
   <tile gid="34"/>
   <tile gid="34"/>
   <tile gid="34"/>
   <tile gid="34"/>
   <tile gid="34"/>
   <tile gid="34"/>
   <tile gid="34"/>
   <tile gid="34"/>
   <tile gid="34"/>
   <tile gid="34"/>
   <tile gid="34"/>
   <tile gid="34"/>
   <tile gid="34"/>
   <tile gid="34"/>
   <tile gid="34"/>
   <tile gid="34"/>
   <tile gid="34"/>
   <tile gid="34"/>
   <tile gid="34"/>
   <tile gid="34"/>
   <tile gid="34"/>
   <tile gid="34"/>
   <tile gid="34"/>
   <tile gid="34"/>
   <tile gid="34"/>
   <tile gid="34"/>
   <tile gid="34"/>
   <tile gid="34"/>
   <tile gid="34"/>
   <tile gid="34"/>
   <tile gid="34"/>
   <tile gid="34"/>
   <tile gid="34"/>
   <tile gid="34"/>
   <tile gid="34"/>
   <tile gid="34"/>
   <tile gid="34"/>
   <tile gid="34"/>
   <tile gid="34"/>
   <tile gid="34"/>
   <tile gid="34"/>
   <tile gid="34"/>
   <tile gid="34"/>
   <tile gid="34"/>
   <tile gid="34"/>
   <tile gid="34"/>
   <tile gid="34"/>
   <tile gid="34"/>
   <tile gid="34"/>
   <tile gid="34"/>
   <tile gid="34"/>
   <tile gid="34"/>
   <tile gid="34"/>
   <tile gid="34"/>
   <tile gid="34"/>
   <tile gid="34"/>
   <tile gid="34"/>
   <tile gid="34"/>
   <tile gid="34"/>
   <tile gid="34"/>
   <tile gid="34"/>
   <tile gid="34"/>
   <tile gid="34"/>
   <tile gid="34"/>
   <tile gid="34"/>
   <tile gid="34"/>
   <tile gid="34"/>
   <tile gid="34"/>
   <tile gid="34"/>
   <tile gid="34"/>
   <tile gid="34"/>
   <tile gid="34"/>
   <tile gid="34"/>
   <tile gid="34"/>
   <tile gid="34"/>
   <tile gid="34"/>
   <tile gid="34"/>
   <tile gid="34"/>
   <tile gid="34"/>
   <tile gid="34"/>
   <tile gid="34"/>
   <tile gid="34"/>
   <tile gid="34"/>
   <tile gid="34"/>
   <tile gid="34"/>
   <tile gid="34"/>
   <tile gid="34"/>
   <tile gid="34"/>
   <tile gid="34"/>
   <tile gid="34"/>
   <tile gid="34"/>
   <tile gid="34"/>
   <tile gid="34"/>
   <tile gid="34"/>
   <tile gid="34"/>
   <tile gid="34"/>
   <tile gid="34"/>
   <tile gid="34"/>
   <tile gid="34"/>
   <tile gid="34"/>
   <tile gid="34"/>
   <tile gid="34"/>
   <tile gid="34"/>
   <tile gid="34"/>
   <tile gid="34"/>
   <tile gid="34"/>
   <tile gid="34"/>
   <tile gid="34"/>
   <tile gid="34"/>
   <tile gid="34"/>
   <tile gid="34"/>
   <tile gid="34"/>
   <tile gid="34"/>
   <tile gid="34"/>
   <tile gid="34"/>
   <tile gid="34"/>
   <tile gid="34"/>
   <tile gid="34"/>
   <tile gid="34"/>
   <tile gid="34"/>
   <tile gid="34"/>
   <tile gid="34"/>
   <tile gid="34"/>
   <tile gid="34"/>
   <tile gid="34"/>
   <tile gid="34"/>
   <tile gid="34"/>
   <tile gid="34"/>
   <tile gid="34"/>
   <tile gid="34"/>
   <tile gid="34"/>
   <tile gid="34"/>
   <tile gid="34"/>
   <tile gid="34"/>
   <tile gid="34"/>
   <tile gid="34"/>
   <tile gid="34"/>
   <tile gid="34"/>
   <tile gid="34"/>
   <tile gid="34"/>
   <tile gid="34"/>
   <tile gid="34"/>
   <tile gid="34"/>
   <tile gid="34"/>
   <tile gid="49"/>
   <tile gid="49"/>
   <tile gid="49"/>
   <tile gid="49"/>
   <tile gid="34"/>
   <tile gid="34"/>
   <tile gid="34"/>
   <tile gid="34"/>
   <tile gid="34"/>
   <tile gid="34"/>
   <tile gid="34"/>
   <tile gid="34"/>
   <tile gid="34"/>
   <tile gid="34"/>
   <tile gid="34"/>
   <tile gid="34"/>
   <tile gid="30"/>
   <tile gid="30"/>
   <tile gid="30"/>
   <tile gid="30"/>
   <tile gid="30"/>
   <tile gid="30"/>
   <tile gid="30"/>
   <tile gid="30"/>
   <tile gid="30"/>
   <tile gid="30"/>
   <tile gid="30"/>
   <tile gid="30"/>
   <tile gid="30"/>
   <tile gid="30"/>
   <tile gid="30"/>
   <tile gid="30"/>
   <tile gid="30"/>
   <tile gid="30"/>
   <tile gid="30"/>
   <tile gid="30"/>
   <tile gid="30"/>
   <tile gid="30"/>
   <tile gid="30"/>
   <tile gid="30"/>
   <tile gid="30"/>
   <tile gid="30"/>
   <tile gid="30"/>
   <tile gid="30"/>
   <tile gid="30"/>
   <tile gid="30"/>
   <tile gid="30"/>
   <tile gid="30"/>
   <tile gid="30"/>
   <tile gid="30"/>
   <tile gid="34"/>
   <tile gid="34"/>
   <tile gid="34"/>
   <tile gid="30"/>
   <tile gid="30"/>
   <tile gid="30"/>
   <tile gid="30"/>
   <tile gid="30"/>
   <tile gid="30"/>
   <tile gid="30"/>
   <tile gid="30"/>
   <tile gid="30"/>
   <tile gid="30"/>
   <tile gid="30"/>
   <tile gid="30"/>
   <tile gid="30"/>
   <tile gid="30"/>
   <tile gid="30"/>
   <tile gid="30"/>
   <tile gid="30"/>
   <tile gid="30"/>
   <tile gid="30"/>
   <tile gid="30"/>
   <tile gid="30"/>
   <tile gid="30"/>
   <tile gid="30"/>
   <tile gid="30"/>
   <tile gid="30"/>
   <tile gid="30"/>
   <tile gid="30"/>
   <tile gid="30"/>
   <tile gid="30"/>
   <tile gid="30"/>
   <tile gid="30"/>
   <tile gid="30"/>
   <tile gid="30"/>
   <tile gid="30"/>
   <tile gid="30"/>
   <tile gid="30"/>
   <tile gid="30"/>
   <tile gid="30"/>
   <tile gid="30"/>
   <tile gid="34"/>
   <tile gid="34"/>
   <tile gid="34"/>
   <tile gid="30"/>
   <tile gid="30"/>
   <tile gid="30"/>
   <tile gid="30"/>
   <tile gid="30"/>
   <tile gid="30"/>
   <tile gid="30"/>
   <tile gid="30"/>
   <tile gid="30"/>
   <tile gid="30"/>
   <tile gid="30"/>
   <tile gid="30"/>
   <tile gid="30"/>
   <tile gid="30"/>
   <tile gid="30"/>
   <tile gid="30"/>
   <tile gid="30"/>
   <tile gid="30"/>
   <tile gid="34"/>
   <tile gid="34"/>
   <tile gid="34"/>
   <tile gid="30"/>
   <tile gid="30"/>
   <tile gid="30"/>
   <tile gid="30"/>
   <tile gid="30"/>
   <tile gid="30"/>
   <tile gid="30"/>
   <tile gid="30"/>
   <tile gid="30"/>
   <tile gid="30"/>
   <tile gid="30"/>
   <tile gid="30"/>
   <tile gid="30"/>
   <tile gid="30"/>
   <tile gid="30"/>
   <tile gid="30"/>
   <tile gid="30"/>
   <tile gid="30"/>
   <tile gid="30"/>
   <tile gid="34"/>
   <tile gid="34"/>
   <tile gid="34"/>
   <tile gid="34"/>
   <tile gid="34"/>
   <tile gid="34"/>
   <tile gid="30"/>
   <tile gid="30"/>
   <tile gid="30"/>
   <tile gid="30"/>
   <tile gid="30"/>
   <tile gid="30"/>
   <tile gid="30"/>
   <tile gid="30"/>
   <tile gid="30"/>
   <tile gid="30"/>
   <tile gid="30"/>
   <tile gid="30"/>
   <tile gid="30"/>
   <tile gid="30"/>
   <tile gid="30"/>
   <tile gid="30"/>
   <tile gid="30"/>
   <tile gid="30"/>
   <tile gid="30"/>
   <tile gid="30"/>
   <tile gid="30"/>
   <tile gid="30"/>
   <tile gid="30"/>
   <tile gid="30"/>
   <tile gid="30"/>
   <tile gid="30"/>
   <tile gid="30"/>
   <tile gid="30"/>
   <tile gid="30"/>
   <tile gid="30"/>
   <tile gid="30"/>
   <tile gid="30"/>
   <tile gid="30"/>
   <tile gid="30"/>
   <tile gid="34"/>
   <tile gid="34"/>
   <tile gid="34"/>
   <tile gid="30"/>
   <tile gid="30"/>
   <tile gid="30"/>
   <tile gid="30"/>
   <tile gid="30"/>
   <tile gid="30"/>
   <tile gid="30"/>
   <tile gid="30"/>
   <tile gid="30"/>
   <tile gid="30"/>
   <tile gid="30"/>
   <tile gid="30"/>
   <tile gid="30"/>
   <tile gid="30"/>
   <tile gid="30"/>
   <tile gid="30"/>
   <tile gid="30"/>
   <tile gid="30"/>
   <tile gid="30"/>
   <tile gid="30"/>
   <tile gid="30"/>
   <tile gid="30"/>
   <tile gid="30"/>
   <tile gid="30"/>
   <tile gid="30"/>
   <tile gid="30"/>
   <tile gid="30"/>
   <tile gid="30"/>
   <tile gid="30"/>
   <tile gid="30"/>
   <tile gid="30"/>
   <tile gid="30"/>
   <tile gid="30"/>
   <tile gid="30"/>
   <tile gid="30"/>
   <tile gid="30"/>
   <tile gid="30"/>
   <tile gid="30"/>
   <tile gid="30"/>
   <tile gid="34"/>
   <tile gid="34"/>
   <tile gid="34"/>
   <tile gid="30"/>
   <tile gid="30"/>
   <tile gid="30"/>
   <tile gid="30"/>
   <tile gid="30"/>
   <tile gid="30"/>
   <tile gid="30"/>
   <tile gid="30"/>
   <tile gid="30"/>
   <tile gid="30"/>
   <tile gid="30"/>
   <tile gid="30"/>
   <tile gid="30"/>
   <tile gid="30"/>
   <tile gid="30"/>
   <tile gid="30"/>
   <tile gid="30"/>
   <tile gid="30"/>
   <tile gid="34"/>
   <tile gid="34"/>
   <tile gid="34"/>
   <tile gid="30"/>
   <tile gid="30"/>
   <tile gid="30"/>
   <tile gid="30"/>
   <tile gid="30"/>
   <tile gid="30"/>
   <tile gid="30"/>
   <tile gid="30"/>
   <tile gid="30"/>
   <tile gid="30"/>
   <tile gid="30"/>
   <tile gid="30"/>
   <tile gid="30"/>
   <tile gid="30"/>
   <tile gid="30"/>
   <tile gid="30"/>
   <tile gid="30"/>
   <tile gid="30"/>
   <tile gid="30"/>
   <tile gid="34"/>
   <tile gid="34"/>
   <tile gid="34"/>
   <tile gid="34"/>
   <tile gid="34"/>
   <tile gid="34"/>
   <tile gid="30"/>
   <tile gid="30"/>
   <tile gid="30"/>
   <tile gid="30"/>
   <tile gid="30"/>
   <tile gid="30"/>
   <tile gid="30"/>
   <tile gid="30"/>
   <tile gid="30"/>
   <tile gid="30"/>
   <tile gid="30"/>
   <tile gid="30"/>
   <tile gid="30"/>
   <tile gid="30"/>
   <tile gid="30"/>
   <tile gid="30"/>
   <tile gid="30"/>
   <tile gid="30"/>
   <tile gid="30"/>
   <tile gid="30"/>
   <tile gid="30"/>
   <tile gid="30"/>
   <tile gid="30"/>
   <tile gid="30"/>
   <tile gid="30"/>
   <tile gid="30"/>
   <tile gid="30"/>
   <tile gid="30"/>
   <tile gid="30"/>
   <tile gid="30"/>
   <tile gid="30"/>
   <tile gid="30"/>
   <tile gid="30"/>
   <tile gid="30"/>
   <tile gid="34"/>
   <tile gid="34"/>
   <tile gid="34"/>
   <tile gid="30"/>
   <tile gid="30"/>
   <tile gid="30"/>
   <tile gid="30"/>
   <tile gid="30"/>
   <tile gid="30"/>
   <tile gid="30"/>
   <tile gid="30"/>
   <tile gid="30"/>
   <tile gid="30"/>
   <tile gid="30"/>
   <tile gid="30"/>
   <tile gid="30"/>
   <tile gid="30"/>
   <tile gid="30"/>
   <tile gid="30"/>
   <tile gid="30"/>
   <tile gid="30"/>
   <tile gid="30"/>
   <tile gid="30"/>
   <tile gid="30"/>
   <tile gid="30"/>
   <tile gid="30"/>
   <tile gid="30"/>
   <tile gid="30"/>
   <tile gid="30"/>
   <tile gid="30"/>
   <tile gid="30"/>
   <tile gid="30"/>
   <tile gid="30"/>
   <tile gid="30"/>
   <tile gid="30"/>
   <tile gid="30"/>
   <tile gid="30"/>
   <tile gid="30"/>
   <tile gid="30"/>
   <tile gid="30"/>
   <tile gid="30"/>
   <tile gid="30"/>
   <tile gid="34"/>
   <tile gid="34"/>
   <tile gid="34"/>
   <tile gid="30"/>
   <tile gid="30"/>
   <tile gid="30"/>
   <tile gid="30"/>
   <tile gid="30"/>
   <tile gid="30"/>
   <tile gid="30"/>
   <tile gid="30"/>
   <tile gid="30"/>
   <tile gid="30"/>
   <tile gid="30"/>
   <tile gid="30"/>
   <tile gid="30"/>
   <tile gid="30"/>
   <tile gid="30"/>
   <tile gid="30"/>
   <tile gid="30"/>
   <tile gid="30"/>
   <tile gid="34"/>
   <tile gid="34"/>
   <tile gid="34"/>
   <tile gid="30"/>
   <tile gid="30"/>
   <tile gid="30"/>
   <tile gid="30"/>
   <tile gid="30"/>
   <tile gid="30"/>
   <tile gid="30"/>
   <tile gid="30"/>
   <tile gid="30"/>
   <tile gid="30"/>
   <tile gid="30"/>
   <tile gid="30"/>
   <tile gid="30"/>
   <tile gid="30"/>
   <tile gid="30"/>
   <tile gid="30"/>
   <tile gid="30"/>
   <tile gid="30"/>
   <tile gid="30"/>
   <tile gid="34"/>
   <tile gid="34"/>
   <tile gid="34"/>
   <tile gid="34"/>
   <tile gid="34"/>
   <tile gid="34"/>
   <tile gid="30"/>
   <tile gid="30"/>
   <tile gid="30"/>
   <tile gid="30"/>
   <tile gid="30"/>
   <tile gid="30"/>
   <tile gid="30"/>
   <tile gid="30"/>
   <tile gid="30"/>
   <tile gid="30"/>
   <tile gid="30"/>
   <tile gid="30"/>
   <tile gid="30"/>
   <tile gid="30"/>
   <tile gid="30"/>
   <tile gid="30"/>
   <tile gid="30"/>
   <tile gid="30"/>
   <tile gid="30"/>
   <tile gid="30"/>
   <tile gid="30"/>
   <tile gid="30"/>
   <tile gid="30"/>
   <tile gid="30"/>
   <tile gid="30"/>
   <tile gid="30"/>
   <tile gid="30"/>
   <tile gid="30"/>
   <tile gid="30"/>
   <tile gid="30"/>
   <tile gid="30"/>
   <tile gid="30"/>
   <tile gid="30"/>
   <tile gid="30"/>
   <tile gid="34"/>
   <tile gid="34"/>
   <tile gid="34"/>
   <tile gid="30"/>
   <tile gid="30"/>
   <tile gid="30"/>
   <tile gid="30"/>
   <tile gid="30"/>
   <tile gid="30"/>
   <tile gid="30"/>
   <tile gid="30"/>
   <tile gid="30"/>
   <tile gid="30"/>
   <tile gid="30"/>
   <tile gid="30"/>
   <tile gid="30"/>
   <tile gid="30"/>
   <tile gid="30"/>
   <tile gid="30"/>
   <tile gid="30"/>
   <tile gid="30"/>
   <tile gid="30"/>
   <tile gid="30"/>
   <tile gid="30"/>
   <tile gid="30"/>
   <tile gid="30"/>
   <tile gid="30"/>
   <tile gid="30"/>
   <tile gid="30"/>
   <tile gid="30"/>
   <tile gid="30"/>
   <tile gid="30"/>
   <tile gid="30"/>
   <tile gid="30"/>
   <tile gid="30"/>
   <tile gid="30"/>
   <tile gid="30"/>
   <tile gid="30"/>
   <tile gid="30"/>
   <tile gid="30"/>
   <tile gid="30"/>
   <tile gid="30"/>
   <tile gid="30"/>
   <tile gid="30"/>
   <tile gid="30"/>
   <tile gid="30"/>
   <tile gid="30"/>
   <tile gid="30"/>
   <tile gid="30"/>
   <tile gid="30"/>
   <tile gid="30"/>
   <tile gid="30"/>
   <tile gid="30"/>
   <tile gid="30"/>
   <tile gid="30"/>
   <tile gid="30"/>
   <tile gid="30"/>
   <tile gid="30"/>
   <tile gid="30"/>
   <tile gid="30"/>
   <tile gid="30"/>
   <tile gid="30"/>
   <tile gid="30"/>
   <tile gid="34"/>
   <tile gid="34"/>
   <tile gid="34"/>
   <tile gid="30"/>
   <tile gid="30"/>
   <tile gid="30"/>
   <tile gid="30"/>
   <tile gid="30"/>
   <tile gid="30"/>
   <tile gid="30"/>
   <tile gid="30"/>
   <tile gid="30"/>
   <tile gid="30"/>
   <tile gid="30"/>
   <tile gid="30"/>
   <tile gid="30"/>
   <tile gid="30"/>
   <tile gid="30"/>
   <tile gid="30"/>
   <tile gid="30"/>
   <tile gid="30"/>
   <tile gid="30"/>
   <tile gid="34"/>
   <tile gid="34"/>
   <tile gid="34"/>
   <tile gid="34"/>
   <tile gid="34"/>
   <tile gid="34"/>
   <tile gid="30"/>
   <tile gid="30"/>
   <tile gid="30"/>
   <tile gid="30"/>
   <tile gid="30"/>
   <tile gid="30"/>
   <tile gid="30"/>
   <tile gid="30"/>
   <tile gid="30"/>
   <tile gid="30"/>
   <tile gid="30"/>
   <tile gid="30"/>
   <tile gid="30"/>
   <tile gid="30"/>
   <tile gid="30"/>
   <tile gid="30"/>
   <tile gid="30"/>
   <tile gid="30"/>
   <tile gid="30"/>
   <tile gid="30"/>
   <tile gid="30"/>
   <tile gid="30"/>
   <tile gid="30"/>
   <tile gid="30"/>
   <tile gid="30"/>
   <tile gid="30"/>
   <tile gid="30"/>
   <tile gid="30"/>
   <tile gid="30"/>
   <tile gid="30"/>
   <tile gid="30"/>
   <tile gid="30"/>
   <tile gid="30"/>
   <tile gid="30"/>
   <tile gid="34"/>
   <tile gid="34"/>
   <tile gid="34"/>
   <tile gid="30"/>
   <tile gid="30"/>
   <tile gid="30"/>
   <tile gid="30"/>
   <tile gid="30"/>
   <tile gid="30"/>
   <tile gid="30"/>
   <tile gid="30"/>
   <tile gid="30"/>
   <tile gid="30"/>
   <tile gid="30"/>
   <tile gid="30"/>
   <tile gid="30"/>
   <tile gid="30"/>
   <tile gid="30"/>
   <tile gid="30"/>
   <tile gid="30"/>
   <tile gid="30"/>
   <tile gid="30"/>
   <tile gid="30"/>
   <tile gid="30"/>
   <tile gid="30"/>
   <tile gid="30"/>
   <tile gid="30"/>
   <tile gid="30"/>
   <tile gid="30"/>
   <tile gid="30"/>
   <tile gid="30"/>
   <tile gid="30"/>
   <tile gid="30"/>
   <tile gid="30"/>
   <tile gid="30"/>
   <tile gid="30"/>
   <tile gid="30"/>
   <tile gid="30"/>
   <tile gid="30"/>
   <tile gid="30"/>
   <tile gid="30"/>
   <tile gid="30"/>
   <tile gid="30"/>
   <tile gid="30"/>
   <tile gid="30"/>
   <tile gid="30"/>
   <tile gid="30"/>
   <tile gid="30"/>
   <tile gid="30"/>
   <tile gid="30"/>
   <tile gid="30"/>
   <tile gid="30"/>
   <tile gid="30"/>
   <tile gid="30"/>
   <tile gid="30"/>
   <tile gid="30"/>
   <tile gid="30"/>
   <tile gid="30"/>
   <tile gid="30"/>
   <tile gid="30"/>
   <tile gid="30"/>
   <tile gid="30"/>
   <tile gid="30"/>
   <tile gid="30"/>
   <tile gid="30"/>
   <tile gid="30"/>
   <tile gid="30"/>
   <tile gid="30"/>
   <tile gid="30"/>
   <tile gid="30"/>
   <tile gid="30"/>
   <tile gid="30"/>
   <tile gid="30"/>
   <tile gid="30"/>
   <tile gid="30"/>
   <tile gid="30"/>
   <tile gid="30"/>
   <tile gid="30"/>
   <tile gid="30"/>
   <tile gid="30"/>
   <tile gid="30"/>
   <tile gid="30"/>
   <tile gid="30"/>
   <tile gid="30"/>
   <tile gid="30"/>
   <tile gid="34"/>
   <tile gid="34"/>
   <tile gid="34"/>
   <tile gid="34"/>
   <tile gid="34"/>
   <tile gid="34"/>
   <tile gid="30"/>
   <tile gid="30"/>
   <tile gid="30"/>
   <tile gid="30"/>
   <tile gid="30"/>
   <tile gid="30"/>
   <tile gid="30"/>
   <tile gid="30"/>
   <tile gid="30"/>
   <tile gid="30"/>
   <tile gid="30"/>
   <tile gid="30"/>
   <tile gid="30"/>
   <tile gid="30"/>
   <tile gid="30"/>
   <tile gid="30"/>
   <tile gid="30"/>
   <tile gid="30"/>
   <tile gid="30"/>
   <tile gid="30"/>
   <tile gid="30"/>
   <tile gid="30"/>
   <tile gid="30"/>
   <tile gid="30"/>
   <tile gid="30"/>
   <tile gid="30"/>
   <tile gid="30"/>
   <tile gid="30"/>
   <tile gid="30"/>
   <tile gid="30"/>
   <tile gid="30"/>
   <tile gid="30"/>
   <tile gid="30"/>
   <tile gid="30"/>
   <tile gid="34"/>
   <tile gid="34"/>
   <tile gid="34"/>
   <tile gid="30"/>
   <tile gid="30"/>
   <tile gid="30"/>
   <tile gid="30"/>
   <tile gid="30"/>
   <tile gid="30"/>
   <tile gid="30"/>
   <tile gid="30"/>
   <tile gid="30"/>
   <tile gid="30"/>
   <tile gid="30"/>
   <tile gid="30"/>
   <tile gid="30"/>
   <tile gid="30"/>
   <tile gid="30"/>
   <tile gid="30"/>
   <tile gid="30"/>
   <tile gid="30"/>
   <tile gid="30"/>
   <tile gid="30"/>
   <tile gid="30"/>
   <tile gid="30"/>
   <tile gid="30"/>
   <tile gid="30"/>
   <tile gid="30"/>
   <tile gid="30"/>
   <tile gid="30"/>
   <tile gid="30"/>
   <tile gid="30"/>
   <tile gid="30"/>
   <tile gid="30"/>
   <tile gid="30"/>
   <tile gid="30"/>
   <tile gid="30"/>
   <tile gid="30"/>
   <tile gid="30"/>
   <tile gid="30"/>
   <tile gid="30"/>
   <tile gid="30"/>
   <tile gid="30"/>
   <tile gid="30"/>
   <tile gid="30"/>
   <tile gid="30"/>
   <tile gid="30"/>
   <tile gid="30"/>
   <tile gid="30"/>
   <tile gid="30"/>
   <tile gid="30"/>
   <tile gid="30"/>
   <tile gid="30"/>
   <tile gid="30"/>
   <tile gid="30"/>
   <tile gid="30"/>
   <tile gid="30"/>
   <tile gid="30"/>
   <tile gid="30"/>
   <tile gid="30"/>
   <tile gid="30"/>
   <tile gid="30"/>
   <tile gid="30"/>
   <tile gid="30"/>
   <tile gid="30"/>
   <tile gid="30"/>
   <tile gid="30"/>
   <tile gid="30"/>
   <tile gid="30"/>
   <tile gid="30"/>
   <tile gid="30"/>
   <tile gid="30"/>
   <tile gid="30"/>
   <tile gid="30"/>
   <tile gid="30"/>
   <tile gid="30"/>
   <tile gid="30"/>
   <tile gid="30"/>
   <tile gid="30"/>
   <tile gid="30"/>
   <tile gid="30"/>
   <tile gid="30"/>
   <tile gid="30"/>
   <tile gid="30"/>
   <tile gid="30"/>
   <tile gid="34"/>
   <tile gid="34"/>
   <tile gid="34"/>
   <tile gid="34"/>
   <tile gid="34"/>
   <tile gid="34"/>
   <tile gid="30"/>
   <tile gid="30"/>
   <tile gid="30"/>
   <tile gid="30"/>
   <tile gid="30"/>
   <tile gid="30"/>
   <tile gid="30"/>
   <tile gid="30"/>
   <tile gid="30"/>
   <tile gid="30"/>
   <tile gid="30"/>
   <tile gid="30"/>
   <tile gid="30"/>
   <tile gid="30"/>
   <tile gid="30"/>
   <tile gid="30"/>
   <tile gid="30"/>
   <tile gid="30"/>
   <tile gid="30"/>
   <tile gid="30"/>
   <tile gid="30"/>
   <tile gid="30"/>
   <tile gid="30"/>
   <tile gid="30"/>
   <tile gid="30"/>
   <tile gid="30"/>
   <tile gid="30"/>
   <tile gid="30"/>
   <tile gid="30"/>
   <tile gid="30"/>
   <tile gid="30"/>
   <tile gid="30"/>
   <tile gid="30"/>
   <tile gid="30"/>
   <tile gid="30"/>
   <tile gid="30"/>
   <tile gid="30"/>
   <tile gid="30"/>
   <tile gid="30"/>
   <tile gid="30"/>
   <tile gid="30"/>
   <tile gid="30"/>
   <tile gid="30"/>
   <tile gid="30"/>
   <tile gid="30"/>
   <tile gid="30"/>
   <tile gid="30"/>
   <tile gid="30"/>
   <tile gid="30"/>
   <tile gid="30"/>
   <tile gid="30"/>
   <tile gid="30"/>
   <tile gid="30"/>
   <tile gid="30"/>
   <tile gid="30"/>
   <tile gid="30"/>
   <tile gid="30"/>
   <tile gid="30"/>
   <tile gid="30"/>
   <tile gid="30"/>
   <tile gid="30"/>
   <tile gid="30"/>
   <tile gid="30"/>
   <tile gid="30"/>
   <tile gid="30"/>
   <tile gid="30"/>
   <tile gid="30"/>
   <tile gid="30"/>
   <tile gid="30"/>
   <tile gid="30"/>
   <tile gid="30"/>
   <tile gid="30"/>
   <tile gid="30"/>
   <tile gid="30"/>
   <tile gid="30"/>
   <tile gid="30"/>
   <tile gid="34"/>
   <tile gid="34"/>
   <tile gid="34"/>
   <tile gid="30"/>
   <tile gid="30"/>
   <tile gid="30"/>
   <tile gid="30"/>
   <tile gid="30"/>
   <tile gid="30"/>
   <tile gid="30"/>
   <tile gid="30"/>
   <tile gid="30"/>
   <tile gid="30"/>
   <tile gid="30"/>
   <tile gid="30"/>
   <tile gid="30"/>
   <tile gid="30"/>
   <tile gid="30"/>
   <tile gid="30"/>
   <tile gid="30"/>
   <tile gid="30"/>
   <tile gid="30"/>
   <tile gid="30"/>
   <tile gid="30"/>
   <tile gid="30"/>
   <tile gid="30"/>
   <tile gid="30"/>
   <tile gid="30"/>
   <tile gid="30"/>
   <tile gid="30"/>
   <tile gid="30"/>
   <tile gid="30"/>
   <tile gid="30"/>
   <tile gid="30"/>
   <tile gid="30"/>
   <tile gid="30"/>
   <tile gid="30"/>
   <tile gid="30"/>
   <tile gid="30"/>
   <tile gid="30"/>
   <tile gid="30"/>
   <tile gid="30"/>
   <tile gid="30"/>
   <tile gid="34"/>
   <tile gid="34"/>
   <tile gid="34"/>
   <tile gid="34"/>
   <tile gid="34"/>
   <tile gid="34"/>
   <tile gid="30"/>
   <tile gid="30"/>
   <tile gid="30"/>
   <tile gid="30"/>
   <tile gid="30"/>
   <tile gid="30"/>
   <tile gid="30"/>
   <tile gid="30"/>
   <tile gid="30"/>
   <tile gid="30"/>
   <tile gid="30"/>
   <tile gid="30"/>
   <tile gid="30"/>
   <tile gid="30"/>
   <tile gid="30"/>
   <tile gid="30"/>
   <tile gid="30"/>
   <tile gid="30"/>
   <tile gid="30"/>
   <tile gid="30"/>
   <tile gid="30"/>
   <tile gid="30"/>
   <tile gid="30"/>
   <tile gid="30"/>
   <tile gid="30"/>
   <tile gid="30"/>
   <tile gid="30"/>
   <tile gid="30"/>
   <tile gid="30"/>
   <tile gid="30"/>
   <tile gid="30"/>
   <tile gid="30"/>
   <tile gid="30"/>
   <tile gid="30"/>
   <tile gid="30"/>
   <tile gid="30"/>
   <tile gid="30"/>
   <tile gid="30"/>
   <tile gid="30"/>
   <tile gid="30"/>
   <tile gid="30"/>
   <tile gid="30"/>
   <tile gid="30"/>
   <tile gid="30"/>
   <tile gid="30"/>
   <tile gid="30"/>
   <tile gid="30"/>
   <tile gid="30"/>
   <tile gid="30"/>
   <tile gid="30"/>
   <tile gid="30"/>
   <tile gid="30"/>
   <tile gid="30"/>
   <tile gid="30"/>
   <tile gid="30"/>
   <tile gid="30"/>
   <tile gid="30"/>
   <tile gid="30"/>
   <tile gid="30"/>
   <tile gid="30"/>
   <tile gid="30"/>
   <tile gid="30"/>
   <tile gid="30"/>
   <tile gid="30"/>
   <tile gid="30"/>
   <tile gid="30"/>
   <tile gid="30"/>
   <tile gid="30"/>
   <tile gid="30"/>
   <tile gid="30"/>
   <tile gid="30"/>
   <tile gid="30"/>
   <tile gid="30"/>
   <tile gid="30"/>
   <tile gid="30"/>
   <tile gid="30"/>
   <tile gid="34"/>
   <tile gid="34"/>
   <tile gid="34"/>
   <tile gid="30"/>
   <tile gid="30"/>
   <tile gid="30"/>
   <tile gid="30"/>
   <tile gid="30"/>
   <tile gid="30"/>
   <tile gid="30"/>
   <tile gid="30"/>
   <tile gid="30"/>
   <tile gid="30"/>
   <tile gid="30"/>
   <tile gid="30"/>
   <tile gid="30"/>
   <tile gid="30"/>
   <tile gid="30"/>
   <tile gid="30"/>
   <tile gid="30"/>
   <tile gid="30"/>
   <tile gid="34"/>
   <tile gid="34"/>
   <tile gid="34"/>
   <tile gid="30"/>
   <tile gid="30"/>
   <tile gid="30"/>
   <tile gid="30"/>
   <tile gid="30"/>
   <tile gid="30"/>
   <tile gid="30"/>
   <tile gid="30"/>
   <tile gid="30"/>
   <tile gid="30"/>
   <tile gid="30"/>
   <tile gid="30"/>
   <tile gid="30"/>
   <tile gid="30"/>
   <tile gid="30"/>
   <tile gid="30"/>
   <tile gid="30"/>
   <tile gid="30"/>
   <tile gid="30"/>
   <tile gid="34"/>
   <tile gid="34"/>
   <tile gid="34"/>
   <tile gid="34"/>
   <tile gid="34"/>
   <tile gid="34"/>
   <tile gid="30"/>
   <tile gid="30"/>
   <tile gid="30"/>
   <tile gid="30"/>
   <tile gid="30"/>
   <tile gid="30"/>
   <tile gid="30"/>
   <tile gid="30"/>
   <tile gid="30"/>
   <tile gid="30"/>
   <tile gid="30"/>
   <tile gid="30"/>
   <tile gid="30"/>
   <tile gid="30"/>
   <tile gid="30"/>
   <tile gid="30"/>
   <tile gid="30"/>
   <tile gid="30"/>
   <tile gid="30"/>
   <tile gid="30"/>
   <tile gid="30"/>
   <tile gid="30"/>
   <tile gid="30"/>
   <tile gid="30"/>
   <tile gid="30"/>
   <tile gid="30"/>
   <tile gid="30"/>
   <tile gid="30"/>
   <tile gid="30"/>
   <tile gid="30"/>
   <tile gid="30"/>
   <tile gid="30"/>
   <tile gid="30"/>
   <tile gid="30"/>
   <tile gid="30"/>
   <tile gid="30"/>
   <tile gid="30"/>
   <tile gid="30"/>
   <tile gid="30"/>
   <tile gid="30"/>
   <tile gid="30"/>
   <tile gid="30"/>
   <tile gid="30"/>
   <tile gid="30"/>
   <tile gid="30"/>
   <tile gid="30"/>
   <tile gid="30"/>
   <tile gid="30"/>
   <tile gid="30"/>
   <tile gid="30"/>
   <tile gid="30"/>
   <tile gid="30"/>
   <tile gid="30"/>
   <tile gid="30"/>
   <tile gid="30"/>
   <tile gid="30"/>
   <tile gid="30"/>
   <tile gid="30"/>
   <tile gid="30"/>
   <tile gid="30"/>
   <tile gid="30"/>
   <tile gid="30"/>
   <tile gid="30"/>
   <tile gid="30"/>
   <tile gid="30"/>
   <tile gid="30"/>
   <tile gid="30"/>
   <tile gid="30"/>
   <tile gid="30"/>
   <tile gid="30"/>
   <tile gid="30"/>
   <tile gid="30"/>
   <tile gid="30"/>
   <tile gid="30"/>
   <tile gid="30"/>
   <tile gid="30"/>
   <tile gid="34"/>
   <tile gid="34"/>
   <tile gid="34"/>
   <tile gid="30"/>
   <tile gid="30"/>
   <tile gid="30"/>
   <tile gid="30"/>
   <tile gid="30"/>
   <tile gid="30"/>
   <tile gid="30"/>
   <tile gid="30"/>
   <tile gid="30"/>
   <tile gid="30"/>
   <tile gid="30"/>
   <tile gid="30"/>
   <tile gid="30"/>
   <tile gid="30"/>
   <tile gid="30"/>
   <tile gid="30"/>
   <tile gid="30"/>
   <tile gid="30"/>
   <tile gid="34"/>
   <tile gid="34"/>
   <tile gid="34"/>
   <tile gid="30"/>
   <tile gid="30"/>
   <tile gid="30"/>
   <tile gid="30"/>
   <tile gid="30"/>
   <tile gid="30"/>
   <tile gid="30"/>
   <tile gid="30"/>
   <tile gid="30"/>
   <tile gid="30"/>
   <tile gid="30"/>
   <tile gid="30"/>
   <tile gid="30"/>
   <tile gid="30"/>
   <tile gid="30"/>
   <tile gid="30"/>
   <tile gid="30"/>
   <tile gid="30"/>
   <tile gid="30"/>
   <tile gid="34"/>
   <tile gid="34"/>
   <tile gid="34"/>
   <tile gid="34"/>
   <tile gid="34"/>
   <tile gid="34"/>
   <tile gid="30"/>
   <tile gid="30"/>
   <tile gid="30"/>
   <tile gid="30"/>
   <tile gid="30"/>
   <tile gid="30"/>
   <tile gid="30"/>
   <tile gid="30"/>
   <tile gid="30"/>
   <tile gid="30"/>
   <tile gid="30"/>
   <tile gid="30"/>
   <tile gid="30"/>
   <tile gid="30"/>
   <tile gid="30"/>
   <tile gid="30"/>
   <tile gid="30"/>
   <tile gid="30"/>
   <tile gid="30"/>
   <tile gid="30"/>
   <tile gid="30"/>
   <tile gid="30"/>
   <tile gid="30"/>
   <tile gid="30"/>
   <tile gid="30"/>
   <tile gid="30"/>
   <tile gid="30"/>
   <tile gid="30"/>
   <tile gid="30"/>
   <tile gid="30"/>
   <tile gid="30"/>
   <tile gid="30"/>
   <tile gid="30"/>
   <tile gid="30"/>
   <tile gid="34"/>
   <tile gid="34"/>
   <tile gid="34"/>
   <tile gid="30"/>
   <tile gid="30"/>
   <tile gid="30"/>
   <tile gid="30"/>
   <tile gid="30"/>
   <tile gid="30"/>
   <tile gid="30"/>
   <tile gid="30"/>
   <tile gid="30"/>
   <tile gid="30"/>
   <tile gid="30"/>
   <tile gid="30"/>
   <tile gid="30"/>
   <tile gid="30"/>
   <tile gid="30"/>
   <tile gid="30"/>
   <tile gid="30"/>
   <tile gid="30"/>
   <tile gid="30"/>
   <tile gid="30"/>
   <tile gid="30"/>
   <tile gid="30"/>
   <tile gid="30"/>
   <tile gid="30"/>
   <tile gid="30"/>
   <tile gid="30"/>
   <tile gid="30"/>
   <tile gid="30"/>
   <tile gid="30"/>
   <tile gid="30"/>
   <tile gid="30"/>
   <tile gid="30"/>
   <tile gid="30"/>
   <tile gid="30"/>
   <tile gid="30"/>
   <tile gid="30"/>
   <tile gid="30"/>
   <tile gid="30"/>
   <tile gid="30"/>
   <tile gid="34"/>
   <tile gid="34"/>
   <tile gid="34"/>
   <tile gid="30"/>
   <tile gid="30"/>
   <tile gid="30"/>
   <tile gid="30"/>
   <tile gid="30"/>
   <tile gid="30"/>
   <tile gid="30"/>
   <tile gid="30"/>
   <tile gid="30"/>
   <tile gid="30"/>
   <tile gid="30"/>
   <tile gid="30"/>
   <tile gid="30"/>
   <tile gid="30"/>
   <tile gid="30"/>
   <tile gid="30"/>
   <tile gid="30"/>
   <tile gid="30"/>
   <tile gid="34"/>
   <tile gid="34"/>
   <tile gid="34"/>
   <tile gid="30"/>
   <tile gid="30"/>
   <tile gid="30"/>
   <tile gid="30"/>
   <tile gid="30"/>
   <tile gid="30"/>
   <tile gid="30"/>
   <tile gid="30"/>
   <tile gid="30"/>
   <tile gid="30"/>
   <tile gid="30"/>
   <tile gid="30"/>
   <tile gid="30"/>
   <tile gid="30"/>
   <tile gid="30"/>
   <tile gid="30"/>
   <tile gid="30"/>
   <tile gid="30"/>
   <tile gid="30"/>
   <tile gid="34"/>
   <tile gid="34"/>
   <tile gid="34"/>
   <tile gid="34"/>
   <tile gid="34"/>
   <tile gid="34"/>
   <tile gid="30"/>
   <tile gid="30"/>
   <tile gid="30"/>
   <tile gid="30"/>
   <tile gid="30"/>
   <tile gid="30"/>
   <tile gid="30"/>
   <tile gid="30"/>
   <tile gid="30"/>
   <tile gid="30"/>
   <tile gid="30"/>
   <tile gid="30"/>
   <tile gid="30"/>
   <tile gid="30"/>
   <tile gid="30"/>
   <tile gid="30"/>
   <tile gid="30"/>
   <tile gid="30"/>
   <tile gid="30"/>
   <tile gid="30"/>
   <tile gid="30"/>
   <tile gid="30"/>
   <tile gid="30"/>
   <tile gid="30"/>
   <tile gid="30"/>
   <tile gid="30"/>
   <tile gid="30"/>
   <tile gid="30"/>
   <tile gid="30"/>
   <tile gid="30"/>
   <tile gid="30"/>
   <tile gid="30"/>
   <tile gid="30"/>
   <tile gid="30"/>
   <tile gid="34"/>
   <tile gid="34"/>
   <tile gid="34"/>
   <tile gid="30"/>
   <tile gid="30"/>
   <tile gid="30"/>
   <tile gid="30"/>
   <tile gid="30"/>
   <tile gid="30"/>
   <tile gid="30"/>
   <tile gid="30"/>
   <tile gid="30"/>
   <tile gid="30"/>
   <tile gid="30"/>
   <tile gid="30"/>
   <tile gid="30"/>
   <tile gid="30"/>
   <tile gid="30"/>
   <tile gid="30"/>
   <tile gid="30"/>
   <tile gid="30"/>
   <tile gid="30"/>
   <tile gid="30"/>
   <tile gid="30"/>
   <tile gid="30"/>
   <tile gid="30"/>
   <tile gid="30"/>
   <tile gid="30"/>
   <tile gid="30"/>
   <tile gid="30"/>
   <tile gid="30"/>
   <tile gid="30"/>
   <tile gid="30"/>
   <tile gid="30"/>
   <tile gid="30"/>
   <tile gid="30"/>
   <tile gid="30"/>
   <tile gid="30"/>
   <tile gid="30"/>
   <tile gid="30"/>
   <tile gid="30"/>
   <tile gid="30"/>
   <tile gid="34"/>
   <tile gid="34"/>
   <tile gid="34"/>
   <tile gid="30"/>
   <tile gid="30"/>
   <tile gid="30"/>
   <tile gid="30"/>
   <tile gid="30"/>
   <tile gid="30"/>
   <tile gid="30"/>
   <tile gid="30"/>
   <tile gid="30"/>
   <tile gid="30"/>
   <tile gid="30"/>
   <tile gid="30"/>
   <tile gid="30"/>
   <tile gid="30"/>
   <tile gid="30"/>
   <tile gid="30"/>
   <tile gid="30"/>
   <tile gid="30"/>
   <tile gid="34"/>
   <tile gid="34"/>
   <tile gid="34"/>
   <tile gid="30"/>
   <tile gid="30"/>
   <tile gid="30"/>
   <tile gid="30"/>
   <tile gid="30"/>
   <tile gid="30"/>
   <tile gid="30"/>
   <tile gid="30"/>
   <tile gid="30"/>
   <tile gid="30"/>
   <tile gid="30"/>
   <tile gid="30"/>
   <tile gid="30"/>
   <tile gid="30"/>
   <tile gid="30"/>
   <tile gid="30"/>
   <tile gid="30"/>
   <tile gid="30"/>
   <tile gid="30"/>
   <tile gid="34"/>
   <tile gid="34"/>
   <tile gid="34"/>
   <tile gid="34"/>
   <tile gid="34"/>
   <tile gid="34"/>
   <tile gid="30"/>
   <tile gid="30"/>
   <tile gid="30"/>
   <tile gid="30"/>
   <tile gid="30"/>
   <tile gid="30"/>
   <tile gid="30"/>
   <tile gid="30"/>
   <tile gid="30"/>
   <tile gid="30"/>
   <tile gid="30"/>
   <tile gid="30"/>
   <tile gid="30"/>
   <tile gid="30"/>
   <tile gid="30"/>
   <tile gid="30"/>
   <tile gid="30"/>
   <tile gid="30"/>
   <tile gid="30"/>
   <tile gid="30"/>
   <tile gid="30"/>
   <tile gid="30"/>
   <tile gid="30"/>
   <tile gid="30"/>
   <tile gid="30"/>
   <tile gid="30"/>
   <tile gid="30"/>
   <tile gid="30"/>
   <tile gid="30"/>
   <tile gid="30"/>
   <tile gid="30"/>
   <tile gid="30"/>
   <tile gid="30"/>
   <tile gid="30"/>
   <tile gid="34"/>
   <tile gid="34"/>
   <tile gid="34"/>
   <tile gid="30"/>
   <tile gid="30"/>
   <tile gid="30"/>
   <tile gid="30"/>
   <tile gid="30"/>
   <tile gid="30"/>
   <tile gid="30"/>
   <tile gid="30"/>
   <tile gid="30"/>
   <tile gid="30"/>
   <tile gid="30"/>
   <tile gid="30"/>
   <tile gid="30"/>
   <tile gid="30"/>
   <tile gid="30"/>
   <tile gid="30"/>
   <tile gid="30"/>
   <tile gid="30"/>
   <tile gid="30"/>
   <tile gid="30"/>
   <tile gid="30"/>
   <tile gid="30"/>
   <tile gid="30"/>
   <tile gid="30"/>
   <tile gid="30"/>
   <tile gid="30"/>
   <tile gid="30"/>
   <tile gid="30"/>
   <tile gid="30"/>
   <tile gid="30"/>
   <tile gid="30"/>
   <tile gid="30"/>
   <tile gid="30"/>
   <tile gid="30"/>
   <tile gid="30"/>
   <tile gid="30"/>
   <tile gid="30"/>
   <tile gid="30"/>
   <tile gid="30"/>
   <tile gid="34"/>
   <tile gid="34"/>
   <tile gid="34"/>
   <tile gid="30"/>
   <tile gid="30"/>
   <tile gid="30"/>
   <tile gid="30"/>
   <tile gid="30"/>
   <tile gid="30"/>
   <tile gid="30"/>
   <tile gid="30"/>
   <tile gid="30"/>
   <tile gid="30"/>
   <tile gid="30"/>
   <tile gid="30"/>
   <tile gid="30"/>
   <tile gid="30"/>
   <tile gid="30"/>
   <tile gid="30"/>
   <tile gid="30"/>
   <tile gid="30"/>
   <tile gid="34"/>
   <tile gid="34"/>
   <tile gid="34"/>
   <tile gid="30"/>
   <tile gid="30"/>
   <tile gid="30"/>
   <tile gid="30"/>
   <tile gid="30"/>
   <tile gid="30"/>
   <tile gid="30"/>
   <tile gid="30"/>
   <tile gid="30"/>
   <tile gid="30"/>
   <tile gid="30"/>
   <tile gid="30"/>
   <tile gid="30"/>
   <tile gid="30"/>
   <tile gid="30"/>
   <tile gid="30"/>
   <tile gid="30"/>
   <tile gid="30"/>
   <tile gid="30"/>
   <tile gid="34"/>
   <tile gid="34"/>
   <tile gid="34"/>
   <tile gid="34"/>
   <tile gid="34"/>
   <tile gid="34"/>
   <tile gid="30"/>
   <tile gid="30"/>
   <tile gid="30"/>
   <tile gid="30"/>
   <tile gid="30"/>
   <tile gid="30"/>
   <tile gid="30"/>
   <tile gid="30"/>
   <tile gid="30"/>
   <tile gid="30"/>
   <tile gid="30"/>
   <tile gid="30"/>
   <tile gid="30"/>
   <tile gid="30"/>
   <tile gid="30"/>
   <tile gid="30"/>
   <tile gid="30"/>
   <tile gid="30"/>
   <tile gid="30"/>
   <tile gid="30"/>
   <tile gid="30"/>
   <tile gid="30"/>
   <tile gid="30"/>
   <tile gid="30"/>
   <tile gid="30"/>
   <tile gid="30"/>
   <tile gid="30"/>
   <tile gid="30"/>
   <tile gid="30"/>
   <tile gid="30"/>
   <tile gid="30"/>
   <tile gid="30"/>
   <tile gid="30"/>
   <tile gid="30"/>
   <tile gid="34"/>
   <tile gid="34"/>
   <tile gid="34"/>
   <tile gid="34"/>
   <tile gid="34"/>
   <tile gid="34"/>
   <tile gid="34"/>
   <tile gid="34"/>
   <tile gid="34"/>
   <tile gid="34"/>
   <tile gid="34"/>
   <tile gid="34"/>
   <tile gid="34"/>
   <tile gid="34"/>
   <tile gid="34"/>
   <tile gid="34"/>
   <tile gid="34"/>
   <tile gid="34"/>
   <tile gid="34"/>
   <tile gid="34"/>
   <tile gid="34"/>
   <tile gid="34"/>
   <tile gid="34"/>
   <tile gid="34"/>
   <tile gid="34"/>
   <tile gid="34"/>
   <tile gid="34"/>
   <tile gid="34"/>
   <tile gid="34"/>
   <tile gid="34"/>
   <tile gid="34"/>
   <tile gid="34"/>
   <tile gid="34"/>
   <tile gid="34"/>
   <tile gid="34"/>
   <tile gid="34"/>
   <tile gid="34"/>
   <tile gid="34"/>
   <tile gid="34"/>
   <tile gid="34"/>
   <tile gid="34"/>
   <tile gid="34"/>
   <tile gid="34"/>
   <tile gid="34"/>
   <tile gid="34"/>
   <tile gid="30"/>
   <tile gid="30"/>
   <tile gid="30"/>
   <tile gid="30"/>
   <tile gid="30"/>
   <tile gid="30"/>
   <tile gid="30"/>
   <tile gid="30"/>
   <tile gid="30"/>
   <tile gid="30"/>
   <tile gid="30"/>
   <tile gid="30"/>
   <tile gid="30"/>
   <tile gid="30"/>
   <tile gid="30"/>
   <tile gid="30"/>
   <tile gid="30"/>
   <tile gid="30"/>
   <tile gid="34"/>
   <tile gid="34"/>
   <tile gid="34"/>
   <tile gid="30"/>
   <tile gid="30"/>
   <tile gid="30"/>
   <tile gid="30"/>
   <tile gid="30"/>
   <tile gid="30"/>
   <tile gid="30"/>
   <tile gid="30"/>
   <tile gid="30"/>
   <tile gid="30"/>
   <tile gid="30"/>
   <tile gid="30"/>
   <tile gid="30"/>
   <tile gid="30"/>
   <tile gid="30"/>
   <tile gid="30"/>
   <tile gid="30"/>
   <tile gid="30"/>
   <tile gid="30"/>
   <tile gid="34"/>
   <tile gid="34"/>
   <tile gid="34"/>
   <tile gid="34"/>
   <tile gid="34"/>
   <tile gid="34"/>
   <tile gid="30"/>
   <tile gid="30"/>
   <tile gid="30"/>
   <tile gid="30"/>
   <tile gid="30"/>
   <tile gid="30"/>
   <tile gid="30"/>
   <tile gid="30"/>
   <tile gid="30"/>
   <tile gid="30"/>
   <tile gid="30"/>
   <tile gid="30"/>
   <tile gid="30"/>
   <tile gid="30"/>
   <tile gid="30"/>
   <tile gid="30"/>
   <tile gid="30"/>
   <tile gid="30"/>
   <tile gid="30"/>
   <tile gid="30"/>
   <tile gid="30"/>
   <tile gid="30"/>
   <tile gid="30"/>
   <tile gid="30"/>
   <tile gid="30"/>
   <tile gid="30"/>
   <tile gid="30"/>
   <tile gid="30"/>
   <tile gid="30"/>
   <tile gid="30"/>
   <tile gid="30"/>
   <tile gid="30"/>
   <tile gid="30"/>
   <tile gid="30"/>
   <tile gid="34"/>
   <tile gid="34"/>
   <tile gid="34"/>
   <tile gid="34"/>
   <tile gid="34"/>
   <tile gid="34"/>
   <tile gid="34"/>
   <tile gid="34"/>
   <tile gid="34"/>
   <tile gid="34"/>
   <tile gid="34"/>
   <tile gid="34"/>
   <tile gid="34"/>
   <tile gid="34"/>
   <tile gid="34"/>
   <tile gid="34"/>
   <tile gid="34"/>
   <tile gid="34"/>
   <tile gid="34"/>
   <tile gid="34"/>
   <tile gid="34"/>
   <tile gid="34"/>
   <tile gid="34"/>
   <tile gid="34"/>
   <tile gid="34"/>
   <tile gid="34"/>
   <tile gid="34"/>
   <tile gid="34"/>
   <tile gid="34"/>
   <tile gid="34"/>
   <tile gid="34"/>
   <tile gid="34"/>
   <tile gid="34"/>
   <tile gid="34"/>
   <tile gid="34"/>
   <tile gid="34"/>
   <tile gid="34"/>
   <tile gid="34"/>
   <tile gid="34"/>
   <tile gid="34"/>
   <tile gid="34"/>
   <tile gid="34"/>
   <tile gid="34"/>
   <tile gid="34"/>
   <tile gid="34"/>
   <tile gid="30"/>
   <tile gid="30"/>
   <tile gid="30"/>
   <tile gid="30"/>
   <tile gid="30"/>
   <tile gid="30"/>
   <tile gid="30"/>
   <tile gid="30"/>
   <tile gid="30"/>
   <tile gid="30"/>
   <tile gid="30"/>
   <tile gid="30"/>
   <tile gid="30"/>
   <tile gid="30"/>
   <tile gid="30"/>
   <tile gid="30"/>
   <tile gid="30"/>
   <tile gid="30"/>
   <tile gid="34"/>
   <tile gid="34"/>
   <tile gid="34"/>
   <tile gid="30"/>
   <tile gid="30"/>
   <tile gid="30"/>
   <tile gid="30"/>
   <tile gid="30"/>
   <tile gid="30"/>
   <tile gid="30"/>
   <tile gid="30"/>
   <tile gid="30"/>
   <tile gid="30"/>
   <tile gid="30"/>
   <tile gid="30"/>
   <tile gid="30"/>
   <tile gid="30"/>
   <tile gid="30"/>
   <tile gid="30"/>
   <tile gid="30"/>
   <tile gid="30"/>
   <tile gid="30"/>
   <tile gid="34"/>
   <tile gid="34"/>
   <tile gid="34"/>
   <tile gid="34"/>
   <tile gid="34"/>
   <tile gid="34"/>
   <tile gid="30"/>
   <tile gid="30"/>
   <tile gid="30"/>
   <tile gid="30"/>
   <tile gid="30"/>
   <tile gid="30"/>
   <tile gid="30"/>
   <tile gid="30"/>
   <tile gid="30"/>
   <tile gid="30"/>
   <tile gid="30"/>
   <tile gid="30"/>
   <tile gid="30"/>
   <tile gid="30"/>
   <tile gid="30"/>
   <tile gid="30"/>
   <tile gid="30"/>
   <tile gid="30"/>
   <tile gid="30"/>
   <tile gid="30"/>
   <tile gid="30"/>
   <tile gid="30"/>
   <tile gid="30"/>
   <tile gid="30"/>
   <tile gid="30"/>
   <tile gid="30"/>
   <tile gid="30"/>
   <tile gid="30"/>
   <tile gid="30"/>
   <tile gid="30"/>
   <tile gid="30"/>
   <tile gid="30"/>
   <tile gid="30"/>
   <tile gid="30"/>
   <tile gid="34"/>
   <tile gid="34"/>
   <tile gid="34"/>
   <tile gid="34"/>
   <tile gid="34"/>
   <tile gid="34"/>
   <tile gid="34"/>
   <tile gid="34"/>
   <tile gid="34"/>
   <tile gid="34"/>
   <tile gid="34"/>
   <tile gid="34"/>
   <tile gid="34"/>
   <tile gid="34"/>
   <tile gid="34"/>
   <tile gid="34"/>
   <tile gid="34"/>
   <tile gid="34"/>
   <tile gid="34"/>
   <tile gid="34"/>
   <tile gid="34"/>
   <tile gid="34"/>
   <tile gid="34"/>
   <tile gid="34"/>
   <tile gid="34"/>
   <tile gid="34"/>
   <tile gid="34"/>
   <tile gid="34"/>
   <tile gid="34"/>
   <tile gid="34"/>
   <tile gid="34"/>
   <tile gid="34"/>
   <tile gid="34"/>
   <tile gid="34"/>
   <tile gid="34"/>
   <tile gid="34"/>
   <tile gid="34"/>
   <tile gid="34"/>
   <tile gid="34"/>
   <tile gid="34"/>
   <tile gid="34"/>
   <tile gid="34"/>
   <tile gid="34"/>
   <tile gid="34"/>
   <tile gid="34"/>
   <tile gid="30"/>
   <tile gid="30"/>
   <tile gid="30"/>
   <tile gid="30"/>
   <tile gid="30"/>
   <tile gid="30"/>
   <tile gid="30"/>
   <tile gid="30"/>
   <tile gid="30"/>
   <tile gid="30"/>
   <tile gid="30"/>
   <tile gid="30"/>
   <tile gid="30"/>
   <tile gid="30"/>
   <tile gid="30"/>
   <tile gid="30"/>
   <tile gid="30"/>
   <tile gid="30"/>
   <tile gid="34"/>
   <tile gid="34"/>
   <tile gid="34"/>
   <tile gid="30"/>
   <tile gid="30"/>
   <tile gid="30"/>
   <tile gid="30"/>
   <tile gid="30"/>
   <tile gid="30"/>
   <tile gid="30"/>
   <tile gid="30"/>
   <tile gid="30"/>
   <tile gid="30"/>
   <tile gid="30"/>
   <tile gid="30"/>
   <tile gid="30"/>
   <tile gid="30"/>
   <tile gid="30"/>
   <tile gid="30"/>
   <tile gid="30"/>
   <tile gid="30"/>
   <tile gid="30"/>
   <tile gid="34"/>
   <tile gid="34"/>
   <tile gid="34"/>
   <tile gid="34"/>
   <tile gid="34"/>
   <tile gid="34"/>
   <tile gid="30"/>
   <tile gid="30"/>
   <tile gid="30"/>
   <tile gid="30"/>
   <tile gid="30"/>
   <tile gid="30"/>
   <tile gid="30"/>
   <tile gid="30"/>
   <tile gid="30"/>
   <tile gid="30"/>
   <tile gid="30"/>
   <tile gid="30"/>
   <tile gid="30"/>
   <tile gid="30"/>
   <tile gid="30"/>
   <tile gid="30"/>
   <tile gid="30"/>
   <tile gid="30"/>
   <tile gid="30"/>
   <tile gid="30"/>
   <tile gid="30"/>
   <tile gid="30"/>
   <tile gid="30"/>
   <tile gid="30"/>
   <tile gid="30"/>
   <tile gid="30"/>
   <tile gid="30"/>
   <tile gid="30"/>
   <tile gid="30"/>
   <tile gid="30"/>
   <tile gid="30"/>
   <tile gid="30"/>
   <tile gid="30"/>
   <tile gid="30"/>
   <tile gid="34"/>
   <tile gid="34"/>
   <tile gid="34"/>
   <tile gid="30"/>
   <tile gid="30"/>
   <tile gid="30"/>
   <tile gid="30"/>
   <tile gid="30"/>
   <tile gid="30"/>
   <tile gid="30"/>
   <tile gid="30"/>
   <tile gid="30"/>
   <tile gid="30"/>
   <tile gid="30"/>
   <tile gid="30"/>
   <tile gid="30"/>
   <tile gid="30"/>
   <tile gid="30"/>
   <tile gid="30"/>
   <tile gid="30"/>
   <tile gid="30"/>
   <tile gid="30"/>
   <tile gid="30"/>
   <tile gid="30"/>
   <tile gid="30"/>
   <tile gid="30"/>
   <tile gid="30"/>
   <tile gid="30"/>
   <tile gid="30"/>
   <tile gid="30"/>
   <tile gid="30"/>
   <tile gid="30"/>
   <tile gid="30"/>
   <tile gid="30"/>
   <tile gid="30"/>
   <tile gid="30"/>
   <tile gid="30"/>
   <tile gid="30"/>
   <tile gid="30"/>
   <tile gid="30"/>
   <tile gid="30"/>
   <tile gid="30"/>
   <tile gid="34"/>
   <tile gid="34"/>
   <tile gid="34"/>
   <tile gid="30"/>
   <tile gid="30"/>
   <tile gid="30"/>
   <tile gid="30"/>
   <tile gid="30"/>
   <tile gid="30"/>
   <tile gid="30"/>
   <tile gid="30"/>
   <tile gid="30"/>
   <tile gid="30"/>
   <tile gid="30"/>
   <tile gid="30"/>
   <tile gid="30"/>
   <tile gid="30"/>
   <tile gid="30"/>
   <tile gid="30"/>
   <tile gid="30"/>
   <tile gid="30"/>
   <tile gid="34"/>
   <tile gid="34"/>
   <tile gid="34"/>
   <tile gid="30"/>
   <tile gid="30"/>
   <tile gid="30"/>
   <tile gid="30"/>
   <tile gid="30"/>
   <tile gid="30"/>
   <tile gid="30"/>
   <tile gid="30"/>
   <tile gid="30"/>
   <tile gid="30"/>
   <tile gid="30"/>
   <tile gid="30"/>
   <tile gid="30"/>
   <tile gid="30"/>
   <tile gid="30"/>
   <tile gid="30"/>
   <tile gid="30"/>
   <tile gid="30"/>
   <tile gid="30"/>
   <tile gid="34"/>
   <tile gid="34"/>
   <tile gid="34"/>
   <tile gid="34"/>
   <tile gid="34"/>
   <tile gid="34"/>
   <tile gid="30"/>
   <tile gid="30"/>
   <tile gid="30"/>
   <tile gid="30"/>
   <tile gid="30"/>
   <tile gid="30"/>
   <tile gid="30"/>
   <tile gid="30"/>
   <tile gid="30"/>
   <tile gid="30"/>
   <tile gid="30"/>
   <tile gid="30"/>
   <tile gid="30"/>
   <tile gid="30"/>
   <tile gid="30"/>
   <tile gid="30"/>
   <tile gid="30"/>
   <tile gid="30"/>
   <tile gid="30"/>
   <tile gid="30"/>
   <tile gid="30"/>
   <tile gid="30"/>
   <tile gid="30"/>
   <tile gid="30"/>
   <tile gid="30"/>
   <tile gid="30"/>
   <tile gid="30"/>
   <tile gid="30"/>
   <tile gid="30"/>
   <tile gid="30"/>
   <tile gid="30"/>
   <tile gid="30"/>
   <tile gid="30"/>
   <tile gid="30"/>
   <tile gid="34"/>
   <tile gid="34"/>
   <tile gid="34"/>
   <tile gid="30"/>
   <tile gid="30"/>
   <tile gid="30"/>
   <tile gid="30"/>
   <tile gid="30"/>
   <tile gid="30"/>
   <tile gid="30"/>
   <tile gid="30"/>
   <tile gid="30"/>
   <tile gid="30"/>
   <tile gid="30"/>
   <tile gid="30"/>
   <tile gid="30"/>
   <tile gid="30"/>
   <tile gid="30"/>
   <tile gid="30"/>
   <tile gid="30"/>
   <tile gid="30"/>
   <tile gid="30"/>
   <tile gid="30"/>
   <tile gid="30"/>
   <tile gid="30"/>
   <tile gid="30"/>
   <tile gid="30"/>
   <tile gid="30"/>
   <tile gid="30"/>
   <tile gid="30"/>
   <tile gid="30"/>
   <tile gid="30"/>
   <tile gid="30"/>
   <tile gid="30"/>
   <tile gid="30"/>
   <tile gid="30"/>
   <tile gid="30"/>
   <tile gid="30"/>
   <tile gid="30"/>
   <tile gid="30"/>
   <tile gid="30"/>
   <tile gid="30"/>
   <tile gid="34"/>
   <tile gid="34"/>
   <tile gid="34"/>
   <tile gid="30"/>
   <tile gid="30"/>
   <tile gid="30"/>
   <tile gid="30"/>
   <tile gid="30"/>
   <tile gid="30"/>
   <tile gid="30"/>
   <tile gid="30"/>
   <tile gid="30"/>
   <tile gid="30"/>
   <tile gid="30"/>
   <tile gid="30"/>
   <tile gid="30"/>
   <tile gid="30"/>
   <tile gid="30"/>
   <tile gid="30"/>
   <tile gid="30"/>
   <tile gid="30"/>
   <tile gid="34"/>
   <tile gid="34"/>
   <tile gid="34"/>
   <tile gid="30"/>
   <tile gid="30"/>
   <tile gid="30"/>
   <tile gid="30"/>
   <tile gid="30"/>
   <tile gid="30"/>
   <tile gid="30"/>
   <tile gid="30"/>
   <tile gid="30"/>
   <tile gid="30"/>
   <tile gid="30"/>
   <tile gid="30"/>
   <tile gid="30"/>
   <tile gid="30"/>
   <tile gid="30"/>
   <tile gid="30"/>
   <tile gid="30"/>
   <tile gid="30"/>
   <tile gid="30"/>
   <tile gid="34"/>
   <tile gid="34"/>
   <tile gid="34"/>
   <tile gid="34"/>
   <tile gid="34"/>
   <tile gid="34"/>
   <tile gid="30"/>
   <tile gid="30"/>
   <tile gid="30"/>
   <tile gid="30"/>
   <tile gid="30"/>
   <tile gid="30"/>
   <tile gid="30"/>
   <tile gid="30"/>
   <tile gid="30"/>
   <tile gid="30"/>
   <tile gid="30"/>
   <tile gid="30"/>
   <tile gid="30"/>
   <tile gid="30"/>
   <tile gid="30"/>
   <tile gid="30"/>
   <tile gid="30"/>
   <tile gid="30"/>
   <tile gid="30"/>
   <tile gid="30"/>
   <tile gid="30"/>
   <tile gid="30"/>
   <tile gid="30"/>
   <tile gid="30"/>
   <tile gid="30"/>
   <tile gid="30"/>
   <tile gid="30"/>
   <tile gid="30"/>
   <tile gid="30"/>
   <tile gid="30"/>
   <tile gid="30"/>
   <tile gid="30"/>
   <tile gid="30"/>
   <tile gid="30"/>
   <tile gid="34"/>
   <tile gid="34"/>
   <tile gid="34"/>
   <tile gid="30"/>
   <tile gid="30"/>
   <tile gid="30"/>
   <tile gid="30"/>
   <tile gid="30"/>
   <tile gid="30"/>
   <tile gid="30"/>
   <tile gid="30"/>
   <tile gid="30"/>
   <tile gid="30"/>
   <tile gid="30"/>
   <tile gid="30"/>
   <tile gid="30"/>
   <tile gid="30"/>
   <tile gid="30"/>
   <tile gid="30"/>
   <tile gid="30"/>
   <tile gid="30"/>
   <tile gid="30"/>
   <tile gid="30"/>
   <tile gid="30"/>
   <tile gid="30"/>
   <tile gid="30"/>
   <tile gid="30"/>
   <tile gid="30"/>
   <tile gid="30"/>
   <tile gid="30"/>
   <tile gid="30"/>
   <tile gid="30"/>
   <tile gid="30"/>
   <tile gid="30"/>
   <tile gid="30"/>
   <tile gid="30"/>
   <tile gid="30"/>
   <tile gid="30"/>
   <tile gid="30"/>
   <tile gid="30"/>
   <tile gid="30"/>
   <tile gid="30"/>
   <tile gid="34"/>
   <tile gid="34"/>
   <tile gid="34"/>
   <tile gid="30"/>
   <tile gid="30"/>
   <tile gid="30"/>
   <tile gid="30"/>
   <tile gid="30"/>
   <tile gid="30"/>
   <tile gid="30"/>
   <tile gid="30"/>
   <tile gid="30"/>
   <tile gid="30"/>
   <tile gid="30"/>
   <tile gid="30"/>
   <tile gid="30"/>
   <tile gid="30"/>
   <tile gid="30"/>
   <tile gid="30"/>
   <tile gid="30"/>
   <tile gid="30"/>
   <tile gid="34"/>
   <tile gid="34"/>
   <tile gid="34"/>
   <tile gid="30"/>
   <tile gid="30"/>
   <tile gid="30"/>
   <tile gid="30"/>
   <tile gid="30"/>
   <tile gid="30"/>
   <tile gid="30"/>
   <tile gid="30"/>
   <tile gid="30"/>
   <tile gid="30"/>
   <tile gid="30"/>
   <tile gid="30"/>
   <tile gid="30"/>
   <tile gid="30"/>
   <tile gid="30"/>
   <tile gid="30"/>
   <tile gid="30"/>
   <tile gid="30"/>
   <tile gid="30"/>
   <tile gid="34"/>
   <tile gid="34"/>
   <tile gid="34"/>
   <tile gid="34"/>
   <tile gid="34"/>
   <tile gid="34"/>
   <tile gid="30"/>
   <tile gid="30"/>
   <tile gid="30"/>
   <tile gid="30"/>
   <tile gid="30"/>
   <tile gid="30"/>
   <tile gid="30"/>
   <tile gid="30"/>
   <tile gid="30"/>
   <tile gid="30"/>
   <tile gid="30"/>
   <tile gid="30"/>
   <tile gid="30"/>
   <tile gid="30"/>
   <tile gid="30"/>
   <tile gid="30"/>
   <tile gid="30"/>
   <tile gid="30"/>
   <tile gid="30"/>
   <tile gid="30"/>
   <tile gid="30"/>
   <tile gid="30"/>
   <tile gid="30"/>
   <tile gid="30"/>
   <tile gid="30"/>
   <tile gid="30"/>
   <tile gid="30"/>
   <tile gid="30"/>
   <tile gid="30"/>
   <tile gid="30"/>
   <tile gid="30"/>
   <tile gid="30"/>
   <tile gid="30"/>
   <tile gid="30"/>
   <tile gid="34"/>
   <tile gid="34"/>
   <tile gid="34"/>
   <tile gid="30"/>
   <tile gid="30"/>
   <tile gid="30"/>
   <tile gid="30"/>
   <tile gid="30"/>
   <tile gid="30"/>
   <tile gid="30"/>
   <tile gid="30"/>
   <tile gid="30"/>
   <tile gid="30"/>
   <tile gid="30"/>
   <tile gid="30"/>
   <tile gid="30"/>
   <tile gid="30"/>
   <tile gid="30"/>
   <tile gid="30"/>
   <tile gid="30"/>
   <tile gid="30"/>
   <tile gid="30"/>
   <tile gid="30"/>
   <tile gid="30"/>
   <tile gid="30"/>
   <tile gid="30"/>
   <tile gid="30"/>
   <tile gid="30"/>
   <tile gid="30"/>
   <tile gid="30"/>
   <tile gid="30"/>
   <tile gid="30"/>
   <tile gid="30"/>
   <tile gid="30"/>
   <tile gid="30"/>
   <tile gid="30"/>
   <tile gid="30"/>
   <tile gid="30"/>
   <tile gid="30"/>
   <tile gid="30"/>
   <tile gid="30"/>
   <tile gid="30"/>
   <tile gid="34"/>
   <tile gid="34"/>
   <tile gid="34"/>
   <tile gid="30"/>
   <tile gid="30"/>
   <tile gid="30"/>
   <tile gid="30"/>
   <tile gid="30"/>
   <tile gid="30"/>
   <tile gid="30"/>
   <tile gid="30"/>
   <tile gid="30"/>
   <tile gid="30"/>
   <tile gid="30"/>
   <tile gid="30"/>
   <tile gid="30"/>
   <tile gid="30"/>
   <tile gid="30"/>
   <tile gid="30"/>
   <tile gid="30"/>
   <tile gid="30"/>
   <tile gid="34"/>
   <tile gid="34"/>
   <tile gid="34"/>
   <tile gid="30"/>
   <tile gid="30"/>
   <tile gid="30"/>
   <tile gid="30"/>
   <tile gid="30"/>
   <tile gid="30"/>
   <tile gid="30"/>
   <tile gid="30"/>
   <tile gid="30"/>
   <tile gid="30"/>
   <tile gid="30"/>
   <tile gid="30"/>
   <tile gid="30"/>
   <tile gid="30"/>
   <tile gid="30"/>
   <tile gid="30"/>
   <tile gid="30"/>
   <tile gid="30"/>
   <tile gid="30"/>
   <tile gid="34"/>
   <tile gid="34"/>
   <tile gid="34"/>
   <tile gid="34"/>
   <tile gid="34"/>
   <tile gid="34"/>
   <tile gid="30"/>
   <tile gid="30"/>
   <tile gid="30"/>
   <tile gid="30"/>
   <tile gid="30"/>
   <tile gid="30"/>
   <tile gid="30"/>
   <tile gid="30"/>
   <tile gid="30"/>
   <tile gid="30"/>
   <tile gid="30"/>
   <tile gid="30"/>
   <tile gid="30"/>
   <tile gid="30"/>
   <tile gid="30"/>
   <tile gid="30"/>
   <tile gid="30"/>
   <tile gid="30"/>
   <tile gid="30"/>
   <tile gid="30"/>
   <tile gid="30"/>
   <tile gid="30"/>
   <tile gid="30"/>
   <tile gid="30"/>
   <tile gid="30"/>
   <tile gid="30"/>
   <tile gid="30"/>
   <tile gid="30"/>
   <tile gid="30"/>
   <tile gid="30"/>
   <tile gid="30"/>
   <tile gid="30"/>
   <tile gid="30"/>
   <tile gid="30"/>
   <tile gid="30"/>
   <tile gid="30"/>
   <tile gid="30"/>
   <tile gid="30"/>
   <tile gid="30"/>
   <tile gid="30"/>
   <tile gid="30"/>
   <tile gid="30"/>
   <tile gid="30"/>
   <tile gid="30"/>
   <tile gid="30"/>
   <tile gid="30"/>
   <tile gid="30"/>
   <tile gid="30"/>
   <tile gid="30"/>
   <tile gid="30"/>
   <tile gid="30"/>
   <tile gid="30"/>
   <tile gid="30"/>
   <tile gid="30"/>
   <tile gid="30"/>
   <tile gid="30"/>
   <tile gid="30"/>
   <tile gid="30"/>
   <tile gid="30"/>
   <tile gid="30"/>
   <tile gid="30"/>
   <tile gid="30"/>
   <tile gid="30"/>
   <tile gid="30"/>
   <tile gid="30"/>
   <tile gid="30"/>
   <tile gid="30"/>
   <tile gid="30"/>
   <tile gid="30"/>
   <tile gid="30"/>
   <tile gid="30"/>
   <tile gid="30"/>
   <tile gid="30"/>
   <tile gid="30"/>
   <tile gid="30"/>
   <tile gid="30"/>
   <tile gid="34"/>
   <tile gid="34"/>
   <tile gid="34"/>
   <tile gid="30"/>
   <tile gid="30"/>
   <tile gid="30"/>
   <tile gid="30"/>
   <tile gid="30"/>
   <tile gid="30"/>
   <tile gid="30"/>
   <tile gid="30"/>
   <tile gid="30"/>
   <tile gid="30"/>
   <tile gid="30"/>
   <tile gid="30"/>
   <tile gid="30"/>
   <tile gid="30"/>
   <tile gid="30"/>
   <tile gid="30"/>
   <tile gid="30"/>
   <tile gid="30"/>
   <tile gid="34"/>
   <tile gid="34"/>
   <tile gid="34"/>
   <tile gid="30"/>
   <tile gid="30"/>
   <tile gid="30"/>
   <tile gid="30"/>
   <tile gid="30"/>
   <tile gid="30"/>
   <tile gid="30"/>
   <tile gid="30"/>
   <tile gid="30"/>
   <tile gid="30"/>
   <tile gid="30"/>
   <tile gid="30"/>
   <tile gid="30"/>
   <tile gid="30"/>
   <tile gid="30"/>
   <tile gid="30"/>
   <tile gid="30"/>
   <tile gid="30"/>
   <tile gid="30"/>
   <tile gid="34"/>
   <tile gid="34"/>
   <tile gid="34"/>
   <tile gid="34"/>
   <tile gid="34"/>
   <tile gid="34"/>
   <tile gid="30"/>
   <tile gid="30"/>
   <tile gid="30"/>
   <tile gid="30"/>
   <tile gid="30"/>
   <tile gid="30"/>
   <tile gid="30"/>
   <tile gid="30"/>
   <tile gid="30"/>
   <tile gid="30"/>
   <tile gid="30"/>
   <tile gid="30"/>
   <tile gid="30"/>
   <tile gid="30"/>
   <tile gid="30"/>
   <tile gid="30"/>
   <tile gid="30"/>
   <tile gid="30"/>
   <tile gid="30"/>
   <tile gid="30"/>
   <tile gid="30"/>
   <tile gid="30"/>
   <tile gid="30"/>
   <tile gid="30"/>
   <tile gid="30"/>
   <tile gid="30"/>
   <tile gid="30"/>
   <tile gid="30"/>
   <tile gid="30"/>
   <tile gid="30"/>
   <tile gid="30"/>
   <tile gid="30"/>
   <tile gid="30"/>
   <tile gid="30"/>
   <tile gid="30"/>
   <tile gid="30"/>
   <tile gid="30"/>
   <tile gid="30"/>
   <tile gid="30"/>
   <tile gid="30"/>
   <tile gid="30"/>
   <tile gid="30"/>
   <tile gid="30"/>
   <tile gid="30"/>
   <tile gid="30"/>
   <tile gid="30"/>
   <tile gid="30"/>
   <tile gid="30"/>
   <tile gid="30"/>
   <tile gid="30"/>
   <tile gid="30"/>
   <tile gid="30"/>
   <tile gid="30"/>
   <tile gid="30"/>
   <tile gid="30"/>
   <tile gid="30"/>
   <tile gid="30"/>
   <tile gid="30"/>
   <tile gid="30"/>
   <tile gid="30"/>
   <tile gid="30"/>
   <tile gid="30"/>
   <tile gid="30"/>
   <tile gid="30"/>
   <tile gid="30"/>
   <tile gid="30"/>
   <tile gid="30"/>
   <tile gid="30"/>
   <tile gid="30"/>
   <tile gid="30"/>
   <tile gid="30"/>
   <tile gid="30"/>
   <tile gid="30"/>
   <tile gid="30"/>
   <tile gid="30"/>
   <tile gid="30"/>
   <tile gid="34"/>
   <tile gid="34"/>
   <tile gid="34"/>
   <tile gid="34"/>
   <tile gid="34"/>
   <tile gid="34"/>
   <tile gid="34"/>
   <tile gid="34"/>
   <tile gid="34"/>
   <tile gid="34"/>
   <tile gid="34"/>
   <tile gid="34"/>
   <tile gid="34"/>
   <tile gid="34"/>
   <tile gid="34"/>
   <tile gid="34"/>
   <tile gid="34"/>
   <tile gid="34"/>
   <tile gid="34"/>
   <tile gid="34"/>
   <tile gid="34"/>
   <tile gid="34"/>
   <tile gid="34"/>
   <tile gid="34"/>
   <tile gid="34"/>
   <tile gid="34"/>
   <tile gid="34"/>
   <tile gid="34"/>
   <tile gid="34"/>
   <tile gid="34"/>
   <tile gid="34"/>
   <tile gid="34"/>
   <tile gid="34"/>
   <tile gid="34"/>
   <tile gid="34"/>
   <tile gid="34"/>
   <tile gid="34"/>
   <tile gid="34"/>
   <tile gid="34"/>
   <tile gid="34"/>
   <tile gid="34"/>
   <tile gid="34"/>
   <tile gid="34"/>
   <tile gid="34"/>
   <tile gid="34"/>
   <tile gid="34"/>
   <tile gid="34"/>
   <tile gid="34"/>
   <tile gid="34"/>
   <tile gid="30"/>
   <tile gid="30"/>
   <tile gid="30"/>
   <tile gid="30"/>
   <tile gid="30"/>
   <tile gid="30"/>
   <tile gid="30"/>
   <tile gid="30"/>
   <tile gid="30"/>
   <tile gid="30"/>
   <tile gid="30"/>
   <tile gid="30"/>
   <tile gid="30"/>
   <tile gid="30"/>
   <tile gid="30"/>
   <tile gid="30"/>
   <tile gid="30"/>
   <tile gid="30"/>
   <tile gid="30"/>
   <tile gid="30"/>
   <tile gid="30"/>
   <tile gid="30"/>
   <tile gid="30"/>
   <tile gid="30"/>
   <tile gid="30"/>
   <tile gid="30"/>
   <tile gid="30"/>
   <tile gid="30"/>
   <tile gid="30"/>
   <tile gid="30"/>
   <tile gid="30"/>
   <tile gid="30"/>
   <tile gid="30"/>
   <tile gid="30"/>
   <tile gid="30"/>
   <tile gid="30"/>
   <tile gid="30"/>
   <tile gid="30"/>
   <tile gid="30"/>
   <tile gid="30"/>
   <tile gid="30"/>
   <tile gid="30"/>
   <tile gid="30"/>
   <tile gid="30"/>
   <tile gid="30"/>
   <tile gid="30"/>
   <tile gid="30"/>
   <tile gid="30"/>
   <tile gid="30"/>
   <tile gid="30"/>
   <tile gid="30"/>
   <tile gid="30"/>
   <tile gid="30"/>
   <tile gid="30"/>
   <tile gid="30"/>
   <tile gid="30"/>
   <tile gid="30"/>
   <tile gid="30"/>
   <tile gid="30"/>
   <tile gid="30"/>
   <tile gid="30"/>
   <tile gid="30"/>
   <tile gid="30"/>
   <tile gid="30"/>
   <tile gid="30"/>
   <tile gid="30"/>
   <tile gid="30"/>
   <tile gid="30"/>
   <tile gid="30"/>
   <tile gid="30"/>
   <tile gid="30"/>
   <tile gid="30"/>
   <tile gid="30"/>
   <tile gid="30"/>
   <tile gid="30"/>
   <tile gid="30"/>
   <tile gid="34"/>
   <tile gid="34"/>
   <tile gid="34"/>
   <tile gid="34"/>
   <tile gid="34"/>
   <tile gid="34"/>
   <tile gid="34"/>
   <tile gid="34"/>
   <tile gid="34"/>
   <tile gid="34"/>
   <tile gid="34"/>
   <tile gid="34"/>
   <tile gid="34"/>
   <tile gid="34"/>
   <tile gid="34"/>
   <tile gid="34"/>
   <tile gid="34"/>
   <tile gid="34"/>
   <tile gid="34"/>
   <tile gid="34"/>
   <tile gid="34"/>
   <tile gid="34"/>
   <tile gid="34"/>
   <tile gid="34"/>
   <tile gid="34"/>
   <tile gid="34"/>
   <tile gid="34"/>
   <tile gid="34"/>
   <tile gid="34"/>
   <tile gid="34"/>
   <tile gid="34"/>
   <tile gid="34"/>
   <tile gid="34"/>
   <tile gid="34"/>
   <tile gid="34"/>
   <tile gid="34"/>
   <tile gid="34"/>
   <tile gid="34"/>
   <tile gid="34"/>
   <tile gid="34"/>
   <tile gid="34"/>
   <tile gid="34"/>
   <tile gid="34"/>
   <tile gid="34"/>
   <tile gid="34"/>
   <tile gid="34"/>
   <tile gid="34"/>
   <tile gid="34"/>
   <tile gid="34"/>
   <tile gid="30"/>
   <tile gid="30"/>
   <tile gid="30"/>
   <tile gid="30"/>
   <tile gid="30"/>
   <tile gid="30"/>
   <tile gid="30"/>
   <tile gid="30"/>
   <tile gid="30"/>
   <tile gid="30"/>
   <tile gid="30"/>
   <tile gid="30"/>
   <tile gid="30"/>
   <tile gid="30"/>
   <tile gid="30"/>
   <tile gid="30"/>
   <tile gid="30"/>
   <tile gid="30"/>
   <tile gid="30"/>
   <tile gid="30"/>
   <tile gid="30"/>
   <tile gid="30"/>
   <tile gid="30"/>
   <tile gid="30"/>
   <tile gid="30"/>
   <tile gid="30"/>
   <tile gid="30"/>
   <tile gid="30"/>
   <tile gid="30"/>
   <tile gid="30"/>
   <tile gid="30"/>
   <tile gid="30"/>
   <tile gid="30"/>
   <tile gid="30"/>
   <tile gid="30"/>
   <tile gid="30"/>
   <tile gid="30"/>
   <tile gid="30"/>
   <tile gid="30"/>
   <tile gid="30"/>
   <tile gid="30"/>
   <tile gid="30"/>
   <tile gid="30"/>
   <tile gid="30"/>
   <tile gid="30"/>
   <tile gid="30"/>
   <tile gid="30"/>
   <tile gid="30"/>
   <tile gid="30"/>
   <tile gid="30"/>
   <tile gid="30"/>
   <tile gid="30"/>
   <tile gid="30"/>
   <tile gid="30"/>
   <tile gid="30"/>
   <tile gid="30"/>
   <tile gid="30"/>
   <tile gid="30"/>
   <tile gid="30"/>
   <tile gid="30"/>
   <tile gid="30"/>
   <tile gid="30"/>
   <tile gid="30"/>
   <tile gid="30"/>
   <tile gid="30"/>
   <tile gid="30"/>
   <tile gid="30"/>
   <tile gid="30"/>
   <tile gid="30"/>
   <tile gid="30"/>
   <tile gid="30"/>
   <tile gid="30"/>
   <tile gid="30"/>
   <tile gid="30"/>
   <tile gid="30"/>
   <tile gid="30"/>
   <tile gid="34"/>
   <tile gid="34"/>
   <tile gid="34"/>
   <tile gid="34"/>
   <tile gid="34"/>
   <tile gid="34"/>
   <tile gid="34"/>
   <tile gid="34"/>
   <tile gid="34"/>
   <tile gid="34"/>
   <tile gid="34"/>
   <tile gid="34"/>
   <tile gid="34"/>
   <tile gid="34"/>
   <tile gid="34"/>
   <tile gid="34"/>
   <tile gid="34"/>
   <tile gid="34"/>
   <tile gid="34"/>
   <tile gid="34"/>
   <tile gid="34"/>
   <tile gid="34"/>
   <tile gid="34"/>
   <tile gid="34"/>
   <tile gid="34"/>
   <tile gid="34"/>
   <tile gid="34"/>
   <tile gid="34"/>
   <tile gid="34"/>
   <tile gid="34"/>
   <tile gid="34"/>
   <tile gid="34"/>
   <tile gid="34"/>
   <tile gid="34"/>
   <tile gid="34"/>
   <tile gid="34"/>
   <tile gid="34"/>
   <tile gid="34"/>
   <tile gid="34"/>
   <tile gid="34"/>
   <tile gid="34"/>
   <tile gid="34"/>
   <tile gid="34"/>
   <tile gid="34"/>
   <tile gid="34"/>
   <tile gid="34"/>
   <tile gid="34"/>
   <tile gid="34"/>
   <tile gid="34"/>
   <tile gid="30"/>
   <tile gid="30"/>
   <tile gid="30"/>
   <tile gid="30"/>
   <tile gid="30"/>
   <tile gid="30"/>
   <tile gid="30"/>
   <tile gid="30"/>
   <tile gid="30"/>
   <tile gid="30"/>
   <tile gid="30"/>
   <tile gid="30"/>
   <tile gid="30"/>
   <tile gid="30"/>
   <tile gid="30"/>
   <tile gid="30"/>
   <tile gid="30"/>
   <tile gid="30"/>
   <tile gid="30"/>
   <tile gid="30"/>
   <tile gid="30"/>
   <tile gid="30"/>
   <tile gid="30"/>
   <tile gid="30"/>
   <tile gid="30"/>
   <tile gid="30"/>
   <tile gid="30"/>
   <tile gid="30"/>
   <tile gid="30"/>
   <tile gid="30"/>
   <tile gid="30"/>
   <tile gid="30"/>
   <tile gid="30"/>
   <tile gid="30"/>
   <tile gid="34"/>
   <tile gid="34"/>
   <tile gid="34"/>
   <tile gid="30"/>
   <tile gid="30"/>
   <tile gid="30"/>
   <tile gid="30"/>
   <tile gid="30"/>
   <tile gid="30"/>
   <tile gid="30"/>
   <tile gid="30"/>
   <tile gid="30"/>
   <tile gid="30"/>
   <tile gid="30"/>
   <tile gid="30"/>
   <tile gid="30"/>
   <tile gid="30"/>
   <tile gid="30"/>
   <tile gid="30"/>
   <tile gid="30"/>
   <tile gid="30"/>
   <tile gid="30"/>
   <tile gid="30"/>
   <tile gid="30"/>
   <tile gid="30"/>
   <tile gid="30"/>
   <tile gid="30"/>
   <tile gid="30"/>
   <tile gid="30"/>
   <tile gid="30"/>
   <tile gid="30"/>
   <tile gid="30"/>
   <tile gid="30"/>
   <tile gid="30"/>
   <tile gid="30"/>
   <tile gid="30"/>
   <tile gid="30"/>
   <tile gid="30"/>
   <tile gid="30"/>
   <tile gid="30"/>
   <tile gid="30"/>
   <tile gid="30"/>
   <tile gid="34"/>
   <tile gid="34"/>
   <tile gid="34"/>
   <tile gid="34"/>
   <tile gid="34"/>
   <tile gid="34"/>
   <tile gid="34"/>
   <tile gid="34"/>
   <tile gid="34"/>
   <tile gid="34"/>
   <tile gid="34"/>
   <tile gid="34"/>
   <tile gid="34"/>
   <tile gid="34"/>
   <tile gid="34"/>
   <tile gid="34"/>
   <tile gid="34"/>
   <tile gid="34"/>
   <tile gid="34"/>
   <tile gid="34"/>
   <tile gid="34"/>
   <tile gid="34"/>
   <tile gid="34"/>
   <tile gid="34"/>
   <tile gid="34"/>
   <tile gid="34"/>
   <tile gid="34"/>
   <tile gid="34"/>
   <tile gid="34"/>
   <tile gid="30"/>
   <tile gid="30"/>
   <tile gid="30"/>
   <tile gid="30"/>
   <tile gid="30"/>
   <tile gid="30"/>
   <tile gid="30"/>
   <tile gid="30"/>
   <tile gid="30"/>
   <tile gid="30"/>
   <tile gid="30"/>
   <tile gid="30"/>
   <tile gid="30"/>
   <tile gid="30"/>
   <tile gid="34"/>
   <tile gid="34"/>
   <tile gid="34"/>
   <tile gid="34"/>
   <tile gid="34"/>
   <tile gid="34"/>
   <tile gid="30"/>
   <tile gid="30"/>
   <tile gid="30"/>
   <tile gid="30"/>
   <tile gid="30"/>
   <tile gid="30"/>
   <tile gid="30"/>
   <tile gid="30"/>
   <tile gid="30"/>
   <tile gid="30"/>
   <tile gid="30"/>
   <tile gid="30"/>
   <tile gid="30"/>
   <tile gid="30"/>
   <tile gid="30"/>
   <tile gid="30"/>
   <tile gid="30"/>
   <tile gid="30"/>
   <tile gid="30"/>
   <tile gid="30"/>
   <tile gid="30"/>
   <tile gid="30"/>
   <tile gid="30"/>
   <tile gid="30"/>
   <tile gid="30"/>
   <tile gid="30"/>
   <tile gid="30"/>
   <tile gid="30"/>
   <tile gid="30"/>
   <tile gid="30"/>
   <tile gid="30"/>
   <tile gid="30"/>
   <tile gid="30"/>
   <tile gid="30"/>
   <tile gid="34"/>
   <tile gid="34"/>
   <tile gid="34"/>
   <tile gid="30"/>
   <tile gid="30"/>
   <tile gid="30"/>
   <tile gid="30"/>
   <tile gid="30"/>
   <tile gid="30"/>
   <tile gid="30"/>
   <tile gid="30"/>
   <tile gid="30"/>
   <tile gid="30"/>
   <tile gid="30"/>
   <tile gid="30"/>
   <tile gid="30"/>
   <tile gid="30"/>
   <tile gid="30"/>
   <tile gid="30"/>
   <tile gid="30"/>
   <tile gid="30"/>
   <tile gid="30"/>
   <tile gid="30"/>
   <tile gid="30"/>
   <tile gid="30"/>
   <tile gid="30"/>
   <tile gid="30"/>
   <tile gid="30"/>
   <tile gid="30"/>
   <tile gid="30"/>
   <tile gid="30"/>
   <tile gid="30"/>
   <tile gid="30"/>
   <tile gid="30"/>
   <tile gid="30"/>
   <tile gid="30"/>
   <tile gid="30"/>
   <tile gid="30"/>
   <tile gid="30"/>
   <tile gid="30"/>
   <tile gid="30"/>
   <tile gid="30"/>
   <tile gid="34"/>
   <tile gid="34"/>
   <tile gid="34"/>
   <tile gid="34"/>
   <tile gid="34"/>
   <tile gid="34"/>
   <tile gid="34"/>
   <tile gid="34"/>
   <tile gid="34"/>
   <tile gid="34"/>
   <tile gid="34"/>
   <tile gid="34"/>
   <tile gid="34"/>
   <tile gid="34"/>
   <tile gid="34"/>
   <tile gid="34"/>
   <tile gid="34"/>
   <tile gid="34"/>
   <tile gid="34"/>
   <tile gid="34"/>
   <tile gid="34"/>
   <tile gid="34"/>
   <tile gid="34"/>
   <tile gid="34"/>
   <tile gid="34"/>
   <tile gid="34"/>
   <tile gid="34"/>
   <tile gid="34"/>
   <tile gid="34"/>
   <tile gid="30"/>
   <tile gid="30"/>
   <tile gid="30"/>
   <tile gid="30"/>
   <tile gid="30"/>
   <tile gid="30"/>
   <tile gid="30"/>
   <tile gid="30"/>
   <tile gid="30"/>
   <tile gid="30"/>
   <tile gid="30"/>
   <tile gid="30"/>
   <tile gid="30"/>
   <tile gid="30"/>
   <tile gid="34"/>
   <tile gid="34"/>
   <tile gid="34"/>
   <tile gid="34"/>
   <tile gid="34"/>
   <tile gid="34"/>
   <tile gid="30"/>
   <tile gid="30"/>
   <tile gid="30"/>
   <tile gid="30"/>
   <tile gid="30"/>
   <tile gid="30"/>
   <tile gid="30"/>
   <tile gid="30"/>
   <tile gid="30"/>
   <tile gid="30"/>
   <tile gid="30"/>
   <tile gid="30"/>
   <tile gid="30"/>
   <tile gid="30"/>
   <tile gid="30"/>
   <tile gid="30"/>
   <tile gid="30"/>
   <tile gid="30"/>
   <tile gid="30"/>
   <tile gid="30"/>
   <tile gid="30"/>
   <tile gid="30"/>
   <tile gid="30"/>
   <tile gid="30"/>
   <tile gid="30"/>
   <tile gid="30"/>
   <tile gid="30"/>
   <tile gid="30"/>
   <tile gid="30"/>
   <tile gid="30"/>
   <tile gid="30"/>
   <tile gid="30"/>
   <tile gid="30"/>
   <tile gid="30"/>
   <tile gid="34"/>
   <tile gid="34"/>
   <tile gid="34"/>
   <tile gid="30"/>
   <tile gid="30"/>
   <tile gid="30"/>
   <tile gid="30"/>
   <tile gid="30"/>
   <tile gid="30"/>
   <tile gid="30"/>
   <tile gid="30"/>
   <tile gid="30"/>
   <tile gid="30"/>
   <tile gid="30"/>
   <tile gid="30"/>
   <tile gid="30"/>
   <tile gid="30"/>
   <tile gid="30"/>
   <tile gid="30"/>
   <tile gid="30"/>
   <tile gid="30"/>
   <tile gid="30"/>
   <tile gid="30"/>
   <tile gid="30"/>
   <tile gid="30"/>
   <tile gid="30"/>
   <tile gid="30"/>
   <tile gid="30"/>
   <tile gid="30"/>
   <tile gid="30"/>
   <tile gid="30"/>
   <tile gid="30"/>
   <tile gid="30"/>
   <tile gid="30"/>
   <tile gid="30"/>
   <tile gid="30"/>
   <tile gid="30"/>
   <tile gid="30"/>
   <tile gid="30"/>
   <tile gid="30"/>
   <tile gid="30"/>
   <tile gid="30"/>
   <tile gid="34"/>
   <tile gid="34"/>
   <tile gid="34"/>
   <tile gid="34"/>
   <tile gid="34"/>
   <tile gid="34"/>
   <tile gid="34"/>
   <tile gid="34"/>
   <tile gid="34"/>
   <tile gid="34"/>
   <tile gid="34"/>
   <tile gid="34"/>
   <tile gid="34"/>
   <tile gid="34"/>
   <tile gid="34"/>
   <tile gid="34"/>
   <tile gid="34"/>
   <tile gid="34"/>
   <tile gid="34"/>
   <tile gid="34"/>
   <tile gid="34"/>
   <tile gid="34"/>
   <tile gid="34"/>
   <tile gid="34"/>
   <tile gid="34"/>
   <tile gid="34"/>
   <tile gid="34"/>
   <tile gid="34"/>
   <tile gid="34"/>
   <tile gid="30"/>
   <tile gid="30"/>
   <tile gid="30"/>
   <tile gid="30"/>
   <tile gid="30"/>
   <tile gid="30"/>
   <tile gid="30"/>
   <tile gid="30"/>
   <tile gid="30"/>
   <tile gid="30"/>
   <tile gid="30"/>
   <tile gid="30"/>
   <tile gid="30"/>
   <tile gid="30"/>
   <tile gid="34"/>
   <tile gid="34"/>
   <tile gid="34"/>
   <tile gid="34"/>
   <tile gid="34"/>
   <tile gid="34"/>
   <tile gid="30"/>
   <tile gid="30"/>
   <tile gid="30"/>
   <tile gid="30"/>
   <tile gid="30"/>
   <tile gid="30"/>
   <tile gid="30"/>
   <tile gid="30"/>
   <tile gid="30"/>
   <tile gid="30"/>
   <tile gid="30"/>
   <tile gid="30"/>
   <tile gid="30"/>
   <tile gid="30"/>
   <tile gid="30"/>
   <tile gid="30"/>
   <tile gid="30"/>
   <tile gid="30"/>
   <tile gid="30"/>
   <tile gid="30"/>
   <tile gid="30"/>
   <tile gid="30"/>
   <tile gid="30"/>
   <tile gid="30"/>
   <tile gid="30"/>
   <tile gid="30"/>
   <tile gid="30"/>
   <tile gid="30"/>
   <tile gid="30"/>
   <tile gid="30"/>
   <tile gid="30"/>
   <tile gid="30"/>
   <tile gid="30"/>
   <tile gid="30"/>
   <tile gid="34"/>
   <tile gid="34"/>
   <tile gid="34"/>
   <tile gid="30"/>
   <tile gid="30"/>
   <tile gid="30"/>
   <tile gid="30"/>
   <tile gid="30"/>
   <tile gid="30"/>
   <tile gid="30"/>
   <tile gid="30"/>
   <tile gid="30"/>
   <tile gid="30"/>
   <tile gid="30"/>
   <tile gid="30"/>
   <tile gid="30"/>
   <tile gid="30"/>
   <tile gid="30"/>
   <tile gid="30"/>
   <tile gid="30"/>
   <tile gid="30"/>
   <tile gid="30"/>
   <tile gid="30"/>
   <tile gid="30"/>
   <tile gid="30"/>
   <tile gid="30"/>
   <tile gid="30"/>
   <tile gid="30"/>
   <tile gid="30"/>
   <tile gid="30"/>
   <tile gid="30"/>
   <tile gid="30"/>
   <tile gid="30"/>
   <tile gid="30"/>
   <tile gid="30"/>
   <tile gid="30"/>
   <tile gid="30"/>
   <tile gid="30"/>
   <tile gid="30"/>
   <tile gid="30"/>
   <tile gid="30"/>
   <tile gid="30"/>
   <tile gid="34"/>
   <tile gid="34"/>
   <tile gid="34"/>
   <tile gid="34"/>
   <tile gid="34"/>
   <tile gid="34"/>
   <tile gid="34"/>
   <tile gid="34"/>
   <tile gid="34"/>
   <tile gid="34"/>
   <tile gid="34"/>
   <tile gid="34"/>
   <tile gid="34"/>
   <tile gid="34"/>
   <tile gid="34"/>
   <tile gid="34"/>
   <tile gid="34"/>
   <tile gid="34"/>
   <tile gid="34"/>
   <tile gid="34"/>
   <tile gid="34"/>
   <tile gid="34"/>
   <tile gid="34"/>
   <tile gid="34"/>
   <tile gid="34"/>
   <tile gid="34"/>
   <tile gid="34"/>
   <tile gid="34"/>
   <tile gid="34"/>
   <tile gid="30"/>
   <tile gid="30"/>
   <tile gid="30"/>
   <tile gid="30"/>
   <tile gid="30"/>
   <tile gid="30"/>
   <tile gid="30"/>
   <tile gid="30"/>
   <tile gid="30"/>
   <tile gid="30"/>
   <tile gid="30"/>
   <tile gid="30"/>
   <tile gid="30"/>
   <tile gid="30"/>
   <tile gid="34"/>
   <tile gid="34"/>
   <tile gid="34"/>
   <tile gid="34"/>
   <tile gid="34"/>
   <tile gid="34"/>
   <tile gid="30"/>
   <tile gid="30"/>
   <tile gid="30"/>
   <tile gid="30"/>
   <tile gid="30"/>
   <tile gid="30"/>
   <tile gid="30"/>
   <tile gid="30"/>
   <tile gid="30"/>
   <tile gid="30"/>
   <tile gid="30"/>
   <tile gid="30"/>
   <tile gid="30"/>
   <tile gid="30"/>
   <tile gid="30"/>
   <tile gid="30"/>
   <tile gid="30"/>
   <tile gid="30"/>
   <tile gid="30"/>
   <tile gid="30"/>
   <tile gid="30"/>
   <tile gid="30"/>
   <tile gid="30"/>
   <tile gid="30"/>
   <tile gid="30"/>
   <tile gid="30"/>
   <tile gid="30"/>
   <tile gid="30"/>
   <tile gid="30"/>
   <tile gid="30"/>
   <tile gid="30"/>
   <tile gid="30"/>
   <tile gid="30"/>
   <tile gid="30"/>
   <tile gid="34"/>
   <tile gid="34"/>
   <tile gid="34"/>
   <tile gid="34"/>
   <tile gid="34"/>
   <tile gid="34"/>
   <tile gid="34"/>
   <tile gid="34"/>
   <tile gid="34"/>
   <tile gid="34"/>
   <tile gid="34"/>
   <tile gid="34"/>
   <tile gid="34"/>
   <tile gid="30"/>
   <tile gid="30"/>
   <tile gid="30"/>
   <tile gid="30"/>
   <tile gid="34"/>
   <tile gid="34"/>
   <tile gid="34"/>
   <tile gid="34"/>
   <tile gid="34"/>
   <tile gid="34"/>
   <tile gid="34"/>
   <tile gid="34"/>
   <tile gid="34"/>
   <tile gid="34"/>
   <tile gid="34"/>
   <tile gid="34"/>
   <tile gid="34"/>
   <tile gid="34"/>
   <tile gid="34"/>
   <tile gid="30"/>
   <tile gid="30"/>
   <tile gid="30"/>
   <tile gid="34"/>
   <tile gid="34"/>
   <tile gid="34"/>
   <tile gid="34"/>
   <tile gid="34"/>
   <tile gid="34"/>
   <tile gid="34"/>
   <tile gid="34"/>
   <tile gid="34"/>
   <tile gid="34"/>
   <tile gid="34"/>
   <tile gid="34"/>
   <tile gid="34"/>
   <tile gid="34"/>
   <tile gid="34"/>
   <tile gid="34"/>
   <tile gid="34"/>
   <tile gid="34"/>
   <tile gid="34"/>
   <tile gid="34"/>
   <tile gid="34"/>
   <tile gid="34"/>
   <tile gid="34"/>
   <tile gid="34"/>
   <tile gid="34"/>
   <tile gid="34"/>
   <tile gid="34"/>
   <tile gid="34"/>
   <tile gid="34"/>
   <tile gid="34"/>
   <tile gid="34"/>
   <tile gid="34"/>
   <tile gid="34"/>
   <tile gid="34"/>
   <tile gid="34"/>
   <tile gid="34"/>
   <tile gid="30"/>
   <tile gid="30"/>
   <tile gid="30"/>
   <tile gid="30"/>
   <tile gid="30"/>
   <tile gid="30"/>
   <tile gid="30"/>
   <tile gid="30"/>
   <tile gid="30"/>
   <tile gid="30"/>
   <tile gid="30"/>
   <tile gid="30"/>
   <tile gid="30"/>
   <tile gid="30"/>
   <tile gid="34"/>
   <tile gid="34"/>
   <tile gid="34"/>
   <tile gid="34"/>
   <tile gid="34"/>
   <tile gid="34"/>
   <tile gid="30"/>
   <tile gid="30"/>
   <tile gid="30"/>
   <tile gid="30"/>
   <tile gid="30"/>
   <tile gid="30"/>
   <tile gid="30"/>
   <tile gid="30"/>
   <tile gid="30"/>
   <tile gid="30"/>
   <tile gid="30"/>
   <tile gid="30"/>
   <tile gid="30"/>
   <tile gid="30"/>
   <tile gid="30"/>
   <tile gid="30"/>
   <tile gid="30"/>
   <tile gid="30"/>
   <tile gid="30"/>
   <tile gid="30"/>
   <tile gid="30"/>
   <tile gid="30"/>
   <tile gid="30"/>
   <tile gid="30"/>
   <tile gid="30"/>
   <tile gid="30"/>
   <tile gid="30"/>
   <tile gid="30"/>
   <tile gid="30"/>
   <tile gid="30"/>
   <tile gid="30"/>
   <tile gid="30"/>
   <tile gid="30"/>
   <tile gid="30"/>
   <tile gid="34"/>
   <tile gid="34"/>
   <tile gid="34"/>
   <tile gid="34"/>
   <tile gid="34"/>
   <tile gid="34"/>
   <tile gid="34"/>
   <tile gid="34"/>
   <tile gid="34"/>
   <tile gid="34"/>
   <tile gid="34"/>
   <tile gid="34"/>
   <tile gid="34"/>
   <tile gid="30"/>
   <tile gid="30"/>
   <tile gid="30"/>
   <tile gid="30"/>
   <tile gid="34"/>
   <tile gid="34"/>
   <tile gid="34"/>
   <tile gid="34"/>
   <tile gid="34"/>
   <tile gid="34"/>
   <tile gid="34"/>
   <tile gid="34"/>
   <tile gid="34"/>
   <tile gid="34"/>
   <tile gid="34"/>
   <tile gid="34"/>
   <tile gid="34"/>
   <tile gid="34"/>
   <tile gid="34"/>
   <tile gid="30"/>
   <tile gid="30"/>
   <tile gid="30"/>
   <tile gid="34"/>
   <tile gid="34"/>
   <tile gid="34"/>
   <tile gid="34"/>
   <tile gid="34"/>
   <tile gid="34"/>
   <tile gid="34"/>
   <tile gid="34"/>
   <tile gid="34"/>
   <tile gid="34"/>
   <tile gid="34"/>
   <tile gid="34"/>
   <tile gid="34"/>
   <tile gid="34"/>
   <tile gid="34"/>
   <tile gid="34"/>
   <tile gid="34"/>
   <tile gid="34"/>
   <tile gid="34"/>
   <tile gid="34"/>
   <tile gid="34"/>
   <tile gid="34"/>
   <tile gid="34"/>
   <tile gid="34"/>
   <tile gid="34"/>
   <tile gid="34"/>
   <tile gid="34"/>
   <tile gid="34"/>
   <tile gid="34"/>
   <tile gid="34"/>
   <tile gid="34"/>
   <tile gid="34"/>
   <tile gid="34"/>
   <tile gid="34"/>
   <tile gid="34"/>
   <tile gid="34"/>
   <tile gid="30"/>
   <tile gid="30"/>
   <tile gid="30"/>
   <tile gid="30"/>
   <tile gid="30"/>
   <tile gid="30"/>
   <tile gid="30"/>
   <tile gid="30"/>
   <tile gid="30"/>
   <tile gid="30"/>
   <tile gid="30"/>
   <tile gid="30"/>
   <tile gid="30"/>
   <tile gid="30"/>
   <tile gid="34"/>
   <tile gid="34"/>
   <tile gid="34"/>
   <tile gid="34"/>
   <tile gid="34"/>
   <tile gid="34"/>
   <tile gid="30"/>
   <tile gid="30"/>
   <tile gid="30"/>
   <tile gid="30"/>
   <tile gid="30"/>
   <tile gid="30"/>
   <tile gid="30"/>
   <tile gid="30"/>
   <tile gid="30"/>
   <tile gid="30"/>
   <tile gid="30"/>
   <tile gid="30"/>
   <tile gid="30"/>
   <tile gid="30"/>
   <tile gid="30"/>
   <tile gid="30"/>
   <tile gid="30"/>
   <tile gid="30"/>
   <tile gid="30"/>
   <tile gid="30"/>
   <tile gid="30"/>
   <tile gid="30"/>
   <tile gid="30"/>
   <tile gid="30"/>
   <tile gid="30"/>
   <tile gid="30"/>
   <tile gid="30"/>
   <tile gid="30"/>
   <tile gid="30"/>
   <tile gid="30"/>
   <tile gid="30"/>
   <tile gid="30"/>
   <tile gid="30"/>
   <tile gid="30"/>
   <tile gid="34"/>
   <tile gid="34"/>
   <tile gid="34"/>
   <tile gid="34"/>
   <tile gid="34"/>
   <tile gid="34"/>
   <tile gid="34"/>
   <tile gid="34"/>
   <tile gid="34"/>
   <tile gid="34"/>
   <tile gid="34"/>
   <tile gid="34"/>
   <tile gid="34"/>
   <tile gid="30"/>
   <tile gid="30"/>
   <tile gid="30"/>
   <tile gid="30"/>
   <tile gid="34"/>
   <tile gid="34"/>
   <tile gid="34"/>
   <tile gid="34"/>
   <tile gid="34"/>
   <tile gid="34"/>
   <tile gid="34"/>
   <tile gid="34"/>
   <tile gid="34"/>
   <tile gid="34"/>
   <tile gid="34"/>
   <tile gid="34"/>
   <tile gid="34"/>
   <tile gid="34"/>
   <tile gid="34"/>
   <tile gid="30"/>
   <tile gid="30"/>
   <tile gid="30"/>
   <tile gid="34"/>
   <tile gid="34"/>
   <tile gid="34"/>
   <tile gid="34"/>
   <tile gid="34"/>
   <tile gid="34"/>
   <tile gid="34"/>
   <tile gid="34"/>
   <tile gid="34"/>
   <tile gid="34"/>
   <tile gid="34"/>
   <tile gid="34"/>
   <tile gid="34"/>
   <tile gid="34"/>
   <tile gid="34"/>
   <tile gid="34"/>
   <tile gid="34"/>
   <tile gid="34"/>
   <tile gid="34"/>
   <tile gid="34"/>
   <tile gid="34"/>
   <tile gid="34"/>
   <tile gid="34"/>
   <tile gid="34"/>
   <tile gid="34"/>
   <tile gid="34"/>
   <tile gid="34"/>
   <tile gid="34"/>
   <tile gid="34"/>
   <tile gid="34"/>
   <tile gid="34"/>
   <tile gid="34"/>
   <tile gid="34"/>
   <tile gid="34"/>
   <tile gid="34"/>
   <tile gid="34"/>
   <tile gid="30"/>
   <tile gid="30"/>
   <tile gid="30"/>
   <tile gid="30"/>
   <tile gid="30"/>
   <tile gid="30"/>
   <tile gid="30"/>
   <tile gid="30"/>
   <tile gid="30"/>
   <tile gid="30"/>
   <tile gid="30"/>
   <tile gid="30"/>
   <tile gid="30"/>
   <tile gid="30"/>
   <tile gid="34"/>
   <tile gid="34"/>
   <tile gid="34"/>
   <tile gid="34"/>
   <tile gid="34"/>
   <tile gid="34"/>
   <tile gid="30"/>
   <tile gid="30"/>
   <tile gid="30"/>
   <tile gid="30"/>
   <tile gid="30"/>
   <tile gid="30"/>
   <tile gid="30"/>
   <tile gid="30"/>
   <tile gid="30"/>
   <tile gid="30"/>
   <tile gid="30"/>
   <tile gid="30"/>
   <tile gid="30"/>
   <tile gid="30"/>
   <tile gid="30"/>
   <tile gid="30"/>
   <tile gid="30"/>
   <tile gid="30"/>
   <tile gid="30"/>
   <tile gid="30"/>
   <tile gid="30"/>
   <tile gid="30"/>
   <tile gid="30"/>
   <tile gid="30"/>
   <tile gid="30"/>
   <tile gid="30"/>
   <tile gid="30"/>
   <tile gid="30"/>
   <tile gid="30"/>
   <tile gid="30"/>
   <tile gid="30"/>
   <tile gid="30"/>
   <tile gid="30"/>
   <tile gid="30"/>
   <tile gid="34"/>
   <tile gid="34"/>
   <tile gid="34"/>
   <tile gid="30"/>
   <tile gid="30"/>
   <tile gid="30"/>
   <tile gid="30"/>
   <tile gid="30"/>
   <tile gid="30"/>
   <tile gid="30"/>
   <tile gid="30"/>
   <tile gid="30"/>
   <tile gid="30"/>
   <tile gid="30"/>
   <tile gid="30"/>
   <tile gid="30"/>
   <tile gid="30"/>
   <tile gid="30"/>
   <tile gid="30"/>
   <tile gid="30"/>
   <tile gid="30"/>
   <tile gid="34"/>
   <tile gid="34"/>
   <tile gid="34"/>
   <tile gid="30"/>
   <tile gid="30"/>
   <tile gid="30"/>
   <tile gid="30"/>
   <tile gid="30"/>
   <tile gid="30"/>
   <tile gid="30"/>
   <tile gid="30"/>
   <tile gid="30"/>
   <tile gid="30"/>
   <tile gid="30"/>
   <tile gid="30"/>
   <tile gid="30"/>
   <tile gid="30"/>
   <tile gid="30"/>
   <tile gid="30"/>
   <tile gid="30"/>
   <tile gid="30"/>
   <tile gid="34"/>
   <tile gid="34"/>
   <tile gid="34"/>
   <tile gid="34"/>
   <tile gid="34"/>
   <tile gid="34"/>
   <tile gid="34"/>
   <tile gid="34"/>
   <tile gid="34"/>
   <tile gid="34"/>
   <tile gid="34"/>
   <tile gid="34"/>
   <tile gid="34"/>
   <tile gid="34"/>
   <tile gid="34"/>
   <tile gid="34"/>
   <tile gid="34"/>
   <tile gid="34"/>
   <tile gid="34"/>
   <tile gid="34"/>
   <tile gid="34"/>
   <tile gid="34"/>
   <tile gid="34"/>
   <tile gid="34"/>
   <tile gid="34"/>
   <tile gid="34"/>
   <tile gid="34"/>
   <tile gid="34"/>
   <tile gid="34"/>
   <tile gid="30"/>
   <tile gid="30"/>
   <tile gid="30"/>
   <tile gid="30"/>
   <tile gid="30"/>
   <tile gid="30"/>
   <tile gid="30"/>
   <tile gid="30"/>
   <tile gid="30"/>
   <tile gid="30"/>
   <tile gid="30"/>
   <tile gid="30"/>
   <tile gid="30"/>
   <tile gid="30"/>
   <tile gid="34"/>
   <tile gid="34"/>
   <tile gid="34"/>
   <tile gid="34"/>
   <tile gid="34"/>
   <tile gid="34"/>
   <tile gid="30"/>
   <tile gid="30"/>
   <tile gid="30"/>
   <tile gid="30"/>
   <tile gid="30"/>
   <tile gid="30"/>
   <tile gid="30"/>
   <tile gid="30"/>
   <tile gid="30"/>
   <tile gid="30"/>
   <tile gid="30"/>
   <tile gid="30"/>
   <tile gid="30"/>
   <tile gid="30"/>
   <tile gid="30"/>
   <tile gid="30"/>
   <tile gid="30"/>
   <tile gid="30"/>
   <tile gid="30"/>
   <tile gid="30"/>
   <tile gid="30"/>
   <tile gid="30"/>
   <tile gid="30"/>
   <tile gid="30"/>
   <tile gid="30"/>
   <tile gid="30"/>
   <tile gid="30"/>
   <tile gid="30"/>
   <tile gid="30"/>
   <tile gid="30"/>
   <tile gid="30"/>
   <tile gid="30"/>
   <tile gid="30"/>
   <tile gid="30"/>
   <tile gid="34"/>
   <tile gid="34"/>
   <tile gid="34"/>
   <tile gid="30"/>
   <tile gid="30"/>
   <tile gid="30"/>
   <tile gid="30"/>
   <tile gid="30"/>
   <tile gid="30"/>
   <tile gid="30"/>
   <tile gid="30"/>
   <tile gid="30"/>
   <tile gid="30"/>
   <tile gid="30"/>
   <tile gid="30"/>
   <tile gid="30"/>
   <tile gid="30"/>
   <tile gid="30"/>
   <tile gid="30"/>
   <tile gid="30"/>
   <tile gid="30"/>
   <tile gid="34"/>
   <tile gid="34"/>
   <tile gid="34"/>
   <tile gid="30"/>
   <tile gid="30"/>
   <tile gid="30"/>
   <tile gid="30"/>
   <tile gid="30"/>
   <tile gid="30"/>
   <tile gid="30"/>
   <tile gid="30"/>
   <tile gid="30"/>
   <tile gid="30"/>
   <tile gid="30"/>
   <tile gid="30"/>
   <tile gid="30"/>
   <tile gid="30"/>
   <tile gid="30"/>
   <tile gid="30"/>
   <tile gid="30"/>
   <tile gid="30"/>
   <tile gid="34"/>
   <tile gid="34"/>
   <tile gid="34"/>
   <tile gid="34"/>
   <tile gid="34"/>
   <tile gid="34"/>
   <tile gid="34"/>
   <tile gid="34"/>
   <tile gid="34"/>
   <tile gid="34"/>
   <tile gid="34"/>
   <tile gid="34"/>
   <tile gid="34"/>
   <tile gid="34"/>
   <tile gid="34"/>
   <tile gid="34"/>
   <tile gid="34"/>
   <tile gid="34"/>
   <tile gid="34"/>
   <tile gid="34"/>
   <tile gid="34"/>
   <tile gid="34"/>
   <tile gid="34"/>
   <tile gid="34"/>
   <tile gid="34"/>
   <tile gid="34"/>
   <tile gid="34"/>
   <tile gid="34"/>
   <tile gid="34"/>
   <tile gid="30"/>
   <tile gid="30"/>
   <tile gid="30"/>
   <tile gid="30"/>
   <tile gid="30"/>
   <tile gid="30"/>
   <tile gid="30"/>
   <tile gid="30"/>
   <tile gid="30"/>
   <tile gid="30"/>
   <tile gid="30"/>
   <tile gid="30"/>
   <tile gid="30"/>
   <tile gid="30"/>
   <tile gid="34"/>
   <tile gid="34"/>
   <tile gid="34"/>
   <tile gid="34"/>
   <tile gid="34"/>
   <tile gid="34"/>
   <tile gid="30"/>
   <tile gid="30"/>
   <tile gid="30"/>
   <tile gid="30"/>
   <tile gid="30"/>
   <tile gid="30"/>
   <tile gid="30"/>
   <tile gid="30"/>
   <tile gid="30"/>
   <tile gid="30"/>
   <tile gid="30"/>
   <tile gid="30"/>
   <tile gid="30"/>
   <tile gid="30"/>
   <tile gid="30"/>
   <tile gid="30"/>
   <tile gid="30"/>
   <tile gid="30"/>
   <tile gid="30"/>
   <tile gid="30"/>
   <tile gid="30"/>
   <tile gid="30"/>
   <tile gid="30"/>
   <tile gid="30"/>
   <tile gid="30"/>
   <tile gid="30"/>
   <tile gid="30"/>
   <tile gid="30"/>
   <tile gid="30"/>
   <tile gid="30"/>
   <tile gid="30"/>
   <tile gid="30"/>
   <tile gid="30"/>
   <tile gid="30"/>
   <tile gid="34"/>
   <tile gid="34"/>
   <tile gid="34"/>
   <tile gid="30"/>
   <tile gid="30"/>
   <tile gid="30"/>
   <tile gid="30"/>
   <tile gid="30"/>
   <tile gid="30"/>
   <tile gid="30"/>
   <tile gid="30"/>
   <tile gid="30"/>
   <tile gid="30"/>
   <tile gid="30"/>
   <tile gid="30"/>
   <tile gid="30"/>
   <tile gid="30"/>
   <tile gid="30"/>
   <tile gid="30"/>
   <tile gid="30"/>
   <tile gid="30"/>
   <tile gid="34"/>
   <tile gid="34"/>
   <tile gid="34"/>
   <tile gid="30"/>
   <tile gid="30"/>
   <tile gid="30"/>
   <tile gid="30"/>
   <tile gid="30"/>
   <tile gid="30"/>
   <tile gid="30"/>
   <tile gid="30"/>
   <tile gid="30"/>
   <tile gid="30"/>
   <tile gid="30"/>
   <tile gid="30"/>
   <tile gid="30"/>
   <tile gid="30"/>
   <tile gid="30"/>
   <tile gid="30"/>
   <tile gid="30"/>
   <tile gid="30"/>
   <tile gid="34"/>
   <tile gid="34"/>
   <tile gid="34"/>
   <tile gid="34"/>
   <tile gid="34"/>
   <tile gid="34"/>
   <tile gid="34"/>
   <tile gid="34"/>
   <tile gid="34"/>
   <tile gid="34"/>
   <tile gid="34"/>
   <tile gid="34"/>
   <tile gid="34"/>
   <tile gid="34"/>
   <tile gid="34"/>
   <tile gid="34"/>
   <tile gid="34"/>
   <tile gid="34"/>
   <tile gid="34"/>
   <tile gid="34"/>
   <tile gid="34"/>
   <tile gid="34"/>
   <tile gid="34"/>
   <tile gid="34"/>
   <tile gid="34"/>
   <tile gid="34"/>
   <tile gid="34"/>
   <tile gid="34"/>
   <tile gid="34"/>
   <tile gid="30"/>
   <tile gid="30"/>
   <tile gid="30"/>
   <tile gid="30"/>
   <tile gid="30"/>
   <tile gid="30"/>
   <tile gid="30"/>
   <tile gid="30"/>
   <tile gid="30"/>
   <tile gid="30"/>
   <tile gid="30"/>
   <tile gid="30"/>
   <tile gid="30"/>
   <tile gid="30"/>
   <tile gid="34"/>
   <tile gid="34"/>
   <tile gid="34"/>
   <tile gid="34"/>
   <tile gid="34"/>
   <tile gid="34"/>
   <tile gid="30"/>
   <tile gid="30"/>
   <tile gid="30"/>
   <tile gid="30"/>
   <tile gid="30"/>
   <tile gid="30"/>
   <tile gid="30"/>
   <tile gid="30"/>
   <tile gid="30"/>
   <tile gid="30"/>
   <tile gid="30"/>
   <tile gid="30"/>
   <tile gid="30"/>
   <tile gid="30"/>
   <tile gid="30"/>
   <tile gid="30"/>
   <tile gid="30"/>
   <tile gid="30"/>
   <tile gid="30"/>
   <tile gid="30"/>
   <tile gid="30"/>
   <tile gid="30"/>
   <tile gid="30"/>
   <tile gid="30"/>
   <tile gid="30"/>
   <tile gid="30"/>
   <tile gid="30"/>
   <tile gid="30"/>
   <tile gid="30"/>
   <tile gid="30"/>
   <tile gid="30"/>
   <tile gid="30"/>
   <tile gid="30"/>
   <tile gid="30"/>
   <tile gid="34"/>
   <tile gid="34"/>
   <tile gid="34"/>
   <tile gid="30"/>
   <tile gid="30"/>
   <tile gid="30"/>
   <tile gid="30"/>
   <tile gid="30"/>
   <tile gid="30"/>
   <tile gid="30"/>
   <tile gid="30"/>
   <tile gid="30"/>
   <tile gid="30"/>
   <tile gid="30"/>
   <tile gid="30"/>
   <tile gid="30"/>
   <tile gid="30"/>
   <tile gid="30"/>
   <tile gid="30"/>
   <tile gid="30"/>
   <tile gid="30"/>
   <tile gid="34"/>
   <tile gid="34"/>
   <tile gid="34"/>
   <tile gid="30"/>
   <tile gid="30"/>
   <tile gid="30"/>
   <tile gid="30"/>
   <tile gid="30"/>
   <tile gid="30"/>
   <tile gid="30"/>
   <tile gid="30"/>
   <tile gid="30"/>
   <tile gid="30"/>
   <tile gid="30"/>
   <tile gid="30"/>
   <tile gid="30"/>
   <tile gid="30"/>
   <tile gid="30"/>
   <tile gid="30"/>
   <tile gid="30"/>
   <tile gid="30"/>
   <tile gid="34"/>
   <tile gid="34"/>
   <tile gid="34"/>
   <tile gid="34"/>
   <tile gid="34"/>
   <tile gid="34"/>
   <tile gid="34"/>
   <tile gid="34"/>
   <tile gid="34"/>
   <tile gid="34"/>
   <tile gid="34"/>
   <tile gid="34"/>
   <tile gid="34"/>
   <tile gid="34"/>
   <tile gid="34"/>
   <tile gid="34"/>
   <tile gid="34"/>
   <tile gid="34"/>
   <tile gid="34"/>
   <tile gid="34"/>
   <tile gid="34"/>
   <tile gid="34"/>
   <tile gid="34"/>
   <tile gid="34"/>
   <tile gid="34"/>
   <tile gid="34"/>
   <tile gid="34"/>
   <tile gid="34"/>
   <tile gid="34"/>
   <tile gid="30"/>
   <tile gid="30"/>
   <tile gid="30"/>
   <tile gid="30"/>
   <tile gid="30"/>
   <tile gid="30"/>
   <tile gid="30"/>
   <tile gid="30"/>
   <tile gid="30"/>
   <tile gid="30"/>
   <tile gid="30"/>
   <tile gid="30"/>
   <tile gid="30"/>
   <tile gid="30"/>
   <tile gid="34"/>
   <tile gid="34"/>
   <tile gid="34"/>
   <tile gid="34"/>
   <tile gid="34"/>
   <tile gid="34"/>
   <tile gid="30"/>
   <tile gid="30"/>
   <tile gid="30"/>
   <tile gid="30"/>
   <tile gid="30"/>
   <tile gid="30"/>
   <tile gid="30"/>
   <tile gid="30"/>
   <tile gid="30"/>
   <tile gid="30"/>
   <tile gid="30"/>
   <tile gid="30"/>
   <tile gid="30"/>
   <tile gid="30"/>
   <tile gid="30"/>
   <tile gid="30"/>
   <tile gid="30"/>
   <tile gid="30"/>
   <tile gid="30"/>
   <tile gid="30"/>
   <tile gid="30"/>
   <tile gid="30"/>
   <tile gid="30"/>
   <tile gid="30"/>
   <tile gid="30"/>
   <tile gid="30"/>
   <tile gid="30"/>
   <tile gid="30"/>
   <tile gid="30"/>
   <tile gid="30"/>
   <tile gid="30"/>
   <tile gid="30"/>
   <tile gid="30"/>
   <tile gid="30"/>
   <tile gid="34"/>
   <tile gid="34"/>
   <tile gid="34"/>
   <tile gid="30"/>
   <tile gid="30"/>
   <tile gid="30"/>
   <tile gid="30"/>
   <tile gid="30"/>
   <tile gid="30"/>
   <tile gid="30"/>
   <tile gid="30"/>
   <tile gid="30"/>
   <tile gid="30"/>
   <tile gid="30"/>
   <tile gid="30"/>
   <tile gid="30"/>
   <tile gid="30"/>
   <tile gid="30"/>
   <tile gid="30"/>
   <tile gid="30"/>
   <tile gid="30"/>
   <tile gid="34"/>
   <tile gid="34"/>
   <tile gid="34"/>
   <tile gid="30"/>
   <tile gid="30"/>
   <tile gid="30"/>
   <tile gid="30"/>
   <tile gid="30"/>
   <tile gid="30"/>
   <tile gid="30"/>
   <tile gid="30"/>
   <tile gid="30"/>
   <tile gid="30"/>
   <tile gid="30"/>
   <tile gid="30"/>
   <tile gid="30"/>
   <tile gid="30"/>
   <tile gid="30"/>
   <tile gid="30"/>
   <tile gid="30"/>
   <tile gid="30"/>
   <tile gid="34"/>
   <tile gid="34"/>
   <tile gid="34"/>
   <tile gid="34"/>
   <tile gid="34"/>
   <tile gid="34"/>
   <tile gid="34"/>
   <tile gid="34"/>
   <tile gid="34"/>
   <tile gid="34"/>
   <tile gid="34"/>
   <tile gid="34"/>
   <tile gid="34"/>
   <tile gid="34"/>
   <tile gid="34"/>
   <tile gid="34"/>
   <tile gid="34"/>
   <tile gid="34"/>
   <tile gid="34"/>
   <tile gid="34"/>
   <tile gid="34"/>
   <tile gid="34"/>
   <tile gid="34"/>
   <tile gid="34"/>
   <tile gid="34"/>
   <tile gid="34"/>
   <tile gid="34"/>
   <tile gid="34"/>
   <tile gid="34"/>
   <tile gid="30"/>
   <tile gid="30"/>
   <tile gid="30"/>
   <tile gid="30"/>
   <tile gid="30"/>
   <tile gid="30"/>
   <tile gid="30"/>
   <tile gid="30"/>
   <tile gid="30"/>
   <tile gid="30"/>
   <tile gid="30"/>
   <tile gid="30"/>
   <tile gid="30"/>
   <tile gid="30"/>
   <tile gid="34"/>
   <tile gid="34"/>
   <tile gid="34"/>
   <tile gid="34"/>
   <tile gid="34"/>
   <tile gid="34"/>
   <tile gid="30"/>
   <tile gid="30"/>
   <tile gid="30"/>
   <tile gid="30"/>
   <tile gid="30"/>
   <tile gid="30"/>
   <tile gid="30"/>
   <tile gid="30"/>
   <tile gid="30"/>
   <tile gid="30"/>
   <tile gid="30"/>
   <tile gid="30"/>
   <tile gid="30"/>
   <tile gid="30"/>
   <tile gid="30"/>
   <tile gid="30"/>
   <tile gid="30"/>
   <tile gid="30"/>
   <tile gid="30"/>
   <tile gid="30"/>
   <tile gid="30"/>
   <tile gid="30"/>
   <tile gid="30"/>
   <tile gid="30"/>
   <tile gid="30"/>
   <tile gid="30"/>
   <tile gid="30"/>
   <tile gid="30"/>
   <tile gid="30"/>
   <tile gid="30"/>
   <tile gid="30"/>
   <tile gid="30"/>
   <tile gid="30"/>
   <tile gid="30"/>
   <tile gid="34"/>
   <tile gid="34"/>
   <tile gid="34"/>
   <tile gid="30"/>
   <tile gid="30"/>
   <tile gid="30"/>
   <tile gid="30"/>
   <tile gid="30"/>
   <tile gid="30"/>
   <tile gid="30"/>
   <tile gid="30"/>
   <tile gid="30"/>
   <tile gid="30"/>
   <tile gid="30"/>
   <tile gid="30"/>
   <tile gid="30"/>
   <tile gid="30"/>
   <tile gid="30"/>
   <tile gid="30"/>
   <tile gid="30"/>
   <tile gid="30"/>
   <tile gid="34"/>
   <tile gid="34"/>
   <tile gid="34"/>
   <tile gid="30"/>
   <tile gid="30"/>
   <tile gid="30"/>
   <tile gid="30"/>
   <tile gid="30"/>
   <tile gid="30"/>
   <tile gid="30"/>
   <tile gid="30"/>
   <tile gid="30"/>
   <tile gid="30"/>
   <tile gid="30"/>
   <tile gid="30"/>
   <tile gid="30"/>
   <tile gid="30"/>
   <tile gid="30"/>
   <tile gid="30"/>
   <tile gid="30"/>
   <tile gid="30"/>
   <tile gid="34"/>
   <tile gid="34"/>
   <tile gid="34"/>
   <tile gid="34"/>
   <tile gid="34"/>
   <tile gid="34"/>
   <tile gid="34"/>
   <tile gid="34"/>
   <tile gid="34"/>
   <tile gid="34"/>
   <tile gid="34"/>
   <tile gid="34"/>
   <tile gid="34"/>
   <tile gid="34"/>
   <tile gid="34"/>
   <tile gid="34"/>
   <tile gid="34"/>
   <tile gid="34"/>
   <tile gid="34"/>
   <tile gid="34"/>
   <tile gid="34"/>
   <tile gid="34"/>
   <tile gid="34"/>
   <tile gid="34"/>
   <tile gid="34"/>
   <tile gid="34"/>
   <tile gid="34"/>
   <tile gid="34"/>
   <tile gid="34"/>
   <tile gid="34"/>
   <tile gid="34"/>
   <tile gid="34"/>
   <tile gid="34"/>
   <tile gid="34"/>
   <tile gid="34"/>
   <tile gid="34"/>
   <tile gid="30"/>
   <tile gid="30"/>
   <tile gid="30"/>
   <tile gid="34"/>
   <tile gid="34"/>
   <tile gid="34"/>
   <tile gid="34"/>
   <tile gid="34"/>
   <tile gid="34"/>
   <tile gid="34"/>
   <tile gid="34"/>
   <tile gid="34"/>
   <tile gid="34"/>
   <tile gid="30"/>
   <tile gid="30"/>
   <tile gid="30"/>
   <tile gid="30"/>
   <tile gid="30"/>
   <tile gid="30"/>
   <tile gid="30"/>
   <tile gid="30"/>
   <tile gid="30"/>
   <tile gid="30"/>
   <tile gid="30"/>
   <tile gid="30"/>
   <tile gid="30"/>
   <tile gid="30"/>
   <tile gid="30"/>
   <tile gid="30"/>
   <tile gid="30"/>
   <tile gid="30"/>
   <tile gid="30"/>
   <tile gid="30"/>
   <tile gid="30"/>
   <tile gid="30"/>
   <tile gid="30"/>
   <tile gid="30"/>
   <tile gid="30"/>
   <tile gid="30"/>
   <tile gid="30"/>
   <tile gid="30"/>
   <tile gid="30"/>
   <tile gid="30"/>
   <tile gid="30"/>
   <tile gid="30"/>
   <tile gid="30"/>
   <tile gid="30"/>
   <tile gid="34"/>
   <tile gid="34"/>
   <tile gid="34"/>
   <tile gid="30"/>
   <tile gid="30"/>
   <tile gid="30"/>
   <tile gid="30"/>
   <tile gid="30"/>
   <tile gid="30"/>
   <tile gid="30"/>
   <tile gid="30"/>
   <tile gid="30"/>
   <tile gid="30"/>
   <tile gid="30"/>
   <tile gid="30"/>
   <tile gid="30"/>
   <tile gid="30"/>
   <tile gid="30"/>
   <tile gid="30"/>
   <tile gid="30"/>
   <tile gid="30"/>
   <tile gid="34"/>
   <tile gid="34"/>
   <tile gid="34"/>
   <tile gid="30"/>
   <tile gid="30"/>
   <tile gid="30"/>
   <tile gid="30"/>
   <tile gid="30"/>
   <tile gid="30"/>
   <tile gid="30"/>
   <tile gid="30"/>
   <tile gid="30"/>
   <tile gid="30"/>
   <tile gid="30"/>
   <tile gid="30"/>
   <tile gid="30"/>
   <tile gid="30"/>
   <tile gid="30"/>
   <tile gid="30"/>
   <tile gid="30"/>
   <tile gid="30"/>
   <tile gid="34"/>
   <tile gid="34"/>
   <tile gid="34"/>
   <tile gid="34"/>
   <tile gid="34"/>
   <tile gid="34"/>
   <tile gid="34"/>
   <tile gid="34"/>
   <tile gid="34"/>
   <tile gid="34"/>
   <tile gid="34"/>
   <tile gid="34"/>
   <tile gid="34"/>
   <tile gid="34"/>
   <tile gid="34"/>
   <tile gid="34"/>
   <tile gid="34"/>
   <tile gid="34"/>
   <tile gid="34"/>
   <tile gid="34"/>
   <tile gid="34"/>
   <tile gid="34"/>
   <tile gid="34"/>
   <tile gid="34"/>
   <tile gid="34"/>
   <tile gid="34"/>
   <tile gid="34"/>
   <tile gid="34"/>
   <tile gid="34"/>
   <tile gid="34"/>
   <tile gid="34"/>
   <tile gid="34"/>
   <tile gid="34"/>
   <tile gid="34"/>
   <tile gid="34"/>
   <tile gid="34"/>
   <tile gid="30"/>
   <tile gid="30"/>
   <tile gid="30"/>
   <tile gid="34"/>
   <tile gid="34"/>
   <tile gid="34"/>
   <tile gid="34"/>
   <tile gid="34"/>
   <tile gid="34"/>
   <tile gid="34"/>
   <tile gid="34"/>
   <tile gid="34"/>
   <tile gid="34"/>
   <tile gid="30"/>
   <tile gid="30"/>
   <tile gid="30"/>
   <tile gid="30"/>
   <tile gid="30"/>
   <tile gid="30"/>
   <tile gid="30"/>
   <tile gid="30"/>
   <tile gid="30"/>
   <tile gid="30"/>
   <tile gid="30"/>
   <tile gid="30"/>
   <tile gid="30"/>
   <tile gid="30"/>
   <tile gid="30"/>
   <tile gid="30"/>
   <tile gid="30"/>
   <tile gid="30"/>
   <tile gid="30"/>
   <tile gid="30"/>
   <tile gid="30"/>
   <tile gid="30"/>
   <tile gid="30"/>
   <tile gid="30"/>
   <tile gid="30"/>
   <tile gid="30"/>
   <tile gid="30"/>
   <tile gid="30"/>
   <tile gid="30"/>
   <tile gid="30"/>
   <tile gid="30"/>
   <tile gid="30"/>
   <tile gid="30"/>
   <tile gid="30"/>
   <tile gid="34"/>
   <tile gid="34"/>
   <tile gid="34"/>
   <tile gid="30"/>
   <tile gid="30"/>
   <tile gid="30"/>
   <tile gid="30"/>
   <tile gid="30"/>
   <tile gid="30"/>
   <tile gid="30"/>
   <tile gid="30"/>
   <tile gid="30"/>
   <tile gid="30"/>
   <tile gid="30"/>
   <tile gid="30"/>
   <tile gid="30"/>
   <tile gid="30"/>
   <tile gid="30"/>
   <tile gid="30"/>
   <tile gid="30"/>
   <tile gid="30"/>
   <tile gid="34"/>
   <tile gid="34"/>
   <tile gid="34"/>
   <tile gid="30"/>
   <tile gid="30"/>
   <tile gid="30"/>
   <tile gid="30"/>
   <tile gid="30"/>
   <tile gid="30"/>
   <tile gid="30"/>
   <tile gid="30"/>
   <tile gid="30"/>
   <tile gid="30"/>
   <tile gid="30"/>
   <tile gid="30"/>
   <tile gid="30"/>
   <tile gid="30"/>
   <tile gid="30"/>
   <tile gid="30"/>
   <tile gid="30"/>
   <tile gid="30"/>
   <tile gid="34"/>
   <tile gid="34"/>
   <tile gid="34"/>
   <tile gid="34"/>
   <tile gid="34"/>
   <tile gid="34"/>
   <tile gid="34"/>
   <tile gid="34"/>
   <tile gid="34"/>
   <tile gid="34"/>
   <tile gid="34"/>
   <tile gid="34"/>
   <tile gid="34"/>
   <tile gid="34"/>
   <tile gid="34"/>
   <tile gid="34"/>
   <tile gid="34"/>
   <tile gid="34"/>
   <tile gid="34"/>
   <tile gid="34"/>
   <tile gid="34"/>
   <tile gid="34"/>
   <tile gid="34"/>
   <tile gid="34"/>
   <tile gid="34"/>
   <tile gid="34"/>
   <tile gid="34"/>
   <tile gid="34"/>
   <tile gid="34"/>
   <tile gid="34"/>
   <tile gid="34"/>
   <tile gid="34"/>
   <tile gid="34"/>
   <tile gid="34"/>
   <tile gid="34"/>
   <tile gid="34"/>
   <tile gid="30"/>
   <tile gid="30"/>
   <tile gid="30"/>
   <tile gid="34"/>
   <tile gid="34"/>
   <tile gid="34"/>
   <tile gid="34"/>
   <tile gid="34"/>
   <tile gid="34"/>
   <tile gid="34"/>
   <tile gid="34"/>
   <tile gid="34"/>
   <tile gid="34"/>
   <tile gid="30"/>
   <tile gid="30"/>
   <tile gid="30"/>
   <tile gid="30"/>
   <tile gid="30"/>
   <tile gid="30"/>
   <tile gid="30"/>
   <tile gid="30"/>
   <tile gid="30"/>
   <tile gid="30"/>
   <tile gid="30"/>
   <tile gid="30"/>
   <tile gid="30"/>
   <tile gid="30"/>
   <tile gid="30"/>
   <tile gid="30"/>
   <tile gid="30"/>
   <tile gid="30"/>
   <tile gid="30"/>
   <tile gid="30"/>
   <tile gid="30"/>
   <tile gid="30"/>
   <tile gid="30"/>
   <tile gid="30"/>
   <tile gid="30"/>
   <tile gid="30"/>
   <tile gid="30"/>
   <tile gid="30"/>
   <tile gid="30"/>
   <tile gid="30"/>
   <tile gid="30"/>
   <tile gid="30"/>
   <tile gid="30"/>
   <tile gid="30"/>
   <tile gid="34"/>
   <tile gid="34"/>
   <tile gid="34"/>
   <tile gid="30"/>
   <tile gid="30"/>
   <tile gid="30"/>
   <tile gid="30"/>
   <tile gid="30"/>
   <tile gid="30"/>
   <tile gid="30"/>
   <tile gid="30"/>
   <tile gid="30"/>
   <tile gid="30"/>
   <tile gid="30"/>
   <tile gid="30"/>
   <tile gid="30"/>
   <tile gid="30"/>
   <tile gid="30"/>
   <tile gid="30"/>
   <tile gid="30"/>
   <tile gid="30"/>
   <tile gid="34"/>
   <tile gid="34"/>
   <tile gid="34"/>
   <tile gid="30"/>
   <tile gid="30"/>
   <tile gid="30"/>
   <tile gid="30"/>
   <tile gid="30"/>
   <tile gid="30"/>
   <tile gid="30"/>
   <tile gid="30"/>
   <tile gid="30"/>
   <tile gid="30"/>
   <tile gid="30"/>
   <tile gid="30"/>
   <tile gid="30"/>
   <tile gid="30"/>
   <tile gid="30"/>
   <tile gid="30"/>
   <tile gid="30"/>
   <tile gid="30"/>
   <tile gid="34"/>
   <tile gid="34"/>
   <tile gid="34"/>
   <tile gid="34"/>
   <tile gid="34"/>
   <tile gid="34"/>
   <tile gid="34"/>
   <tile gid="34"/>
   <tile gid="34"/>
   <tile gid="34"/>
   <tile gid="34"/>
   <tile gid="34"/>
   <tile gid="34"/>
   <tile gid="34"/>
   <tile gid="34"/>
   <tile gid="34"/>
   <tile gid="34"/>
   <tile gid="34"/>
   <tile gid="34"/>
   <tile gid="34"/>
   <tile gid="34"/>
   <tile gid="34"/>
   <tile gid="34"/>
   <tile gid="34"/>
   <tile gid="34"/>
   <tile gid="34"/>
   <tile gid="34"/>
   <tile gid="34"/>
   <tile gid="34"/>
   <tile gid="30"/>
   <tile gid="30"/>
   <tile gid="30"/>
   <tile gid="30"/>
   <tile gid="30"/>
   <tile gid="30"/>
   <tile gid="30"/>
   <tile gid="30"/>
   <tile gid="30"/>
   <tile gid="30"/>
   <tile gid="30"/>
   <tile gid="30"/>
   <tile gid="30"/>
   <tile gid="30"/>
   <tile gid="34"/>
   <tile gid="34"/>
   <tile gid="34"/>
   <tile gid="34"/>
   <tile gid="34"/>
   <tile gid="34"/>
   <tile gid="30"/>
   <tile gid="30"/>
   <tile gid="30"/>
   <tile gid="30"/>
   <tile gid="30"/>
   <tile gid="30"/>
   <tile gid="30"/>
   <tile gid="30"/>
   <tile gid="30"/>
   <tile gid="30"/>
   <tile gid="30"/>
   <tile gid="30"/>
   <tile gid="30"/>
   <tile gid="30"/>
   <tile gid="30"/>
   <tile gid="30"/>
   <tile gid="30"/>
   <tile gid="30"/>
   <tile gid="30"/>
   <tile gid="30"/>
   <tile gid="30"/>
   <tile gid="30"/>
   <tile gid="30"/>
   <tile gid="30"/>
   <tile gid="30"/>
   <tile gid="30"/>
   <tile gid="30"/>
   <tile gid="30"/>
   <tile gid="30"/>
   <tile gid="30"/>
   <tile gid="30"/>
   <tile gid="30"/>
   <tile gid="30"/>
   <tile gid="30"/>
   <tile gid="30"/>
   <tile gid="30"/>
   <tile gid="30"/>
   <tile gid="30"/>
   <tile gid="30"/>
   <tile gid="30"/>
   <tile gid="30"/>
   <tile gid="30"/>
   <tile gid="30"/>
   <tile gid="30"/>
   <tile gid="30"/>
   <tile gid="30"/>
   <tile gid="30"/>
   <tile gid="30"/>
   <tile gid="30"/>
   <tile gid="30"/>
   <tile gid="30"/>
   <tile gid="30"/>
   <tile gid="30"/>
   <tile gid="30"/>
   <tile gid="30"/>
   <tile gid="34"/>
   <tile gid="34"/>
   <tile gid="34"/>
   <tile gid="30"/>
   <tile gid="30"/>
   <tile gid="30"/>
   <tile gid="30"/>
   <tile gid="30"/>
   <tile gid="30"/>
   <tile gid="30"/>
   <tile gid="30"/>
   <tile gid="30"/>
   <tile gid="30"/>
   <tile gid="30"/>
   <tile gid="30"/>
   <tile gid="30"/>
   <tile gid="30"/>
   <tile gid="30"/>
   <tile gid="30"/>
   <tile gid="30"/>
   <tile gid="30"/>
   <tile gid="34"/>
   <tile gid="34"/>
   <tile gid="34"/>
   <tile gid="34"/>
   <tile gid="34"/>
   <tile gid="34"/>
   <tile gid="34"/>
   <tile gid="34"/>
   <tile gid="34"/>
   <tile gid="34"/>
   <tile gid="34"/>
   <tile gid="34"/>
   <tile gid="34"/>
   <tile gid="34"/>
   <tile gid="34"/>
   <tile gid="34"/>
   <tile gid="34"/>
   <tile gid="34"/>
   <tile gid="34"/>
   <tile gid="34"/>
   <tile gid="34"/>
   <tile gid="34"/>
   <tile gid="34"/>
   <tile gid="34"/>
   <tile gid="34"/>
   <tile gid="34"/>
   <tile gid="34"/>
   <tile gid="34"/>
   <tile gid="34"/>
   <tile gid="30"/>
   <tile gid="30"/>
   <tile gid="30"/>
   <tile gid="30"/>
   <tile gid="30"/>
   <tile gid="30"/>
   <tile gid="30"/>
   <tile gid="30"/>
   <tile gid="30"/>
   <tile gid="30"/>
   <tile gid="30"/>
   <tile gid="30"/>
   <tile gid="30"/>
   <tile gid="30"/>
   <tile gid="34"/>
   <tile gid="34"/>
   <tile gid="34"/>
   <tile gid="34"/>
   <tile gid="34"/>
   <tile gid="34"/>
   <tile gid="30"/>
   <tile gid="30"/>
   <tile gid="30"/>
   <tile gid="30"/>
   <tile gid="30"/>
   <tile gid="30"/>
   <tile gid="30"/>
   <tile gid="30"/>
   <tile gid="30"/>
   <tile gid="30"/>
   <tile gid="30"/>
   <tile gid="30"/>
   <tile gid="30"/>
   <tile gid="30"/>
   <tile gid="30"/>
   <tile gid="30"/>
   <tile gid="30"/>
   <tile gid="30"/>
   <tile gid="30"/>
   <tile gid="30"/>
   <tile gid="30"/>
   <tile gid="30"/>
   <tile gid="30"/>
   <tile gid="30"/>
   <tile gid="30"/>
   <tile gid="30"/>
   <tile gid="30"/>
   <tile gid="30"/>
   <tile gid="30"/>
   <tile gid="30"/>
   <tile gid="30"/>
   <tile gid="30"/>
   <tile gid="30"/>
   <tile gid="30"/>
   <tile gid="30"/>
   <tile gid="30"/>
   <tile gid="30"/>
   <tile gid="30"/>
   <tile gid="30"/>
   <tile gid="30"/>
   <tile gid="30"/>
   <tile gid="30"/>
   <tile gid="30"/>
   <tile gid="30"/>
   <tile gid="30"/>
   <tile gid="30"/>
   <tile gid="30"/>
   <tile gid="30"/>
   <tile gid="30"/>
   <tile gid="30"/>
   <tile gid="30"/>
   <tile gid="30"/>
   <tile gid="30"/>
   <tile gid="30"/>
   <tile gid="30"/>
   <tile gid="34"/>
   <tile gid="34"/>
   <tile gid="34"/>
   <tile gid="30"/>
   <tile gid="30"/>
   <tile gid="30"/>
   <tile gid="30"/>
   <tile gid="30"/>
   <tile gid="30"/>
   <tile gid="30"/>
   <tile gid="30"/>
   <tile gid="30"/>
   <tile gid="30"/>
   <tile gid="30"/>
   <tile gid="30"/>
   <tile gid="30"/>
   <tile gid="30"/>
   <tile gid="30"/>
   <tile gid="30"/>
   <tile gid="30"/>
   <tile gid="30"/>
   <tile gid="34"/>
   <tile gid="34"/>
   <tile gid="34"/>
   <tile gid="34"/>
   <tile gid="34"/>
   <tile gid="34"/>
   <tile gid="34"/>
   <tile gid="34"/>
   <tile gid="34"/>
   <tile gid="34"/>
   <tile gid="34"/>
   <tile gid="34"/>
   <tile gid="34"/>
   <tile gid="34"/>
   <tile gid="34"/>
   <tile gid="34"/>
   <tile gid="34"/>
   <tile gid="34"/>
   <tile gid="34"/>
   <tile gid="34"/>
   <tile gid="34"/>
   <tile gid="34"/>
   <tile gid="34"/>
   <tile gid="34"/>
   <tile gid="34"/>
   <tile gid="34"/>
   <tile gid="34"/>
   <tile gid="34"/>
   <tile gid="34"/>
   <tile gid="30"/>
   <tile gid="30"/>
   <tile gid="30"/>
   <tile gid="30"/>
   <tile gid="30"/>
   <tile gid="30"/>
   <tile gid="30"/>
   <tile gid="30"/>
   <tile gid="30"/>
   <tile gid="30"/>
   <tile gid="30"/>
   <tile gid="30"/>
   <tile gid="30"/>
   <tile gid="30"/>
   <tile gid="34"/>
   <tile gid="34"/>
   <tile gid="34"/>
   <tile gid="34"/>
   <tile gid="34"/>
   <tile gid="34"/>
   <tile gid="30"/>
   <tile gid="30"/>
   <tile gid="30"/>
   <tile gid="30"/>
   <tile gid="30"/>
   <tile gid="30"/>
   <tile gid="30"/>
   <tile gid="30"/>
   <tile gid="30"/>
   <tile gid="30"/>
   <tile gid="30"/>
   <tile gid="30"/>
   <tile gid="30"/>
   <tile gid="30"/>
   <tile gid="30"/>
   <tile gid="30"/>
   <tile gid="30"/>
   <tile gid="30"/>
   <tile gid="30"/>
   <tile gid="30"/>
   <tile gid="30"/>
   <tile gid="30"/>
   <tile gid="30"/>
   <tile gid="30"/>
   <tile gid="30"/>
   <tile gid="30"/>
   <tile gid="30"/>
   <tile gid="30"/>
   <tile gid="30"/>
   <tile gid="30"/>
   <tile gid="30"/>
   <tile gid="30"/>
   <tile gid="30"/>
   <tile gid="30"/>
   <tile gid="30"/>
   <tile gid="30"/>
   <tile gid="30"/>
   <tile gid="30"/>
   <tile gid="30"/>
   <tile gid="30"/>
   <tile gid="30"/>
   <tile gid="30"/>
   <tile gid="30"/>
   <tile gid="30"/>
   <tile gid="30"/>
   <tile gid="30"/>
   <tile gid="30"/>
   <tile gid="30"/>
   <tile gid="30"/>
   <tile gid="30"/>
   <tile gid="30"/>
   <tile gid="30"/>
   <tile gid="30"/>
   <tile gid="30"/>
   <tile gid="30"/>
   <tile gid="34"/>
   <tile gid="34"/>
   <tile gid="34"/>
   <tile gid="30"/>
   <tile gid="30"/>
   <tile gid="30"/>
   <tile gid="30"/>
   <tile gid="30"/>
   <tile gid="30"/>
   <tile gid="30"/>
   <tile gid="30"/>
   <tile gid="30"/>
   <tile gid="30"/>
   <tile gid="30"/>
   <tile gid="30"/>
   <tile gid="30"/>
   <tile gid="30"/>
   <tile gid="30"/>
   <tile gid="30"/>
   <tile gid="30"/>
   <tile gid="30"/>
   <tile gid="34"/>
   <tile gid="34"/>
   <tile gid="34"/>
   <tile gid="34"/>
   <tile gid="34"/>
   <tile gid="34"/>
   <tile gid="34"/>
   <tile gid="34"/>
   <tile gid="34"/>
   <tile gid="34"/>
   <tile gid="34"/>
   <tile gid="34"/>
   <tile gid="34"/>
   <tile gid="34"/>
   <tile gid="34"/>
   <tile gid="34"/>
   <tile gid="34"/>
   <tile gid="34"/>
   <tile gid="34"/>
   <tile gid="34"/>
   <tile gid="34"/>
   <tile gid="34"/>
   <tile gid="34"/>
   <tile gid="34"/>
   <tile gid="34"/>
   <tile gid="34"/>
   <tile gid="34"/>
   <tile gid="34"/>
   <tile gid="34"/>
   <tile gid="30"/>
   <tile gid="30"/>
   <tile gid="30"/>
   <tile gid="30"/>
   <tile gid="30"/>
   <tile gid="30"/>
   <tile gid="30"/>
   <tile gid="30"/>
   <tile gid="30"/>
   <tile gid="30"/>
   <tile gid="30"/>
   <tile gid="30"/>
   <tile gid="30"/>
   <tile gid="30"/>
   <tile gid="34"/>
   <tile gid="34"/>
   <tile gid="34"/>
   <tile gid="34"/>
   <tile gid="34"/>
   <tile gid="34"/>
   <tile gid="30"/>
   <tile gid="30"/>
   <tile gid="30"/>
   <tile gid="30"/>
   <tile gid="30"/>
   <tile gid="30"/>
   <tile gid="30"/>
   <tile gid="30"/>
   <tile gid="30"/>
   <tile gid="30"/>
   <tile gid="30"/>
   <tile gid="30"/>
   <tile gid="30"/>
   <tile gid="30"/>
   <tile gid="30"/>
   <tile gid="30"/>
   <tile gid="30"/>
   <tile gid="30"/>
   <tile gid="30"/>
   <tile gid="30"/>
   <tile gid="30"/>
   <tile gid="30"/>
   <tile gid="30"/>
   <tile gid="30"/>
   <tile gid="30"/>
   <tile gid="30"/>
   <tile gid="30"/>
   <tile gid="30"/>
   <tile gid="30"/>
   <tile gid="30"/>
   <tile gid="30"/>
   <tile gid="30"/>
   <tile gid="30"/>
   <tile gid="30"/>
   <tile gid="34"/>
   <tile gid="34"/>
   <tile gid="34"/>
   <tile gid="30"/>
   <tile gid="30"/>
   <tile gid="30"/>
   <tile gid="30"/>
   <tile gid="30"/>
   <tile gid="30"/>
   <tile gid="30"/>
   <tile gid="30"/>
   <tile gid="30"/>
   <tile gid="30"/>
   <tile gid="30"/>
   <tile gid="30"/>
   <tile gid="30"/>
   <tile gid="30"/>
   <tile gid="30"/>
   <tile gid="30"/>
   <tile gid="30"/>
   <tile gid="30"/>
   <tile gid="34"/>
   <tile gid="34"/>
   <tile gid="34"/>
   <tile gid="30"/>
   <tile gid="30"/>
   <tile gid="30"/>
   <tile gid="30"/>
   <tile gid="30"/>
   <tile gid="30"/>
   <tile gid="30"/>
   <tile gid="30"/>
   <tile gid="30"/>
   <tile gid="30"/>
   <tile gid="30"/>
   <tile gid="30"/>
   <tile gid="30"/>
   <tile gid="30"/>
   <tile gid="30"/>
   <tile gid="30"/>
   <tile gid="30"/>
   <tile gid="30"/>
   <tile gid="34"/>
   <tile gid="34"/>
   <tile gid="34"/>
   <tile gid="34"/>
   <tile gid="34"/>
   <tile gid="34"/>
   <tile gid="34"/>
   <tile gid="34"/>
   <tile gid="34"/>
   <tile gid="34"/>
   <tile gid="34"/>
   <tile gid="34"/>
   <tile gid="34"/>
   <tile gid="34"/>
   <tile gid="34"/>
   <tile gid="34"/>
   <tile gid="34"/>
   <tile gid="34"/>
   <tile gid="34"/>
   <tile gid="34"/>
   <tile gid="34"/>
   <tile gid="34"/>
   <tile gid="34"/>
   <tile gid="34"/>
   <tile gid="34"/>
   <tile gid="34"/>
   <tile gid="34"/>
   <tile gid="34"/>
   <tile gid="34"/>
   <tile gid="30"/>
   <tile gid="30"/>
   <tile gid="30"/>
   <tile gid="30"/>
   <tile gid="30"/>
   <tile gid="30"/>
   <tile gid="30"/>
   <tile gid="30"/>
   <tile gid="30"/>
   <tile gid="30"/>
   <tile gid="30"/>
   <tile gid="30"/>
   <tile gid="30"/>
   <tile gid="30"/>
   <tile gid="34"/>
   <tile gid="34"/>
   <tile gid="34"/>
   <tile gid="34"/>
   <tile gid="34"/>
   <tile gid="34"/>
   <tile gid="30"/>
   <tile gid="30"/>
   <tile gid="30"/>
   <tile gid="30"/>
   <tile gid="30"/>
   <tile gid="30"/>
   <tile gid="30"/>
   <tile gid="30"/>
   <tile gid="30"/>
   <tile gid="30"/>
   <tile gid="30"/>
   <tile gid="30"/>
   <tile gid="30"/>
   <tile gid="30"/>
   <tile gid="30"/>
   <tile gid="30"/>
   <tile gid="30"/>
   <tile gid="30"/>
   <tile gid="30"/>
   <tile gid="30"/>
   <tile gid="30"/>
   <tile gid="30"/>
   <tile gid="30"/>
   <tile gid="30"/>
   <tile gid="30"/>
   <tile gid="30"/>
   <tile gid="30"/>
   <tile gid="30"/>
   <tile gid="30"/>
   <tile gid="30"/>
   <tile gid="30"/>
   <tile gid="30"/>
   <tile gid="30"/>
   <tile gid="30"/>
   <tile gid="34"/>
   <tile gid="34"/>
   <tile gid="34"/>
   <tile gid="30"/>
   <tile gid="30"/>
   <tile gid="30"/>
   <tile gid="30"/>
   <tile gid="30"/>
   <tile gid="30"/>
   <tile gid="30"/>
   <tile gid="30"/>
   <tile gid="30"/>
   <tile gid="30"/>
   <tile gid="30"/>
   <tile gid="30"/>
   <tile gid="30"/>
   <tile gid="30"/>
   <tile gid="30"/>
   <tile gid="30"/>
   <tile gid="30"/>
   <tile gid="30"/>
   <tile gid="34"/>
   <tile gid="34"/>
   <tile gid="34"/>
   <tile gid="30"/>
   <tile gid="30"/>
   <tile gid="30"/>
   <tile gid="30"/>
   <tile gid="30"/>
   <tile gid="30"/>
   <tile gid="30"/>
   <tile gid="30"/>
   <tile gid="30"/>
   <tile gid="30"/>
   <tile gid="30"/>
   <tile gid="30"/>
   <tile gid="30"/>
   <tile gid="30"/>
   <tile gid="30"/>
   <tile gid="30"/>
   <tile gid="30"/>
   <tile gid="30"/>
   <tile gid="34"/>
   <tile gid="34"/>
   <tile gid="34"/>
   <tile gid="34"/>
   <tile gid="34"/>
   <tile gid="34"/>
   <tile gid="34"/>
   <tile gid="34"/>
   <tile gid="34"/>
   <tile gid="34"/>
   <tile gid="34"/>
   <tile gid="34"/>
   <tile gid="34"/>
   <tile gid="34"/>
   <tile gid="34"/>
   <tile gid="34"/>
   <tile gid="34"/>
   <tile gid="34"/>
   <tile gid="34"/>
   <tile gid="34"/>
   <tile gid="34"/>
   <tile gid="34"/>
   <tile gid="34"/>
   <tile gid="34"/>
   <tile gid="34"/>
   <tile gid="34"/>
   <tile gid="34"/>
   <tile gid="34"/>
   <tile gid="34"/>
   <tile gid="30"/>
   <tile gid="30"/>
   <tile gid="30"/>
   <tile gid="30"/>
   <tile gid="30"/>
   <tile gid="30"/>
   <tile gid="30"/>
   <tile gid="30"/>
   <tile gid="30"/>
   <tile gid="30"/>
   <tile gid="30"/>
   <tile gid="30"/>
   <tile gid="30"/>
   <tile gid="30"/>
   <tile gid="34"/>
   <tile gid="34"/>
   <tile gid="34"/>
   <tile gid="34"/>
   <tile gid="34"/>
   <tile gid="34"/>
   <tile gid="30"/>
   <tile gid="30"/>
   <tile gid="30"/>
   <tile gid="30"/>
   <tile gid="30"/>
   <tile gid="30"/>
   <tile gid="30"/>
   <tile gid="30"/>
   <tile gid="30"/>
   <tile gid="30"/>
   <tile gid="30"/>
   <tile gid="30"/>
   <tile gid="30"/>
   <tile gid="30"/>
   <tile gid="30"/>
   <tile gid="30"/>
   <tile gid="30"/>
   <tile gid="30"/>
   <tile gid="30"/>
   <tile gid="30"/>
   <tile gid="30"/>
   <tile gid="30"/>
   <tile gid="30"/>
   <tile gid="30"/>
   <tile gid="30"/>
   <tile gid="30"/>
   <tile gid="30"/>
   <tile gid="30"/>
   <tile gid="30"/>
   <tile gid="30"/>
   <tile gid="30"/>
   <tile gid="30"/>
   <tile gid="30"/>
   <tile gid="30"/>
   <tile gid="34"/>
   <tile gid="34"/>
   <tile gid="34"/>
   <tile gid="30"/>
   <tile gid="30"/>
   <tile gid="30"/>
   <tile gid="30"/>
   <tile gid="30"/>
   <tile gid="30"/>
   <tile gid="30"/>
   <tile gid="30"/>
   <tile gid="30"/>
   <tile gid="30"/>
   <tile gid="30"/>
   <tile gid="30"/>
   <tile gid="30"/>
   <tile gid="30"/>
   <tile gid="30"/>
   <tile gid="30"/>
   <tile gid="30"/>
   <tile gid="30"/>
   <tile gid="34"/>
   <tile gid="34"/>
   <tile gid="34"/>
   <tile gid="30"/>
   <tile gid="30"/>
   <tile gid="30"/>
   <tile gid="30"/>
   <tile gid="30"/>
   <tile gid="30"/>
   <tile gid="30"/>
   <tile gid="30"/>
   <tile gid="30"/>
   <tile gid="30"/>
   <tile gid="30"/>
   <tile gid="30"/>
   <tile gid="30"/>
   <tile gid="30"/>
   <tile gid="30"/>
   <tile gid="30"/>
   <tile gid="30"/>
   <tile gid="30"/>
   <tile gid="34"/>
   <tile gid="34"/>
   <tile gid="34"/>
   <tile gid="34"/>
   <tile gid="34"/>
   <tile gid="34"/>
   <tile gid="34"/>
   <tile gid="34"/>
   <tile gid="34"/>
   <tile gid="34"/>
   <tile gid="34"/>
   <tile gid="34"/>
   <tile gid="34"/>
   <tile gid="34"/>
   <tile gid="34"/>
   <tile gid="34"/>
   <tile gid="34"/>
   <tile gid="34"/>
   <tile gid="34"/>
   <tile gid="34"/>
   <tile gid="34"/>
   <tile gid="34"/>
   <tile gid="34"/>
   <tile gid="34"/>
   <tile gid="34"/>
   <tile gid="34"/>
   <tile gid="34"/>
   <tile gid="34"/>
   <tile gid="34"/>
   <tile gid="30"/>
   <tile gid="30"/>
   <tile gid="30"/>
   <tile gid="30"/>
   <tile gid="30"/>
   <tile gid="30"/>
   <tile gid="30"/>
   <tile gid="30"/>
   <tile gid="30"/>
   <tile gid="30"/>
   <tile gid="30"/>
   <tile gid="30"/>
   <tile gid="30"/>
   <tile gid="30"/>
   <tile gid="34"/>
   <tile gid="34"/>
   <tile gid="34"/>
   <tile gid="34"/>
   <tile gid="34"/>
   <tile gid="34"/>
   <tile gid="30"/>
   <tile gid="30"/>
   <tile gid="30"/>
   <tile gid="30"/>
   <tile gid="30"/>
   <tile gid="30"/>
   <tile gid="30"/>
   <tile gid="30"/>
   <tile gid="30"/>
   <tile gid="30"/>
   <tile gid="30"/>
   <tile gid="30"/>
   <tile gid="30"/>
   <tile gid="30"/>
   <tile gid="30"/>
   <tile gid="30"/>
   <tile gid="30"/>
   <tile gid="30"/>
   <tile gid="30"/>
   <tile gid="30"/>
   <tile gid="30"/>
   <tile gid="30"/>
   <tile gid="30"/>
   <tile gid="30"/>
   <tile gid="30"/>
   <tile gid="30"/>
   <tile gid="30"/>
   <tile gid="30"/>
   <tile gid="30"/>
   <tile gid="30"/>
   <tile gid="30"/>
   <tile gid="30"/>
   <tile gid="30"/>
   <tile gid="30"/>
   <tile gid="34"/>
   <tile gid="34"/>
   <tile gid="34"/>
   <tile gid="30"/>
   <tile gid="30"/>
   <tile gid="30"/>
   <tile gid="30"/>
   <tile gid="30"/>
   <tile gid="30"/>
   <tile gid="30"/>
   <tile gid="30"/>
   <tile gid="30"/>
   <tile gid="30"/>
   <tile gid="30"/>
   <tile gid="30"/>
   <tile gid="30"/>
   <tile gid="30"/>
   <tile gid="30"/>
   <tile gid="30"/>
   <tile gid="30"/>
   <tile gid="30"/>
   <tile gid="34"/>
   <tile gid="34"/>
   <tile gid="34"/>
   <tile gid="30"/>
   <tile gid="30"/>
   <tile gid="30"/>
   <tile gid="30"/>
   <tile gid="30"/>
   <tile gid="30"/>
   <tile gid="30"/>
   <tile gid="30"/>
   <tile gid="30"/>
   <tile gid="30"/>
   <tile gid="30"/>
   <tile gid="30"/>
   <tile gid="30"/>
   <tile gid="30"/>
   <tile gid="30"/>
   <tile gid="30"/>
   <tile gid="30"/>
   <tile gid="30"/>
   <tile gid="34"/>
   <tile gid="34"/>
   <tile gid="34"/>
   <tile gid="34"/>
   <tile gid="34"/>
   <tile gid="34"/>
   <tile gid="34"/>
   <tile gid="34"/>
   <tile gid="34"/>
   <tile gid="34"/>
   <tile gid="34"/>
   <tile gid="34"/>
   <tile gid="34"/>
   <tile gid="34"/>
   <tile gid="34"/>
   <tile gid="34"/>
   <tile gid="34"/>
   <tile gid="34"/>
   <tile gid="34"/>
   <tile gid="34"/>
   <tile gid="34"/>
   <tile gid="34"/>
   <tile gid="34"/>
   <tile gid="34"/>
   <tile gid="34"/>
   <tile gid="34"/>
   <tile gid="34"/>
   <tile gid="34"/>
   <tile gid="34"/>
   <tile gid="30"/>
   <tile gid="30"/>
   <tile gid="30"/>
   <tile gid="30"/>
   <tile gid="30"/>
   <tile gid="30"/>
   <tile gid="30"/>
   <tile gid="30"/>
   <tile gid="30"/>
   <tile gid="30"/>
   <tile gid="30"/>
   <tile gid="30"/>
   <tile gid="30"/>
   <tile gid="30"/>
   <tile gid="34"/>
   <tile gid="34"/>
   <tile gid="34"/>
   <tile gid="34"/>
   <tile gid="34"/>
   <tile gid="34"/>
   <tile gid="30"/>
   <tile gid="30"/>
   <tile gid="30"/>
   <tile gid="30"/>
   <tile gid="30"/>
   <tile gid="30"/>
   <tile gid="30"/>
   <tile gid="30"/>
   <tile gid="30"/>
   <tile gid="30"/>
   <tile gid="30"/>
   <tile gid="30"/>
   <tile gid="30"/>
   <tile gid="30"/>
   <tile gid="30"/>
   <tile gid="30"/>
   <tile gid="30"/>
   <tile gid="30"/>
   <tile gid="30"/>
   <tile gid="30"/>
   <tile gid="30"/>
   <tile gid="30"/>
   <tile gid="30"/>
   <tile gid="30"/>
   <tile gid="30"/>
   <tile gid="30"/>
   <tile gid="30"/>
   <tile gid="30"/>
   <tile gid="30"/>
   <tile gid="30"/>
   <tile gid="30"/>
   <tile gid="30"/>
   <tile gid="30"/>
   <tile gid="30"/>
   <tile gid="34"/>
   <tile gid="34"/>
   <tile gid="34"/>
   <tile gid="30"/>
   <tile gid="30"/>
   <tile gid="30"/>
   <tile gid="30"/>
   <tile gid="30"/>
   <tile gid="30"/>
   <tile gid="30"/>
   <tile gid="30"/>
   <tile gid="30"/>
   <tile gid="30"/>
   <tile gid="30"/>
   <tile gid="30"/>
   <tile gid="30"/>
   <tile gid="30"/>
   <tile gid="30"/>
   <tile gid="30"/>
   <tile gid="30"/>
   <tile gid="30"/>
   <tile gid="34"/>
   <tile gid="34"/>
   <tile gid="34"/>
   <tile gid="30"/>
   <tile gid="30"/>
   <tile gid="30"/>
   <tile gid="30"/>
   <tile gid="30"/>
   <tile gid="30"/>
   <tile gid="30"/>
   <tile gid="30"/>
   <tile gid="30"/>
   <tile gid="30"/>
   <tile gid="30"/>
   <tile gid="30"/>
   <tile gid="30"/>
   <tile gid="30"/>
   <tile gid="30"/>
   <tile gid="30"/>
   <tile gid="30"/>
   <tile gid="30"/>
   <tile gid="34"/>
   <tile gid="34"/>
   <tile gid="34"/>
   <tile gid="34"/>
   <tile gid="34"/>
   <tile gid="34"/>
   <tile gid="34"/>
   <tile gid="34"/>
   <tile gid="34"/>
   <tile gid="34"/>
   <tile gid="34"/>
   <tile gid="34"/>
   <tile gid="34"/>
   <tile gid="34"/>
   <tile gid="34"/>
   <tile gid="34"/>
   <tile gid="34"/>
   <tile gid="34"/>
   <tile gid="34"/>
   <tile gid="34"/>
   <tile gid="34"/>
   <tile gid="34"/>
   <tile gid="34"/>
   <tile gid="34"/>
   <tile gid="34"/>
   <tile gid="34"/>
   <tile gid="34"/>
   <tile gid="34"/>
   <tile gid="34"/>
   <tile gid="30"/>
   <tile gid="30"/>
   <tile gid="30"/>
   <tile gid="30"/>
   <tile gid="30"/>
   <tile gid="30"/>
   <tile gid="30"/>
   <tile gid="30"/>
   <tile gid="30"/>
   <tile gid="30"/>
   <tile gid="30"/>
   <tile gid="30"/>
   <tile gid="30"/>
   <tile gid="30"/>
   <tile gid="34"/>
   <tile gid="34"/>
   <tile gid="34"/>
   <tile gid="34"/>
   <tile gid="34"/>
   <tile gid="34"/>
   <tile gid="30"/>
   <tile gid="30"/>
   <tile gid="30"/>
   <tile gid="30"/>
   <tile gid="30"/>
   <tile gid="30"/>
   <tile gid="30"/>
   <tile gid="30"/>
   <tile gid="30"/>
   <tile gid="30"/>
   <tile gid="30"/>
   <tile gid="30"/>
   <tile gid="30"/>
   <tile gid="30"/>
   <tile gid="30"/>
   <tile gid="30"/>
   <tile gid="30"/>
   <tile gid="30"/>
   <tile gid="30"/>
   <tile gid="30"/>
   <tile gid="30"/>
   <tile gid="30"/>
   <tile gid="30"/>
   <tile gid="30"/>
   <tile gid="30"/>
   <tile gid="30"/>
   <tile gid="30"/>
   <tile gid="30"/>
   <tile gid="30"/>
   <tile gid="30"/>
   <tile gid="30"/>
   <tile gid="30"/>
   <tile gid="30"/>
   <tile gid="30"/>
   <tile gid="34"/>
   <tile gid="34"/>
   <tile gid="34"/>
   <tile gid="30"/>
   <tile gid="30"/>
   <tile gid="30"/>
   <tile gid="30"/>
   <tile gid="30"/>
   <tile gid="30"/>
   <tile gid="30"/>
   <tile gid="30"/>
   <tile gid="30"/>
   <tile gid="30"/>
   <tile gid="30"/>
   <tile gid="30"/>
   <tile gid="30"/>
   <tile gid="30"/>
   <tile gid="30"/>
   <tile gid="30"/>
   <tile gid="30"/>
   <tile gid="30"/>
   <tile gid="34"/>
   <tile gid="34"/>
   <tile gid="34"/>
   <tile gid="30"/>
   <tile gid="30"/>
   <tile gid="30"/>
   <tile gid="30"/>
   <tile gid="30"/>
   <tile gid="30"/>
   <tile gid="30"/>
   <tile gid="30"/>
   <tile gid="30"/>
   <tile gid="30"/>
   <tile gid="30"/>
   <tile gid="30"/>
   <tile gid="30"/>
   <tile gid="30"/>
   <tile gid="30"/>
   <tile gid="30"/>
   <tile gid="30"/>
   <tile gid="30"/>
   <tile gid="34"/>
   <tile gid="34"/>
   <tile gid="34"/>
   <tile gid="30"/>
   <tile gid="30"/>
   <tile gid="30"/>
   <tile gid="30"/>
   <tile gid="30"/>
   <tile gid="30"/>
   <tile gid="30"/>
   <tile gid="30"/>
   <tile gid="30"/>
   <tile gid="30"/>
   <tile gid="30"/>
   <tile gid="30"/>
   <tile gid="30"/>
   <tile gid="30"/>
   <tile gid="30"/>
   <tile gid="30"/>
   <tile gid="30"/>
   <tile gid="30"/>
   <tile gid="30"/>
   <tile gid="30"/>
   <tile gid="30"/>
   <tile gid="30"/>
   <tile gid="30"/>
   <tile gid="30"/>
   <tile gid="30"/>
   <tile gid="30"/>
   <tile gid="30"/>
   <tile gid="30"/>
   <tile gid="30"/>
   <tile gid="30"/>
   <tile gid="30"/>
   <tile gid="30"/>
   <tile gid="30"/>
   <tile gid="30"/>
   <tile gid="30"/>
   <tile gid="30"/>
   <tile gid="30"/>
   <tile gid="30"/>
   <tile gid="30"/>
   <tile gid="30"/>
   <tile gid="34"/>
   <tile gid="34"/>
   <tile gid="34"/>
   <tile gid="34"/>
   <tile gid="34"/>
   <tile gid="34"/>
   <tile gid="30"/>
   <tile gid="30"/>
   <tile gid="30"/>
   <tile gid="30"/>
   <tile gid="30"/>
   <tile gid="30"/>
   <tile gid="30"/>
   <tile gid="30"/>
   <tile gid="30"/>
   <tile gid="30"/>
   <tile gid="30"/>
   <tile gid="30"/>
   <tile gid="30"/>
   <tile gid="30"/>
   <tile gid="30"/>
   <tile gid="30"/>
   <tile gid="30"/>
   <tile gid="30"/>
   <tile gid="30"/>
   <tile gid="30"/>
   <tile gid="30"/>
   <tile gid="30"/>
   <tile gid="30"/>
   <tile gid="30"/>
   <tile gid="30"/>
   <tile gid="30"/>
   <tile gid="30"/>
   <tile gid="30"/>
   <tile gid="30"/>
   <tile gid="30"/>
   <tile gid="30"/>
   <tile gid="30"/>
   <tile gid="30"/>
   <tile gid="30"/>
   <tile gid="34"/>
   <tile gid="34"/>
   <tile gid="34"/>
   <tile gid="30"/>
   <tile gid="30"/>
   <tile gid="30"/>
   <tile gid="30"/>
   <tile gid="30"/>
   <tile gid="30"/>
   <tile gid="30"/>
   <tile gid="30"/>
   <tile gid="30"/>
   <tile gid="30"/>
   <tile gid="30"/>
   <tile gid="30"/>
   <tile gid="30"/>
   <tile gid="30"/>
   <tile gid="30"/>
   <tile gid="30"/>
   <tile gid="30"/>
   <tile gid="30"/>
   <tile gid="34"/>
   <tile gid="34"/>
   <tile gid="34"/>
   <tile gid="30"/>
   <tile gid="30"/>
   <tile gid="30"/>
   <tile gid="30"/>
   <tile gid="30"/>
   <tile gid="30"/>
   <tile gid="30"/>
   <tile gid="30"/>
   <tile gid="30"/>
   <tile gid="30"/>
   <tile gid="30"/>
   <tile gid="30"/>
   <tile gid="30"/>
   <tile gid="30"/>
   <tile gid="30"/>
   <tile gid="30"/>
   <tile gid="30"/>
   <tile gid="30"/>
   <tile gid="34"/>
   <tile gid="34"/>
   <tile gid="34"/>
   <tile gid="30"/>
   <tile gid="30"/>
   <tile gid="30"/>
   <tile gid="30"/>
   <tile gid="30"/>
   <tile gid="30"/>
   <tile gid="30"/>
   <tile gid="30"/>
   <tile gid="30"/>
   <tile gid="30"/>
   <tile gid="30"/>
   <tile gid="30"/>
   <tile gid="30"/>
   <tile gid="30"/>
   <tile gid="30"/>
   <tile gid="30"/>
   <tile gid="30"/>
   <tile gid="30"/>
   <tile gid="30"/>
   <tile gid="30"/>
   <tile gid="30"/>
   <tile gid="30"/>
   <tile gid="30"/>
   <tile gid="30"/>
   <tile gid="30"/>
   <tile gid="30"/>
   <tile gid="30"/>
   <tile gid="30"/>
   <tile gid="30"/>
   <tile gid="30"/>
   <tile gid="30"/>
   <tile gid="30"/>
   <tile gid="30"/>
   <tile gid="30"/>
   <tile gid="30"/>
   <tile gid="30"/>
   <tile gid="30"/>
   <tile gid="30"/>
   <tile gid="30"/>
   <tile gid="30"/>
   <tile gid="34"/>
   <tile gid="34"/>
   <tile gid="34"/>
   <tile gid="34"/>
   <tile gid="34"/>
   <tile gid="34"/>
   <tile gid="34"/>
   <tile gid="34"/>
   <tile gid="34"/>
   <tile gid="34"/>
   <tile gid="34"/>
   <tile gid="34"/>
   <tile gid="34"/>
   <tile gid="34"/>
   <tile gid="34"/>
   <tile gid="34"/>
   <tile gid="34"/>
   <tile gid="34"/>
   <tile gid="34"/>
   <tile gid="34"/>
   <tile gid="34"/>
   <tile gid="34"/>
   <tile gid="34"/>
   <tile gid="34"/>
   <tile gid="34"/>
   <tile gid="34"/>
   <tile gid="34"/>
   <tile gid="34"/>
   <tile gid="34"/>
   <tile gid="34"/>
   <tile gid="34"/>
   <tile gid="34"/>
   <tile gid="34"/>
   <tile gid="34"/>
   <tile gid="34"/>
   <tile gid="34"/>
   <tile gid="34"/>
   <tile gid="34"/>
   <tile gid="34"/>
   <tile gid="34"/>
   <tile gid="34"/>
   <tile gid="34"/>
   <tile gid="34"/>
   <tile gid="34"/>
   <tile gid="34"/>
   <tile gid="34"/>
   <tile gid="34"/>
   <tile gid="34"/>
   <tile gid="34"/>
   <tile gid="34"/>
   <tile gid="34"/>
   <tile gid="34"/>
   <tile gid="34"/>
   <tile gid="34"/>
   <tile gid="34"/>
   <tile gid="34"/>
   <tile gid="34"/>
   <tile gid="34"/>
   <tile gid="34"/>
   <tile gid="34"/>
   <tile gid="34"/>
   <tile gid="34"/>
   <tile gid="34"/>
   <tile gid="34"/>
   <tile gid="30"/>
   <tile gid="30"/>
   <tile gid="30"/>
   <tile gid="30"/>
   <tile gid="30"/>
   <tile gid="30"/>
   <tile gid="30"/>
   <tile gid="30"/>
   <tile gid="30"/>
   <tile gid="30"/>
   <tile gid="30"/>
   <tile gid="30"/>
   <tile gid="30"/>
   <tile gid="30"/>
   <tile gid="30"/>
   <tile gid="30"/>
   <tile gid="30"/>
   <tile gid="30"/>
   <tile gid="34"/>
   <tile gid="34"/>
   <tile gid="34"/>
   <tile gid="30"/>
   <tile gid="30"/>
   <tile gid="30"/>
   <tile gid="30"/>
   <tile gid="30"/>
   <tile gid="30"/>
   <tile gid="30"/>
   <tile gid="30"/>
   <tile gid="30"/>
   <tile gid="30"/>
   <tile gid="30"/>
   <tile gid="30"/>
   <tile gid="30"/>
   <tile gid="30"/>
   <tile gid="30"/>
   <tile gid="30"/>
   <tile gid="30"/>
   <tile gid="30"/>
   <tile gid="30"/>
   <tile gid="30"/>
   <tile gid="30"/>
   <tile gid="30"/>
   <tile gid="30"/>
   <tile gid="30"/>
   <tile gid="30"/>
   <tile gid="30"/>
   <tile gid="30"/>
   <tile gid="30"/>
   <tile gid="30"/>
   <tile gid="30"/>
   <tile gid="30"/>
   <tile gid="30"/>
   <tile gid="30"/>
   <tile gid="30"/>
   <tile gid="30"/>
   <tile gid="30"/>
   <tile gid="30"/>
   <tile gid="30"/>
   <tile gid="30"/>
   <tile gid="30"/>
   <tile gid="34"/>
   <tile gid="34"/>
   <tile gid="34"/>
   <tile gid="34"/>
   <tile gid="34"/>
   <tile gid="34"/>
   <tile gid="34"/>
   <tile gid="34"/>
   <tile gid="34"/>
   <tile gid="34"/>
   <tile gid="34"/>
   <tile gid="34"/>
   <tile gid="34"/>
   <tile gid="34"/>
   <tile gid="34"/>
   <tile gid="34"/>
   <tile gid="34"/>
   <tile gid="34"/>
   <tile gid="34"/>
   <tile gid="34"/>
   <tile gid="34"/>
   <tile gid="34"/>
   <tile gid="34"/>
   <tile gid="34"/>
   <tile gid="34"/>
   <tile gid="34"/>
   <tile gid="34"/>
   <tile gid="34"/>
   <tile gid="34"/>
   <tile gid="34"/>
   <tile gid="34"/>
   <tile gid="34"/>
   <tile gid="34"/>
   <tile gid="34"/>
   <tile gid="34"/>
   <tile gid="34"/>
   <tile gid="34"/>
   <tile gid="34"/>
   <tile gid="34"/>
   <tile gid="34"/>
   <tile gid="34"/>
   <tile gid="34"/>
   <tile gid="34"/>
   <tile gid="34"/>
   <tile gid="34"/>
   <tile gid="34"/>
   <tile gid="34"/>
   <tile gid="34"/>
   <tile gid="34"/>
   <tile gid="34"/>
   <tile gid="34"/>
   <tile gid="34"/>
   <tile gid="34"/>
   <tile gid="34"/>
   <tile gid="34"/>
   <tile gid="34"/>
   <tile gid="34"/>
   <tile gid="34"/>
   <tile gid="34"/>
   <tile gid="34"/>
   <tile gid="34"/>
   <tile gid="34"/>
   <tile gid="34"/>
   <tile gid="34"/>
   <tile gid="30"/>
   <tile gid="30"/>
   <tile gid="30"/>
   <tile gid="30"/>
   <tile gid="30"/>
   <tile gid="30"/>
   <tile gid="30"/>
   <tile gid="30"/>
   <tile gid="30"/>
   <tile gid="30"/>
   <tile gid="30"/>
   <tile gid="30"/>
   <tile gid="30"/>
   <tile gid="30"/>
   <tile gid="30"/>
   <tile gid="30"/>
   <tile gid="30"/>
   <tile gid="30"/>
   <tile gid="34"/>
   <tile gid="34"/>
   <tile gid="34"/>
   <tile gid="30"/>
   <tile gid="30"/>
   <tile gid="30"/>
   <tile gid="30"/>
   <tile gid="30"/>
   <tile gid="30"/>
   <tile gid="30"/>
   <tile gid="30"/>
   <tile gid="30"/>
   <tile gid="30"/>
   <tile gid="30"/>
   <tile gid="30"/>
   <tile gid="30"/>
   <tile gid="30"/>
   <tile gid="30"/>
   <tile gid="30"/>
   <tile gid="30"/>
   <tile gid="30"/>
   <tile gid="30"/>
   <tile gid="30"/>
   <tile gid="30"/>
   <tile gid="30"/>
   <tile gid="30"/>
   <tile gid="30"/>
   <tile gid="30"/>
   <tile gid="30"/>
   <tile gid="30"/>
   <tile gid="30"/>
   <tile gid="30"/>
   <tile gid="30"/>
   <tile gid="30"/>
   <tile gid="30"/>
   <tile gid="30"/>
   <tile gid="30"/>
   <tile gid="30"/>
   <tile gid="30"/>
   <tile gid="30"/>
   <tile gid="30"/>
   <tile gid="30"/>
   <tile gid="30"/>
   <tile gid="34"/>
   <tile gid="34"/>
   <tile gid="34"/>
   <tile gid="34"/>
   <tile gid="34"/>
   <tile gid="34"/>
   <tile gid="34"/>
   <tile gid="34"/>
   <tile gid="34"/>
   <tile gid="34"/>
   <tile gid="34"/>
   <tile gid="34"/>
   <tile gid="34"/>
   <tile gid="34"/>
   <tile gid="34"/>
   <tile gid="34"/>
   <tile gid="34"/>
   <tile gid="34"/>
   <tile gid="34"/>
   <tile gid="34"/>
   <tile gid="34"/>
   <tile gid="34"/>
   <tile gid="34"/>
   <tile gid="34"/>
   <tile gid="34"/>
   <tile gid="34"/>
   <tile gid="34"/>
   <tile gid="34"/>
   <tile gid="34"/>
   <tile gid="34"/>
   <tile gid="34"/>
   <tile gid="34"/>
   <tile gid="34"/>
   <tile gid="34"/>
   <tile gid="34"/>
   <tile gid="34"/>
   <tile gid="34"/>
   <tile gid="34"/>
   <tile gid="34"/>
   <tile gid="34"/>
   <tile gid="34"/>
   <tile gid="34"/>
   <tile gid="34"/>
   <tile gid="34"/>
   <tile gid="34"/>
   <tile gid="34"/>
   <tile gid="34"/>
   <tile gid="34"/>
   <tile gid="34"/>
   <tile gid="34"/>
   <tile gid="34"/>
   <tile gid="34"/>
   <tile gid="34"/>
   <tile gid="34"/>
   <tile gid="34"/>
   <tile gid="34"/>
   <tile gid="34"/>
   <tile gid="34"/>
   <tile gid="34"/>
   <tile gid="34"/>
   <tile gid="34"/>
   <tile gid="34"/>
   <tile gid="34"/>
   <tile gid="34"/>
   <tile gid="30"/>
   <tile gid="30"/>
   <tile gid="30"/>
   <tile gid="30"/>
   <tile gid="30"/>
   <tile gid="30"/>
   <tile gid="30"/>
   <tile gid="30"/>
   <tile gid="30"/>
   <tile gid="30"/>
   <tile gid="30"/>
   <tile gid="30"/>
   <tile gid="30"/>
   <tile gid="30"/>
   <tile gid="30"/>
   <tile gid="30"/>
   <tile gid="30"/>
   <tile gid="30"/>
   <tile gid="34"/>
   <tile gid="34"/>
   <tile gid="34"/>
   <tile gid="30"/>
   <tile gid="30"/>
   <tile gid="30"/>
   <tile gid="30"/>
   <tile gid="30"/>
   <tile gid="30"/>
   <tile gid="30"/>
   <tile gid="30"/>
   <tile gid="30"/>
   <tile gid="30"/>
   <tile gid="30"/>
   <tile gid="30"/>
   <tile gid="30"/>
   <tile gid="30"/>
   <tile gid="30"/>
   <tile gid="30"/>
   <tile gid="30"/>
   <tile gid="30"/>
   <tile gid="30"/>
   <tile gid="30"/>
   <tile gid="30"/>
   <tile gid="30"/>
   <tile gid="30"/>
   <tile gid="30"/>
   <tile gid="30"/>
   <tile gid="30"/>
   <tile gid="30"/>
   <tile gid="30"/>
   <tile gid="30"/>
   <tile gid="30"/>
   <tile gid="30"/>
   <tile gid="30"/>
   <tile gid="30"/>
   <tile gid="30"/>
   <tile gid="30"/>
   <tile gid="30"/>
   <tile gid="30"/>
   <tile gid="30"/>
   <tile gid="30"/>
   <tile gid="30"/>
   <tile gid="34"/>
   <tile gid="34"/>
   <tile gid="34"/>
   <tile gid="34"/>
   <tile gid="34"/>
   <tile gid="34"/>
   <tile gid="30"/>
   <tile gid="30"/>
   <tile gid="30"/>
   <tile gid="30"/>
   <tile gid="30"/>
   <tile gid="30"/>
   <tile gid="30"/>
   <tile gid="30"/>
   <tile gid="30"/>
   <tile gid="30"/>
   <tile gid="30"/>
   <tile gid="30"/>
   <tile gid="30"/>
   <tile gid="30"/>
   <tile gid="30"/>
   <tile gid="30"/>
   <tile gid="30"/>
   <tile gid="30"/>
   <tile gid="30"/>
   <tile gid="30"/>
   <tile gid="30"/>
   <tile gid="30"/>
   <tile gid="30"/>
   <tile gid="30"/>
   <tile gid="30"/>
   <tile gid="30"/>
   <tile gid="30"/>
   <tile gid="30"/>
   <tile gid="30"/>
   <tile gid="30"/>
   <tile gid="30"/>
   <tile gid="30"/>
   <tile gid="30"/>
   <tile gid="30"/>
   <tile gid="30"/>
   <tile gid="30"/>
   <tile gid="30"/>
   <tile gid="30"/>
   <tile gid="30"/>
   <tile gid="30"/>
   <tile gid="30"/>
   <tile gid="30"/>
   <tile gid="30"/>
   <tile gid="30"/>
   <tile gid="30"/>
   <tile gid="30"/>
   <tile gid="30"/>
   <tile gid="30"/>
   <tile gid="30"/>
   <tile gid="30"/>
   <tile gid="34"/>
   <tile gid="34"/>
   <tile gid="34"/>
   <tile gid="30"/>
   <tile gid="30"/>
   <tile gid="30"/>
   <tile gid="30"/>
   <tile gid="30"/>
   <tile gid="30"/>
   <tile gid="30"/>
   <tile gid="30"/>
   <tile gid="30"/>
   <tile gid="30"/>
   <tile gid="30"/>
   <tile gid="30"/>
   <tile gid="30"/>
   <tile gid="30"/>
   <tile gid="30"/>
   <tile gid="30"/>
   <tile gid="30"/>
   <tile gid="30"/>
   <tile gid="30"/>
   <tile gid="30"/>
   <tile gid="30"/>
   <tile gid="30"/>
   <tile gid="30"/>
   <tile gid="34"/>
   <tile gid="34"/>
   <tile gid="34"/>
   <tile gid="30"/>
   <tile gid="30"/>
   <tile gid="30"/>
   <tile gid="30"/>
   <tile gid="30"/>
   <tile gid="30"/>
   <tile gid="30"/>
   <tile gid="30"/>
   <tile gid="30"/>
   <tile gid="30"/>
   <tile gid="30"/>
   <tile gid="30"/>
   <tile gid="30"/>
   <tile gid="30"/>
   <tile gid="30"/>
   <tile gid="30"/>
   <tile gid="30"/>
   <tile gid="30"/>
   <tile gid="30"/>
   <tile gid="30"/>
   <tile gid="30"/>
   <tile gid="30"/>
   <tile gid="30"/>
   <tile gid="30"/>
   <tile gid="30"/>
   <tile gid="30"/>
   <tile gid="30"/>
   <tile gid="30"/>
   <tile gid="30"/>
   <tile gid="30"/>
   <tile gid="30"/>
   <tile gid="30"/>
   <tile gid="30"/>
   <tile gid="30"/>
   <tile gid="30"/>
   <tile gid="30"/>
   <tile gid="30"/>
   <tile gid="30"/>
   <tile gid="30"/>
   <tile gid="30"/>
   <tile gid="34"/>
   <tile gid="34"/>
   <tile gid="34"/>
   <tile gid="34"/>
   <tile gid="34"/>
   <tile gid="34"/>
   <tile gid="30"/>
   <tile gid="30"/>
   <tile gid="30"/>
   <tile gid="30"/>
   <tile gid="30"/>
   <tile gid="30"/>
   <tile gid="30"/>
   <tile gid="30"/>
   <tile gid="30"/>
   <tile gid="30"/>
   <tile gid="30"/>
   <tile gid="30"/>
   <tile gid="30"/>
   <tile gid="30"/>
   <tile gid="30"/>
   <tile gid="30"/>
   <tile gid="30"/>
   <tile gid="30"/>
   <tile gid="30"/>
   <tile gid="30"/>
   <tile gid="30"/>
   <tile gid="30"/>
   <tile gid="30"/>
   <tile gid="30"/>
   <tile gid="30"/>
   <tile gid="30"/>
   <tile gid="30"/>
   <tile gid="30"/>
   <tile gid="30"/>
   <tile gid="30"/>
   <tile gid="30"/>
   <tile gid="30"/>
   <tile gid="30"/>
   <tile gid="30"/>
   <tile gid="30"/>
   <tile gid="30"/>
   <tile gid="30"/>
   <tile gid="30"/>
   <tile gid="30"/>
   <tile gid="30"/>
   <tile gid="30"/>
   <tile gid="30"/>
   <tile gid="30"/>
   <tile gid="30"/>
   <tile gid="30"/>
   <tile gid="30"/>
   <tile gid="30"/>
   <tile gid="30"/>
   <tile gid="30"/>
   <tile gid="30"/>
   <tile gid="34"/>
   <tile gid="34"/>
   <tile gid="34"/>
   <tile gid="30"/>
   <tile gid="30"/>
   <tile gid="30"/>
   <tile gid="30"/>
   <tile gid="30"/>
   <tile gid="30"/>
   <tile gid="30"/>
   <tile gid="30"/>
   <tile gid="30"/>
   <tile gid="30"/>
   <tile gid="30"/>
   <tile gid="30"/>
   <tile gid="30"/>
   <tile gid="30"/>
   <tile gid="30"/>
   <tile gid="30"/>
   <tile gid="30"/>
   <tile gid="30"/>
   <tile gid="30"/>
   <tile gid="30"/>
   <tile gid="30"/>
   <tile gid="30"/>
   <tile gid="30"/>
   <tile gid="34"/>
   <tile gid="34"/>
   <tile gid="34"/>
   <tile gid="30"/>
   <tile gid="30"/>
   <tile gid="30"/>
   <tile gid="30"/>
   <tile gid="30"/>
   <tile gid="30"/>
   <tile gid="30"/>
   <tile gid="30"/>
   <tile gid="30"/>
   <tile gid="30"/>
   <tile gid="30"/>
   <tile gid="30"/>
   <tile gid="30"/>
   <tile gid="30"/>
   <tile gid="30"/>
   <tile gid="30"/>
   <tile gid="30"/>
   <tile gid="30"/>
   <tile gid="30"/>
   <tile gid="30"/>
   <tile gid="30"/>
   <tile gid="30"/>
   <tile gid="30"/>
   <tile gid="30"/>
   <tile gid="30"/>
   <tile gid="30"/>
   <tile gid="30"/>
   <tile gid="30"/>
   <tile gid="30"/>
   <tile gid="30"/>
   <tile gid="30"/>
   <tile gid="30"/>
   <tile gid="30"/>
   <tile gid="30"/>
   <tile gid="30"/>
   <tile gid="30"/>
   <tile gid="30"/>
   <tile gid="30"/>
   <tile gid="30"/>
   <tile gid="30"/>
   <tile gid="34"/>
   <tile gid="34"/>
   <tile gid="34"/>
   <tile gid="34"/>
   <tile gid="34"/>
   <tile gid="34"/>
   <tile gid="30"/>
   <tile gid="30"/>
   <tile gid="30"/>
   <tile gid="30"/>
   <tile gid="30"/>
   <tile gid="30"/>
   <tile gid="30"/>
   <tile gid="30"/>
   <tile gid="30"/>
   <tile gid="30"/>
   <tile gid="30"/>
   <tile gid="30"/>
   <tile gid="30"/>
   <tile gid="30"/>
   <tile gid="30"/>
   <tile gid="30"/>
   <tile gid="30"/>
   <tile gid="30"/>
   <tile gid="30"/>
   <tile gid="30"/>
   <tile gid="30"/>
   <tile gid="30"/>
   <tile gid="30"/>
   <tile gid="30"/>
   <tile gid="30"/>
   <tile gid="30"/>
   <tile gid="30"/>
   <tile gid="30"/>
   <tile gid="30"/>
   <tile gid="30"/>
   <tile gid="30"/>
   <tile gid="30"/>
   <tile gid="30"/>
   <tile gid="30"/>
   <tile gid="30"/>
   <tile gid="30"/>
   <tile gid="30"/>
   <tile gid="30"/>
   <tile gid="30"/>
   <tile gid="30"/>
   <tile gid="30"/>
   <tile gid="30"/>
   <tile gid="30"/>
   <tile gid="30"/>
   <tile gid="30"/>
   <tile gid="30"/>
   <tile gid="30"/>
   <tile gid="30"/>
   <tile gid="30"/>
   <tile gid="30"/>
   <tile gid="34"/>
   <tile gid="34"/>
   <tile gid="34"/>
   <tile gid="30"/>
   <tile gid="30"/>
   <tile gid="30"/>
   <tile gid="30"/>
   <tile gid="30"/>
   <tile gid="30"/>
   <tile gid="30"/>
   <tile gid="30"/>
   <tile gid="30"/>
   <tile gid="30"/>
   <tile gid="30"/>
   <tile gid="30"/>
   <tile gid="30"/>
   <tile gid="30"/>
   <tile gid="30"/>
   <tile gid="30"/>
   <tile gid="30"/>
   <tile gid="30"/>
   <tile gid="30"/>
   <tile gid="30"/>
   <tile gid="30"/>
   <tile gid="30"/>
   <tile gid="30"/>
   <tile gid="34"/>
   <tile gid="34"/>
   <tile gid="34"/>
   <tile gid="30"/>
   <tile gid="30"/>
   <tile gid="30"/>
   <tile gid="30"/>
   <tile gid="30"/>
   <tile gid="30"/>
   <tile gid="30"/>
   <tile gid="30"/>
   <tile gid="30"/>
   <tile gid="30"/>
   <tile gid="30"/>
   <tile gid="30"/>
   <tile gid="30"/>
   <tile gid="30"/>
   <tile gid="30"/>
   <tile gid="30"/>
   <tile gid="30"/>
   <tile gid="30"/>
   <tile gid="30"/>
   <tile gid="30"/>
   <tile gid="30"/>
   <tile gid="30"/>
   <tile gid="30"/>
   <tile gid="30"/>
   <tile gid="30"/>
   <tile gid="30"/>
   <tile gid="30"/>
   <tile gid="30"/>
   <tile gid="30"/>
   <tile gid="30"/>
   <tile gid="30"/>
   <tile gid="30"/>
   <tile gid="30"/>
   <tile gid="30"/>
   <tile gid="30"/>
   <tile gid="30"/>
   <tile gid="30"/>
   <tile gid="30"/>
   <tile gid="30"/>
   <tile gid="30"/>
   <tile gid="34"/>
   <tile gid="34"/>
   <tile gid="34"/>
   <tile gid="34"/>
   <tile gid="34"/>
   <tile gid="34"/>
   <tile gid="30"/>
   <tile gid="30"/>
   <tile gid="30"/>
   <tile gid="30"/>
   <tile gid="30"/>
   <tile gid="30"/>
   <tile gid="30"/>
   <tile gid="30"/>
   <tile gid="30"/>
   <tile gid="30"/>
   <tile gid="30"/>
   <tile gid="30"/>
   <tile gid="30"/>
   <tile gid="30"/>
   <tile gid="30"/>
   <tile gid="30"/>
   <tile gid="30"/>
   <tile gid="30"/>
   <tile gid="30"/>
   <tile gid="30"/>
   <tile gid="30"/>
   <tile gid="30"/>
   <tile gid="30"/>
   <tile gid="30"/>
   <tile gid="30"/>
   <tile gid="30"/>
   <tile gid="30"/>
   <tile gid="30"/>
   <tile gid="30"/>
   <tile gid="30"/>
   <tile gid="30"/>
   <tile gid="30"/>
   <tile gid="30"/>
   <tile gid="30"/>
   <tile gid="30"/>
   <tile gid="30"/>
   <tile gid="30"/>
   <tile gid="30"/>
   <tile gid="30"/>
   <tile gid="30"/>
   <tile gid="30"/>
   <tile gid="30"/>
   <tile gid="30"/>
   <tile gid="30"/>
   <tile gid="30"/>
   <tile gid="30"/>
   <tile gid="30"/>
   <tile gid="30"/>
   <tile gid="30"/>
   <tile gid="30"/>
   <tile gid="34"/>
   <tile gid="34"/>
   <tile gid="34"/>
   <tile gid="30"/>
   <tile gid="30"/>
   <tile gid="30"/>
   <tile gid="30"/>
   <tile gid="30"/>
   <tile gid="30"/>
   <tile gid="30"/>
   <tile gid="30"/>
   <tile gid="30"/>
   <tile gid="30"/>
   <tile gid="30"/>
   <tile gid="30"/>
   <tile gid="30"/>
   <tile gid="30"/>
   <tile gid="30"/>
   <tile gid="30"/>
   <tile gid="30"/>
   <tile gid="30"/>
   <tile gid="30"/>
   <tile gid="30"/>
   <tile gid="30"/>
   <tile gid="30"/>
   <tile gid="30"/>
   <tile gid="34"/>
   <tile gid="34"/>
   <tile gid="34"/>
   <tile gid="30"/>
   <tile gid="30"/>
   <tile gid="30"/>
   <tile gid="30"/>
   <tile gid="30"/>
   <tile gid="30"/>
   <tile gid="30"/>
   <tile gid="30"/>
   <tile gid="30"/>
   <tile gid="30"/>
   <tile gid="30"/>
   <tile gid="30"/>
   <tile gid="30"/>
   <tile gid="30"/>
   <tile gid="30"/>
   <tile gid="30"/>
   <tile gid="30"/>
   <tile gid="30"/>
   <tile gid="30"/>
   <tile gid="30"/>
   <tile gid="30"/>
   <tile gid="30"/>
   <tile gid="30"/>
   <tile gid="30"/>
   <tile gid="30"/>
   <tile gid="30"/>
   <tile gid="30"/>
   <tile gid="30"/>
   <tile gid="30"/>
   <tile gid="30"/>
   <tile gid="30"/>
   <tile gid="30"/>
   <tile gid="30"/>
   <tile gid="30"/>
   <tile gid="30"/>
   <tile gid="30"/>
   <tile gid="30"/>
   <tile gid="30"/>
   <tile gid="30"/>
   <tile gid="30"/>
   <tile gid="34"/>
   <tile gid="34"/>
   <tile gid="34"/>
   <tile gid="34"/>
   <tile gid="34"/>
   <tile gid="34"/>
   <tile gid="30"/>
   <tile gid="30"/>
   <tile gid="30"/>
   <tile gid="30"/>
   <tile gid="30"/>
   <tile gid="30"/>
   <tile gid="30"/>
   <tile gid="30"/>
   <tile gid="30"/>
   <tile gid="30"/>
   <tile gid="30"/>
   <tile gid="30"/>
   <tile gid="30"/>
   <tile gid="30"/>
   <tile gid="30"/>
   <tile gid="30"/>
   <tile gid="30"/>
   <tile gid="30"/>
   <tile gid="30"/>
   <tile gid="30"/>
   <tile gid="30"/>
   <tile gid="30"/>
   <tile gid="30"/>
   <tile gid="30"/>
   <tile gid="30"/>
   <tile gid="30"/>
   <tile gid="30"/>
   <tile gid="30"/>
   <tile gid="30"/>
   <tile gid="30"/>
   <tile gid="30"/>
   <tile gid="30"/>
   <tile gid="30"/>
   <tile gid="30"/>
   <tile gid="30"/>
   <tile gid="30"/>
   <tile gid="30"/>
   <tile gid="30"/>
   <tile gid="30"/>
   <tile gid="30"/>
   <tile gid="30"/>
   <tile gid="30"/>
   <tile gid="30"/>
   <tile gid="30"/>
   <tile gid="30"/>
   <tile gid="30"/>
   <tile gid="30"/>
   <tile gid="30"/>
   <tile gid="30"/>
   <tile gid="30"/>
   <tile gid="34"/>
   <tile gid="34"/>
   <tile gid="34"/>
   <tile gid="30"/>
   <tile gid="30"/>
   <tile gid="30"/>
   <tile gid="30"/>
   <tile gid="30"/>
   <tile gid="30"/>
   <tile gid="30"/>
   <tile gid="30"/>
   <tile gid="30"/>
   <tile gid="30"/>
   <tile gid="30"/>
   <tile gid="30"/>
   <tile gid="30"/>
   <tile gid="30"/>
   <tile gid="30"/>
   <tile gid="30"/>
   <tile gid="30"/>
   <tile gid="30"/>
   <tile gid="30"/>
   <tile gid="30"/>
   <tile gid="30"/>
   <tile gid="30"/>
   <tile gid="30"/>
   <tile gid="34"/>
   <tile gid="34"/>
   <tile gid="34"/>
   <tile gid="30"/>
   <tile gid="30"/>
   <tile gid="30"/>
   <tile gid="30"/>
   <tile gid="30"/>
   <tile gid="30"/>
   <tile gid="30"/>
   <tile gid="30"/>
   <tile gid="30"/>
   <tile gid="30"/>
   <tile gid="30"/>
   <tile gid="30"/>
   <tile gid="30"/>
   <tile gid="30"/>
   <tile gid="30"/>
   <tile gid="30"/>
   <tile gid="30"/>
   <tile gid="30"/>
   <tile gid="30"/>
   <tile gid="30"/>
   <tile gid="30"/>
   <tile gid="30"/>
   <tile gid="30"/>
   <tile gid="30"/>
   <tile gid="30"/>
   <tile gid="30"/>
   <tile gid="30"/>
   <tile gid="30"/>
   <tile gid="30"/>
   <tile gid="30"/>
   <tile gid="30"/>
   <tile gid="30"/>
   <tile gid="30"/>
   <tile gid="30"/>
   <tile gid="30"/>
   <tile gid="30"/>
   <tile gid="30"/>
   <tile gid="30"/>
   <tile gid="30"/>
   <tile gid="30"/>
   <tile gid="34"/>
   <tile gid="34"/>
   <tile gid="34"/>
   <tile gid="34"/>
   <tile gid="34"/>
   <tile gid="34"/>
   <tile gid="30"/>
   <tile gid="30"/>
   <tile gid="30"/>
   <tile gid="30"/>
   <tile gid="30"/>
   <tile gid="30"/>
   <tile gid="30"/>
   <tile gid="30"/>
   <tile gid="30"/>
   <tile gid="30"/>
   <tile gid="30"/>
   <tile gid="30"/>
   <tile gid="30"/>
   <tile gid="30"/>
   <tile gid="30"/>
   <tile gid="30"/>
   <tile gid="30"/>
   <tile gid="30"/>
   <tile gid="30"/>
   <tile gid="30"/>
   <tile gid="30"/>
   <tile gid="30"/>
   <tile gid="30"/>
   <tile gid="30"/>
   <tile gid="30"/>
   <tile gid="30"/>
   <tile gid="30"/>
   <tile gid="30"/>
   <tile gid="30"/>
   <tile gid="30"/>
   <tile gid="30"/>
   <tile gid="30"/>
   <tile gid="30"/>
   <tile gid="30"/>
   <tile gid="30"/>
   <tile gid="30"/>
   <tile gid="30"/>
   <tile gid="30"/>
   <tile gid="30"/>
   <tile gid="30"/>
   <tile gid="30"/>
   <tile gid="30"/>
   <tile gid="30"/>
   <tile gid="30"/>
   <tile gid="30"/>
   <tile gid="30"/>
   <tile gid="30"/>
   <tile gid="30"/>
   <tile gid="30"/>
   <tile gid="30"/>
   <tile gid="34"/>
   <tile gid="34"/>
   <tile gid="34"/>
   <tile gid="30"/>
   <tile gid="30"/>
   <tile gid="30"/>
   <tile gid="30"/>
   <tile gid="30"/>
   <tile gid="30"/>
   <tile gid="30"/>
   <tile gid="30"/>
   <tile gid="30"/>
   <tile gid="30"/>
   <tile gid="30"/>
   <tile gid="30"/>
   <tile gid="30"/>
   <tile gid="30"/>
   <tile gid="30"/>
   <tile gid="30"/>
   <tile gid="30"/>
   <tile gid="30"/>
   <tile gid="30"/>
   <tile gid="30"/>
   <tile gid="30"/>
   <tile gid="30"/>
   <tile gid="30"/>
   <tile gid="34"/>
   <tile gid="34"/>
   <tile gid="34"/>
   <tile gid="30"/>
   <tile gid="30"/>
   <tile gid="30"/>
   <tile gid="30"/>
   <tile gid="30"/>
   <tile gid="30"/>
   <tile gid="30"/>
   <tile gid="30"/>
   <tile gid="30"/>
   <tile gid="30"/>
   <tile gid="30"/>
   <tile gid="30"/>
   <tile gid="30"/>
   <tile gid="30"/>
   <tile gid="30"/>
   <tile gid="30"/>
   <tile gid="30"/>
   <tile gid="30"/>
   <tile gid="30"/>
   <tile gid="30"/>
   <tile gid="30"/>
   <tile gid="30"/>
   <tile gid="30"/>
   <tile gid="30"/>
   <tile gid="30"/>
   <tile gid="30"/>
   <tile gid="30"/>
   <tile gid="30"/>
   <tile gid="30"/>
   <tile gid="30"/>
   <tile gid="30"/>
   <tile gid="30"/>
   <tile gid="30"/>
   <tile gid="30"/>
   <tile gid="30"/>
   <tile gid="30"/>
   <tile gid="30"/>
   <tile gid="30"/>
   <tile gid="30"/>
   <tile gid="30"/>
   <tile gid="34"/>
   <tile gid="34"/>
   <tile gid="34"/>
   <tile gid="34"/>
   <tile gid="34"/>
   <tile gid="34"/>
   <tile gid="30"/>
   <tile gid="30"/>
   <tile gid="30"/>
   <tile gid="30"/>
   <tile gid="30"/>
   <tile gid="30"/>
   <tile gid="30"/>
   <tile gid="30"/>
   <tile gid="30"/>
   <tile gid="30"/>
   <tile gid="30"/>
   <tile gid="30"/>
   <tile gid="30"/>
   <tile gid="30"/>
   <tile gid="30"/>
   <tile gid="30"/>
   <tile gid="30"/>
   <tile gid="30"/>
   <tile gid="30"/>
   <tile gid="30"/>
   <tile gid="30"/>
   <tile gid="30"/>
   <tile gid="30"/>
   <tile gid="30"/>
   <tile gid="30"/>
   <tile gid="30"/>
   <tile gid="30"/>
   <tile gid="30"/>
   <tile gid="30"/>
   <tile gid="30"/>
   <tile gid="30"/>
   <tile gid="30"/>
   <tile gid="30"/>
   <tile gid="30"/>
   <tile gid="30"/>
   <tile gid="30"/>
   <tile gid="30"/>
   <tile gid="30"/>
   <tile gid="30"/>
   <tile gid="30"/>
   <tile gid="30"/>
   <tile gid="30"/>
   <tile gid="30"/>
   <tile gid="30"/>
   <tile gid="30"/>
   <tile gid="30"/>
   <tile gid="30"/>
   <tile gid="30"/>
   <tile gid="30"/>
   <tile gid="30"/>
   <tile gid="30"/>
   <tile gid="30"/>
   <tile gid="30"/>
   <tile gid="30"/>
   <tile gid="30"/>
   <tile gid="30"/>
   <tile gid="30"/>
   <tile gid="30"/>
   <tile gid="30"/>
   <tile gid="30"/>
   <tile gid="30"/>
   <tile gid="30"/>
   <tile gid="30"/>
   <tile gid="30"/>
   <tile gid="30"/>
   <tile gid="30"/>
   <tile gid="30"/>
   <tile gid="30"/>
   <tile gid="30"/>
   <tile gid="30"/>
   <tile gid="30"/>
   <tile gid="30"/>
   <tile gid="30"/>
   <tile gid="30"/>
   <tile gid="30"/>
   <tile gid="30"/>
   <tile gid="34"/>
   <tile gid="34"/>
   <tile gid="34"/>
   <tile gid="30"/>
   <tile gid="30"/>
   <tile gid="30"/>
   <tile gid="30"/>
   <tile gid="30"/>
   <tile gid="30"/>
   <tile gid="30"/>
   <tile gid="30"/>
   <tile gid="30"/>
   <tile gid="30"/>
   <tile gid="30"/>
   <tile gid="30"/>
   <tile gid="30"/>
   <tile gid="30"/>
   <tile gid="30"/>
   <tile gid="30"/>
   <tile gid="30"/>
   <tile gid="30"/>
   <tile gid="30"/>
   <tile gid="30"/>
   <tile gid="30"/>
   <tile gid="30"/>
   <tile gid="30"/>
   <tile gid="30"/>
   <tile gid="30"/>
   <tile gid="30"/>
   <tile gid="30"/>
   <tile gid="30"/>
   <tile gid="30"/>
   <tile gid="30"/>
   <tile gid="30"/>
   <tile gid="30"/>
   <tile gid="30"/>
   <tile gid="30"/>
   <tile gid="30"/>
   <tile gid="30"/>
   <tile gid="30"/>
   <tile gid="30"/>
   <tile gid="30"/>
   <tile gid="30"/>
   <tile gid="34"/>
   <tile gid="34"/>
   <tile gid="34"/>
   <tile gid="34"/>
   <tile gid="34"/>
   <tile gid="34"/>
   <tile gid="30"/>
   <tile gid="30"/>
   <tile gid="30"/>
   <tile gid="30"/>
   <tile gid="30"/>
   <tile gid="30"/>
   <tile gid="30"/>
   <tile gid="30"/>
   <tile gid="30"/>
   <tile gid="30"/>
   <tile gid="30"/>
   <tile gid="30"/>
   <tile gid="30"/>
   <tile gid="30"/>
   <tile gid="30"/>
   <tile gid="30"/>
   <tile gid="30"/>
   <tile gid="30"/>
   <tile gid="30"/>
   <tile gid="30"/>
   <tile gid="30"/>
   <tile gid="30"/>
   <tile gid="30"/>
   <tile gid="30"/>
   <tile gid="30"/>
   <tile gid="30"/>
   <tile gid="30"/>
   <tile gid="30"/>
   <tile gid="30"/>
   <tile gid="30"/>
   <tile gid="30"/>
   <tile gid="30"/>
   <tile gid="30"/>
   <tile gid="30"/>
   <tile gid="30"/>
   <tile gid="30"/>
   <tile gid="30"/>
   <tile gid="30"/>
   <tile gid="30"/>
   <tile gid="30"/>
   <tile gid="30"/>
   <tile gid="30"/>
   <tile gid="30"/>
   <tile gid="30"/>
   <tile gid="30"/>
   <tile gid="30"/>
   <tile gid="30"/>
   <tile gid="30"/>
   <tile gid="30"/>
   <tile gid="30"/>
   <tile gid="30"/>
   <tile gid="30"/>
   <tile gid="30"/>
   <tile gid="30"/>
   <tile gid="30"/>
   <tile gid="30"/>
   <tile gid="30"/>
   <tile gid="30"/>
   <tile gid="30"/>
   <tile gid="30"/>
   <tile gid="30"/>
   <tile gid="30"/>
   <tile gid="30"/>
   <tile gid="30"/>
   <tile gid="30"/>
   <tile gid="30"/>
   <tile gid="30"/>
   <tile gid="30"/>
   <tile gid="30"/>
   <tile gid="30"/>
   <tile gid="30"/>
   <tile gid="30"/>
   <tile gid="30"/>
   <tile gid="30"/>
   <tile gid="30"/>
   <tile gid="30"/>
   <tile gid="34"/>
   <tile gid="34"/>
   <tile gid="34"/>
   <tile gid="30"/>
   <tile gid="30"/>
   <tile gid="30"/>
   <tile gid="30"/>
   <tile gid="30"/>
   <tile gid="30"/>
   <tile gid="30"/>
   <tile gid="30"/>
   <tile gid="30"/>
   <tile gid="30"/>
   <tile gid="30"/>
   <tile gid="30"/>
   <tile gid="30"/>
   <tile gid="30"/>
   <tile gid="30"/>
   <tile gid="30"/>
   <tile gid="30"/>
   <tile gid="30"/>
   <tile gid="30"/>
   <tile gid="30"/>
   <tile gid="30"/>
   <tile gid="30"/>
   <tile gid="30"/>
   <tile gid="30"/>
   <tile gid="30"/>
   <tile gid="30"/>
   <tile gid="30"/>
   <tile gid="30"/>
   <tile gid="30"/>
   <tile gid="30"/>
   <tile gid="30"/>
   <tile gid="30"/>
   <tile gid="30"/>
   <tile gid="30"/>
   <tile gid="30"/>
   <tile gid="30"/>
   <tile gid="30"/>
   <tile gid="30"/>
   <tile gid="30"/>
   <tile gid="30"/>
   <tile gid="34"/>
   <tile gid="34"/>
   <tile gid="34"/>
   <tile gid="34"/>
   <tile gid="34"/>
   <tile gid="34"/>
   <tile gid="30"/>
   <tile gid="30"/>
   <tile gid="30"/>
   <tile gid="30"/>
   <tile gid="30"/>
   <tile gid="30"/>
   <tile gid="30"/>
   <tile gid="30"/>
   <tile gid="30"/>
   <tile gid="30"/>
   <tile gid="30"/>
   <tile gid="30"/>
   <tile gid="30"/>
   <tile gid="30"/>
   <tile gid="30"/>
   <tile gid="30"/>
   <tile gid="30"/>
   <tile gid="30"/>
   <tile gid="30"/>
   <tile gid="30"/>
   <tile gid="30"/>
   <tile gid="30"/>
   <tile gid="30"/>
   <tile gid="30"/>
   <tile gid="30"/>
   <tile gid="30"/>
   <tile gid="30"/>
   <tile gid="30"/>
   <tile gid="30"/>
   <tile gid="30"/>
   <tile gid="30"/>
   <tile gid="30"/>
   <tile gid="30"/>
   <tile gid="30"/>
   <tile gid="30"/>
   <tile gid="30"/>
   <tile gid="30"/>
   <tile gid="30"/>
   <tile gid="30"/>
   <tile gid="30"/>
   <tile gid="30"/>
   <tile gid="30"/>
   <tile gid="30"/>
   <tile gid="30"/>
   <tile gid="30"/>
   <tile gid="30"/>
   <tile gid="30"/>
   <tile gid="30"/>
   <tile gid="30"/>
   <tile gid="30"/>
   <tile gid="30"/>
   <tile gid="30"/>
   <tile gid="30"/>
   <tile gid="30"/>
   <tile gid="30"/>
   <tile gid="30"/>
   <tile gid="30"/>
   <tile gid="30"/>
   <tile gid="30"/>
   <tile gid="30"/>
   <tile gid="30"/>
   <tile gid="30"/>
   <tile gid="30"/>
   <tile gid="30"/>
   <tile gid="30"/>
   <tile gid="30"/>
   <tile gid="30"/>
   <tile gid="30"/>
   <tile gid="30"/>
   <tile gid="30"/>
   <tile gid="30"/>
   <tile gid="30"/>
   <tile gid="30"/>
   <tile gid="30"/>
   <tile gid="30"/>
   <tile gid="30"/>
   <tile gid="34"/>
   <tile gid="34"/>
   <tile gid="34"/>
   <tile gid="30"/>
   <tile gid="30"/>
   <tile gid="30"/>
   <tile gid="30"/>
   <tile gid="30"/>
   <tile gid="30"/>
   <tile gid="30"/>
   <tile gid="30"/>
   <tile gid="30"/>
   <tile gid="30"/>
   <tile gid="30"/>
   <tile gid="30"/>
   <tile gid="30"/>
   <tile gid="30"/>
   <tile gid="30"/>
   <tile gid="30"/>
   <tile gid="30"/>
   <tile gid="30"/>
   <tile gid="30"/>
   <tile gid="30"/>
   <tile gid="30"/>
   <tile gid="30"/>
   <tile gid="30"/>
   <tile gid="30"/>
   <tile gid="30"/>
   <tile gid="30"/>
   <tile gid="30"/>
   <tile gid="30"/>
   <tile gid="30"/>
   <tile gid="30"/>
   <tile gid="30"/>
   <tile gid="30"/>
   <tile gid="30"/>
   <tile gid="30"/>
   <tile gid="30"/>
   <tile gid="30"/>
   <tile gid="30"/>
   <tile gid="30"/>
   <tile gid="30"/>
   <tile gid="30"/>
   <tile gid="34"/>
   <tile gid="34"/>
   <tile gid="34"/>
   <tile gid="34"/>
   <tile gid="34"/>
   <tile gid="34"/>
   <tile gid="30"/>
   <tile gid="30"/>
   <tile gid="30"/>
   <tile gid="30"/>
   <tile gid="30"/>
   <tile gid="30"/>
   <tile gid="30"/>
   <tile gid="30"/>
   <tile gid="30"/>
   <tile gid="30"/>
   <tile gid="30"/>
   <tile gid="30"/>
   <tile gid="30"/>
   <tile gid="30"/>
   <tile gid="30"/>
   <tile gid="30"/>
   <tile gid="30"/>
   <tile gid="30"/>
   <tile gid="30"/>
   <tile gid="30"/>
   <tile gid="30"/>
   <tile gid="30"/>
   <tile gid="30"/>
   <tile gid="30"/>
   <tile gid="30"/>
   <tile gid="30"/>
   <tile gid="30"/>
   <tile gid="30"/>
   <tile gid="30"/>
   <tile gid="30"/>
   <tile gid="30"/>
   <tile gid="30"/>
   <tile gid="30"/>
   <tile gid="30"/>
   <tile gid="30"/>
   <tile gid="30"/>
   <tile gid="30"/>
   <tile gid="30"/>
   <tile gid="30"/>
   <tile gid="30"/>
   <tile gid="30"/>
   <tile gid="30"/>
   <tile gid="30"/>
   <tile gid="30"/>
   <tile gid="30"/>
   <tile gid="30"/>
   <tile gid="30"/>
   <tile gid="30"/>
   <tile gid="30"/>
   <tile gid="30"/>
   <tile gid="34"/>
   <tile gid="34"/>
   <tile gid="34"/>
   <tile gid="30"/>
   <tile gid="30"/>
   <tile gid="30"/>
   <tile gid="30"/>
   <tile gid="30"/>
   <tile gid="30"/>
   <tile gid="30"/>
   <tile gid="30"/>
   <tile gid="30"/>
   <tile gid="30"/>
   <tile gid="30"/>
   <tile gid="30"/>
   <tile gid="30"/>
   <tile gid="30"/>
   <tile gid="30"/>
   <tile gid="30"/>
   <tile gid="30"/>
   <tile gid="30"/>
   <tile gid="30"/>
   <tile gid="30"/>
   <tile gid="30"/>
   <tile gid="30"/>
   <tile gid="30"/>
   <tile gid="34"/>
   <tile gid="34"/>
   <tile gid="34"/>
   <tile gid="30"/>
   <tile gid="30"/>
   <tile gid="30"/>
   <tile gid="30"/>
   <tile gid="30"/>
   <tile gid="30"/>
   <tile gid="30"/>
   <tile gid="30"/>
   <tile gid="30"/>
   <tile gid="30"/>
   <tile gid="30"/>
   <tile gid="30"/>
   <tile gid="30"/>
   <tile gid="30"/>
   <tile gid="30"/>
   <tile gid="30"/>
   <tile gid="30"/>
   <tile gid="30"/>
   <tile gid="30"/>
   <tile gid="30"/>
   <tile gid="30"/>
   <tile gid="30"/>
   <tile gid="30"/>
   <tile gid="30"/>
   <tile gid="30"/>
   <tile gid="30"/>
   <tile gid="30"/>
   <tile gid="30"/>
   <tile gid="30"/>
   <tile gid="30"/>
   <tile gid="30"/>
   <tile gid="30"/>
   <tile gid="30"/>
   <tile gid="30"/>
   <tile gid="30"/>
   <tile gid="30"/>
   <tile gid="30"/>
   <tile gid="30"/>
   <tile gid="30"/>
   <tile gid="30"/>
   <tile gid="34"/>
   <tile gid="34"/>
   <tile gid="34"/>
   <tile gid="34"/>
   <tile gid="34"/>
   <tile gid="34"/>
   <tile gid="30"/>
   <tile gid="30"/>
   <tile gid="30"/>
   <tile gid="30"/>
   <tile gid="30"/>
   <tile gid="30"/>
   <tile gid="30"/>
   <tile gid="30"/>
   <tile gid="30"/>
   <tile gid="30"/>
   <tile gid="30"/>
   <tile gid="30"/>
   <tile gid="30"/>
   <tile gid="30"/>
   <tile gid="30"/>
   <tile gid="30"/>
   <tile gid="30"/>
   <tile gid="30"/>
   <tile gid="30"/>
   <tile gid="30"/>
   <tile gid="30"/>
   <tile gid="30"/>
   <tile gid="30"/>
   <tile gid="30"/>
   <tile gid="30"/>
   <tile gid="30"/>
   <tile gid="30"/>
   <tile gid="30"/>
   <tile gid="30"/>
   <tile gid="30"/>
   <tile gid="30"/>
   <tile gid="30"/>
   <tile gid="30"/>
   <tile gid="30"/>
   <tile gid="30"/>
   <tile gid="30"/>
   <tile gid="30"/>
   <tile gid="30"/>
   <tile gid="30"/>
   <tile gid="30"/>
   <tile gid="30"/>
   <tile gid="30"/>
   <tile gid="30"/>
   <tile gid="30"/>
   <tile gid="30"/>
   <tile gid="30"/>
   <tile gid="30"/>
   <tile gid="30"/>
   <tile gid="30"/>
   <tile gid="30"/>
   <tile gid="34"/>
   <tile gid="34"/>
   <tile gid="34"/>
   <tile gid="30"/>
   <tile gid="30"/>
   <tile gid="30"/>
   <tile gid="30"/>
   <tile gid="30"/>
   <tile gid="30"/>
   <tile gid="30"/>
   <tile gid="30"/>
   <tile gid="30"/>
   <tile gid="30"/>
   <tile gid="30"/>
   <tile gid="30"/>
   <tile gid="30"/>
   <tile gid="30"/>
   <tile gid="30"/>
   <tile gid="30"/>
   <tile gid="30"/>
   <tile gid="30"/>
   <tile gid="30"/>
   <tile gid="30"/>
   <tile gid="30"/>
   <tile gid="30"/>
   <tile gid="30"/>
   <tile gid="34"/>
   <tile gid="34"/>
   <tile gid="34"/>
   <tile gid="30"/>
   <tile gid="30"/>
   <tile gid="30"/>
   <tile gid="30"/>
   <tile gid="30"/>
   <tile gid="30"/>
   <tile gid="30"/>
   <tile gid="30"/>
   <tile gid="30"/>
   <tile gid="30"/>
   <tile gid="30"/>
   <tile gid="30"/>
   <tile gid="30"/>
   <tile gid="30"/>
   <tile gid="30"/>
   <tile gid="30"/>
   <tile gid="30"/>
   <tile gid="30"/>
   <tile gid="30"/>
   <tile gid="30"/>
   <tile gid="30"/>
   <tile gid="30"/>
   <tile gid="30"/>
   <tile gid="30"/>
   <tile gid="30"/>
   <tile gid="30"/>
   <tile gid="30"/>
   <tile gid="30"/>
   <tile gid="30"/>
   <tile gid="30"/>
   <tile gid="30"/>
   <tile gid="30"/>
   <tile gid="30"/>
   <tile gid="30"/>
   <tile gid="30"/>
   <tile gid="30"/>
   <tile gid="30"/>
   <tile gid="30"/>
   <tile gid="30"/>
   <tile gid="30"/>
   <tile gid="34"/>
   <tile gid="34"/>
   <tile gid="34"/>
   <tile gid="34"/>
   <tile gid="34"/>
   <tile gid="34"/>
   <tile gid="30"/>
   <tile gid="30"/>
   <tile gid="30"/>
   <tile gid="30"/>
   <tile gid="30"/>
   <tile gid="30"/>
   <tile gid="30"/>
   <tile gid="30"/>
   <tile gid="30"/>
   <tile gid="30"/>
   <tile gid="30"/>
   <tile gid="30"/>
   <tile gid="30"/>
   <tile gid="30"/>
   <tile gid="30"/>
   <tile gid="30"/>
   <tile gid="30"/>
   <tile gid="30"/>
   <tile gid="30"/>
   <tile gid="30"/>
   <tile gid="30"/>
   <tile gid="30"/>
   <tile gid="30"/>
   <tile gid="30"/>
   <tile gid="30"/>
   <tile gid="30"/>
   <tile gid="30"/>
   <tile gid="30"/>
   <tile gid="30"/>
   <tile gid="30"/>
   <tile gid="30"/>
   <tile gid="30"/>
   <tile gid="30"/>
   <tile gid="30"/>
   <tile gid="30"/>
   <tile gid="30"/>
   <tile gid="30"/>
   <tile gid="30"/>
   <tile gid="30"/>
   <tile gid="30"/>
   <tile gid="30"/>
   <tile gid="30"/>
   <tile gid="30"/>
   <tile gid="30"/>
   <tile gid="30"/>
   <tile gid="30"/>
   <tile gid="30"/>
   <tile gid="30"/>
   <tile gid="30"/>
   <tile gid="30"/>
   <tile gid="34"/>
   <tile gid="34"/>
   <tile gid="34"/>
   <tile gid="30"/>
   <tile gid="30"/>
   <tile gid="30"/>
   <tile gid="30"/>
   <tile gid="30"/>
   <tile gid="30"/>
   <tile gid="30"/>
   <tile gid="30"/>
   <tile gid="30"/>
   <tile gid="30"/>
   <tile gid="30"/>
   <tile gid="30"/>
   <tile gid="30"/>
   <tile gid="30"/>
   <tile gid="30"/>
   <tile gid="30"/>
   <tile gid="30"/>
   <tile gid="30"/>
   <tile gid="30"/>
   <tile gid="30"/>
   <tile gid="30"/>
   <tile gid="30"/>
   <tile gid="30"/>
   <tile gid="34"/>
   <tile gid="34"/>
   <tile gid="34"/>
   <tile gid="30"/>
   <tile gid="30"/>
   <tile gid="30"/>
   <tile gid="30"/>
   <tile gid="30"/>
   <tile gid="30"/>
   <tile gid="30"/>
   <tile gid="30"/>
   <tile gid="30"/>
   <tile gid="30"/>
   <tile gid="30"/>
   <tile gid="30"/>
   <tile gid="30"/>
   <tile gid="30"/>
   <tile gid="30"/>
   <tile gid="30"/>
   <tile gid="30"/>
   <tile gid="30"/>
   <tile gid="30"/>
   <tile gid="30"/>
   <tile gid="30"/>
   <tile gid="30"/>
   <tile gid="30"/>
   <tile gid="30"/>
   <tile gid="30"/>
   <tile gid="30"/>
   <tile gid="30"/>
   <tile gid="30"/>
   <tile gid="30"/>
   <tile gid="30"/>
   <tile gid="30"/>
   <tile gid="30"/>
   <tile gid="30"/>
   <tile gid="30"/>
   <tile gid="30"/>
   <tile gid="30"/>
   <tile gid="30"/>
   <tile gid="30"/>
   <tile gid="30"/>
   <tile gid="30"/>
   <tile gid="34"/>
   <tile gid="34"/>
   <tile gid="34"/>
   <tile gid="34"/>
   <tile gid="34"/>
   <tile gid="34"/>
   <tile gid="30"/>
   <tile gid="30"/>
   <tile gid="30"/>
   <tile gid="30"/>
   <tile gid="30"/>
   <tile gid="30"/>
   <tile gid="30"/>
   <tile gid="30"/>
   <tile gid="30"/>
   <tile gid="30"/>
   <tile gid="30"/>
   <tile gid="30"/>
   <tile gid="30"/>
   <tile gid="30"/>
   <tile gid="30"/>
   <tile gid="30"/>
   <tile gid="30"/>
   <tile gid="30"/>
   <tile gid="30"/>
   <tile gid="30"/>
   <tile gid="30"/>
   <tile gid="30"/>
   <tile gid="30"/>
   <tile gid="30"/>
   <tile gid="30"/>
   <tile gid="30"/>
   <tile gid="30"/>
   <tile gid="30"/>
   <tile gid="30"/>
   <tile gid="30"/>
   <tile gid="30"/>
   <tile gid="30"/>
   <tile gid="30"/>
   <tile gid="30"/>
   <tile gid="30"/>
   <tile gid="30"/>
   <tile gid="30"/>
   <tile gid="30"/>
   <tile gid="30"/>
   <tile gid="30"/>
   <tile gid="30"/>
   <tile gid="30"/>
   <tile gid="30"/>
   <tile gid="30"/>
   <tile gid="30"/>
   <tile gid="30"/>
   <tile gid="30"/>
   <tile gid="30"/>
   <tile gid="30"/>
   <tile gid="30"/>
   <tile gid="34"/>
   <tile gid="34"/>
   <tile gid="34"/>
   <tile gid="34"/>
   <tile gid="34"/>
   <tile gid="34"/>
   <tile gid="34"/>
   <tile gid="34"/>
   <tile gid="34"/>
   <tile gid="34"/>
   <tile gid="34"/>
   <tile gid="34"/>
   <tile gid="34"/>
   <tile gid="34"/>
   <tile gid="34"/>
   <tile gid="34"/>
   <tile gid="34"/>
   <tile gid="34"/>
   <tile gid="34"/>
   <tile gid="34"/>
   <tile gid="34"/>
   <tile gid="34"/>
   <tile gid="34"/>
   <tile gid="34"/>
   <tile gid="34"/>
   <tile gid="34"/>
   <tile gid="34"/>
   <tile gid="34"/>
   <tile gid="34"/>
   <tile gid="34"/>
   <tile gid="34"/>
   <tile gid="34"/>
   <tile gid="34"/>
   <tile gid="30"/>
   <tile gid="30"/>
   <tile gid="30"/>
   <tile gid="30"/>
   <tile gid="34"/>
   <tile gid="34"/>
   <tile gid="34"/>
   <tile gid="34"/>
   <tile gid="34"/>
   <tile gid="34"/>
   <tile gid="34"/>
   <tile gid="34"/>
   <tile gid="34"/>
   <tile gid="34"/>
   <tile gid="34"/>
   <tile gid="34"/>
   <tile gid="34"/>
   <tile gid="34"/>
   <tile gid="34"/>
   <tile gid="34"/>
   <tile gid="34"/>
   <tile gid="34"/>
   <tile gid="34"/>
   <tile gid="34"/>
   <tile gid="34"/>
   <tile gid="30"/>
   <tile gid="30"/>
   <tile gid="30"/>
   <tile gid="34"/>
   <tile gid="34"/>
   <tile gid="34"/>
   <tile gid="34"/>
   <tile gid="34"/>
   <tile gid="34"/>
   <tile gid="34"/>
   <tile gid="34"/>
   <tile gid="34"/>
   <tile gid="34"/>
   <tile gid="34"/>
   <tile gid="34"/>
   <tile gid="34"/>
   <tile gid="34"/>
   <tile gid="30"/>
   <tile gid="30"/>
   <tile gid="30"/>
   <tile gid="30"/>
   <tile gid="30"/>
   <tile gid="30"/>
   <tile gid="30"/>
   <tile gid="30"/>
   <tile gid="30"/>
   <tile gid="30"/>
   <tile gid="30"/>
   <tile gid="30"/>
   <tile gid="30"/>
   <tile gid="30"/>
   <tile gid="30"/>
   <tile gid="30"/>
   <tile gid="30"/>
   <tile gid="30"/>
   <tile gid="30"/>
   <tile gid="30"/>
   <tile gid="30"/>
   <tile gid="30"/>
   <tile gid="30"/>
   <tile gid="30"/>
   <tile gid="30"/>
   <tile gid="30"/>
   <tile gid="30"/>
   <tile gid="30"/>
   <tile gid="30"/>
   <tile gid="30"/>
   <tile gid="30"/>
   <tile gid="30"/>
   <tile gid="30"/>
   <tile gid="30"/>
   <tile gid="30"/>
   <tile gid="30"/>
   <tile gid="30"/>
   <tile gid="30"/>
   <tile gid="30"/>
   <tile gid="30"/>
   <tile gid="30"/>
   <tile gid="30"/>
   <tile gid="30"/>
   <tile gid="30"/>
   <tile gid="30"/>
   <tile gid="30"/>
   <tile gid="30"/>
   <tile gid="30"/>
   <tile gid="30"/>
   <tile gid="30"/>
   <tile gid="34"/>
   <tile gid="34"/>
   <tile gid="34"/>
   <tile gid="34"/>
   <tile gid="34"/>
   <tile gid="34"/>
   <tile gid="34"/>
   <tile gid="34"/>
   <tile gid="34"/>
   <tile gid="34"/>
   <tile gid="34"/>
   <tile gid="34"/>
   <tile gid="34"/>
   <tile gid="34"/>
   <tile gid="34"/>
   <tile gid="34"/>
   <tile gid="34"/>
   <tile gid="34"/>
   <tile gid="34"/>
   <tile gid="34"/>
   <tile gid="34"/>
   <tile gid="34"/>
   <tile gid="34"/>
   <tile gid="34"/>
   <tile gid="34"/>
   <tile gid="34"/>
   <tile gid="34"/>
   <tile gid="34"/>
   <tile gid="34"/>
   <tile gid="34"/>
   <tile gid="34"/>
   <tile gid="34"/>
   <tile gid="34"/>
   <tile gid="30"/>
   <tile gid="30"/>
   <tile gid="30"/>
   <tile gid="30"/>
   <tile gid="34"/>
   <tile gid="34"/>
   <tile gid="34"/>
   <tile gid="34"/>
   <tile gid="34"/>
   <tile gid="34"/>
   <tile gid="34"/>
   <tile gid="34"/>
   <tile gid="34"/>
   <tile gid="34"/>
   <tile gid="34"/>
   <tile gid="34"/>
   <tile gid="34"/>
   <tile gid="34"/>
   <tile gid="34"/>
   <tile gid="34"/>
   <tile gid="34"/>
   <tile gid="34"/>
   <tile gid="34"/>
   <tile gid="34"/>
   <tile gid="34"/>
   <tile gid="30"/>
   <tile gid="30"/>
   <tile gid="30"/>
   <tile gid="34"/>
   <tile gid="34"/>
   <tile gid="34"/>
   <tile gid="34"/>
   <tile gid="34"/>
   <tile gid="34"/>
   <tile gid="34"/>
   <tile gid="34"/>
   <tile gid="34"/>
   <tile gid="34"/>
   <tile gid="34"/>
   <tile gid="34"/>
   <tile gid="34"/>
   <tile gid="34"/>
   <tile gid="30"/>
   <tile gid="30"/>
   <tile gid="30"/>
   <tile gid="30"/>
   <tile gid="30"/>
   <tile gid="30"/>
   <tile gid="30"/>
   <tile gid="30"/>
   <tile gid="30"/>
   <tile gid="30"/>
   <tile gid="30"/>
   <tile gid="30"/>
   <tile gid="30"/>
   <tile gid="30"/>
   <tile gid="30"/>
   <tile gid="30"/>
   <tile gid="30"/>
   <tile gid="30"/>
   <tile gid="30"/>
   <tile gid="30"/>
   <tile gid="30"/>
   <tile gid="30"/>
   <tile gid="30"/>
   <tile gid="30"/>
   <tile gid="30"/>
   <tile gid="30"/>
   <tile gid="30"/>
   <tile gid="30"/>
   <tile gid="30"/>
   <tile gid="30"/>
   <tile gid="30"/>
   <tile gid="30"/>
   <tile gid="30"/>
   <tile gid="30"/>
   <tile gid="30"/>
   <tile gid="30"/>
   <tile gid="30"/>
   <tile gid="30"/>
   <tile gid="30"/>
   <tile gid="30"/>
   <tile gid="30"/>
   <tile gid="30"/>
   <tile gid="30"/>
   <tile gid="30"/>
   <tile gid="30"/>
   <tile gid="30"/>
   <tile gid="30"/>
   <tile gid="30"/>
   <tile gid="30"/>
   <tile gid="30"/>
   <tile gid="34"/>
   <tile gid="34"/>
   <tile gid="34"/>
   <tile gid="34"/>
   <tile gid="34"/>
   <tile gid="34"/>
   <tile gid="34"/>
   <tile gid="34"/>
   <tile gid="34"/>
   <tile gid="34"/>
   <tile gid="34"/>
   <tile gid="34"/>
   <tile gid="34"/>
   <tile gid="34"/>
   <tile gid="34"/>
   <tile gid="34"/>
   <tile gid="34"/>
   <tile gid="34"/>
   <tile gid="34"/>
   <tile gid="34"/>
   <tile gid="34"/>
   <tile gid="34"/>
   <tile gid="34"/>
   <tile gid="34"/>
   <tile gid="34"/>
   <tile gid="34"/>
   <tile gid="34"/>
   <tile gid="34"/>
   <tile gid="34"/>
   <tile gid="34"/>
   <tile gid="34"/>
   <tile gid="34"/>
   <tile gid="34"/>
   <tile gid="30"/>
   <tile gid="30"/>
   <tile gid="30"/>
   <tile gid="30"/>
   <tile gid="34"/>
   <tile gid="34"/>
   <tile gid="34"/>
   <tile gid="34"/>
   <tile gid="34"/>
   <tile gid="34"/>
   <tile gid="34"/>
   <tile gid="34"/>
   <tile gid="34"/>
   <tile gid="34"/>
   <tile gid="34"/>
   <tile gid="34"/>
   <tile gid="34"/>
   <tile gid="34"/>
   <tile gid="34"/>
   <tile gid="34"/>
   <tile gid="34"/>
   <tile gid="34"/>
   <tile gid="34"/>
   <tile gid="34"/>
   <tile gid="34"/>
   <tile gid="30"/>
   <tile gid="30"/>
   <tile gid="30"/>
   <tile gid="34"/>
   <tile gid="34"/>
   <tile gid="34"/>
   <tile gid="34"/>
   <tile gid="34"/>
   <tile gid="34"/>
   <tile gid="34"/>
   <tile gid="34"/>
   <tile gid="34"/>
   <tile gid="34"/>
   <tile gid="34"/>
   <tile gid="34"/>
   <tile gid="34"/>
   <tile gid="34"/>
   <tile gid="30"/>
   <tile gid="30"/>
   <tile gid="30"/>
   <tile gid="30"/>
   <tile gid="30"/>
   <tile gid="30"/>
   <tile gid="30"/>
   <tile gid="30"/>
   <tile gid="30"/>
   <tile gid="30"/>
   <tile gid="30"/>
   <tile gid="30"/>
   <tile gid="30"/>
   <tile gid="30"/>
   <tile gid="30"/>
   <tile gid="30"/>
   <tile gid="30"/>
   <tile gid="30"/>
   <tile gid="30"/>
   <tile gid="30"/>
   <tile gid="30"/>
   <tile gid="30"/>
   <tile gid="30"/>
   <tile gid="30"/>
   <tile gid="30"/>
   <tile gid="30"/>
   <tile gid="30"/>
   <tile gid="30"/>
   <tile gid="30"/>
   <tile gid="30"/>
   <tile gid="30"/>
   <tile gid="30"/>
   <tile gid="30"/>
   <tile gid="30"/>
   <tile gid="30"/>
   <tile gid="30"/>
   <tile gid="30"/>
   <tile gid="30"/>
   <tile gid="30"/>
   <tile gid="30"/>
   <tile gid="30"/>
   <tile gid="30"/>
   <tile gid="30"/>
   <tile gid="30"/>
   <tile gid="30"/>
   <tile gid="30"/>
   <tile gid="30"/>
   <tile gid="30"/>
   <tile gid="30"/>
   <tile gid="30"/>
   <tile gid="34"/>
   <tile gid="34"/>
   <tile gid="34"/>
   <tile gid="30"/>
   <tile gid="30"/>
   <tile gid="30"/>
   <tile gid="30"/>
   <tile gid="30"/>
   <tile gid="30"/>
   <tile gid="30"/>
   <tile gid="30"/>
   <tile gid="30"/>
   <tile gid="30"/>
   <tile gid="30"/>
   <tile gid="30"/>
   <tile gid="30"/>
   <tile gid="30"/>
   <tile gid="30"/>
   <tile gid="30"/>
   <tile gid="30"/>
   <tile gid="30"/>
   <tile gid="30"/>
   <tile gid="30"/>
   <tile gid="30"/>
   <tile gid="30"/>
   <tile gid="30"/>
   <tile gid="30"/>
   <tile gid="30"/>
   <tile gid="30"/>
   <tile gid="30"/>
   <tile gid="30"/>
   <tile gid="30"/>
   <tile gid="30"/>
   <tile gid="30"/>
   <tile gid="30"/>
   <tile gid="30"/>
   <tile gid="30"/>
   <tile gid="30"/>
   <tile gid="30"/>
   <tile gid="30"/>
   <tile gid="30"/>
   <tile gid="30"/>
   <tile gid="34"/>
   <tile gid="34"/>
   <tile gid="34"/>
   <tile gid="30"/>
   <tile gid="30"/>
   <tile gid="30"/>
   <tile gid="30"/>
   <tile gid="30"/>
   <tile gid="30"/>
   <tile gid="30"/>
   <tile gid="30"/>
   <tile gid="30"/>
   <tile gid="30"/>
   <tile gid="30"/>
   <tile gid="30"/>
   <tile gid="30"/>
   <tile gid="30"/>
   <tile gid="30"/>
   <tile gid="30"/>
   <tile gid="30"/>
   <tile gid="30"/>
   <tile gid="30"/>
   <tile gid="30"/>
   <tile gid="30"/>
   <tile gid="30"/>
   <tile gid="30"/>
   <tile gid="30"/>
   <tile gid="34"/>
   <tile gid="34"/>
   <tile gid="34"/>
   <tile gid="34"/>
   <tile gid="34"/>
   <tile gid="34"/>
   <tile gid="30"/>
   <tile gid="30"/>
   <tile gid="30"/>
   <tile gid="30"/>
   <tile gid="30"/>
   <tile gid="30"/>
   <tile gid="30"/>
   <tile gid="30"/>
   <tile gid="30"/>
   <tile gid="30"/>
   <tile gid="30"/>
   <tile gid="30"/>
   <tile gid="30"/>
   <tile gid="30"/>
   <tile gid="30"/>
   <tile gid="30"/>
   <tile gid="30"/>
   <tile gid="30"/>
   <tile gid="30"/>
   <tile gid="30"/>
   <tile gid="30"/>
   <tile gid="30"/>
   <tile gid="30"/>
   <tile gid="30"/>
   <tile gid="30"/>
   <tile gid="30"/>
   <tile gid="30"/>
   <tile gid="30"/>
   <tile gid="30"/>
   <tile gid="30"/>
   <tile gid="30"/>
   <tile gid="30"/>
   <tile gid="30"/>
   <tile gid="30"/>
   <tile gid="30"/>
   <tile gid="30"/>
   <tile gid="30"/>
   <tile gid="30"/>
   <tile gid="30"/>
   <tile gid="30"/>
   <tile gid="30"/>
   <tile gid="30"/>
   <tile gid="30"/>
   <tile gid="30"/>
   <tile gid="30"/>
   <tile gid="30"/>
   <tile gid="30"/>
   <tile gid="30"/>
   <tile gid="30"/>
   <tile gid="30"/>
   <tile gid="34"/>
   <tile gid="34"/>
   <tile gid="34"/>
   <tile gid="30"/>
   <tile gid="30"/>
   <tile gid="30"/>
   <tile gid="30"/>
   <tile gid="30"/>
   <tile gid="30"/>
   <tile gid="30"/>
   <tile gid="30"/>
   <tile gid="30"/>
   <tile gid="30"/>
   <tile gid="30"/>
   <tile gid="30"/>
   <tile gid="30"/>
   <tile gid="30"/>
   <tile gid="30"/>
   <tile gid="30"/>
   <tile gid="30"/>
   <tile gid="30"/>
   <tile gid="30"/>
   <tile gid="30"/>
   <tile gid="30"/>
   <tile gid="30"/>
   <tile gid="30"/>
   <tile gid="30"/>
   <tile gid="30"/>
   <tile gid="30"/>
   <tile gid="30"/>
   <tile gid="30"/>
   <tile gid="30"/>
   <tile gid="30"/>
   <tile gid="30"/>
   <tile gid="30"/>
   <tile gid="30"/>
   <tile gid="30"/>
   <tile gid="30"/>
   <tile gid="30"/>
   <tile gid="30"/>
   <tile gid="30"/>
   <tile gid="30"/>
   <tile gid="34"/>
   <tile gid="34"/>
   <tile gid="34"/>
   <tile gid="30"/>
   <tile gid="30"/>
   <tile gid="30"/>
   <tile gid="30"/>
   <tile gid="30"/>
   <tile gid="30"/>
   <tile gid="30"/>
   <tile gid="30"/>
   <tile gid="30"/>
   <tile gid="30"/>
   <tile gid="30"/>
   <tile gid="30"/>
   <tile gid="30"/>
   <tile gid="30"/>
   <tile gid="30"/>
   <tile gid="30"/>
   <tile gid="30"/>
   <tile gid="30"/>
   <tile gid="30"/>
   <tile gid="30"/>
   <tile gid="30"/>
   <tile gid="30"/>
   <tile gid="30"/>
   <tile gid="30"/>
   <tile gid="34"/>
   <tile gid="34"/>
   <tile gid="34"/>
   <tile gid="34"/>
   <tile gid="34"/>
   <tile gid="34"/>
   <tile gid="30"/>
   <tile gid="30"/>
   <tile gid="30"/>
   <tile gid="30"/>
   <tile gid="30"/>
   <tile gid="30"/>
   <tile gid="30"/>
   <tile gid="30"/>
   <tile gid="30"/>
   <tile gid="30"/>
   <tile gid="30"/>
   <tile gid="30"/>
   <tile gid="30"/>
   <tile gid="30"/>
   <tile gid="30"/>
   <tile gid="30"/>
   <tile gid="30"/>
   <tile gid="30"/>
   <tile gid="30"/>
   <tile gid="30"/>
   <tile gid="30"/>
   <tile gid="30"/>
   <tile gid="30"/>
   <tile gid="30"/>
   <tile gid="30"/>
   <tile gid="30"/>
   <tile gid="30"/>
   <tile gid="30"/>
   <tile gid="30"/>
   <tile gid="30"/>
   <tile gid="30"/>
   <tile gid="30"/>
   <tile gid="30"/>
   <tile gid="30"/>
   <tile gid="30"/>
   <tile gid="30"/>
   <tile gid="30"/>
   <tile gid="30"/>
   <tile gid="30"/>
   <tile gid="30"/>
   <tile gid="30"/>
   <tile gid="30"/>
   <tile gid="30"/>
   <tile gid="30"/>
   <tile gid="30"/>
   <tile gid="30"/>
   <tile gid="30"/>
   <tile gid="30"/>
   <tile gid="30"/>
   <tile gid="30"/>
   <tile gid="34"/>
   <tile gid="34"/>
   <tile gid="34"/>
   <tile gid="30"/>
   <tile gid="30"/>
   <tile gid="30"/>
   <tile gid="30"/>
   <tile gid="30"/>
   <tile gid="30"/>
   <tile gid="30"/>
   <tile gid="30"/>
   <tile gid="30"/>
   <tile gid="30"/>
   <tile gid="30"/>
   <tile gid="30"/>
   <tile gid="30"/>
   <tile gid="30"/>
   <tile gid="30"/>
   <tile gid="30"/>
   <tile gid="30"/>
   <tile gid="30"/>
   <tile gid="30"/>
   <tile gid="30"/>
   <tile gid="30"/>
   <tile gid="30"/>
   <tile gid="30"/>
   <tile gid="30"/>
   <tile gid="30"/>
   <tile gid="30"/>
   <tile gid="30"/>
   <tile gid="30"/>
   <tile gid="30"/>
   <tile gid="30"/>
   <tile gid="30"/>
   <tile gid="30"/>
   <tile gid="30"/>
   <tile gid="30"/>
   <tile gid="30"/>
   <tile gid="30"/>
   <tile gid="30"/>
   <tile gid="30"/>
   <tile gid="30"/>
   <tile gid="34"/>
   <tile gid="34"/>
   <tile gid="34"/>
   <tile gid="30"/>
   <tile gid="30"/>
   <tile gid="30"/>
   <tile gid="30"/>
   <tile gid="30"/>
   <tile gid="30"/>
   <tile gid="30"/>
   <tile gid="30"/>
   <tile gid="30"/>
   <tile gid="30"/>
   <tile gid="30"/>
   <tile gid="30"/>
   <tile gid="30"/>
   <tile gid="30"/>
   <tile gid="30"/>
   <tile gid="30"/>
   <tile gid="30"/>
   <tile gid="30"/>
   <tile gid="30"/>
   <tile gid="30"/>
   <tile gid="30"/>
   <tile gid="30"/>
   <tile gid="30"/>
   <tile gid="30"/>
   <tile gid="34"/>
   <tile gid="34"/>
   <tile gid="34"/>
   <tile gid="34"/>
   <tile gid="34"/>
   <tile gid="34"/>
   <tile gid="30"/>
   <tile gid="30"/>
   <tile gid="30"/>
   <tile gid="30"/>
   <tile gid="30"/>
   <tile gid="30"/>
   <tile gid="30"/>
   <tile gid="30"/>
   <tile gid="30"/>
   <tile gid="30"/>
   <tile gid="30"/>
   <tile gid="30"/>
   <tile gid="30"/>
   <tile gid="30"/>
   <tile gid="30"/>
   <tile gid="30"/>
   <tile gid="30"/>
   <tile gid="30"/>
   <tile gid="30"/>
   <tile gid="30"/>
   <tile gid="30"/>
   <tile gid="30"/>
   <tile gid="30"/>
   <tile gid="30"/>
   <tile gid="30"/>
   <tile gid="30"/>
   <tile gid="30"/>
   <tile gid="30"/>
   <tile gid="30"/>
   <tile gid="30"/>
   <tile gid="30"/>
   <tile gid="30"/>
   <tile gid="30"/>
   <tile gid="30"/>
   <tile gid="30"/>
   <tile gid="30"/>
   <tile gid="30"/>
   <tile gid="30"/>
   <tile gid="30"/>
   <tile gid="30"/>
   <tile gid="30"/>
   <tile gid="30"/>
   <tile gid="30"/>
   <tile gid="30"/>
   <tile gid="30"/>
   <tile gid="30"/>
   <tile gid="30"/>
   <tile gid="30"/>
   <tile gid="30"/>
   <tile gid="30"/>
   <tile gid="34"/>
   <tile gid="34"/>
   <tile gid="34"/>
   <tile gid="30"/>
   <tile gid="30"/>
   <tile gid="30"/>
   <tile gid="30"/>
   <tile gid="30"/>
   <tile gid="30"/>
   <tile gid="30"/>
   <tile gid="30"/>
   <tile gid="30"/>
   <tile gid="30"/>
   <tile gid="30"/>
   <tile gid="30"/>
   <tile gid="30"/>
   <tile gid="30"/>
   <tile gid="30"/>
   <tile gid="30"/>
   <tile gid="30"/>
   <tile gid="30"/>
   <tile gid="30"/>
   <tile gid="30"/>
   <tile gid="30"/>
   <tile gid="30"/>
   <tile gid="30"/>
   <tile gid="30"/>
   <tile gid="30"/>
   <tile gid="30"/>
   <tile gid="30"/>
   <tile gid="30"/>
   <tile gid="30"/>
   <tile gid="30"/>
   <tile gid="30"/>
   <tile gid="30"/>
   <tile gid="30"/>
   <tile gid="30"/>
   <tile gid="30"/>
   <tile gid="30"/>
   <tile gid="30"/>
   <tile gid="30"/>
   <tile gid="30"/>
   <tile gid="34"/>
   <tile gid="34"/>
   <tile gid="34"/>
   <tile gid="30"/>
   <tile gid="30"/>
   <tile gid="30"/>
   <tile gid="30"/>
   <tile gid="30"/>
   <tile gid="30"/>
   <tile gid="30"/>
   <tile gid="30"/>
   <tile gid="30"/>
   <tile gid="30"/>
   <tile gid="30"/>
   <tile gid="30"/>
   <tile gid="30"/>
   <tile gid="30"/>
   <tile gid="30"/>
   <tile gid="30"/>
   <tile gid="30"/>
   <tile gid="30"/>
   <tile gid="30"/>
   <tile gid="30"/>
   <tile gid="30"/>
   <tile gid="30"/>
   <tile gid="30"/>
   <tile gid="30"/>
   <tile gid="34"/>
   <tile gid="34"/>
   <tile gid="34"/>
   <tile gid="34"/>
   <tile gid="34"/>
   <tile gid="34"/>
   <tile gid="30"/>
   <tile gid="30"/>
   <tile gid="30"/>
   <tile gid="30"/>
   <tile gid="30"/>
   <tile gid="30"/>
   <tile gid="30"/>
   <tile gid="30"/>
   <tile gid="30"/>
   <tile gid="30"/>
   <tile gid="30"/>
   <tile gid="30"/>
   <tile gid="30"/>
   <tile gid="30"/>
   <tile gid="30"/>
   <tile gid="30"/>
   <tile gid="30"/>
   <tile gid="30"/>
   <tile gid="30"/>
   <tile gid="30"/>
   <tile gid="30"/>
   <tile gid="30"/>
   <tile gid="30"/>
   <tile gid="30"/>
   <tile gid="30"/>
   <tile gid="30"/>
   <tile gid="30"/>
   <tile gid="30"/>
   <tile gid="30"/>
   <tile gid="30"/>
   <tile gid="30"/>
   <tile gid="30"/>
   <tile gid="30"/>
   <tile gid="30"/>
   <tile gid="30"/>
   <tile gid="30"/>
   <tile gid="30"/>
   <tile gid="30"/>
   <tile gid="30"/>
   <tile gid="30"/>
   <tile gid="30"/>
   <tile gid="30"/>
   <tile gid="30"/>
   <tile gid="30"/>
   <tile gid="30"/>
   <tile gid="30"/>
   <tile gid="30"/>
   <tile gid="30"/>
   <tile gid="30"/>
   <tile gid="30"/>
   <tile gid="30"/>
   <tile gid="30"/>
   <tile gid="30"/>
   <tile gid="30"/>
   <tile gid="30"/>
   <tile gid="30"/>
   <tile gid="30"/>
   <tile gid="30"/>
   <tile gid="30"/>
   <tile gid="30"/>
   <tile gid="30"/>
   <tile gid="30"/>
   <tile gid="30"/>
   <tile gid="30"/>
   <tile gid="30"/>
   <tile gid="30"/>
   <tile gid="30"/>
   <tile gid="30"/>
   <tile gid="30"/>
   <tile gid="30"/>
   <tile gid="30"/>
   <tile gid="30"/>
   <tile gid="30"/>
   <tile gid="30"/>
   <tile gid="30"/>
   <tile gid="30"/>
   <tile gid="30"/>
   <tile gid="30"/>
   <tile gid="30"/>
   <tile gid="30"/>
   <tile gid="30"/>
   <tile gid="30"/>
   <tile gid="30"/>
   <tile gid="30"/>
   <tile gid="30"/>
   <tile gid="30"/>
   <tile gid="30"/>
   <tile gid="30"/>
   <tile gid="30"/>
   <tile gid="30"/>
   <tile gid="30"/>
   <tile gid="30"/>
   <tile gid="34"/>
   <tile gid="34"/>
   <tile gid="34"/>
   <tile gid="30"/>
   <tile gid="30"/>
   <tile gid="30"/>
   <tile gid="30"/>
   <tile gid="30"/>
   <tile gid="30"/>
   <tile gid="30"/>
   <tile gid="30"/>
   <tile gid="30"/>
   <tile gid="30"/>
   <tile gid="30"/>
   <tile gid="30"/>
   <tile gid="30"/>
   <tile gid="30"/>
   <tile gid="30"/>
   <tile gid="30"/>
   <tile gid="30"/>
   <tile gid="30"/>
   <tile gid="30"/>
   <tile gid="30"/>
   <tile gid="30"/>
   <tile gid="30"/>
   <tile gid="30"/>
   <tile gid="30"/>
   <tile gid="34"/>
   <tile gid="34"/>
   <tile gid="34"/>
   <tile gid="34"/>
   <tile gid="34"/>
   <tile gid="34"/>
   <tile gid="30"/>
   <tile gid="30"/>
   <tile gid="30"/>
   <tile gid="30"/>
   <tile gid="30"/>
   <tile gid="30"/>
   <tile gid="30"/>
   <tile gid="30"/>
   <tile gid="30"/>
   <tile gid="30"/>
   <tile gid="30"/>
   <tile gid="30"/>
   <tile gid="30"/>
   <tile gid="30"/>
   <tile gid="30"/>
   <tile gid="30"/>
   <tile gid="30"/>
   <tile gid="30"/>
   <tile gid="30"/>
   <tile gid="30"/>
   <tile gid="30"/>
   <tile gid="30"/>
   <tile gid="30"/>
   <tile gid="30"/>
   <tile gid="30"/>
   <tile gid="30"/>
   <tile gid="30"/>
   <tile gid="30"/>
   <tile gid="30"/>
   <tile gid="30"/>
   <tile gid="30"/>
   <tile gid="30"/>
   <tile gid="30"/>
   <tile gid="30"/>
   <tile gid="30"/>
   <tile gid="30"/>
   <tile gid="30"/>
   <tile gid="30"/>
   <tile gid="30"/>
   <tile gid="30"/>
   <tile gid="30"/>
   <tile gid="30"/>
   <tile gid="30"/>
   <tile gid="30"/>
   <tile gid="30"/>
   <tile gid="30"/>
   <tile gid="30"/>
   <tile gid="30"/>
   <tile gid="30"/>
   <tile gid="30"/>
   <tile gid="30"/>
   <tile gid="30"/>
   <tile gid="30"/>
   <tile gid="30"/>
   <tile gid="30"/>
   <tile gid="30"/>
   <tile gid="30"/>
   <tile gid="30"/>
   <tile gid="30"/>
   <tile gid="30"/>
   <tile gid="30"/>
   <tile gid="30"/>
   <tile gid="30"/>
   <tile gid="30"/>
   <tile gid="30"/>
   <tile gid="30"/>
   <tile gid="30"/>
   <tile gid="30"/>
   <tile gid="30"/>
   <tile gid="30"/>
   <tile gid="30"/>
   <tile gid="30"/>
   <tile gid="30"/>
   <tile gid="30"/>
   <tile gid="30"/>
   <tile gid="30"/>
   <tile gid="30"/>
   <tile gid="30"/>
   <tile gid="30"/>
   <tile gid="30"/>
   <tile gid="30"/>
   <tile gid="30"/>
   <tile gid="30"/>
   <tile gid="30"/>
   <tile gid="30"/>
   <tile gid="30"/>
   <tile gid="30"/>
   <tile gid="30"/>
   <tile gid="30"/>
   <tile gid="30"/>
   <tile gid="30"/>
   <tile gid="30"/>
   <tile gid="34"/>
   <tile gid="34"/>
   <tile gid="34"/>
   <tile gid="30"/>
   <tile gid="30"/>
   <tile gid="30"/>
   <tile gid="30"/>
   <tile gid="30"/>
   <tile gid="30"/>
   <tile gid="30"/>
   <tile gid="30"/>
   <tile gid="30"/>
   <tile gid="30"/>
   <tile gid="30"/>
   <tile gid="30"/>
   <tile gid="30"/>
   <tile gid="30"/>
   <tile gid="30"/>
   <tile gid="30"/>
   <tile gid="30"/>
   <tile gid="30"/>
   <tile gid="30"/>
   <tile gid="30"/>
   <tile gid="30"/>
   <tile gid="30"/>
   <tile gid="30"/>
   <tile gid="30"/>
   <tile gid="34"/>
   <tile gid="34"/>
   <tile gid="34"/>
   <tile gid="34"/>
   <tile gid="34"/>
   <tile gid="34"/>
   <tile gid="30"/>
   <tile gid="30"/>
   <tile gid="30"/>
   <tile gid="30"/>
   <tile gid="30"/>
   <tile gid="30"/>
   <tile gid="30"/>
   <tile gid="30"/>
   <tile gid="30"/>
   <tile gid="30"/>
   <tile gid="30"/>
   <tile gid="30"/>
   <tile gid="30"/>
   <tile gid="30"/>
   <tile gid="30"/>
   <tile gid="30"/>
   <tile gid="30"/>
   <tile gid="30"/>
   <tile gid="30"/>
   <tile gid="30"/>
   <tile gid="30"/>
   <tile gid="30"/>
   <tile gid="30"/>
   <tile gid="30"/>
   <tile gid="30"/>
   <tile gid="30"/>
   <tile gid="30"/>
   <tile gid="30"/>
   <tile gid="30"/>
   <tile gid="30"/>
   <tile gid="30"/>
   <tile gid="30"/>
   <tile gid="30"/>
   <tile gid="30"/>
   <tile gid="30"/>
   <tile gid="30"/>
   <tile gid="30"/>
   <tile gid="30"/>
   <tile gid="30"/>
   <tile gid="30"/>
   <tile gid="30"/>
   <tile gid="30"/>
   <tile gid="30"/>
   <tile gid="30"/>
   <tile gid="30"/>
   <tile gid="30"/>
   <tile gid="30"/>
   <tile gid="30"/>
   <tile gid="30"/>
   <tile gid="30"/>
   <tile gid="30"/>
   <tile gid="30"/>
   <tile gid="30"/>
   <tile gid="30"/>
   <tile gid="30"/>
   <tile gid="30"/>
   <tile gid="30"/>
   <tile gid="30"/>
   <tile gid="30"/>
   <tile gid="30"/>
   <tile gid="30"/>
   <tile gid="30"/>
   <tile gid="30"/>
   <tile gid="30"/>
   <tile gid="30"/>
   <tile gid="30"/>
   <tile gid="30"/>
   <tile gid="30"/>
   <tile gid="30"/>
   <tile gid="30"/>
   <tile gid="30"/>
   <tile gid="30"/>
   <tile gid="30"/>
   <tile gid="30"/>
   <tile gid="30"/>
   <tile gid="30"/>
   <tile gid="30"/>
   <tile gid="30"/>
   <tile gid="30"/>
   <tile gid="30"/>
   <tile gid="30"/>
   <tile gid="30"/>
   <tile gid="30"/>
   <tile gid="30"/>
   <tile gid="30"/>
   <tile gid="30"/>
   <tile gid="30"/>
   <tile gid="30"/>
   <tile gid="30"/>
   <tile gid="30"/>
   <tile gid="30"/>
   <tile gid="30"/>
   <tile gid="34"/>
   <tile gid="34"/>
   <tile gid="34"/>
   <tile gid="30"/>
   <tile gid="30"/>
   <tile gid="30"/>
   <tile gid="30"/>
   <tile gid="30"/>
   <tile gid="30"/>
   <tile gid="30"/>
   <tile gid="30"/>
   <tile gid="30"/>
   <tile gid="30"/>
   <tile gid="30"/>
   <tile gid="30"/>
   <tile gid="30"/>
   <tile gid="30"/>
   <tile gid="30"/>
   <tile gid="30"/>
   <tile gid="30"/>
   <tile gid="30"/>
   <tile gid="30"/>
   <tile gid="30"/>
   <tile gid="30"/>
   <tile gid="30"/>
   <tile gid="30"/>
   <tile gid="30"/>
   <tile gid="34"/>
   <tile gid="34"/>
   <tile gid="34"/>
   <tile gid="34"/>
   <tile gid="34"/>
   <tile gid="34"/>
   <tile gid="30"/>
   <tile gid="30"/>
   <tile gid="30"/>
   <tile gid="30"/>
   <tile gid="30"/>
   <tile gid="30"/>
   <tile gid="30"/>
   <tile gid="30"/>
   <tile gid="30"/>
   <tile gid="30"/>
   <tile gid="30"/>
   <tile gid="30"/>
   <tile gid="30"/>
   <tile gid="30"/>
   <tile gid="30"/>
   <tile gid="30"/>
   <tile gid="30"/>
   <tile gid="30"/>
   <tile gid="30"/>
   <tile gid="30"/>
   <tile gid="30"/>
   <tile gid="30"/>
   <tile gid="30"/>
   <tile gid="30"/>
   <tile gid="30"/>
   <tile gid="30"/>
   <tile gid="30"/>
   <tile gid="30"/>
   <tile gid="30"/>
   <tile gid="30"/>
   <tile gid="30"/>
   <tile gid="30"/>
   <tile gid="30"/>
   <tile gid="30"/>
   <tile gid="30"/>
   <tile gid="30"/>
   <tile gid="30"/>
   <tile gid="30"/>
   <tile gid="30"/>
   <tile gid="30"/>
   <tile gid="30"/>
   <tile gid="30"/>
   <tile gid="30"/>
   <tile gid="30"/>
   <tile gid="30"/>
   <tile gid="30"/>
   <tile gid="30"/>
   <tile gid="30"/>
   <tile gid="30"/>
   <tile gid="30"/>
   <tile gid="34"/>
   <tile gid="34"/>
   <tile gid="34"/>
   <tile gid="30"/>
   <tile gid="30"/>
   <tile gid="30"/>
   <tile gid="30"/>
   <tile gid="30"/>
   <tile gid="30"/>
   <tile gid="30"/>
   <tile gid="30"/>
   <tile gid="30"/>
   <tile gid="30"/>
   <tile gid="30"/>
   <tile gid="30"/>
   <tile gid="30"/>
   <tile gid="30"/>
   <tile gid="30"/>
   <tile gid="30"/>
   <tile gid="30"/>
   <tile gid="30"/>
   <tile gid="30"/>
   <tile gid="30"/>
   <tile gid="30"/>
   <tile gid="30"/>
   <tile gid="30"/>
   <tile gid="30"/>
   <tile gid="30"/>
   <tile gid="30"/>
   <tile gid="30"/>
   <tile gid="30"/>
   <tile gid="30"/>
   <tile gid="30"/>
   <tile gid="30"/>
   <tile gid="30"/>
   <tile gid="30"/>
   <tile gid="30"/>
   <tile gid="30"/>
   <tile gid="30"/>
   <tile gid="30"/>
   <tile gid="30"/>
   <tile gid="30"/>
   <tile gid="34"/>
   <tile gid="34"/>
   <tile gid="34"/>
   <tile gid="30"/>
   <tile gid="30"/>
   <tile gid="30"/>
   <tile gid="30"/>
   <tile gid="30"/>
   <tile gid="30"/>
   <tile gid="30"/>
   <tile gid="30"/>
   <tile gid="30"/>
   <tile gid="30"/>
   <tile gid="30"/>
   <tile gid="30"/>
   <tile gid="30"/>
   <tile gid="30"/>
   <tile gid="30"/>
   <tile gid="30"/>
   <tile gid="30"/>
   <tile gid="30"/>
   <tile gid="30"/>
   <tile gid="30"/>
   <tile gid="30"/>
   <tile gid="30"/>
   <tile gid="30"/>
   <tile gid="30"/>
   <tile gid="34"/>
   <tile gid="34"/>
   <tile gid="34"/>
   <tile gid="34"/>
   <tile gid="34"/>
   <tile gid="34"/>
   <tile gid="30"/>
   <tile gid="30"/>
   <tile gid="30"/>
   <tile gid="30"/>
   <tile gid="30"/>
   <tile gid="30"/>
   <tile gid="30"/>
   <tile gid="30"/>
   <tile gid="30"/>
   <tile gid="30"/>
   <tile gid="30"/>
   <tile gid="30"/>
   <tile gid="30"/>
   <tile gid="30"/>
   <tile gid="30"/>
   <tile gid="30"/>
   <tile gid="30"/>
   <tile gid="30"/>
   <tile gid="30"/>
   <tile gid="30"/>
   <tile gid="30"/>
   <tile gid="30"/>
   <tile gid="30"/>
   <tile gid="30"/>
   <tile gid="30"/>
   <tile gid="30"/>
   <tile gid="30"/>
   <tile gid="30"/>
   <tile gid="30"/>
   <tile gid="30"/>
   <tile gid="30"/>
   <tile gid="30"/>
   <tile gid="30"/>
   <tile gid="30"/>
   <tile gid="30"/>
   <tile gid="30"/>
   <tile gid="30"/>
   <tile gid="30"/>
   <tile gid="30"/>
   <tile gid="30"/>
   <tile gid="30"/>
   <tile gid="30"/>
   <tile gid="30"/>
   <tile gid="30"/>
   <tile gid="30"/>
   <tile gid="30"/>
   <tile gid="30"/>
   <tile gid="30"/>
   <tile gid="30"/>
   <tile gid="30"/>
   <tile gid="34"/>
   <tile gid="34"/>
   <tile gid="34"/>
   <tile gid="30"/>
   <tile gid="30"/>
   <tile gid="30"/>
   <tile gid="30"/>
   <tile gid="30"/>
   <tile gid="30"/>
   <tile gid="30"/>
   <tile gid="30"/>
   <tile gid="30"/>
   <tile gid="30"/>
   <tile gid="30"/>
   <tile gid="30"/>
   <tile gid="30"/>
   <tile gid="30"/>
   <tile gid="30"/>
   <tile gid="30"/>
   <tile gid="30"/>
   <tile gid="30"/>
   <tile gid="30"/>
   <tile gid="30"/>
   <tile gid="30"/>
   <tile gid="30"/>
   <tile gid="30"/>
   <tile gid="30"/>
   <tile gid="30"/>
   <tile gid="30"/>
   <tile gid="30"/>
   <tile gid="30"/>
   <tile gid="30"/>
   <tile gid="30"/>
   <tile gid="30"/>
   <tile gid="30"/>
   <tile gid="30"/>
   <tile gid="30"/>
   <tile gid="30"/>
   <tile gid="30"/>
   <tile gid="30"/>
   <tile gid="30"/>
   <tile gid="30"/>
   <tile gid="34"/>
   <tile gid="34"/>
   <tile gid="34"/>
   <tile gid="30"/>
   <tile gid="30"/>
   <tile gid="30"/>
   <tile gid="30"/>
   <tile gid="30"/>
   <tile gid="30"/>
   <tile gid="30"/>
   <tile gid="30"/>
   <tile gid="30"/>
   <tile gid="30"/>
   <tile gid="30"/>
   <tile gid="30"/>
   <tile gid="30"/>
   <tile gid="30"/>
   <tile gid="30"/>
   <tile gid="30"/>
   <tile gid="30"/>
   <tile gid="30"/>
   <tile gid="30"/>
   <tile gid="30"/>
   <tile gid="30"/>
   <tile gid="30"/>
   <tile gid="30"/>
   <tile gid="30"/>
   <tile gid="34"/>
   <tile gid="34"/>
   <tile gid="34"/>
   <tile gid="34"/>
   <tile gid="34"/>
   <tile gid="34"/>
   <tile gid="30"/>
   <tile gid="30"/>
   <tile gid="30"/>
   <tile gid="30"/>
   <tile gid="30"/>
   <tile gid="30"/>
   <tile gid="30"/>
   <tile gid="30"/>
   <tile gid="30"/>
   <tile gid="30"/>
   <tile gid="30"/>
   <tile gid="30"/>
   <tile gid="30"/>
   <tile gid="30"/>
   <tile gid="30"/>
   <tile gid="30"/>
   <tile gid="30"/>
   <tile gid="30"/>
   <tile gid="30"/>
   <tile gid="30"/>
   <tile gid="30"/>
   <tile gid="30"/>
   <tile gid="30"/>
   <tile gid="30"/>
   <tile gid="30"/>
   <tile gid="30"/>
   <tile gid="30"/>
   <tile gid="30"/>
   <tile gid="30"/>
   <tile gid="30"/>
   <tile gid="30"/>
   <tile gid="30"/>
   <tile gid="30"/>
   <tile gid="30"/>
   <tile gid="30"/>
   <tile gid="30"/>
   <tile gid="30"/>
   <tile gid="30"/>
   <tile gid="30"/>
   <tile gid="30"/>
   <tile gid="30"/>
   <tile gid="30"/>
   <tile gid="30"/>
   <tile gid="30"/>
   <tile gid="30"/>
   <tile gid="30"/>
   <tile gid="30"/>
   <tile gid="30"/>
   <tile gid="30"/>
   <tile gid="30"/>
   <tile gid="34"/>
   <tile gid="34"/>
   <tile gid="34"/>
   <tile gid="30"/>
   <tile gid="30"/>
   <tile gid="30"/>
   <tile gid="30"/>
   <tile gid="30"/>
   <tile gid="30"/>
   <tile gid="30"/>
   <tile gid="30"/>
   <tile gid="30"/>
   <tile gid="30"/>
   <tile gid="30"/>
   <tile gid="30"/>
   <tile gid="30"/>
   <tile gid="30"/>
   <tile gid="30"/>
   <tile gid="30"/>
   <tile gid="30"/>
   <tile gid="30"/>
   <tile gid="30"/>
   <tile gid="30"/>
   <tile gid="30"/>
   <tile gid="30"/>
   <tile gid="30"/>
   <tile gid="30"/>
   <tile gid="30"/>
   <tile gid="30"/>
   <tile gid="30"/>
   <tile gid="30"/>
   <tile gid="30"/>
   <tile gid="30"/>
   <tile gid="30"/>
   <tile gid="30"/>
   <tile gid="30"/>
   <tile gid="30"/>
   <tile gid="30"/>
   <tile gid="30"/>
   <tile gid="30"/>
   <tile gid="30"/>
   <tile gid="30"/>
   <tile gid="34"/>
   <tile gid="34"/>
   <tile gid="34"/>
   <tile gid="30"/>
   <tile gid="30"/>
   <tile gid="30"/>
   <tile gid="30"/>
   <tile gid="30"/>
   <tile gid="30"/>
   <tile gid="30"/>
   <tile gid="30"/>
   <tile gid="30"/>
   <tile gid="30"/>
   <tile gid="30"/>
   <tile gid="30"/>
   <tile gid="30"/>
   <tile gid="30"/>
   <tile gid="30"/>
   <tile gid="30"/>
   <tile gid="30"/>
   <tile gid="30"/>
   <tile gid="30"/>
   <tile gid="30"/>
   <tile gid="30"/>
   <tile gid="30"/>
   <tile gid="30"/>
   <tile gid="30"/>
   <tile gid="34"/>
   <tile gid="34"/>
   <tile gid="34"/>
   <tile gid="34"/>
   <tile gid="34"/>
   <tile gid="34"/>
   <tile gid="30"/>
   <tile gid="30"/>
   <tile gid="30"/>
   <tile gid="30"/>
   <tile gid="30"/>
   <tile gid="30"/>
   <tile gid="30"/>
   <tile gid="30"/>
   <tile gid="30"/>
   <tile gid="30"/>
   <tile gid="30"/>
   <tile gid="30"/>
   <tile gid="30"/>
   <tile gid="30"/>
   <tile gid="30"/>
   <tile gid="30"/>
   <tile gid="30"/>
   <tile gid="30"/>
   <tile gid="30"/>
   <tile gid="30"/>
   <tile gid="30"/>
   <tile gid="30"/>
   <tile gid="30"/>
   <tile gid="30"/>
   <tile gid="30"/>
   <tile gid="30"/>
   <tile gid="30"/>
   <tile gid="30"/>
   <tile gid="30"/>
   <tile gid="30"/>
   <tile gid="30"/>
   <tile gid="30"/>
   <tile gid="30"/>
   <tile gid="30"/>
   <tile gid="30"/>
   <tile gid="30"/>
   <tile gid="30"/>
   <tile gid="30"/>
   <tile gid="30"/>
   <tile gid="30"/>
   <tile gid="30"/>
   <tile gid="30"/>
   <tile gid="30"/>
   <tile gid="30"/>
   <tile gid="30"/>
   <tile gid="30"/>
   <tile gid="30"/>
   <tile gid="30"/>
   <tile gid="30"/>
   <tile gid="30"/>
   <tile gid="34"/>
   <tile gid="34"/>
   <tile gid="34"/>
   <tile gid="30"/>
   <tile gid="30"/>
   <tile gid="30"/>
   <tile gid="30"/>
   <tile gid="30"/>
   <tile gid="30"/>
   <tile gid="30"/>
   <tile gid="30"/>
   <tile gid="30"/>
   <tile gid="30"/>
   <tile gid="30"/>
   <tile gid="30"/>
   <tile gid="30"/>
   <tile gid="30"/>
   <tile gid="30"/>
   <tile gid="30"/>
   <tile gid="30"/>
   <tile gid="30"/>
   <tile gid="30"/>
   <tile gid="30"/>
   <tile gid="30"/>
   <tile gid="30"/>
   <tile gid="30"/>
   <tile gid="30"/>
   <tile gid="30"/>
   <tile gid="30"/>
   <tile gid="30"/>
   <tile gid="30"/>
   <tile gid="30"/>
   <tile gid="30"/>
   <tile gid="30"/>
   <tile gid="30"/>
   <tile gid="30"/>
   <tile gid="30"/>
   <tile gid="30"/>
   <tile gid="30"/>
   <tile gid="30"/>
   <tile gid="30"/>
   <tile gid="30"/>
   <tile gid="34"/>
   <tile gid="34"/>
   <tile gid="34"/>
   <tile gid="30"/>
   <tile gid="30"/>
   <tile gid="30"/>
   <tile gid="30"/>
   <tile gid="30"/>
   <tile gid="30"/>
   <tile gid="30"/>
   <tile gid="30"/>
   <tile gid="30"/>
   <tile gid="30"/>
   <tile gid="30"/>
   <tile gid="30"/>
   <tile gid="30"/>
   <tile gid="30"/>
   <tile gid="30"/>
   <tile gid="30"/>
   <tile gid="30"/>
   <tile gid="30"/>
   <tile gid="30"/>
   <tile gid="30"/>
   <tile gid="30"/>
   <tile gid="30"/>
   <tile gid="30"/>
   <tile gid="30"/>
   <tile gid="34"/>
   <tile gid="34"/>
   <tile gid="34"/>
   <tile gid="34"/>
   <tile gid="34"/>
   <tile gid="34"/>
   <tile gid="30"/>
   <tile gid="30"/>
   <tile gid="30"/>
   <tile gid="30"/>
   <tile gid="30"/>
   <tile gid="30"/>
   <tile gid="30"/>
   <tile gid="30"/>
   <tile gid="30"/>
   <tile gid="30"/>
   <tile gid="30"/>
   <tile gid="30"/>
   <tile gid="30"/>
   <tile gid="30"/>
   <tile gid="30"/>
   <tile gid="30"/>
   <tile gid="30"/>
   <tile gid="30"/>
   <tile gid="30"/>
   <tile gid="30"/>
   <tile gid="30"/>
   <tile gid="30"/>
   <tile gid="30"/>
   <tile gid="30"/>
   <tile gid="30"/>
   <tile gid="30"/>
   <tile gid="30"/>
   <tile gid="30"/>
   <tile gid="30"/>
   <tile gid="30"/>
   <tile gid="30"/>
   <tile gid="30"/>
   <tile gid="30"/>
   <tile gid="30"/>
   <tile gid="30"/>
   <tile gid="30"/>
   <tile gid="30"/>
   <tile gid="30"/>
   <tile gid="30"/>
   <tile gid="30"/>
   <tile gid="30"/>
   <tile gid="30"/>
   <tile gid="30"/>
   <tile gid="30"/>
   <tile gid="30"/>
   <tile gid="30"/>
   <tile gid="30"/>
   <tile gid="30"/>
   <tile gid="30"/>
   <tile gid="30"/>
   <tile gid="34"/>
   <tile gid="34"/>
   <tile gid="34"/>
   <tile gid="30"/>
   <tile gid="30"/>
   <tile gid="30"/>
   <tile gid="30"/>
   <tile gid="30"/>
   <tile gid="30"/>
   <tile gid="30"/>
   <tile gid="30"/>
   <tile gid="30"/>
   <tile gid="30"/>
   <tile gid="30"/>
   <tile gid="30"/>
   <tile gid="30"/>
   <tile gid="30"/>
   <tile gid="30"/>
   <tile gid="30"/>
   <tile gid="30"/>
   <tile gid="30"/>
   <tile gid="30"/>
   <tile gid="30"/>
   <tile gid="30"/>
   <tile gid="30"/>
   <tile gid="30"/>
   <tile gid="30"/>
   <tile gid="30"/>
   <tile gid="30"/>
   <tile gid="30"/>
   <tile gid="30"/>
   <tile gid="30"/>
   <tile gid="30"/>
   <tile gid="30"/>
   <tile gid="30"/>
   <tile gid="30"/>
   <tile gid="30"/>
   <tile gid="30"/>
   <tile gid="30"/>
   <tile gid="30"/>
   <tile gid="30"/>
   <tile gid="30"/>
   <tile gid="34"/>
   <tile gid="34"/>
   <tile gid="34"/>
   <tile gid="30"/>
   <tile gid="30"/>
   <tile gid="30"/>
   <tile gid="30"/>
   <tile gid="30"/>
   <tile gid="30"/>
   <tile gid="30"/>
   <tile gid="30"/>
   <tile gid="30"/>
   <tile gid="30"/>
   <tile gid="30"/>
   <tile gid="30"/>
   <tile gid="30"/>
   <tile gid="30"/>
   <tile gid="30"/>
   <tile gid="30"/>
   <tile gid="30"/>
   <tile gid="30"/>
   <tile gid="30"/>
   <tile gid="30"/>
   <tile gid="30"/>
   <tile gid="30"/>
   <tile gid="30"/>
   <tile gid="30"/>
   <tile gid="34"/>
   <tile gid="34"/>
   <tile gid="34"/>
   <tile gid="34"/>
   <tile gid="34"/>
   <tile gid="34"/>
   <tile gid="30"/>
   <tile gid="30"/>
   <tile gid="30"/>
   <tile gid="30"/>
   <tile gid="30"/>
   <tile gid="30"/>
   <tile gid="30"/>
   <tile gid="30"/>
   <tile gid="30"/>
   <tile gid="30"/>
   <tile gid="30"/>
   <tile gid="30"/>
   <tile gid="30"/>
   <tile gid="30"/>
   <tile gid="30"/>
   <tile gid="30"/>
   <tile gid="30"/>
   <tile gid="30"/>
   <tile gid="30"/>
   <tile gid="30"/>
   <tile gid="30"/>
   <tile gid="30"/>
   <tile gid="30"/>
   <tile gid="30"/>
   <tile gid="30"/>
   <tile gid="30"/>
   <tile gid="30"/>
   <tile gid="30"/>
   <tile gid="30"/>
   <tile gid="30"/>
   <tile gid="30"/>
   <tile gid="30"/>
   <tile gid="30"/>
   <tile gid="30"/>
   <tile gid="30"/>
   <tile gid="30"/>
   <tile gid="30"/>
   <tile gid="30"/>
   <tile gid="30"/>
   <tile gid="30"/>
   <tile gid="30"/>
   <tile gid="30"/>
   <tile gid="30"/>
   <tile gid="30"/>
   <tile gid="30"/>
   <tile gid="30"/>
   <tile gid="30"/>
   <tile gid="30"/>
   <tile gid="30"/>
   <tile gid="30"/>
   <tile gid="34"/>
   <tile gid="34"/>
   <tile gid="34"/>
   <tile gid="34"/>
   <tile gid="34"/>
   <tile gid="34"/>
   <tile gid="34"/>
   <tile gid="34"/>
   <tile gid="34"/>
   <tile gid="34"/>
   <tile gid="34"/>
   <tile gid="34"/>
   <tile gid="34"/>
   <tile gid="34"/>
   <tile gid="34"/>
   <tile gid="34"/>
   <tile gid="34"/>
   <tile gid="34"/>
   <tile gid="34"/>
   <tile gid="34"/>
   <tile gid="34"/>
   <tile gid="34"/>
   <tile gid="34"/>
   <tile gid="34"/>
   <tile gid="34"/>
   <tile gid="34"/>
   <tile gid="34"/>
   <tile gid="34"/>
   <tile gid="34"/>
   <tile gid="34"/>
   <tile gid="34"/>
   <tile gid="34"/>
   <tile gid="34"/>
   <tile gid="34"/>
   <tile gid="34"/>
   <tile gid="34"/>
   <tile gid="34"/>
   <tile gid="34"/>
   <tile gid="34"/>
   <tile gid="34"/>
   <tile gid="34"/>
   <tile gid="34"/>
   <tile gid="34"/>
   <tile gid="34"/>
   <tile gid="34"/>
   <tile gid="30"/>
   <tile gid="30"/>
   <tile gid="30"/>
   <tile gid="30"/>
   <tile gid="30"/>
   <tile gid="30"/>
   <tile gid="30"/>
   <tile gid="30"/>
   <tile gid="30"/>
   <tile gid="30"/>
   <tile gid="30"/>
   <tile gid="30"/>
   <tile gid="30"/>
   <tile gid="30"/>
   <tile gid="30"/>
   <tile gid="30"/>
   <tile gid="30"/>
   <tile gid="30"/>
   <tile gid="30"/>
   <tile gid="30"/>
   <tile gid="30"/>
   <tile gid="30"/>
   <tile gid="30"/>
   <tile gid="30"/>
   <tile gid="34"/>
   <tile gid="34"/>
   <tile gid="34"/>
   <tile gid="34"/>
   <tile gid="34"/>
   <tile gid="34"/>
   <tile gid="30"/>
   <tile gid="30"/>
   <tile gid="30"/>
   <tile gid="30"/>
   <tile gid="30"/>
   <tile gid="30"/>
   <tile gid="30"/>
   <tile gid="30"/>
   <tile gid="30"/>
   <tile gid="30"/>
   <tile gid="30"/>
   <tile gid="30"/>
   <tile gid="30"/>
   <tile gid="30"/>
   <tile gid="30"/>
   <tile gid="30"/>
   <tile gid="30"/>
   <tile gid="30"/>
   <tile gid="30"/>
   <tile gid="30"/>
   <tile gid="30"/>
   <tile gid="30"/>
   <tile gid="30"/>
   <tile gid="30"/>
   <tile gid="30"/>
   <tile gid="30"/>
   <tile gid="30"/>
   <tile gid="30"/>
   <tile gid="30"/>
   <tile gid="30"/>
   <tile gid="30"/>
   <tile gid="30"/>
   <tile gid="30"/>
   <tile gid="30"/>
   <tile gid="30"/>
   <tile gid="30"/>
   <tile gid="30"/>
   <tile gid="30"/>
   <tile gid="30"/>
   <tile gid="30"/>
   <tile gid="30"/>
   <tile gid="30"/>
   <tile gid="30"/>
   <tile gid="30"/>
   <tile gid="30"/>
   <tile gid="30"/>
   <tile gid="30"/>
   <tile gid="30"/>
   <tile gid="30"/>
   <tile gid="30"/>
   <tile gid="34"/>
   <tile gid="34"/>
   <tile gid="34"/>
   <tile gid="34"/>
   <tile gid="34"/>
   <tile gid="34"/>
   <tile gid="34"/>
   <tile gid="34"/>
   <tile gid="34"/>
   <tile gid="34"/>
   <tile gid="34"/>
   <tile gid="34"/>
   <tile gid="34"/>
   <tile gid="34"/>
   <tile gid="34"/>
   <tile gid="34"/>
   <tile gid="34"/>
   <tile gid="34"/>
   <tile gid="34"/>
   <tile gid="34"/>
   <tile gid="34"/>
   <tile gid="34"/>
   <tile gid="34"/>
   <tile gid="34"/>
   <tile gid="34"/>
   <tile gid="34"/>
   <tile gid="34"/>
   <tile gid="34"/>
   <tile gid="34"/>
   <tile gid="34"/>
   <tile gid="34"/>
   <tile gid="34"/>
   <tile gid="34"/>
   <tile gid="34"/>
   <tile gid="34"/>
   <tile gid="34"/>
   <tile gid="34"/>
   <tile gid="34"/>
   <tile gid="34"/>
   <tile gid="34"/>
   <tile gid="34"/>
   <tile gid="34"/>
   <tile gid="34"/>
   <tile gid="34"/>
   <tile gid="34"/>
   <tile gid="30"/>
   <tile gid="30"/>
   <tile gid="30"/>
   <tile gid="30"/>
   <tile gid="30"/>
   <tile gid="30"/>
   <tile gid="30"/>
   <tile gid="30"/>
   <tile gid="30"/>
   <tile gid="30"/>
   <tile gid="30"/>
   <tile gid="30"/>
   <tile gid="30"/>
   <tile gid="30"/>
   <tile gid="30"/>
   <tile gid="30"/>
   <tile gid="30"/>
   <tile gid="30"/>
   <tile gid="30"/>
   <tile gid="30"/>
   <tile gid="30"/>
   <tile gid="30"/>
   <tile gid="30"/>
   <tile gid="30"/>
   <tile gid="34"/>
   <tile gid="34"/>
   <tile gid="34"/>
   <tile gid="34"/>
   <tile gid="34"/>
   <tile gid="34"/>
   <tile gid="30"/>
   <tile gid="30"/>
   <tile gid="30"/>
   <tile gid="30"/>
   <tile gid="30"/>
   <tile gid="30"/>
   <tile gid="30"/>
   <tile gid="30"/>
   <tile gid="30"/>
   <tile gid="30"/>
   <tile gid="30"/>
   <tile gid="30"/>
   <tile gid="30"/>
   <tile gid="30"/>
   <tile gid="30"/>
   <tile gid="30"/>
   <tile gid="30"/>
   <tile gid="30"/>
   <tile gid="30"/>
   <tile gid="30"/>
   <tile gid="30"/>
   <tile gid="30"/>
   <tile gid="30"/>
   <tile gid="30"/>
   <tile gid="30"/>
   <tile gid="30"/>
   <tile gid="30"/>
   <tile gid="30"/>
   <tile gid="30"/>
   <tile gid="30"/>
   <tile gid="30"/>
   <tile gid="30"/>
   <tile gid="30"/>
   <tile gid="30"/>
   <tile gid="30"/>
   <tile gid="30"/>
   <tile gid="30"/>
   <tile gid="30"/>
   <tile gid="30"/>
   <tile gid="30"/>
   <tile gid="30"/>
   <tile gid="30"/>
   <tile gid="30"/>
   <tile gid="30"/>
   <tile gid="30"/>
   <tile gid="30"/>
   <tile gid="30"/>
   <tile gid="30"/>
   <tile gid="30"/>
   <tile gid="30"/>
   <tile gid="34"/>
   <tile gid="34"/>
   <tile gid="34"/>
   <tile gid="34"/>
   <tile gid="34"/>
   <tile gid="34"/>
   <tile gid="34"/>
   <tile gid="34"/>
   <tile gid="34"/>
   <tile gid="34"/>
   <tile gid="34"/>
   <tile gid="34"/>
   <tile gid="34"/>
   <tile gid="34"/>
   <tile gid="34"/>
   <tile gid="34"/>
   <tile gid="34"/>
   <tile gid="34"/>
   <tile gid="34"/>
   <tile gid="34"/>
   <tile gid="34"/>
   <tile gid="34"/>
   <tile gid="34"/>
   <tile gid="34"/>
   <tile gid="34"/>
   <tile gid="34"/>
   <tile gid="34"/>
   <tile gid="34"/>
   <tile gid="34"/>
   <tile gid="34"/>
   <tile gid="34"/>
   <tile gid="34"/>
   <tile gid="34"/>
   <tile gid="34"/>
   <tile gid="34"/>
   <tile gid="34"/>
   <tile gid="34"/>
   <tile gid="34"/>
   <tile gid="34"/>
   <tile gid="34"/>
   <tile gid="34"/>
   <tile gid="34"/>
   <tile gid="34"/>
   <tile gid="34"/>
   <tile gid="34"/>
   <tile gid="30"/>
   <tile gid="30"/>
   <tile gid="30"/>
   <tile gid="30"/>
   <tile gid="30"/>
   <tile gid="30"/>
   <tile gid="30"/>
   <tile gid="30"/>
   <tile gid="30"/>
   <tile gid="30"/>
   <tile gid="30"/>
   <tile gid="30"/>
   <tile gid="30"/>
   <tile gid="30"/>
   <tile gid="30"/>
   <tile gid="30"/>
   <tile gid="30"/>
   <tile gid="30"/>
   <tile gid="30"/>
   <tile gid="30"/>
   <tile gid="30"/>
   <tile gid="30"/>
   <tile gid="30"/>
   <tile gid="30"/>
   <tile gid="34"/>
   <tile gid="34"/>
   <tile gid="34"/>
   <tile gid="34"/>
   <tile gid="34"/>
   <tile gid="34"/>
   <tile gid="30"/>
   <tile gid="30"/>
   <tile gid="30"/>
   <tile gid="30"/>
   <tile gid="30"/>
   <tile gid="30"/>
   <tile gid="30"/>
   <tile gid="30"/>
   <tile gid="30"/>
   <tile gid="30"/>
   <tile gid="30"/>
   <tile gid="30"/>
   <tile gid="30"/>
   <tile gid="30"/>
   <tile gid="30"/>
   <tile gid="30"/>
   <tile gid="30"/>
   <tile gid="30"/>
   <tile gid="30"/>
   <tile gid="30"/>
   <tile gid="30"/>
   <tile gid="30"/>
   <tile gid="30"/>
   <tile gid="30"/>
   <tile gid="30"/>
   <tile gid="30"/>
   <tile gid="30"/>
   <tile gid="30"/>
   <tile gid="30"/>
   <tile gid="30"/>
   <tile gid="30"/>
   <tile gid="30"/>
   <tile gid="30"/>
   <tile gid="30"/>
   <tile gid="30"/>
   <tile gid="30"/>
   <tile gid="30"/>
   <tile gid="30"/>
   <tile gid="30"/>
   <tile gid="30"/>
   <tile gid="30"/>
   <tile gid="30"/>
   <tile gid="30"/>
   <tile gid="30"/>
   <tile gid="30"/>
   <tile gid="30"/>
   <tile gid="30"/>
   <tile gid="30"/>
   <tile gid="30"/>
   <tile gid="30"/>
   <tile gid="34"/>
   <tile gid="34"/>
   <tile gid="34"/>
   <tile gid="30"/>
   <tile gid="30"/>
   <tile gid="30"/>
   <tile gid="30"/>
   <tile gid="30"/>
   <tile gid="30"/>
   <tile gid="30"/>
   <tile gid="30"/>
   <tile gid="30"/>
   <tile gid="30"/>
   <tile gid="30"/>
   <tile gid="30"/>
   <tile gid="30"/>
   <tile gid="30"/>
   <tile gid="30"/>
   <tile gid="30"/>
   <tile gid="30"/>
   <tile gid="30"/>
   <tile gid="30"/>
   <tile gid="30"/>
   <tile gid="30"/>
   <tile gid="30"/>
   <tile gid="30"/>
   <tile gid="30"/>
   <tile gid="30"/>
   <tile gid="30"/>
   <tile gid="30"/>
   <tile gid="30"/>
   <tile gid="30"/>
   <tile gid="30"/>
   <tile gid="30"/>
   <tile gid="30"/>
   <tile gid="30"/>
   <tile gid="30"/>
   <tile gid="30"/>
   <tile gid="30"/>
   <tile gid="30"/>
   <tile gid="30"/>
   <tile gid="30"/>
   <tile gid="34"/>
   <tile gid="34"/>
   <tile gid="34"/>
   <tile gid="30"/>
   <tile gid="30"/>
   <tile gid="30"/>
   <tile gid="30"/>
   <tile gid="30"/>
   <tile gid="30"/>
   <tile gid="30"/>
   <tile gid="30"/>
   <tile gid="30"/>
   <tile gid="30"/>
   <tile gid="30"/>
   <tile gid="30"/>
   <tile gid="30"/>
   <tile gid="30"/>
   <tile gid="30"/>
   <tile gid="30"/>
   <tile gid="30"/>
   <tile gid="30"/>
   <tile gid="30"/>
   <tile gid="30"/>
   <tile gid="30"/>
   <tile gid="30"/>
   <tile gid="30"/>
   <tile gid="30"/>
   <tile gid="34"/>
   <tile gid="34"/>
   <tile gid="34"/>
   <tile gid="34"/>
   <tile gid="34"/>
   <tile gid="34"/>
   <tile gid="30"/>
   <tile gid="30"/>
   <tile gid="30"/>
   <tile gid="30"/>
   <tile gid="30"/>
   <tile gid="30"/>
   <tile gid="30"/>
   <tile gid="30"/>
   <tile gid="30"/>
   <tile gid="30"/>
   <tile gid="30"/>
   <tile gid="30"/>
   <tile gid="30"/>
   <tile gid="30"/>
   <tile gid="30"/>
   <tile gid="30"/>
   <tile gid="30"/>
   <tile gid="30"/>
   <tile gid="30"/>
   <tile gid="30"/>
   <tile gid="30"/>
   <tile gid="30"/>
   <tile gid="30"/>
   <tile gid="30"/>
   <tile gid="30"/>
   <tile gid="30"/>
   <tile gid="30"/>
   <tile gid="30"/>
   <tile gid="30"/>
   <tile gid="30"/>
   <tile gid="30"/>
   <tile gid="30"/>
   <tile gid="30"/>
   <tile gid="30"/>
   <tile gid="30"/>
   <tile gid="30"/>
   <tile gid="30"/>
   <tile gid="30"/>
   <tile gid="30"/>
   <tile gid="30"/>
   <tile gid="30"/>
   <tile gid="30"/>
   <tile gid="30"/>
   <tile gid="30"/>
   <tile gid="30"/>
   <tile gid="30"/>
   <tile gid="30"/>
   <tile gid="30"/>
   <tile gid="30"/>
   <tile gid="30"/>
   <tile gid="34"/>
   <tile gid="34"/>
   <tile gid="34"/>
   <tile gid="30"/>
   <tile gid="30"/>
   <tile gid="30"/>
   <tile gid="30"/>
   <tile gid="30"/>
   <tile gid="30"/>
   <tile gid="30"/>
   <tile gid="30"/>
   <tile gid="30"/>
   <tile gid="30"/>
   <tile gid="30"/>
   <tile gid="30"/>
   <tile gid="30"/>
   <tile gid="30"/>
   <tile gid="30"/>
   <tile gid="30"/>
   <tile gid="30"/>
   <tile gid="30"/>
   <tile gid="30"/>
   <tile gid="30"/>
   <tile gid="30"/>
   <tile gid="30"/>
   <tile gid="30"/>
   <tile gid="30"/>
   <tile gid="30"/>
   <tile gid="30"/>
   <tile gid="30"/>
   <tile gid="30"/>
   <tile gid="30"/>
   <tile gid="30"/>
   <tile gid="30"/>
   <tile gid="30"/>
   <tile gid="30"/>
   <tile gid="30"/>
   <tile gid="30"/>
   <tile gid="30"/>
   <tile gid="30"/>
   <tile gid="30"/>
   <tile gid="30"/>
   <tile gid="34"/>
   <tile gid="34"/>
   <tile gid="34"/>
   <tile gid="30"/>
   <tile gid="30"/>
   <tile gid="30"/>
   <tile gid="30"/>
   <tile gid="30"/>
   <tile gid="30"/>
   <tile gid="30"/>
   <tile gid="30"/>
   <tile gid="30"/>
   <tile gid="30"/>
   <tile gid="30"/>
   <tile gid="30"/>
   <tile gid="30"/>
   <tile gid="30"/>
   <tile gid="30"/>
   <tile gid="30"/>
   <tile gid="30"/>
   <tile gid="30"/>
   <tile gid="30"/>
   <tile gid="30"/>
   <tile gid="30"/>
   <tile gid="30"/>
   <tile gid="30"/>
   <tile gid="30"/>
   <tile gid="34"/>
   <tile gid="34"/>
   <tile gid="34"/>
   <tile gid="34"/>
   <tile gid="34"/>
   <tile gid="34"/>
   <tile gid="30"/>
   <tile gid="30"/>
   <tile gid="30"/>
   <tile gid="30"/>
   <tile gid="30"/>
   <tile gid="30"/>
   <tile gid="30"/>
   <tile gid="30"/>
   <tile gid="30"/>
   <tile gid="30"/>
   <tile gid="30"/>
   <tile gid="30"/>
   <tile gid="30"/>
   <tile gid="30"/>
   <tile gid="30"/>
   <tile gid="30"/>
   <tile gid="30"/>
   <tile gid="30"/>
   <tile gid="30"/>
   <tile gid="30"/>
   <tile gid="30"/>
   <tile gid="30"/>
   <tile gid="30"/>
   <tile gid="30"/>
   <tile gid="30"/>
   <tile gid="30"/>
   <tile gid="30"/>
   <tile gid="30"/>
   <tile gid="30"/>
   <tile gid="30"/>
   <tile gid="30"/>
   <tile gid="30"/>
   <tile gid="30"/>
   <tile gid="30"/>
   <tile gid="30"/>
   <tile gid="30"/>
   <tile gid="30"/>
   <tile gid="30"/>
   <tile gid="30"/>
   <tile gid="30"/>
   <tile gid="30"/>
   <tile gid="30"/>
   <tile gid="30"/>
   <tile gid="30"/>
   <tile gid="30"/>
   <tile gid="30"/>
   <tile gid="30"/>
   <tile gid="30"/>
   <tile gid="30"/>
   <tile gid="30"/>
   <tile gid="34"/>
   <tile gid="34"/>
   <tile gid="34"/>
   <tile gid="30"/>
   <tile gid="30"/>
   <tile gid="30"/>
   <tile gid="30"/>
   <tile gid="30"/>
   <tile gid="30"/>
   <tile gid="30"/>
   <tile gid="30"/>
   <tile gid="30"/>
   <tile gid="30"/>
   <tile gid="30"/>
   <tile gid="30"/>
   <tile gid="30"/>
   <tile gid="30"/>
   <tile gid="30"/>
   <tile gid="30"/>
   <tile gid="30"/>
   <tile gid="30"/>
   <tile gid="30"/>
   <tile gid="30"/>
   <tile gid="30"/>
   <tile gid="30"/>
   <tile gid="30"/>
   <tile gid="30"/>
   <tile gid="30"/>
   <tile gid="30"/>
   <tile gid="30"/>
   <tile gid="30"/>
   <tile gid="30"/>
   <tile gid="30"/>
   <tile gid="30"/>
   <tile gid="30"/>
   <tile gid="30"/>
   <tile gid="30"/>
   <tile gid="30"/>
   <tile gid="30"/>
   <tile gid="30"/>
   <tile gid="30"/>
   <tile gid="30"/>
   <tile gid="34"/>
   <tile gid="34"/>
   <tile gid="34"/>
   <tile gid="30"/>
   <tile gid="30"/>
   <tile gid="30"/>
   <tile gid="30"/>
   <tile gid="30"/>
   <tile gid="30"/>
   <tile gid="30"/>
   <tile gid="30"/>
   <tile gid="30"/>
   <tile gid="30"/>
   <tile gid="30"/>
   <tile gid="30"/>
   <tile gid="30"/>
   <tile gid="30"/>
   <tile gid="30"/>
   <tile gid="30"/>
   <tile gid="30"/>
   <tile gid="30"/>
   <tile gid="30"/>
   <tile gid="30"/>
   <tile gid="30"/>
   <tile gid="30"/>
   <tile gid="30"/>
   <tile gid="30"/>
   <tile gid="34"/>
   <tile gid="34"/>
   <tile gid="34"/>
   <tile gid="34"/>
   <tile gid="34"/>
   <tile gid="34"/>
   <tile gid="30"/>
   <tile gid="30"/>
   <tile gid="30"/>
   <tile gid="30"/>
   <tile gid="30"/>
   <tile gid="30"/>
   <tile gid="30"/>
   <tile gid="30"/>
   <tile gid="30"/>
   <tile gid="30"/>
   <tile gid="30"/>
   <tile gid="30"/>
   <tile gid="30"/>
   <tile gid="30"/>
   <tile gid="30"/>
   <tile gid="30"/>
   <tile gid="30"/>
   <tile gid="30"/>
   <tile gid="30"/>
   <tile gid="30"/>
   <tile gid="30"/>
   <tile gid="30"/>
   <tile gid="30"/>
   <tile gid="30"/>
   <tile gid="30"/>
   <tile gid="30"/>
   <tile gid="30"/>
   <tile gid="30"/>
   <tile gid="30"/>
   <tile gid="30"/>
   <tile gid="30"/>
   <tile gid="30"/>
   <tile gid="30"/>
   <tile gid="30"/>
   <tile gid="30"/>
   <tile gid="30"/>
   <tile gid="30"/>
   <tile gid="30"/>
   <tile gid="30"/>
   <tile gid="30"/>
   <tile gid="30"/>
   <tile gid="30"/>
   <tile gid="30"/>
   <tile gid="30"/>
   <tile gid="30"/>
   <tile gid="30"/>
   <tile gid="30"/>
   <tile gid="30"/>
   <tile gid="30"/>
   <tile gid="30"/>
   <tile gid="34"/>
   <tile gid="34"/>
   <tile gid="34"/>
   <tile gid="30"/>
   <tile gid="30"/>
   <tile gid="30"/>
   <tile gid="30"/>
   <tile gid="30"/>
   <tile gid="30"/>
   <tile gid="30"/>
   <tile gid="30"/>
   <tile gid="30"/>
   <tile gid="30"/>
   <tile gid="30"/>
   <tile gid="30"/>
   <tile gid="30"/>
   <tile gid="30"/>
   <tile gid="30"/>
   <tile gid="30"/>
   <tile gid="30"/>
   <tile gid="30"/>
   <tile gid="30"/>
   <tile gid="30"/>
   <tile gid="30"/>
   <tile gid="30"/>
   <tile gid="30"/>
   <tile gid="30"/>
   <tile gid="30"/>
   <tile gid="30"/>
   <tile gid="30"/>
   <tile gid="30"/>
   <tile gid="30"/>
   <tile gid="30"/>
   <tile gid="30"/>
   <tile gid="30"/>
   <tile gid="30"/>
   <tile gid="30"/>
   <tile gid="30"/>
   <tile gid="30"/>
   <tile gid="30"/>
   <tile gid="30"/>
   <tile gid="30"/>
   <tile gid="34"/>
   <tile gid="34"/>
   <tile gid="34"/>
   <tile gid="30"/>
   <tile gid="30"/>
   <tile gid="30"/>
   <tile gid="30"/>
   <tile gid="30"/>
   <tile gid="30"/>
   <tile gid="30"/>
   <tile gid="30"/>
   <tile gid="30"/>
   <tile gid="30"/>
   <tile gid="30"/>
   <tile gid="30"/>
   <tile gid="30"/>
   <tile gid="30"/>
   <tile gid="30"/>
   <tile gid="30"/>
   <tile gid="30"/>
   <tile gid="30"/>
   <tile gid="30"/>
   <tile gid="30"/>
   <tile gid="30"/>
   <tile gid="30"/>
   <tile gid="30"/>
   <tile gid="30"/>
   <tile gid="34"/>
   <tile gid="34"/>
   <tile gid="34"/>
   <tile gid="34"/>
   <tile gid="34"/>
   <tile gid="34"/>
   <tile gid="30"/>
   <tile gid="30"/>
   <tile gid="30"/>
   <tile gid="30"/>
   <tile gid="30"/>
   <tile gid="30"/>
   <tile gid="30"/>
   <tile gid="30"/>
   <tile gid="30"/>
   <tile gid="30"/>
   <tile gid="30"/>
   <tile gid="30"/>
   <tile gid="30"/>
   <tile gid="30"/>
   <tile gid="30"/>
   <tile gid="30"/>
   <tile gid="30"/>
   <tile gid="30"/>
   <tile gid="30"/>
   <tile gid="30"/>
   <tile gid="30"/>
   <tile gid="30"/>
   <tile gid="30"/>
   <tile gid="30"/>
   <tile gid="30"/>
   <tile gid="30"/>
   <tile gid="30"/>
   <tile gid="30"/>
   <tile gid="30"/>
   <tile gid="30"/>
   <tile gid="30"/>
   <tile gid="30"/>
   <tile gid="30"/>
   <tile gid="30"/>
   <tile gid="30"/>
   <tile gid="30"/>
   <tile gid="30"/>
   <tile gid="30"/>
   <tile gid="30"/>
   <tile gid="30"/>
   <tile gid="30"/>
   <tile gid="30"/>
   <tile gid="30"/>
   <tile gid="30"/>
   <tile gid="30"/>
   <tile gid="30"/>
   <tile gid="30"/>
   <tile gid="30"/>
   <tile gid="30"/>
   <tile gid="30"/>
   <tile gid="34"/>
   <tile gid="34"/>
   <tile gid="34"/>
   <tile gid="30"/>
   <tile gid="30"/>
   <tile gid="30"/>
   <tile gid="30"/>
   <tile gid="30"/>
   <tile gid="30"/>
   <tile gid="30"/>
   <tile gid="30"/>
   <tile gid="30"/>
   <tile gid="30"/>
   <tile gid="30"/>
   <tile gid="30"/>
   <tile gid="30"/>
   <tile gid="30"/>
   <tile gid="30"/>
   <tile gid="30"/>
   <tile gid="30"/>
   <tile gid="30"/>
   <tile gid="30"/>
   <tile gid="30"/>
   <tile gid="30"/>
   <tile gid="30"/>
   <tile gid="30"/>
   <tile gid="30"/>
   <tile gid="30"/>
   <tile gid="30"/>
   <tile gid="30"/>
   <tile gid="30"/>
   <tile gid="30"/>
   <tile gid="30"/>
   <tile gid="30"/>
   <tile gid="30"/>
   <tile gid="30"/>
   <tile gid="30"/>
   <tile gid="30"/>
   <tile gid="30"/>
   <tile gid="30"/>
   <tile gid="30"/>
   <tile gid="30"/>
   <tile gid="34"/>
   <tile gid="34"/>
   <tile gid="34"/>
   <tile gid="30"/>
   <tile gid="30"/>
   <tile gid="30"/>
   <tile gid="30"/>
   <tile gid="30"/>
   <tile gid="30"/>
   <tile gid="30"/>
   <tile gid="30"/>
   <tile gid="30"/>
   <tile gid="30"/>
   <tile gid="30"/>
   <tile gid="30"/>
   <tile gid="30"/>
   <tile gid="30"/>
   <tile gid="30"/>
   <tile gid="30"/>
   <tile gid="30"/>
   <tile gid="30"/>
   <tile gid="30"/>
   <tile gid="30"/>
   <tile gid="30"/>
   <tile gid="30"/>
   <tile gid="30"/>
   <tile gid="30"/>
   <tile gid="34"/>
   <tile gid="34"/>
   <tile gid="34"/>
   <tile gid="34"/>
   <tile gid="34"/>
   <tile gid="34"/>
   <tile gid="30"/>
   <tile gid="30"/>
   <tile gid="30"/>
   <tile gid="30"/>
   <tile gid="30"/>
   <tile gid="30"/>
   <tile gid="30"/>
   <tile gid="30"/>
   <tile gid="30"/>
   <tile gid="30"/>
   <tile gid="30"/>
   <tile gid="30"/>
   <tile gid="30"/>
   <tile gid="30"/>
   <tile gid="30"/>
   <tile gid="30"/>
   <tile gid="30"/>
   <tile gid="30"/>
   <tile gid="30"/>
   <tile gid="30"/>
   <tile gid="30"/>
   <tile gid="30"/>
   <tile gid="30"/>
   <tile gid="30"/>
   <tile gid="30"/>
   <tile gid="30"/>
   <tile gid="30"/>
   <tile gid="30"/>
   <tile gid="30"/>
   <tile gid="30"/>
   <tile gid="30"/>
   <tile gid="30"/>
   <tile gid="30"/>
   <tile gid="30"/>
   <tile gid="30"/>
   <tile gid="30"/>
   <tile gid="30"/>
   <tile gid="30"/>
   <tile gid="30"/>
   <tile gid="30"/>
   <tile gid="30"/>
   <tile gid="30"/>
   <tile gid="30"/>
   <tile gid="30"/>
   <tile gid="30"/>
   <tile gid="30"/>
   <tile gid="30"/>
   <tile gid="30"/>
   <tile gid="30"/>
   <tile gid="30"/>
   <tile gid="34"/>
   <tile gid="34"/>
   <tile gid="34"/>
   <tile gid="30"/>
   <tile gid="30"/>
   <tile gid="30"/>
   <tile gid="30"/>
   <tile gid="30"/>
   <tile gid="30"/>
   <tile gid="30"/>
   <tile gid="30"/>
   <tile gid="30"/>
   <tile gid="30"/>
   <tile gid="30"/>
   <tile gid="30"/>
   <tile gid="30"/>
   <tile gid="30"/>
   <tile gid="30"/>
   <tile gid="30"/>
   <tile gid="30"/>
   <tile gid="30"/>
   <tile gid="30"/>
   <tile gid="30"/>
   <tile gid="30"/>
   <tile gid="30"/>
   <tile gid="30"/>
   <tile gid="30"/>
   <tile gid="30"/>
   <tile gid="30"/>
   <tile gid="30"/>
   <tile gid="30"/>
   <tile gid="30"/>
   <tile gid="30"/>
   <tile gid="30"/>
   <tile gid="30"/>
   <tile gid="30"/>
   <tile gid="30"/>
   <tile gid="30"/>
   <tile gid="30"/>
   <tile gid="30"/>
   <tile gid="30"/>
   <tile gid="30"/>
   <tile gid="30"/>
   <tile gid="30"/>
   <tile gid="30"/>
   <tile gid="30"/>
   <tile gid="30"/>
   <tile gid="30"/>
   <tile gid="30"/>
   <tile gid="30"/>
   <tile gid="30"/>
   <tile gid="30"/>
   <tile gid="30"/>
   <tile gid="30"/>
   <tile gid="30"/>
   <tile gid="30"/>
   <tile gid="30"/>
   <tile gid="30"/>
   <tile gid="30"/>
   <tile gid="30"/>
   <tile gid="30"/>
   <tile gid="30"/>
   <tile gid="30"/>
   <tile gid="30"/>
   <tile gid="30"/>
   <tile gid="30"/>
   <tile gid="30"/>
   <tile gid="30"/>
   <tile gid="30"/>
   <tile gid="34"/>
   <tile gid="34"/>
   <tile gid="34"/>
   <tile gid="34"/>
   <tile gid="34"/>
   <tile gid="34"/>
   <tile gid="30"/>
   <tile gid="30"/>
   <tile gid="30"/>
   <tile gid="30"/>
   <tile gid="30"/>
   <tile gid="30"/>
   <tile gid="30"/>
   <tile gid="30"/>
   <tile gid="30"/>
   <tile gid="30"/>
   <tile gid="30"/>
   <tile gid="30"/>
   <tile gid="30"/>
   <tile gid="30"/>
   <tile gid="30"/>
   <tile gid="30"/>
   <tile gid="30"/>
   <tile gid="30"/>
   <tile gid="30"/>
   <tile gid="30"/>
   <tile gid="30"/>
   <tile gid="30"/>
   <tile gid="30"/>
   <tile gid="30"/>
   <tile gid="30"/>
   <tile gid="30"/>
   <tile gid="30"/>
   <tile gid="30"/>
   <tile gid="30"/>
   <tile gid="30"/>
   <tile gid="30"/>
   <tile gid="30"/>
   <tile gid="30"/>
   <tile gid="30"/>
   <tile gid="30"/>
   <tile gid="30"/>
   <tile gid="30"/>
   <tile gid="30"/>
   <tile gid="30"/>
   <tile gid="30"/>
   <tile gid="30"/>
   <tile gid="30"/>
   <tile gid="30"/>
   <tile gid="30"/>
   <tile gid="30"/>
   <tile gid="30"/>
   <tile gid="30"/>
   <tile gid="30"/>
   <tile gid="30"/>
   <tile gid="30"/>
   <tile gid="34"/>
   <tile gid="34"/>
   <tile gid="34"/>
   <tile gid="30"/>
   <tile gid="30"/>
   <tile gid="30"/>
   <tile gid="30"/>
   <tile gid="30"/>
   <tile gid="30"/>
   <tile gid="30"/>
   <tile gid="30"/>
   <tile gid="30"/>
   <tile gid="30"/>
   <tile gid="30"/>
   <tile gid="30"/>
   <tile gid="30"/>
   <tile gid="30"/>
   <tile gid="30"/>
   <tile gid="30"/>
   <tile gid="30"/>
   <tile gid="30"/>
   <tile gid="30"/>
   <tile gid="30"/>
   <tile gid="30"/>
   <tile gid="30"/>
   <tile gid="30"/>
   <tile gid="30"/>
   <tile gid="30"/>
   <tile gid="30"/>
   <tile gid="30"/>
   <tile gid="30"/>
   <tile gid="30"/>
   <tile gid="30"/>
   <tile gid="30"/>
   <tile gid="30"/>
   <tile gid="30"/>
   <tile gid="30"/>
   <tile gid="30"/>
   <tile gid="30"/>
   <tile gid="30"/>
   <tile gid="30"/>
   <tile gid="30"/>
   <tile gid="30"/>
   <tile gid="30"/>
   <tile gid="30"/>
   <tile gid="30"/>
   <tile gid="30"/>
   <tile gid="30"/>
   <tile gid="30"/>
   <tile gid="30"/>
   <tile gid="30"/>
   <tile gid="30"/>
   <tile gid="30"/>
   <tile gid="30"/>
   <tile gid="30"/>
   <tile gid="30"/>
   <tile gid="30"/>
   <tile gid="30"/>
   <tile gid="30"/>
   <tile gid="30"/>
   <tile gid="30"/>
   <tile gid="30"/>
   <tile gid="30"/>
   <tile gid="30"/>
   <tile gid="30"/>
   <tile gid="30"/>
   <tile gid="30"/>
   <tile gid="30"/>
   <tile gid="30"/>
   <tile gid="34"/>
   <tile gid="34"/>
   <tile gid="34"/>
   <tile gid="34"/>
   <tile gid="34"/>
   <tile gid="34"/>
   <tile gid="30"/>
   <tile gid="30"/>
   <tile gid="30"/>
   <tile gid="30"/>
   <tile gid="30"/>
   <tile gid="30"/>
   <tile gid="30"/>
   <tile gid="30"/>
   <tile gid="30"/>
   <tile gid="30"/>
   <tile gid="30"/>
   <tile gid="30"/>
   <tile gid="30"/>
   <tile gid="30"/>
   <tile gid="30"/>
   <tile gid="30"/>
   <tile gid="30"/>
   <tile gid="30"/>
   <tile gid="30"/>
   <tile gid="30"/>
   <tile gid="30"/>
   <tile gid="30"/>
   <tile gid="30"/>
   <tile gid="30"/>
   <tile gid="30"/>
   <tile gid="30"/>
   <tile gid="30"/>
   <tile gid="30"/>
   <tile gid="30"/>
   <tile gid="30"/>
   <tile gid="30"/>
   <tile gid="30"/>
   <tile gid="30"/>
   <tile gid="30"/>
   <tile gid="30"/>
   <tile gid="30"/>
   <tile gid="30"/>
   <tile gid="30"/>
   <tile gid="30"/>
   <tile gid="30"/>
   <tile gid="30"/>
   <tile gid="30"/>
   <tile gid="30"/>
   <tile gid="30"/>
   <tile gid="30"/>
   <tile gid="30"/>
   <tile gid="30"/>
   <tile gid="30"/>
   <tile gid="30"/>
   <tile gid="30"/>
   <tile gid="34"/>
   <tile gid="34"/>
   <tile gid="34"/>
   <tile gid="30"/>
   <tile gid="30"/>
   <tile gid="30"/>
   <tile gid="30"/>
   <tile gid="30"/>
   <tile gid="30"/>
   <tile gid="30"/>
   <tile gid="30"/>
   <tile gid="30"/>
   <tile gid="30"/>
   <tile gid="30"/>
   <tile gid="30"/>
   <tile gid="30"/>
   <tile gid="30"/>
   <tile gid="30"/>
   <tile gid="30"/>
   <tile gid="30"/>
   <tile gid="30"/>
   <tile gid="30"/>
   <tile gid="30"/>
   <tile gid="30"/>
   <tile gid="30"/>
   <tile gid="30"/>
   <tile gid="30"/>
   <tile gid="30"/>
   <tile gid="30"/>
   <tile gid="30"/>
   <tile gid="30"/>
   <tile gid="30"/>
   <tile gid="30"/>
   <tile gid="30"/>
   <tile gid="30"/>
   <tile gid="30"/>
   <tile gid="30"/>
   <tile gid="30"/>
   <tile gid="30"/>
   <tile gid="30"/>
   <tile gid="30"/>
   <tile gid="30"/>
   <tile gid="30"/>
   <tile gid="30"/>
   <tile gid="30"/>
   <tile gid="30"/>
   <tile gid="30"/>
   <tile gid="30"/>
   <tile gid="30"/>
   <tile gid="30"/>
   <tile gid="30"/>
   <tile gid="30"/>
   <tile gid="30"/>
   <tile gid="30"/>
   <tile gid="30"/>
   <tile gid="30"/>
   <tile gid="30"/>
   <tile gid="30"/>
   <tile gid="30"/>
   <tile gid="30"/>
   <tile gid="30"/>
   <tile gid="30"/>
   <tile gid="30"/>
   <tile gid="30"/>
   <tile gid="30"/>
   <tile gid="30"/>
   <tile gid="30"/>
   <tile gid="30"/>
   <tile gid="30"/>
   <tile gid="34"/>
   <tile gid="34"/>
   <tile gid="34"/>
   <tile gid="34"/>
   <tile gid="34"/>
   <tile gid="34"/>
   <tile gid="30"/>
   <tile gid="30"/>
   <tile gid="30"/>
   <tile gid="30"/>
   <tile gid="30"/>
   <tile gid="30"/>
   <tile gid="30"/>
   <tile gid="30"/>
   <tile gid="30"/>
   <tile gid="30"/>
   <tile gid="30"/>
   <tile gid="30"/>
   <tile gid="30"/>
   <tile gid="30"/>
   <tile gid="30"/>
   <tile gid="30"/>
   <tile gid="30"/>
   <tile gid="30"/>
   <tile gid="30"/>
   <tile gid="30"/>
   <tile gid="30"/>
   <tile gid="30"/>
   <tile gid="30"/>
   <tile gid="30"/>
   <tile gid="30"/>
   <tile gid="30"/>
   <tile gid="30"/>
   <tile gid="30"/>
   <tile gid="30"/>
   <tile gid="30"/>
   <tile gid="30"/>
   <tile gid="30"/>
   <tile gid="30"/>
   <tile gid="30"/>
   <tile gid="30"/>
   <tile gid="30"/>
   <tile gid="30"/>
   <tile gid="30"/>
   <tile gid="30"/>
   <tile gid="30"/>
   <tile gid="30"/>
   <tile gid="30"/>
   <tile gid="30"/>
   <tile gid="30"/>
   <tile gid="30"/>
   <tile gid="30"/>
   <tile gid="30"/>
   <tile gid="30"/>
   <tile gid="30"/>
   <tile gid="30"/>
   <tile gid="34"/>
   <tile gid="34"/>
   <tile gid="34"/>
   <tile gid="30"/>
   <tile gid="30"/>
   <tile gid="30"/>
   <tile gid="30"/>
   <tile gid="30"/>
   <tile gid="30"/>
   <tile gid="30"/>
   <tile gid="30"/>
   <tile gid="30"/>
   <tile gid="30"/>
   <tile gid="30"/>
   <tile gid="30"/>
   <tile gid="30"/>
   <tile gid="30"/>
   <tile gid="30"/>
   <tile gid="30"/>
   <tile gid="30"/>
   <tile gid="30"/>
   <tile gid="30"/>
   <tile gid="30"/>
   <tile gid="30"/>
   <tile gid="30"/>
   <tile gid="30"/>
   <tile gid="30"/>
   <tile gid="30"/>
   <tile gid="30"/>
   <tile gid="30"/>
   <tile gid="30"/>
   <tile gid="30"/>
   <tile gid="30"/>
   <tile gid="30"/>
   <tile gid="30"/>
   <tile gid="30"/>
   <tile gid="30"/>
   <tile gid="30"/>
   <tile gid="30"/>
   <tile gid="30"/>
   <tile gid="30"/>
   <tile gid="30"/>
   <tile gid="34"/>
   <tile gid="34"/>
   <tile gid="34"/>
   <tile gid="30"/>
   <tile gid="30"/>
   <tile gid="30"/>
   <tile gid="30"/>
   <tile gid="30"/>
   <tile gid="30"/>
   <tile gid="30"/>
   <tile gid="30"/>
   <tile gid="30"/>
   <tile gid="30"/>
   <tile gid="30"/>
   <tile gid="30"/>
   <tile gid="30"/>
   <tile gid="30"/>
   <tile gid="30"/>
   <tile gid="30"/>
   <tile gid="30"/>
   <tile gid="30"/>
   <tile gid="30"/>
   <tile gid="30"/>
   <tile gid="30"/>
   <tile gid="30"/>
   <tile gid="30"/>
   <tile gid="30"/>
   <tile gid="34"/>
   <tile gid="34"/>
   <tile gid="34"/>
   <tile gid="34"/>
   <tile gid="34"/>
   <tile gid="34"/>
   <tile gid="30"/>
   <tile gid="30"/>
   <tile gid="30"/>
   <tile gid="30"/>
   <tile gid="30"/>
   <tile gid="30"/>
   <tile gid="30"/>
   <tile gid="30"/>
   <tile gid="30"/>
   <tile gid="30"/>
   <tile gid="30"/>
   <tile gid="30"/>
   <tile gid="30"/>
   <tile gid="30"/>
   <tile gid="30"/>
   <tile gid="30"/>
   <tile gid="30"/>
   <tile gid="30"/>
   <tile gid="30"/>
   <tile gid="30"/>
   <tile gid="30"/>
   <tile gid="30"/>
   <tile gid="30"/>
   <tile gid="30"/>
   <tile gid="30"/>
   <tile gid="30"/>
   <tile gid="30"/>
   <tile gid="30"/>
   <tile gid="30"/>
   <tile gid="30"/>
   <tile gid="30"/>
   <tile gid="30"/>
   <tile gid="30"/>
   <tile gid="30"/>
   <tile gid="30"/>
   <tile gid="30"/>
   <tile gid="30"/>
   <tile gid="30"/>
   <tile gid="30"/>
   <tile gid="30"/>
   <tile gid="30"/>
   <tile gid="30"/>
   <tile gid="30"/>
   <tile gid="30"/>
   <tile gid="30"/>
   <tile gid="30"/>
   <tile gid="30"/>
   <tile gid="30"/>
   <tile gid="30"/>
   <tile gid="30"/>
   <tile gid="34"/>
   <tile gid="34"/>
   <tile gid="34"/>
   <tile gid="30"/>
   <tile gid="30"/>
   <tile gid="30"/>
   <tile gid="30"/>
   <tile gid="30"/>
   <tile gid="30"/>
   <tile gid="30"/>
   <tile gid="30"/>
   <tile gid="30"/>
   <tile gid="30"/>
   <tile gid="30"/>
   <tile gid="30"/>
   <tile gid="30"/>
   <tile gid="30"/>
   <tile gid="30"/>
   <tile gid="30"/>
   <tile gid="30"/>
   <tile gid="30"/>
   <tile gid="30"/>
   <tile gid="30"/>
   <tile gid="30"/>
   <tile gid="30"/>
   <tile gid="30"/>
   <tile gid="30"/>
   <tile gid="30"/>
   <tile gid="30"/>
   <tile gid="30"/>
   <tile gid="30"/>
   <tile gid="30"/>
   <tile gid="30"/>
   <tile gid="30"/>
   <tile gid="30"/>
   <tile gid="30"/>
   <tile gid="30"/>
   <tile gid="30"/>
   <tile gid="30"/>
   <tile gid="30"/>
   <tile gid="30"/>
   <tile gid="30"/>
   <tile gid="34"/>
   <tile gid="34"/>
   <tile gid="34"/>
   <tile gid="30"/>
   <tile gid="30"/>
   <tile gid="30"/>
   <tile gid="30"/>
   <tile gid="30"/>
   <tile gid="30"/>
   <tile gid="30"/>
   <tile gid="30"/>
   <tile gid="30"/>
   <tile gid="30"/>
   <tile gid="30"/>
   <tile gid="30"/>
   <tile gid="30"/>
   <tile gid="30"/>
   <tile gid="30"/>
   <tile gid="30"/>
   <tile gid="30"/>
   <tile gid="30"/>
   <tile gid="30"/>
   <tile gid="30"/>
   <tile gid="30"/>
   <tile gid="30"/>
   <tile gid="30"/>
   <tile gid="30"/>
   <tile gid="34"/>
   <tile gid="34"/>
   <tile gid="34"/>
   <tile gid="34"/>
   <tile gid="34"/>
   <tile gid="34"/>
   <tile gid="30"/>
   <tile gid="30"/>
   <tile gid="30"/>
   <tile gid="30"/>
   <tile gid="30"/>
   <tile gid="30"/>
   <tile gid="30"/>
   <tile gid="30"/>
   <tile gid="30"/>
   <tile gid="30"/>
   <tile gid="30"/>
   <tile gid="30"/>
   <tile gid="30"/>
   <tile gid="30"/>
   <tile gid="30"/>
   <tile gid="30"/>
   <tile gid="30"/>
   <tile gid="30"/>
   <tile gid="30"/>
   <tile gid="30"/>
   <tile gid="30"/>
   <tile gid="30"/>
   <tile gid="30"/>
   <tile gid="30"/>
   <tile gid="30"/>
   <tile gid="30"/>
   <tile gid="30"/>
   <tile gid="30"/>
   <tile gid="30"/>
   <tile gid="30"/>
   <tile gid="30"/>
   <tile gid="30"/>
   <tile gid="30"/>
   <tile gid="30"/>
   <tile gid="30"/>
   <tile gid="30"/>
   <tile gid="30"/>
   <tile gid="30"/>
   <tile gid="30"/>
   <tile gid="30"/>
   <tile gid="30"/>
   <tile gid="30"/>
   <tile gid="30"/>
   <tile gid="30"/>
   <tile gid="30"/>
   <tile gid="30"/>
   <tile gid="30"/>
   <tile gid="30"/>
   <tile gid="30"/>
   <tile gid="30"/>
   <tile gid="34"/>
   <tile gid="34"/>
   <tile gid="34"/>
   <tile gid="30"/>
   <tile gid="30"/>
   <tile gid="30"/>
   <tile gid="30"/>
   <tile gid="30"/>
   <tile gid="30"/>
   <tile gid="30"/>
   <tile gid="30"/>
   <tile gid="30"/>
   <tile gid="30"/>
   <tile gid="30"/>
   <tile gid="30"/>
   <tile gid="30"/>
   <tile gid="30"/>
   <tile gid="30"/>
   <tile gid="30"/>
   <tile gid="30"/>
   <tile gid="30"/>
   <tile gid="30"/>
   <tile gid="30"/>
   <tile gid="30"/>
   <tile gid="30"/>
   <tile gid="30"/>
   <tile gid="30"/>
   <tile gid="30"/>
   <tile gid="30"/>
   <tile gid="30"/>
   <tile gid="30"/>
   <tile gid="30"/>
   <tile gid="30"/>
   <tile gid="30"/>
   <tile gid="30"/>
   <tile gid="30"/>
   <tile gid="30"/>
   <tile gid="30"/>
   <tile gid="30"/>
   <tile gid="30"/>
   <tile gid="30"/>
   <tile gid="30"/>
   <tile gid="34"/>
   <tile gid="34"/>
   <tile gid="34"/>
   <tile gid="30"/>
   <tile gid="30"/>
   <tile gid="30"/>
   <tile gid="30"/>
   <tile gid="30"/>
   <tile gid="30"/>
   <tile gid="30"/>
   <tile gid="30"/>
   <tile gid="30"/>
   <tile gid="30"/>
   <tile gid="30"/>
   <tile gid="30"/>
   <tile gid="30"/>
   <tile gid="30"/>
   <tile gid="30"/>
   <tile gid="30"/>
   <tile gid="30"/>
   <tile gid="30"/>
   <tile gid="30"/>
   <tile gid="30"/>
   <tile gid="30"/>
   <tile gid="30"/>
   <tile gid="30"/>
   <tile gid="30"/>
   <tile gid="34"/>
   <tile gid="34"/>
   <tile gid="34"/>
   <tile gid="34"/>
   <tile gid="34"/>
   <tile gid="34"/>
   <tile gid="30"/>
   <tile gid="30"/>
   <tile gid="30"/>
   <tile gid="30"/>
   <tile gid="30"/>
   <tile gid="30"/>
   <tile gid="30"/>
   <tile gid="30"/>
   <tile gid="30"/>
   <tile gid="30"/>
   <tile gid="30"/>
   <tile gid="30"/>
   <tile gid="30"/>
   <tile gid="30"/>
   <tile gid="30"/>
   <tile gid="30"/>
   <tile gid="30"/>
   <tile gid="30"/>
   <tile gid="30"/>
   <tile gid="30"/>
   <tile gid="30"/>
   <tile gid="30"/>
   <tile gid="30"/>
   <tile gid="30"/>
   <tile gid="30"/>
   <tile gid="30"/>
   <tile gid="30"/>
   <tile gid="30"/>
   <tile gid="30"/>
   <tile gid="30"/>
   <tile gid="30"/>
   <tile gid="30"/>
   <tile gid="30"/>
   <tile gid="30"/>
   <tile gid="30"/>
   <tile gid="30"/>
   <tile gid="30"/>
   <tile gid="30"/>
   <tile gid="30"/>
   <tile gid="30"/>
   <tile gid="30"/>
   <tile gid="30"/>
   <tile gid="30"/>
   <tile gid="30"/>
   <tile gid="30"/>
   <tile gid="30"/>
   <tile gid="30"/>
   <tile gid="30"/>
   <tile gid="30"/>
   <tile gid="30"/>
   <tile gid="34"/>
   <tile gid="34"/>
   <tile gid="34"/>
   <tile gid="30"/>
   <tile gid="30"/>
   <tile gid="30"/>
   <tile gid="30"/>
   <tile gid="30"/>
   <tile gid="30"/>
   <tile gid="30"/>
   <tile gid="30"/>
   <tile gid="30"/>
   <tile gid="30"/>
   <tile gid="30"/>
   <tile gid="30"/>
   <tile gid="30"/>
   <tile gid="30"/>
   <tile gid="30"/>
   <tile gid="30"/>
   <tile gid="30"/>
   <tile gid="30"/>
   <tile gid="30"/>
   <tile gid="30"/>
   <tile gid="30"/>
   <tile gid="30"/>
   <tile gid="30"/>
   <tile gid="30"/>
   <tile gid="30"/>
   <tile gid="30"/>
   <tile gid="30"/>
   <tile gid="30"/>
   <tile gid="30"/>
   <tile gid="30"/>
   <tile gid="30"/>
   <tile gid="30"/>
   <tile gid="30"/>
   <tile gid="30"/>
   <tile gid="30"/>
   <tile gid="30"/>
   <tile gid="30"/>
   <tile gid="30"/>
   <tile gid="30"/>
   <tile gid="34"/>
   <tile gid="34"/>
   <tile gid="34"/>
   <tile gid="30"/>
   <tile gid="30"/>
   <tile gid="30"/>
   <tile gid="30"/>
   <tile gid="30"/>
   <tile gid="30"/>
   <tile gid="30"/>
   <tile gid="30"/>
   <tile gid="30"/>
   <tile gid="30"/>
   <tile gid="30"/>
   <tile gid="30"/>
   <tile gid="30"/>
   <tile gid="30"/>
   <tile gid="30"/>
   <tile gid="30"/>
   <tile gid="30"/>
   <tile gid="30"/>
   <tile gid="30"/>
   <tile gid="30"/>
   <tile gid="30"/>
   <tile gid="30"/>
   <tile gid="30"/>
   <tile gid="30"/>
   <tile gid="34"/>
   <tile gid="34"/>
   <tile gid="34"/>
   <tile gid="34"/>
   <tile gid="34"/>
   <tile gid="34"/>
   <tile gid="34"/>
   <tile gid="34"/>
   <tile gid="34"/>
   <tile gid="34"/>
   <tile gid="34"/>
   <tile gid="34"/>
   <tile gid="34"/>
   <tile gid="34"/>
   <tile gid="34"/>
   <tile gid="34"/>
   <tile gid="34"/>
   <tile gid="34"/>
   <tile gid="34"/>
   <tile gid="34"/>
   <tile gid="34"/>
   <tile gid="34"/>
   <tile gid="34"/>
   <tile gid="34"/>
   <tile gid="34"/>
   <tile gid="34"/>
   <tile gid="34"/>
   <tile gid="34"/>
   <tile gid="34"/>
   <tile gid="34"/>
   <tile gid="34"/>
   <tile gid="34"/>
   <tile gid="34"/>
   <tile gid="34"/>
   <tile gid="34"/>
   <tile gid="34"/>
   <tile gid="34"/>
   <tile gid="34"/>
   <tile gid="34"/>
   <tile gid="34"/>
   <tile gid="34"/>
   <tile gid="34"/>
   <tile gid="34"/>
   <tile gid="34"/>
   <tile gid="34"/>
   <tile gid="34"/>
   <tile gid="34"/>
   <tile gid="34"/>
   <tile gid="34"/>
   <tile gid="34"/>
   <tile gid="34"/>
   <tile gid="34"/>
   <tile gid="34"/>
   <tile gid="34"/>
   <tile gid="34"/>
   <tile gid="34"/>
   <tile gid="34"/>
   <tile gid="34"/>
   <tile gid="34"/>
   <tile gid="34"/>
   <tile gid="34"/>
   <tile gid="34"/>
   <tile gid="34"/>
   <tile gid="34"/>
   <tile gid="34"/>
   <tile gid="34"/>
   <tile gid="34"/>
   <tile gid="34"/>
   <tile gid="34"/>
   <tile gid="34"/>
   <tile gid="34"/>
   <tile gid="34"/>
   <tile gid="34"/>
   <tile gid="34"/>
   <tile gid="34"/>
   <tile gid="34"/>
   <tile gid="49"/>
   <tile gid="49"/>
   <tile gid="49"/>
   <tile gid="34"/>
   <tile gid="34"/>
   <tile gid="34"/>
   <tile gid="34"/>
   <tile gid="34"/>
   <tile gid="34"/>
   <tile gid="34"/>
   <tile gid="34"/>
   <tile gid="34"/>
   <tile gid="34"/>
   <tile gid="34"/>
   <tile gid="34"/>
   <tile gid="34"/>
   <tile gid="34"/>
   <tile gid="34"/>
   <tile gid="34"/>
   <tile gid="34"/>
   <tile gid="34"/>
   <tile gid="34"/>
   <tile gid="34"/>
   <tile gid="34"/>
   <tile gid="34"/>
   <tile gid="34"/>
   <tile gid="34"/>
   <tile gid="34"/>
   <tile gid="34"/>
   <tile gid="34"/>
   <tile gid="34"/>
   <tile gid="34"/>
   <tile gid="34"/>
   <tile gid="34"/>
   <tile gid="34"/>
   <tile gid="34"/>
   <tile gid="34"/>
   <tile gid="34"/>
   <tile gid="34"/>
   <tile gid="34"/>
   <tile gid="34"/>
   <tile gid="34"/>
   <tile gid="34"/>
   <tile gid="34"/>
   <tile gid="34"/>
   <tile gid="34"/>
   <tile gid="34"/>
   <tile gid="34"/>
   <tile gid="34"/>
   <tile gid="34"/>
   <tile gid="34"/>
   <tile gid="34"/>
   <tile gid="34"/>
   <tile gid="34"/>
   <tile gid="34"/>
   <tile gid="34"/>
   <tile gid="34"/>
   <tile gid="34"/>
   <tile gid="34"/>
   <tile gid="34"/>
   <tile gid="34"/>
   <tile gid="34"/>
   <tile gid="34"/>
   <tile gid="34"/>
   <tile gid="34"/>
   <tile gid="34"/>
   <tile gid="34"/>
   <tile gid="34"/>
   <tile gid="34"/>
   <tile gid="34"/>
   <tile gid="34"/>
   <tile gid="34"/>
   <tile gid="34"/>
   <tile gid="34"/>
   <tile gid="34"/>
   <tile gid="34"/>
   <tile gid="34"/>
   <tile gid="34"/>
   <tile gid="34"/>
   <tile gid="34"/>
   <tile gid="34"/>
   <tile gid="34"/>
   <tile gid="34"/>
   <tile gid="34"/>
   <tile gid="34"/>
   <tile gid="34"/>
   <tile gid="34"/>
   <tile gid="34"/>
   <tile gid="34"/>
   <tile gid="34"/>
   <tile gid="34"/>
   <tile gid="34"/>
   <tile gid="34"/>
   <tile gid="34"/>
   <tile gid="34"/>
   <tile gid="34"/>
   <tile gid="34"/>
   <tile gid="34"/>
   <tile gid="34"/>
   <tile gid="34"/>
   <tile gid="34"/>
   <tile gid="34"/>
   <tile gid="34"/>
   <tile gid="34"/>
   <tile gid="34"/>
   <tile gid="34"/>
   <tile gid="34"/>
   <tile gid="34"/>
   <tile gid="34"/>
   <tile gid="34"/>
   <tile gid="34"/>
   <tile gid="34"/>
   <tile gid="34"/>
   <tile gid="34"/>
   <tile gid="34"/>
   <tile gid="34"/>
   <tile gid="34"/>
   <tile gid="34"/>
   <tile gid="34"/>
   <tile gid="34"/>
   <tile gid="34"/>
   <tile gid="34"/>
   <tile gid="34"/>
   <tile gid="34"/>
   <tile gid="34"/>
   <tile gid="34"/>
   <tile gid="34"/>
   <tile gid="34"/>
   <tile gid="34"/>
   <tile gid="34"/>
   <tile gid="34"/>
   <tile gid="34"/>
   <tile gid="34"/>
   <tile gid="34"/>
   <tile gid="34"/>
   <tile gid="34"/>
   <tile gid="34"/>
   <tile gid="34"/>
   <tile gid="34"/>
   <tile gid="34"/>
   <tile gid="34"/>
   <tile gid="34"/>
   <tile gid="34"/>
   <tile gid="34"/>
   <tile gid="34"/>
   <tile gid="34"/>
   <tile gid="34"/>
   <tile gid="34"/>
   <tile gid="34"/>
   <tile gid="34"/>
   <tile gid="34"/>
   <tile gid="34"/>
   <tile gid="34"/>
   <tile gid="34"/>
   <tile gid="34"/>
   <tile gid="34"/>
   <tile gid="34"/>
   <tile gid="34"/>
   <tile gid="34"/>
   <tile gid="34"/>
   <tile gid="34"/>
   <tile gid="34"/>
   <tile gid="34"/>
   <tile gid="34"/>
   <tile gid="34"/>
   <tile gid="34"/>
   <tile gid="34"/>
   <tile gid="34"/>
   <tile gid="34"/>
   <tile gid="34"/>
   <tile gid="34"/>
   <tile gid="34"/>
   <tile gid="34"/>
   <tile gid="34"/>
   <tile gid="34"/>
   <tile gid="34"/>
   <tile gid="34"/>
   <tile gid="34"/>
   <tile gid="34"/>
   <tile gid="34"/>
   <tile gid="34"/>
   <tile gid="34"/>
   <tile gid="34"/>
   <tile gid="34"/>
   <tile gid="34"/>
   <tile gid="34"/>
   <tile gid="34"/>
   <tile gid="34"/>
   <tile gid="34"/>
   <tile gid="34"/>
   <tile gid="34"/>
   <tile gid="34"/>
   <tile gid="34"/>
   <tile gid="34"/>
   <tile gid="34"/>
   <tile gid="34"/>
   <tile gid="34"/>
   <tile gid="34"/>
   <tile gid="34"/>
   <tile gid="34"/>
   <tile gid="34"/>
   <tile gid="34"/>
   <tile gid="34"/>
   <tile gid="34"/>
   <tile gid="34"/>
   <tile gid="34"/>
   <tile gid="34"/>
   <tile gid="34"/>
   <tile gid="34"/>
   <tile gid="34"/>
   <tile gid="34"/>
   <tile gid="34"/>
   <tile gid="34"/>
   <tile gid="34"/>
   <tile gid="34"/>
   <tile gid="34"/>
   <tile gid="34"/>
   <tile gid="34"/>
   <tile gid="34"/>
   <tile gid="34"/>
   <tile gid="34"/>
   <tile gid="34"/>
   <tile gid="34"/>
   <tile gid="34"/>
   <tile gid="34"/>
   <tile gid="34"/>
   <tile gid="34"/>
   <tile gid="34"/>
   <tile gid="34"/>
   <tile gid="34"/>
   <tile gid="34"/>
   <tile gid="34"/>
   <tile gid="34"/>
   <tile gid="34"/>
   <tile gid="34"/>
   <tile gid="34"/>
   <tile gid="34"/>
   <tile gid="34"/>
   <tile gid="34"/>
   <tile gid="34"/>
   <tile gid="34"/>
   <tile gid="34"/>
   <tile gid="34"/>
   <tile gid="34"/>
   <tile gid="34"/>
   <tile gid="34"/>
   <tile gid="34"/>
   <tile gid="34"/>
   <tile gid="34"/>
   <tile gid="34"/>
   <tile gid="34"/>
   <tile gid="34"/>
   <tile gid="34"/>
   <tile gid="34"/>
   <tile gid="34"/>
   <tile gid="34"/>
   <tile gid="34"/>
   <tile gid="34"/>
   <tile gid="34"/>
   <tile gid="34"/>
   <tile gid="34"/>
   <tile gid="34"/>
   <tile gid="34"/>
   <tile gid="34"/>
   <tile gid="34"/>
   <tile gid="34"/>
   <tile gid="34"/>
   <tile gid="34"/>
   <tile gid="34"/>
   <tile gid="34"/>
   <tile gid="34"/>
   <tile gid="34"/>
   <tile gid="34"/>
   <tile gid="34"/>
   <tile gid="34"/>
   <tile gid="34"/>
   <tile gid="34"/>
   <tile gid="34"/>
   <tile gid="34"/>
   <tile gid="34"/>
   <tile gid="34"/>
   <tile gid="34"/>
   <tile gid="34"/>
   <tile gid="34"/>
   <tile gid="34"/>
   <tile gid="34"/>
   <tile gid="34"/>
   <tile gid="34"/>
   <tile gid="34"/>
   <tile gid="34"/>
   <tile gid="34"/>
   <tile gid="34"/>
   <tile gid="34"/>
   <tile gid="34"/>
   <tile gid="34"/>
   <tile gid="34"/>
   <tile gid="34"/>
   <tile gid="34"/>
   <tile gid="34"/>
   <tile gid="34"/>
   <tile gid="34"/>
   <tile gid="34"/>
  </data>
 </layer>
 <objectgroup id="2" name="Collision">
  <object id="1" x="0" y="0" width="3584" height="96"/>
  <object id="2" x="3712" y="0" width="192" height="96"/>
  <object id="3" x="3904" y="0" width="96" height="3200"/>
  <object id="4" x="2432" y="3104" width="1472" height="96"/>
  <object id="5" x="0" y="3104" width="2336" height="96"/>
  <object id="6" x="0" y="96" width="96" height="3008"/>
  <object id="7" x="3776" y="1216" width="128" height="96"/>
  <object id="8" x="2528" y="736" width="1376" height="96"/>
  <object id="9" x="3456" y="1216" width="224" height="96"/>
  <object id="10" x="3648" y="2144" width="256" height="96"/>
  <object id="11" x="2880" y="2144" width="672" height="96"/>
  <object id="12" x="2528" y="832" width="96" height="1408"/>
  <object id="13" x="2624" y="2144" width="128" height="96"/>
  <object id="14" x="96" y="1664" width="1856" height="96"/>
  <object id="15" x="1184" y="1440" width="96" height="224"/>
  <object id="16" x="1184" y="832" width="96" height="512"/>
  <object id="17" x="1184" y="384" width="96" height="320"/>
  <object id="18" x="1184" y="96" width="96" height="192"/>
  <object id="19" x="2528" y="96" width="96" height="96"/>
  <object id="20" x="3200" y="96" width="96" height="128"/>
  <object id="21" x="3200" y="320" width="96" height="416"/>
  <object id="22" x="2528" y="288" width="96" height="448"/>
  <object id="23" x="1280" y="480" width="1248" height="96"/>
  <object id="24" x="1728" y="960" width="480" height="96"/>
  <object id="26" x="2304" y="960" width="224" height="96"/>
  <object id="27" x="1280" y="960" width="320" height="96"/>
  <object id="28" x="1856" y="1056" width="96" height="608"/>
  <object id="29" x="1696" y="2048" width="96" height="320"/>
  <object id="30" x="1696" y="1760" width="96" height="192"/>
  <object id="31" x="1792" y="2144" width="736" height="96"/>
  <object id="32" x="1696" y="2464" width="96" height="640"/>
  <object id="33" x="3040" y="2240" width="96" height="640"/>
  <object id="34" x="3040" y="2976" width="96" height="128"/>
  <object id="35" x="1792" y="2624" width="1248" height="96"/>
  <object id="36" x="2624" y="1504" width="832" height="96"/>
  <object id="37" x="3360" y="832" width="96" height="672"/>
  <object id="38" x="3584" y="32" width="128" height="32"/>
  <object id="39" x="2336" y="3136" width="96" height="32">
   <properties>
    <property name="Collision" type="bool" value="true"/>
    <property name="Draw" type="bool" value="false"/>
   </properties>
  </object>
 </objectgroup>
 <objectgroup id="3" name="Teleport">
  <object id="40" x="3584" y="64" width="128" height="32">
   <properties>
    <property name="targetMap" value="Backroom.tmx"/>
   </properties>
  </object>
  <object id="41" x="2336" y="3104" width="96" height="32">
   <properties>
    <property name="targetMap" value="FrontRoom.tmx"/>
   </properties>
  </object>
 </objectgroup>
 <objectgroup id="4" name="Checkpoints">
  <object id="42" x="2336" y="3072" width="96" height="32"/>
  <object id="43" x="3584" y="96" width="128" height="32"/>
 </objectgroup>
 <objectgroup id="5" name="Entities">
  <object id="44" name="Player" type="Player" x="3636" y="304">
   <point/>
  </object>
 </objectgroup>
 <objectgroup id="6" name="Events"/>
</map>
